/* XPM */
static char *fc56f54ab6f24ff99c94c77d268a7edaOwRK2uPwGowBJH3J[] = {
/* columns rows colors chars-per-pixel */
"360 360 256 2 ",
"   c #020103",
".  c #090106",
"X  c #06010A",
"o  c #0A020C",
"O  c #060907",
"+  c #12020D",
"@  c #14030A",
"#  c #0C0313",
"$  c #0D041A",
"%  c #0A0617",
"&  c #130414",
"*  c #1B0414",
"=  c #13051B",
"-  c #1B051B",
";  c #130A1C",
":  c #1A0A1C",
">  c #160915",
",  c #15101A",
"<  c #24071C",
"1  c #150522",
"2  c #1A0524",
"3  c #160B23",
"4  c #1A0B24",
"5  c #1B052C",
"6  c #1C0C2B",
"7  c #16082A",
"8  c #1C112C",
"9  c #191126",
"0  c #1D0533",
"q  c #1E0C33",
"w  c #1D043B",
"e  c #1E0D3A",
"r  c #150335",
"t  c #1D1233",
"y  c #0C0425",
"u  c #230924",
"i  c #230B2D",
"p  c #2C0A2D",
"a  c #290726",
"s  c #340A2D",
"d  c #37092A",
"f  c #22112D",
"g  c #251129",
"h  c #220C33",
"j  c #2B0B33",
"k  c #22053C",
"l  c #230B3C",
"z  c #290738",
"x  c #370737",
"c  c #221334",
"v  c #251339",
"b  c #39113B",
"n  c #2C213C",
"m  c #440539",
"M  c #430C32",
"N  c #1D0544",
"B  c #1C0A5B",
"V  c #12124A",
"C  c #230643",
"Z  c #2B0444",
"A  c #240B43",
"S  c #25054B",
"D  c #2B034C",
"F  c #26094A",
"G  c #290C4C",
"H  c #290C45",
"J  c #370447",
"K  c #2B1247",
"L  c #37174B",
"P  c #260353",
"I  c #2C0253",
"U  c #2A0B54",
"Y  c #25035B",
"T  c #2C015D",
"R  c #2C0B5B",
"E  c #260952",
"W  c #320253",
"Q  c #33015C",
"!  c #380759",
"~  c #2D1256",
"^  c #321452",
"/  c #381659",
"(  c #32234D",
")  c #352254",
"_  c #1C0868",
"`  c #1C0A71",
"'  c #2C0264",
"]  c #2D0B63",
"[  c #24016B",
"{  c #2C036C",
"}  c #260767",
"|  c #330164",
" . c #3B0264",
".. c #330B63",
"X. c #33016D",
"o. c #3B016B",
"O. c #350D6B",
"+. c #391368",
"@. c #2C0373",
"#. c #2D027C",
"$. c #270876",
"%. c #330273",
"&. c #32017A",
"*. c #380976",
"=. c #3A1477",
"-. c #28136A",
";. c #3C236F",
":. c #480347",
">. c #56084D",
",. c #581249",
"<. c #480358",
"1. c #53025C",
"2. c #570557",
"3. c #4B134E",
"4. c #620B52",
"5. c #440163",
"6. c #4C0164",
"7. c #43016B",
"8. c #4B016B",
"9. c #460A6A",
"0. c #540264",
"q. c #54016B",
"w. c #5B016B",
"e. c #5B0364",
"r. c #42146A",
"t. c #470778",
"y. c #580577",
"u. c #481579",
"i. c #561376",
"p. c #640369",
"a. c #670577",
"s. c #780878",
"d. c #700F70",
"f. c #4C2A79",
"g. c #494574",
"h. c #830A76",
"j. c #850F72",
"k. c #2B0385",
"l. c #3A0587",
"z. c #3B1687",
"x. c #390B95",
"c. c #3816A4",
"v. c #460988",
"b. c #560586",
"n. c #471587",
"m. c #4A0797",
"M. c #55099A",
"N. c #471697",
"B. c #541399",
"V. c #53148A",
"C. c #690488",
"Z. c #780388",
"A. c #680698",
"S. c #770698",
"D. c #701786",
"F. c #4D348C",
"G. c #4F2B90",
"H. c #5709A6",
"J. c #4A16A7",
"K. c #5814A8",
"L. c #4B16B7",
"P. c #5715B8",
"I. c #4E0BB0",
"U. c #6404B8",
"Y. c #7807B7",
"T. c #6417B8",
"R. c #6E0AA9",
"E. c #672EA3",
"W. c #59448C",
"Q. c #594594",
"!. c #725094",
"~. c #735AB2",
"^. c #7562A7",
"/. c #5F46A6",
"(. c #4B14C7",
"). c #5517C8",
"_. c #5917D5",
"`. c #4F10CC",
"'. c #6717C8",
"]. c #6617D9",
"[. c #7716D9",
"{. c #740BCD",
"}. c #6917E6",
"|. c #7716E9",
" X c #7817F2",
".X c #740EEB",
"XX c #5E1CD9",
"oX c #6D43C8",
"OX c #850488",
"+X c #880598",
"@X c #960498",
"#X c #90078C",
"$X c #8E07AF",
"%X c #A605B0",
"&X c #9325A3",
"*X c #8A4A9B",
"=X c #9353B2",
"-X c #A553B5",
";X c #876DB1",
":X c #B277BE",
">X c #870BD9",
",X c #8615DB",
"<X c #8C0BCB",
"1X c #AE0ACC",
"2X c #8715E8",
"3X c #9513E7",
"4X c #8915F2",
"5X c #9714F3",
"6X c #8E0BE6",
"7X c #A710ED",
"8X c #A92EE1",
"9X c #CC2BE6",
"0X c #8A50CE",
"qX c #B256C8",
"wX c #9271CD",
"eX c #AE6FC9",
"rX c #B16FFA",
"tX c #AD57F5",
"yX c #D075EE",
"uX c #D362E1",
"iX c #C20CB7",
"pX c #8D84D7",
"aX c #9485D7",
"sX c #A893D7",
"dX c #9D88EC",
"fX c #AE91EE",
"gX c #B2AEE6",
"hX c #ADA8DC",
"jX c #D18CDC",
"kX c #CF8BE6",
"lX c #FE9AFF",
"zX c #EC93F6",
"xX c #CDAFF3",
"cX c #FFABFF",
"vX c #FDA4FF",
"bX c #FFB8FF",
"nX c #E5ADFD",
"mX c #C0B5DF",
"MX c #C4C7FE",
"NX c #D0D8FF",
"BX c #FFC3FF",
"VX c #FECBFF",
"CX c #FED7FF",
"ZX c #E8D3FF",
"AX c #CAE2FF",
"SX c #D7EAFF",
"DX c #DDF1FF",
"FX c #FEE3FF",
"GX c #FFECFF",
"HX c #F1EEFF",
"JX c #EAF8FF",
"KX c #FEF4FF",
"LX c #F6F5FF",
"PX c #EBE8FF",
"IX c #B0BCE7",
"UX c #7E83BE",
/* pixels */
"O O O O O O O O O O O O O O O O O O O O O O o o o o o o O O O O O o o o o O O O                                 O O o o o o O O O O O O O O o o o o O O O O O O O O o o o o o o O O O O O o o o o o o o O O O O O o o o o o o o O O O O O O O O                     O O O                   O O O                   O O O                   O O O                   O O O                   O O O                   O O O                   O O O                   O O O                   O O O                   O O O                   O O O O O O O O O O O O o o o o o o O O O O O o o o o o o o O O O O O o o o o o o o O O O O O O o o o o O O O O O O O O O O O O O O             O O O O O O O O O O O O O O O O O O O O O O O O O O ",
"O                                                                                                                                                                                                                                                                                                                                                                                                                                                                                                                                                                                                                                                                                                                                             O ",
"O                                                                                                                                                                                                                                                                                                                                                                                                                                                                                                                                                                                                                                                                                                                                             O ",
"O                                                                                                                                                                                                                                                                                                                                                                                                                                                                                                                                                                                                                                                                                                                                             O ",
"O                                                                                                                                                                                                                                                                                                                                                                                                                                                                                                                                                                                                                                                                                                                                             O ",
"O                                                                                                                                                                                                                                                                                                                                                                                                                                                                                                                                                                                                                                                                                                                                             O ",
"O                                                                                                                                                                                                                                                                                                                                                                                                                                                                                                                                                                                                                                                                                                                                             O ",
"O                                                                                                                                                                                                                                                                                                                                                                                                                                                                                                                                                                                                                                                                                                                                             O ",
"O                                                                                                                                                                                                                                                                                                                                                                                                                                                                                                                                                                                                                                                                                                                                             O ",
"O                                                                                   X               X                       X               X                                                                                                                                                                                                                                                                                                                                                                                                                                                                                               X                                                                                                 O ",
"O                                                       X X X X X X X   X   X X X X X X X X X X X X X X X X X X X   X   X X X X X   X X X X X X X   X X X   X   X   X   X   X   X X X   X   X   X X X   X   X   X   X   X   X   X   X   X X X   X X X   X   X   X   X   X   X   X X X   X   X   X X X   X   X   X   X   X   X   X   X   X   X   X X X   X   X   X   X   X   X   X X X   X   X   X X X   X   X   X   X   X   X   X   X   X   X   X X X   X   X   X   X   X   X   X X X   X   X   X X X X X   X   X   X   X   X   X   X   X X X   X   X X X   X   X   X   X   X   X   X   X   X   X X X   X   X   X   X   X X X   X   X   X X X X X X X X X X X X X X X   X X X X X X X X X   X                                                 O ",
"O                                                 X X X X X X X o X o X o o o X o o o o o X o X o X o X o X o o o X o X o o o o o X o X o o o X o X o X o X o X o X o X o X o X o X o X o X o X o X o X o X o X o X o X o X o X o X o X o X o X o X o X o X o X o X o X o X o X o o o X o X o X o X o X o X o X o X o X o X o X o X o X o X o X o X o X o X o X o X o X o X o X o o o X o X o X o X o X o X o X o X o X o X o X o X o X o X o X o X o X o X o X o X o X o X o X o o o X o X o X o X o X o X o X o X o X o X o X o X o X o X o X o X o X o X o X o X o X o X o X o X o X o X o X o X o X o X o X X X X X o X o X o X o X o o o o o X o X o X o X o X o X o o o X o X o X X X o X X   X                                         O ",
"O                                           X X o X o X o o o o # o # o o o # o # o # o # o # o # o # o # o # o # o o o # o # o # o # o # o # o # o # o o o o o # o # o # o # o # o # o # o # o # o # o # o # o # o # o # o # o # o # o # o # o # o # o # o # o # o # o # o # o # o # o # o # o # # # o # o # o # o # o # o # o # o # o # o # o # o # o # o # o # o # o # o # o # o # o # o # o # o # o # o # o # o # o # o # o # o # o # o # o # o # o # o # o # o # o # o # o # o # o # o # o # o # o # o # o # o # o # o # o # o # o # o # o # o # o # o # o # o # o # o # o # o # o # o # o # o # o # o # o # o o o # o # o # o # o # o # o # o # o # o # o # o # o o o # o # o # o # o # o X X X X X                                     O ",
"O                                 X X o o o o o # # # # # # # # $ $ & $ & & & $ & $ & $ & $ & # & $ & $ & $ & & & & & $ & $ & $ & $ & $ & & & $ & $ & $ & # & & $ $ $ $ $ # $ # $ $ $ $ $ # $ # $ $ $ $ $ # $ # $ $ $ $ $ $ $ $ $ # $ # $ $ $ $ $ $ $ $ $ $ $ # $ $ $ $ # # # # $ $ # # # # # # $ $ $ $ # # $ # $ $ $ # $ $ $ $ $ $ $ $ $ $ $ $ $ $ $ $ $ # $ $ $ $ $ $ $ # # # $ $ $ # $ $ # # $ $ $ $ $ $ $ $ $ $ $ $ $ $ $ $ $ $ $ $ $ $ $ $ $ $ $ $ $ $ $ # $ $ $ $ $ # # # $ $ # # $ # # $ $ $ $ $ # # # # # # # # $ $ $ $ $ # $ # $ $ $ $ $ $ $ $ # # # $ $ $ $ $ $ # $ # $ $ $ $ $ # $ # $ $ $ $ $ # $ $ $ $ $ # $ $ $ $ $ $ & & & & & $ & $ & $ & $ & $ $ $ $ $ & & $ # # # # # # # # # # o o o o X X   X                             O ",
"O                               o o o # # # & & & & & & = = = = = = = = = = = = = = = = = = = = = = = = = = = = = = = = = = = = = = = = = = = = = ; = ; = ; = ; ; = ; = : ; : ; ; = ; = : ; : ; ; = ; = ; ; ; ; ; ; : ; ; = ; = = = = = = = ; = ; = ; = ; = = = ; = ; = ; = ; = ; = ; = ; = ; = ; = ; = = = ; = ; = ; = ; = ; = = = = = ; = ; = ; = ; = ; = ; = ; = ; = ; = ; = ; = ; = ; = ; = ; = ; = = = ; = ; = ; = ; = ; = = = = = ; = ; = ; = ; = ; = ; = ; = ; = ; = ; = ; = ; = ; = ; = ; = ; = ; = ; = ; = ; = ; = ; = = = = = = = ; = ; = ; = ; = ; = ; = ; = : ; ; ; ; = ; = : ; : ; ; = ; = ; ; : ; : ; ; ; = = ; = = = = = = = = = = = = = = = = = = = = = = = = = = = = = = = = = $ $ $ # # o o o o                             O ",
"O                               # # $ $ = = : : ; ; ; ; ; ; : : 3 3 3 3 3 3 2 3 3 3 3 3 2 3 2 3 2 3 3 3 3 3 3 3 3 3 3 2 2 3 3 3 3 : 3 : 3 : 3 : 3 3 3 3 3 3 3 3 3 : 3 : 3 : 3 : 3 : 3 : 3 : 3 3 3 3 3 3 3 3 3 3 3 3 3 3 3 3 3 3 3 3 3 3 3 3 3 3 3 3 3 3 3 3 3 3 3 3 3 3 3 3 3 3 3 3 3 3 3 3 3 3 3 3 3 3 3 3 3 3 3 3 3 3 3 3 3 3 3 ; 3 ; 3 ; 3 ; 3 ; 3 ; 3 ; 3 : 3 ; 3 ; 3 ; 3 ; 3 ; 3 ; 3 ; 3 ; 3 ; 3 ; 3 ; 3 ; 3 ; 3 ; 3 ; 3 ; 3 ; 3 ; 3 ; 3 ; 3 ; 3 ; 3 : 3 3 3 3 3 3 3 3 3 3 3 3 3 3 3 3 3 3 3 3 3 3 3 3 3 3 3 3 3 3 3 3 3 3 3 3 3 3 3 3 3 3 3 3 3 3 3 3 3 3 3 3 3 3 3 3 3 3 3 3 3 3 3 3 3 3 3 : 3 : 3 : 3 : 3 4 3 : 3 4 3 3 3 3 3 3 3 3 3 3 3 3 3 3 3 3 3 3 3 3 3 3 3 3 2 3 3 3 3 3 2 3 2 3 ; ; = = = $ o o o o   X                       O ",
"O                       X o # # # & 1 1 7 1 1 4 - : : : : 4 u 6 6 6 6 6 6 6 6 6 6 6 6 6 6 6 6 6 6 6 6 6 6 6 6 6 i 5 6 6 6 6 i 6 6 6 6 6 6 6 6 4 6 6 6 4 4 6 6 6 6 6 6 6 6 6 6 6 6 9 i g 6 9 6 6 6 6 6 6 6 6 6 6 6 6 6 6 6 6 6 6 i i i i i i i i 6 6 6 6 i i 6 6 6 6 6 6 6 6 6 6 6 6 6 6 6 6 6 6 6 6 6 6 6 6 6 6 6 6 6 6 6 6 6 6 6 6 6 6 6 6 6 6 6 6 6 6 6 6 6 6 6 6 6 6 6 6 6 6 6 6 6 6 6 6 6 6 6 6 6 6 6 6 6 6 6 6 6 6 6 6 6 6 6 6 6 6 6 6 6 6 6 6 6 6 6 6 6 6 i i i i 6 6 6 6 i i i i 6 6 6 6 6 6 6 6 6 6 6 6 6 6 6 6 6 6 6 6 6 6 6 6 i i 6 6 i i i i i i i i i 6 6 8 6 6 6 i 6 6 6 8 6 6 6 6 6 9 6 g i 8 6 9 6 6 6 6 6 6 6 6 6 6 6 6 6 6 6 6 6 6 6 6 6 6 6 6 6 i i i 5 5 5 5 5 5 5 5 5 6 6 2 : : 2 1 1 = + . . o o o o X                   o ",
"O                       o # # # # # = 1 7 r 0 5 5 u u u i h z h k h h h h h h h l h l h h h h q h h h h l h l h l h l h l h l h h h h q h h h h h h h q h h h h h h h h h h h h q q q 5 5 5 5 q 0 q 0 q 0 q 0 q 0 q 0 q 0 q 0 0 i i i i 0 0 i i h h z h h z h h h h h h h h h h h h h h h h h h h h h h h h h h h h h h h h h h h h h h h h h h h h h h h h h h h h h h h h h h h h h h h h h h h h h h h h h h h h h h h h h h h h h h h h h h h h h h h h h h h z z z h h h h h z z z h h h h h q h h h h h h h h h h h h h h h h z h h z h h i i i i i i i i 0 q 0 q 0 0 0 q 0 q 0 q 0 0 0 q 5 5 5 5 q q 5 5 h h h h h h h h h q e e e e e e e e e q e q e l l l l l l l l l k l l h h q 0 q 4 u 0 0 2 = + @ @ o # o o o                   o ",
"O                     X o # $ $ : - 2 5 0 k k k k k z C Z D P D Z Z Z Z Z Z Z Z Z Z Z Z Z Z Z Z C C C C C C C C C C C C C C C C C F S S S F S F S F S S S S S S S F F F F F S F G G G G G G G G H H H H H H H H Z H H H H H H H H H H H H H H H C C C C C C C C C C C C C C C C C C C C C C C C C C C C C C C C C C C C C C C C F F F F F F F F F F F F F F F F S S F F F F F F S S F F F F F F F F F F F F F F F F F F F F F F S F F F F F F F F F F F F F F C C C C C C C C C C C C C C C C C C C C C C C C C C C C C C C C C C C C C C C C C H H H H H H H H H H H H H H H H H H H H H H H H F G G G G G G G F F S F F F F C Z Z Z Z Z Z Z Z Z Z Z Z Z Z Z C C C C C C C S C S C C C C C C k h h C C w 7 - > + o # # % o                   o ",
"O                   X o # # = = - - 2 5 0 w C C C S D D I Y T T I D D D D D D D D D D D D D D D D S D S S S S S S S S S S S S S P P P P P P P P P P P P P P P P P P P P P P P P P P P P P P P P P S P P P P P P P P P P P P P P P P P P P P P P P P P P P P P P P P P P P P P P P P P P P P P P P P P P P P P P P P P P P P P P P P P P P P P P P P P P P P P P P P P P P P P P P P P P P P P P P P P P P P P P P P P P P P P P P P P P P P P P P P P P P P P P P P P P P P P P P P P P P P P P P P P P P P P P P P P P P P P P P P P P P P P P P P P P P P P P S S P P P P P P P S P P P P P P P P P P P P P P P P P P P P P P D D D D D D D D D D D D D D D D S S S S S S S S S S S S S S S S C C N N N r 1 = & & $ $ # #                   o ",
"O             X     o o # = 1 1 2 i z k C S P R R R Q ..| X.X.X.| Q Q Q | | | | Q Q Q Q Q Q  .| Q Q | | | | Q Q | | Q Q Q Q Q Q | | | | | | | | | | | | | | | | | | | | X.X.X.| | | | | | | | X.X.X.X.X.X.X.X.X.X.X.X.X.X.X.X.X.X.X.X.X.X.X.X.X.X.X.X.X.X.X.X.X.X.X.X.X.X.X.X.X.X.X.X.X.X.X.X.X.X.X.X.X.X.X.X.X.X.X.X.X.X.X.X.X.X.| | | | | | | | | | | | | | | | | | | | | | | | | | | | | | | | | | | | | | | | | | | | | | | | | | | | | | | | | | | | | | X.X.X.X.X.X.X.X.X.X.X.X.X.X.X.X.X.X.X.X.X.X.X.X.X.X.X.X.X.X.X.X.X.X.X.X.X.X.X.X.X.X.X.X.X.X.X.X.X.X.X.X.X.X.X.X.X.X.X.X.X.X.X.X.X.X.| | | | | | | | | | | | | | | | Q Q Q Q Q Q Q Q Q | | Q Q Q Q Q Q Q Q | | | Q | Q | Q Q Q Q Q R Y Y P P N r 1 = = $ $ $ #                   o ",
"O             X   X o # & = 1 5 k Z D D I I T ' ' ' ' | { { @.{ { ' ' ' { ' { ' ' ' ' ' ' ' ' ' | | | | | | | | X.| | | | | | | X.X.X.X.{ { X.X.X.X.X.X.X.X.X.X.X.X.X.X.X.X.X.X.X.X.X.X.X.X.X.%.%.%.%.%.%.%.%.%.%.%.%.%.%.%.%.%.%.%.%.%.%.%.%.%.@.@.@.@.@.@.@.@.%.%.%.%.%.%.%.%.%.%.%.%.%.%.%.@.@.@.@.@.@.@.@.@.@.@.@.@.@.@.@.@.{ { { { { { { { { { { { { { { { { { { { { { { { { { { { { { { { { { { { { { { { { { { { { { { { { { { { { { { { { { { { { { { { { @.@.@.@.@.@.@.@.@.@.@.@.@.@.@.%.%.%.%.%.%.%.%.%.%.%.%.%.%.%.%.@.@.@.@.@.@.@.@.%.%.%.%.%.%.%.%.%.%.%.%.%.%.%.%.%.%.%.%.%.%.%.%.%.X.X.X.X.X.X.X.X.X.X.X.X.X.X.{ { ' ' ' ' ' ' ' { ' { { { ' { ' | | | | X.| | | | | | | | | X.' ' Y Y Y Y P N w 2 1 1 = $ #                   o ",
"O             X   X o # = 1 5 0 S P Y ' { %.@.{ @.@.@.{ { @.@.@.@.@.@.@.@.@.@.@.@.@.@.@.@.@.@.@.@.@.@.@.@.@.@.@.@.%.@.%.@.@.@.@.@.@.@.@.@.@.@.{ { @.@.@.@.@.@.@.@.@.{ { @.@.@.@.{ { { { { { { { { [ { [ { [ { [ { [ { [ { [ { [ { [ [ [ [ [ [ [ @.{ @.{ @.{ @.{ @.{ @.{ @.{ @.{ @.{ @.{ @.{ @.{ @.{ @.{ { { @.{ @.{ @.{ @.{ @.@.@.@.@.@.@.@.@.@.{ @.@.@.@.@.@.@.@.@.{ @.@.@.@.@.@.@.{ @.@.@.@.@.@.@.@.@.@.@.@.@.@.@.@.@.@.@.@.@.@.@.@.@.@.@.@.@.@.@.@.@.@.@.@.@.@.{ { { @.{ @.{ @.{ { { @.{ @.{ @.{ @.{ { { @.{ @.{ @.{ @.{ @.{ @.{ @.{ @.{ @.{ [ [ [ [ [ [ [ [ { { { [ { [ { [ { [ { [ { { { { { { { { { { { { @.@.@.@.@.@.@.@.@.@.$.$.$.$.$.$.$.@.$.$.$.$.$.@.@.@.@.@.@.@.@.@.%.@.%.%.%.%.%.@.[ { { } Y N N w 0 1 1 1 $ # .                 o ",
"O             X   X o & = 2 5 w P Y ' =.V.G.G.G.G.G.G.G.G.G.G.G.G.G.G.G.G.G.G.G.G.G.G.G.G.G.G.G.G.G.G.G.G.G.G.G.G.G.G.G.G.G.G.G.F.F.F.F.F.F.F.F.F.F.F.F.F.F.F.F.F.F.F.F.F.F.F.F.F.F.F.F.F.F.F.F.F.F.F.F.F.F.F.F.F.F.F.F.F.F.F.F.F.F.F.F.F.F.F.F.F.F.F.F.F.F.F.F.F.F.F.F.F.F.F.F.F.F.F.F.F.F.F.F.F.F.F.F.F.F.F.F.F.F.F.F.F.F.F.F.F.F.F.F.F.F.F.F.F.F.F.F.F.F.F.F.F.F.F.F.F.F.F.F.F.F.F.F.F.F.F.F.F.F.F.F.F.F.F.F.F.F.F.F.F.F.F.F.F.F.F.F.F.F.F.F.F.F.F.F.F.F.F.F.F.F.F.F.F.F.F.F.F.F.F.F.F.F.F.F.F.F.F.F.F.F.F.F.F.F.F.F.F.F.F.F.F.F.F.F.F.F.F.F.F.F.F.F.F.F.F.F.F.F.F.F.F.F.F.F.F.F.F.F.F.F.F.F.F.F.F.F.F.F.F.F.F.F.F.F.F.F.F.F.F.F.F.F.F.G.G.G.F.F.F.F.F.F.G.G.G.G.G.G.G.G.G.G.G.G.G.G.G.G.G.G.G.G.G.n.O.Y P S 0 5 7 1 1 $ o                 o ",
"O       X     X   X # = 1 5 0 k D D D !.GXCXCXCXCXCXCXFXFXFXFXFXGXGXGXGXGXGXGXGXGXGXGXGXGXGXGXKXKXKXKXKXKXKXKXKXKXKXKXKXKXKXKXKXKXKXKXKXKXKXKXKXKXKXKXKXKXKXKXKXKXKXKXKXKXKXKXKXKXKXKXKXKXKXKXKXKXKXKXKXKXKXKXKXKXKXKXKXKXKXKXKXKXKXKXKXKXKXKXKXKXKXKXKXKXKXKXKXKXKXKXKXKXKXKXKXKXKXKXKXKXKXKXKXKXKXKXKXKXKXKXKXKXKXKXKXKXKXKXKXKXKXKXKXKXKXKXKXKXKXKXKXKXKXKXKXKXKXKXKXKXKXKXKXKXKXKXKXKXKXKXKXKXKXKXKXKXKXKXKXKXKXKXKXKXKXKXKXKXKXKXKXKXKXKXKXKXKXKXKXKXKXKXKXKXKXKXKXKXKXKXKXKXKXKXKXKXKXKXKXKXKXKXKXKXKXKXKXKXKXKXKXKXKXKXKXKXKXKXKXKXKXKXKXKXKXKXKXKXKXKXKXKXKXKXKXKXKXKXKXKXKXKXKXKXKXKXKXKXKXKXKXKXKXKXKXKXKXKXKXKXKXKXKXKXKXKXKXKXKXKXKXKXKXKXKXKXKXKXKXKXKXKXKXKXKXKXKXKXKXKXKXKXGXGXGXGXFXFXFXwXP ] P w 5 7 7 7 $ o                 o ",
"O       X     X X o # = 2 5 0 k C S S !.FXfXwXwXsXsXsXsXsXsXsXsXsXsXsXsXsXsXsXsXsXsXsXsXsXsXsXsXsXsXsXsXsXsXsXsXsXsXsXsXsXsXsXsXsXhXhXhXhXhXhXhXhXhXsXsXhXhXhXhXhXhXhXhXhXhXgXhXgXhXhXhXhXhXhXhXgXhXhXhXhXhXhXhXgXgXgXgXgXhXgXhXgXgXgXgXgXgXgXgXgXgXgXhXgXgXgXgXgXgXgXgXgXgXgXgXgXgXgXgXgXgXgXgXgXgXgXgXgXgXgXgXgXgXgXgXgXgXgXgXgXgXgXgXgXgXgXgXgXgXgXgXgXgXgXgXgXgXgXgXgXgXgXgXgXgXgXgXgXgXgXgXgXgXgXgXgXgXgXgXgXgXgXgXgXgXgXgXgXgXgXgXgXgXgXgXgXgXgXgXgXgXgXgXgXgXgXgXgXgXgXgXgXgXgXgXgXgXgXgXgXgXgXgXgXgXgXgXgXgXgXgXgXgXgXgXgXgXgXgXgXgXgXgXgXgXgXgXgXgXgXgXgXhXgXhXgXgXgXhXhXhXhXhXhXhXhXhXhXhXhXhXhXhXgXhXhXhXhXhXhXhXhXhXhXsXsXhXsXhXsXhXsXsXsXsXsXsXsXhXsXsXsXsXsXsXsXsXsXsXsXsXfXfXfXfXfXfXxXGXwXY ' P k 0 5 7 5 y #                 o ",
"O       X         o # = 2 5 k C P Y P ~.ZX~.@.#.k.k.#.#.#.@.@.{ [ ' } } } ' } ' } Y } Y } ' ' } } _ } _ } _ } _ } } } } } _ } } } [ [ [ [ _ [ _ [ _ [ _ [ [ [ [ _ _ _ _ _ _ } _ _ _ _ _ _ _ _ _ [ ` [ ` [ ` [ ` [ ` [ ` [ ` [ ` ` $.$.$.$.$.$.$.` ` ` ` $.[ ` $.$.$.$.$.$.$.$.$.$.$.$.$.[ ` $.$.[ ` ` ` ` ` ` ` ` ` ` ` ` ` ` ` _ _ _ _ _ _ _ _ _ _ _ _ _ _ _ _ _ _ _ _ _ _ _ _ [ [ _ _ _ _ _ _ _ _ _ _ _ _ _ _ _ _ _ _ _ _ _ _ _ _ _ _ _ _ _ _ _ _ _ _ _ _ _ _ [ $.` $.` ` [ ` $.$.$.$.` ` ` ` $.$.$.$.$.$.$.$.$.$.$.$.$.$.$.$.$.$.$.[ ` ` ` ` [ ` [ ` $.$.$.$.[ ` [ ` [ ` [ ` [ ` [ ` [ ` [ ` [ _ _ _ _ _ _ _ _ _ _ _ _ _ _ _ } } [ } [ } [ } } } [ } } } } } _ _ _ _ } } } } } [ [ [ @.#.#.#.@.{ !.CX;XY [ ] C 0 5 5 5 y # X               o ",
"O               o o & 1 5 0 k S Y { } ~.CX0X@.k.x.x.x.x.k.k.k.#.&.%.%.%.@.%.%.%.%.%.%.%.@.%.%.%.%.X.@.@.%.%.%.%.@.{ @.{ @.@.@.@.@.#.#.#.#.#.#.#.#.@.@.@.#.@.#.@.#.@.#.#.#.#.#.#.#.@.#.@.#.#.#.#.#.#.#.#.#.#.#.#.#.#.#.#.#.#.#.#.#.#.#.#.#.#.#.#.#.#.#.#.#.#.#.#.#.#.#.#.#.#.#.#.#.#.#.#.#.#.#.#.#.#.#.#.#.#.#.#.#.#.#.#.#.#.#.#.#.@.#.@.#.@.#.@.#.@.@.@.@.@.#.@.@.@.@.@.@.@.@.@.#.@.#.@.@.@.@.@.@.@.@.@.@.@.#.@.@.@.@.@.@.@.#.@.@.@.@.@.@.@.#.@.#.@.#.@.#.@.#.#.#.#.#.#.#.#.#.#.#.#.#.#.#.#.#.#.#.#.#.#.#.#.#.#.#.#.#.#.#.#.#.#.#.#.#.#.#.#.#.#.#.#.#.#.#.#.#.#.#.#.#.#.#.#.#.#.#.#.#.#.#.#.#.#.#.#.#.@.#.@.#.@.#.#.#.#.#.@.#.&.@.@.@.@.@.{ @.{ %.%.%.%.@.@.@.@.@.@.@.@.@.@.%.%.*.*.&.l.l.l.x.x.z.*.^.GXwX} [ [ S h 5 5 5 y #                 o ",
"O               o o & 1 5 0 k S Y *.[ ~.FXwXl.x.x.x.x.x.x.l.l.*.X.| X.| { ' ' ' | | { ' { ' ' ' | | X.| | | | | X.| X.| X.| X.X.X.%.%.X.%.%.%.%.%.X.%.X.%.X.%.X.%.%.%.%.%.%.%.%.%.%.%.%.%.%.%.%.X.X.X.X.X.X.o.o.X.X.X.X.X.X.X.X.X.X.X.X.X.X.o.o.X.X.X.X.X.X.o.X.X.X.X.X.X.X.X.X.X.X.X.X.X.X.X.X.X.X.X.X.X.X.X.X.X.X.X.X.X.X.X.X.%.%.%.%.%.%.%.%.%.%.%.%.%.%.%.%.%.%.%.%.%.%.%.%.%.%.%.%.%.%.%.%.%.%.%.%.%.%.%.%.%.%.%.%.%.%.%.%.%.%.%.%.%.%.%.%.%.%.%.X.%.%.%.%.X.X.X.X.X.X.X.X.X.X.X.X.X.X.X.X.X.X.X.X.X.X.X.X.X.X.X.X.X.X.X.X.X.X.X.X.X.X.X.X.X.X.X.X.X.X.X.X.X.X.X.X.X.X.X.X.X.X.X.X.X.X.X.X.%.%.%.%.%.%.%.%.%.%.%.X.%.X.%.X.{ ' { ' { ' { ' X.X.{ ' { ' { X.X.X.X.| o.o.o.o.o.%.&.l.v.v.m.v.k.@.!.GX;X{ #.@.S k 5 6 5 1 # O               o ",
"O               o o = 2 5 h C S ' *.' ~.CX0X@.&.l.l.l.l.&.%.X.| | Q Q Q T T T T Q Q Q T T T T T Q Q Q Q Q Q Q Q Q Q Q Q Q Q Q Q | Q Q Q Q | | | | | | | | | | | Q Q Q Q Q Q Q Q Q Q Q Q Q Q T Q Q Q Q W Q W Q W Q Q Q Q Q W Q Q Q Q Q Q Q Q Q Q Q Q Q Q Q W Q Q T I Q W Q I T I Q Q Q Q Q Q Q Q T T T T Q Q Q Q Q W Q Q T T Q Q Q Q Q Q Q | | Q T T T T T T T T T T T T T T T T T T T T T T T T T T T T T T Q Q T T T T T T Q Q T T T T T T Q Q T T Q Q Q Q Q Q Q W Q Q Q Q Q Q Q W Q Q Q Q Q Q T I Q W Q W T I T W Q W Q I T I Q Q Q Q Q Q Q Q Q Q Q Q Q Q Q Q Q Q Q Q Q Q Q Q Q W Q W Q I T Q Q Q Q Q Q Q Q Q T T Q Q T T T T T T T T T T T T T R T T T T T T Q Q Q Q Q Q | | o.o.*.t.v.v.v.v.x.z.~.GXwX@.#.@.P l i 6 7 1 o O               o ",
"O               o & = 2 5 h C P ' @.' =XFXwX*.*.*.*.*.*.9.5.! W D D D D S S S S D D D S S S S S S S S S S S S S S S C C C C C C C C C C C C C C C C C C C C C C C C C C C C C C C C C C C C C C S S S C S C S C S S F F F F F F S S S S S C S D S S S S D D D F F F F F F C S F F C F F F F F F S S S F S F S F S C S F S S S S C C C C F F F F C C C C C C C C C C C C C C C C C C C C C C C C C C C C C C C C C C C C C C C C C C C C C C C C F F F F C F F F C C S S S S S S S C S C S S S F S F F F F F F F F F F F F C S F S S D S S C S S S S S S S C S C S F F F F S S S S C S C S C S C S C C C C C C C F F F F F F F F C C C C S S C C C C C C S C C C C C S S S S S D R | O.O.*.*.&.k.x.k.~.GXwX@.k.#.P l i 4 6 3 o O               o ",
"O               o & = 2 5 k C P X.%.[ 0XCX=XX.*.%.%.o.../ / J J H A A l l l l l l l l l k l z l l e e e e e e e e e l l l l l l e e e e e e e e e e e e l e e e e e e e e e l e l e e e e e e e e e e e e e e e e e e e e e e e e e l l l l l l e e e e l l e e l l l l l l l l e e e e e e e e e e l e l e l e l e l e l e l e h e l e l e l e v v v v v v v l l l v v v v v v v v v v v v v v v v v v l l l v v v v v l l l v v v v v l l l v l e l e h e l l l l l l l l l l l l l l l l l l l l e e l l l l l l l l l l l l l l l l l l l l l l l l l l l l e e e e e e e e l l e e e e e e e l e e e e e e e e e e e e e e l l l l l l l l l l l l l l l l e e e A A A A A G ~ / +.+.*.*.&.x.k.~.GXwX#.#.&.P A h 6 7 ; o O               O ",
"O             X o o & 4 q k C P | %.@.~.FX;X{ l.*.o.+./ ^ L K b l h h q h 6 6 6 6 6 5 6 5 6 q 6 6 6 6 6 6 6 6 6 q q q q q q q q t 8 8 8 8 8 8 8 8 8 8 8 8 8 8 8 q q 8 t 8 q q q q q q q q q 8 t t t t t t t t t t t t t t t t t q q q t t q e q q q t t q q q q t t t t t t t t t t t t t t t t t t t t t t t t 6 6 q 6 t t t t 8 8 8 8 8 8 8 8 8 8 6 8 6 8 8 8 8 8 8 8 8 8 6 8 6 8 8 8 8 8 8 8 8 8 6 8 8 8 8 8 8 8 6 8 8 8 8 8 8 8 6 8 8 8 8 8 8 8 6 8 8 8 8 8 q q 8 8 8 t t t t t t t t t t t t t t t t t t t t t t t t t t t e e q t t q q q q q q q e e t t t t t t t t t t q q q q q q t t q 8 8 8 6 6 6 6 6 8 8 8 6 6 6 6 6 8 6 8 6 6 6 6 6 6 6 6 6 6 6 6 q q q q q h c c v K ^ / +.+.O.*.l.#.~.GXwX@.#.{ I Z l q 3 ; & o X             O ",
"O       X     X o o = 4 q k C P | %.@.~.GX;X@.l.%. ./ ^ K K v v c 6 6 6 6 6 4 3 3 3 4 6 6 6 6 6 4 4 6 6 6 6 6 6 6 6 6 6 6 6 6 6 6 9 6 6 6 6 6 6 6 9 6 6 6 6 6 6 6 6 6 6 6 6 6 6 6 6 6 6 6 6 6 6 6 6 6 6 6 6 6 6 6 6 6 6 6 6 6 6 6 6 6 6 6 6 6 6 6 6 6 6 6 6 6 6 6 6 6 6 6 6 6 6 6 6 6 6 6 6 6 6 6 9 6 9 6 6 6 6 6 9 6 6 6 9 6 9 6 9 6 6 6 9 6 9 6 9 6 6 6 9 6 9 6 9 6 9 6 9 6 6 6 9 6 9 6 9 6 9 6 6 6 6 6 9 6 9 6 6 6 6 6 9 6 9 6 6 6 6 6 9 6 9 6 6 6 6 6 9 6 9 6 6 6 9 6 9 6 9 6 9 6 6 6 6 6 6 6 6 6 6 6 6 6 6 6 6 6 6 6 6 6 6 6 6 6 6 6 6 6 6 6 6 6 6 6 6 6 6 6 6 6 6 6 6 6 6 6 6 6 6 6 6 6 6 6 6 6 6 6 6 6 6 6 6 6 6 6 6 6 6 9 9 9 9 6 3 6 6 6 6 6 6 6 6 6 6 3 9 6 6 6 6 8 8 c v K ^ / /  .o.*.@.^.KXwX[ @.X.W Z z q 3 ; & # o X           O ",
"O       X     o o o = 4 q l C P | %.@.~.GX;X@.l.%. .~ ^ K v v h 6 6 4 4 3 3 3 : : : : : 3 3 3 3 3 : : : ; ; : 3 3 : : 3 3 3 3 3 3 3 3 3 3 3 3 3 3 3 3 3 3 3 3 3 3 3 3 3 3 3 3 3 3 3 3 3 3 3 3 3 3 3 3 3 3 3 3 3 3 3 3 3 3 3 3 3 3 3 3 3 3 3 3 3 3 3 3 3 3 3 3 3 3 3 3 3 3 3 3 3 3 3 3 3 3 3 3 3 3 3 3 3 3 3 3 3 3 3 3 3 3 3 3 3 3 3 3 3 3 3 3 3 3 3 3 3 3 3 3 3 3 3 3 3 3 3 3 3 3 3 3 3 3 3 3 3 3 3 3 3 3 3 3 3 3 3 3 3 3 3 3 3 3 3 3 3 3 3 3 3 3 3 3 3 3 3 3 3 3 3 3 3 3 3 3 3 3 3 3 3 3 3 3 3 3 3 3 3 3 3 3 3 3 3 3 3 3 3 3 3 3 3 3 3 3 3 3 3 3 3 3 3 3 3 3 3 3 3 3 3 3 3 3 3 3 3 3 3 3 3 3 3 3 3 3 3 3 3 3 3 3 3 3 3 3 3 3 3 3 ; ; ; ; ; : : : ; : : 3 : 3 3 3 3 3 3 4 4 6 6 8 c v K ^ ~ ..| &.@.^.KXwX[ %.X.W D z q 3 ; & # o X           O ",
"O             X o o = 4 q l C D | %.[ ~.GX;X{ l.o.Q U K K v h i 4 3 1 = = = = & & & & & = = = = = & = & $ $ = = = = = = = = = = = = = = = = = = = = = = = = = = = = = = = = = = = = = = $ $ = = $ $ $ $ $ $ $ $ = ; = $ = $ = = $ $ ; ; ; ; $ = $ $ ; ; ; ; $ $ = = = = $ $ $ $ = = = = = = = = = = = $ = = = = = = = = = = = = = = = = = = = = = = = = = = = = = = = = = = = = = = = = = = = = = = = = = = = = = = = = = = = = = = = = = = = = = = = = = = = = = = = = = = = = = = = $ = = = = = = = = $ $ $ $ = = = = = = = = = = = $ ; ; = = ; ; ; ; $ $ $ $ ; = = = = = = = = = = = $ $ ; ; = = = = = = = = = = = = = = = = = = $ $ = = = = = = = = = = = = $ $ 1 = 1 1 3 3 6 t c K ~ R R | &.{ ^.KXwX[ @.X.W D z q 3 ; & # o X           O ",
"O             X o o = 4 q l C D | %.@.~.GX;X{ &.X.Q G A v c i 2 1 = = # $ $ # # # # # # # # # # $ # # # # # # # # # # # # # # # # # # # # # # # # # # # # # # # # # # # # # # # # # # # # # # # # # # # # # # # $ $ $ $ $ $ $ $ $ $ $ $ # # # # $ $ $ $ $ $ # # $ $ # # # # # # # # # # $ $ $ $ # # # # $ # # # $ $ $ $ $ $ $ $ $ $ $ $ $ $ $ $ $ $ $ $ $ $ $ $ $ $ $ $ $ $ $ $ $ $ $ $ $ $ $ $ $ $ $ $ $ $ $ $ $ $ $ $ $ $ $ $ $ $ $ $ $ $ $ $ $ $ $ $ $ $ $ $ $ $ $ $ $ $ $ $ # # # # $ $ $ # $ $ # # # # # # # # # # $ $ $ $ # # # # $ $ $ $ $ $ # # # # # # $ $ # # $ $ $ $ # # # # # # # # # # # # # # # # # # # # # # # # # # # # # # # # $ # # # # $ # # # # $ $ $ = = ; 3 8 c v G U Q | &.{ ^.KXwX[ @.X.W Z C e 3 ; & # o X           O ",
"O             X o o = 4 q l C D | %.[ ~.GX;X[ &.| Q F l v t 4 2 = # # # # o o o o o o o o o # o o # o o o o # o o o o o o o o o o o o o o o o o o o o o o o o o o o # o # o # o # o # o # o # o # o # # # # # # # # # # # o # # # o # o # o # o # o # o # o # o # o # o # o # # # o # o # o # o o o o o o o o o # o # o o o o o # o # o o o o o o o o o # o # o o o o o # o # o # o # o # o o o # o # o o o o o # o # o # o # o # o # o o o o o # o # o # o # o # o o o o o # o o o o o o o o o o o # o # o # # # o # o # o # o # o # o # o # o # o # o # o # o # # # o # # # # # o # o # o # o o o o o o o o o o o o o o o o o o # # # # # # o # o o o o o o o o o # # # # # $ ; 3 t v H U Q | %.{ ^.KXwX[ @.X.W Z z q 3 ; & # o X           O ",
"O             o o o = 4 q l C D | X.[ ~.GX;X[ %.| I Z l t 6 3 = # # # o o o X   X X X X o X o o o X X X X X o X X X o o o o o o X X X X X X X X X X X X X X X X X X o X o X o X o X o X o X o X o o o o o o o X o o o o o o o o o o o o o o o o o o o o o o o o o o o o o o o o o o o X o o o o o O o o o o o X o o o o o o o o o o o o o o o o o o o o o o o o o o o o o o o X o o o o o o o o o o o o o o o o o o o o o X o X o o o o o o o o o o o o o X o X o o o o o o o o o O o o o o o o o o o o o o o o o o o X o o o o o o o o o o o o o o o o o o o o o o o X o o o o o X o X o X o X X X X X X X X X X X X X X X X o o o o o o o o X o X o X X X X X X X o o o # # # = 3 6 h C D W | %.{ ^.KXwX[ @.| W Z C e 3 ; & # o X           O ",
"O             o o o = 4 q k C D | X.[ ~.GX;X[ %.| I C l c 6 2 = # # o o o o                   X X X X X X X X X X X o o o o o o X X X X X X X X X X X X X X X X o o X X X X X X X X X X X X X X X X X X X X X X X X X X X X X X o o o o o o X X o o o o o X o o o o o o o o o o o o o X o o o o o O o o o o X O X X X X X X X X X X X X X X X X X X X X X X X X X X X X X X X X X X X X X X X X X X X X X X X X X X X X X X X X X X X X X X X X X X X X X X X X X X X X X X X X o O O o o o X X o o o o o o o o o o o X o o o o X X o o o o o o o o o o o o o o X X X X X X X X X X X X X X X X X X X X X X X X X X X X X X X X X o o o X X X X X X X         X   X X X o o # # ; ; 6 e C F W | @.[ ^.KXwX[ @.' W Z l q 3 ; & # o X           O ",
"O             X o & = 4 h l C D | X.[ ~.KX;X[ %.| I C l 6 6 = & # o X X                       X   X X X X X X X X X o o o o o o o o o o o o o o o o o o o o o o # # # # # # # # # # # # # # # # # # # # o # o o # # # # # o # # o # # # # # o # # # # # # o # o o o o o o o o o o # o o o o o o o o o o o o o o o o o o o o o o o o o o o o o o o o o o o o o o o o o o o o o o o o o o o o o o o o o o o o o o o o o o o o o o o o o o o o o o o o o o o o o o o o o o o o o o o o o o o o o o o o o o o o o o o # o o o o o o # # # # # o # o o o o o # # # # # # # # # # # # # # # # # # # o o o o o o o o o o o o o X X X X o o o o X X X X     X             X o o o o # # $ ; 8 t l S I | %.[ ^.KXwX_ @.| I Z C e 3 ; $ # o X           O ",
"O             X o & = 4 h l C D | X.[ ~.GX;X' %.Q I C h 6 6 - & # o X                             X X X X X X X o o o o o o o o # # # # # # # # # # # # # # # # $ # # # # # # # # # # # # # # # # # # # # # # # # # # # # # # # # # # # # # # # # # # # # # # # # # # # # # # # $ # # # # # # # # # # # # # # # # # # # # # # # # # # # # # # # # # # # # # # # # # # # # # # # # # # # # # # # # # # # # # # # # # # # # # # # # # # # # # # # # # # # # # # # # # # # # # # # # # # # # # # # # # # # # # # # $ # # # # # # # # # # # # # # # # # # # # # # # # # # # # # # # # # # # # # # # # # # # # # # # # # # o o o o o o o o o X X X                       X X o o o o % ; 8 t l F I ' %.[ ^.KXwX_ @.' I Z C e 9 ; $ # o X           O ",
"O             X o & = 4 h l C D | X.[ ~.GX;X[ %.Q I C e 6 6 - & # o X                             X o o o o o o # # # & & & & & & $ & $ $ $ & $ $ $ & $ & $ & $ $ $ = $ = $ = $ $ $ $ $ = $ = $ $ $ = $ = $ = $ = $ = $ = $ = $ $ $ $ $ $ $ = $ = $ = $ = $ = $ = $ = $ = $ = $ = $ = $ = $ = $ & $ & $ $ $ & $ $ $ & $ $ $ & $ $ $ & $ & $ & $ & $ & $ & $ $ $ & $ & $ $ $ & $ $ $ & $ $ $ & $ & $ & $ & $ $ $ & $ & $ $ $ & $ & $ & $ & $ $ $ $ $ & $ $ $ & $ & $ & $ & $ & $ $ $ & $ & $ & $ = $ = $ = $ = $ = $ = $ = $ = $ = $ = $ = $ = $ & $ = $ = $ = $ = $ $ $ = $ = $ $ $ $ $ = $ = $ $ $ $ $ $ $ $ $ $ $ $ $ $ # # # # o o o X X X X   X                     o o o o % ; 8 t C S I | %.[ ^.KXwX_ @.' I D C e 3 % $ # o X           O ",
"O             X o & = 4 h l C D | X.[ ~.KX;X[ %.Q I C e 6 6 - & # o X                             X o o o o # # $ $ = = : : : : : : : : : : : : : 3 : : : : : : 3 3 3 3 3 3 3 3 3 3 3 3 3 3 3 3 3 3 3 3 3 3 3 3 3 3 3 3 3 3 3 3 3 3 3 3 3 3 3 3 3 3 3 3 3 3 3 3 3 3 3 3 3 3 3 3 3 3 3 3 3 3 3 3 3 : : : : : : : : 3 : : : : : : : 3 : : : : : : : : : : : : : : : : : : : : : : : 3 : : : : : : : : : : : : : : : : : : : : : : : : : : : : : : : : : : : : : : : : : : : : : : : : : : : : : : 3 3 3 3 3 3 3 3 3 3 3 3 3 3 3 3 3 3 3 3 3 3 3 3 3 3 3 3 3 3 3 3 3 3 3 3 3 3 3 3 3 3 3 3 3 3 3 3 3 ; ; ; ; ; ; ; 3 ; ; ; = = $ $ # o o o o X X X                         X X X o % ; 8 t C S I ' &.[ ^.KXwX_ @.' I Z C q 3 % $ # o X           O ",
"O       X     X o # = 4 q l C S | %.[ ~.KX;X[ %.| I C e 6 6 - & # o X                           X o o o # # # & = : : 3 3 3 3 3 6 6 6 6 6 6 6 6 6 6 6 6 6 6 6 6 6 6 6 6 6 6 6 6 6 6 6 6 6 6 6 6 6 6 6 6 6 6 6 6 6 6 6 6 6 6 6 6 6 6 6 6 6 6 6 6 6 6 6 6 6 6 6 6 6 6 6 6 6 6 6 6 6 6 6 6 6 6 6 6 6 6 6 6 6 6 6 6 6 6 6 6 6 6 6 6 6 6 6 6 6 6 6 6 6 6 6 6 6 6 6 6 6 6 6 6 6 6 6 6 6 6 6 6 6 6 6 6 6 6 6 6 6 6 6 6 6 6 6 6 6 6 6 6 6 6 6 6 6 6 6 6 6 6 6 6 6 6 6 6 6 6 6 6 6 6 6 6 6 6 6 6 6 6 6 6 6 6 6 6 6 6 6 6 6 6 6 6 6 6 6 6 6 6 6 6 6 6 6 6 6 6 6 6 6 6 6 6 6 6 6 6 6 6 6 6 6 6 6 6 6 6 6 6 6 6 6 6 6 6 6 6 3 3 3 3 3 1 1 1 # # # o o o X X X X                     X X X o # ; 9 e C S I ' &.[ ^.KXwX_ @.' I Z C e 3 % $ $ o X           O ",
"O             X o # = 4 h l C D | %.[ ~.KX;X[ %.| P C e 6 3 : & # o                             X o o # # # = = : 3 3 4 6 6 6 6 q 6 q q q t t 6 t t q t q q q q q q q q q q q q q q q q q q q q q q q q q q q q q q q q q q q q q q q q q q q q q q q q q q q q q q q q q q q q q q q q q q q 6 q 6 q q t t t q q t q t q q q q q t q t t q t t q t t t t t q q q 6 q q t t t q q t q t q q q q q t t t t t q q q q q q t q 6 6 q t t t t t q q q q q q q q q q t t q q q q 6 8 t t q q q q 6 6 q q q q q q q q q q q q q q q q q q q q q q q q q q q q q q q q q q q q q q q q q q q q q q q q t t t t t t q q 6 6 6 6 6 7 7 3 = & & # # o o X X   X                   X X X o % $ 9 e C S I ' &.} ^.KXwX_ @.' I Z C e 3 ; $ # o X           O ",
"O       X     X o # = 4 h l C D | %.[ ~.GX;X[ %.| P C e 6 3 = & # o                             X o # # # & = = 3 4 4 6 6 6 q q h h c h c c h h q q h h h h h h h h h h h h h h h h h h h h h h h h h h h h h h h h h h h h h h h h h h h h h h h h h h h h h h h h h h h h e e h h h h e h h h h h c h c c h h q q h h h h h h q q h h h h h h h h h c q h q q h h c h c c h h q q h h h h h h h h h c q h q q h h c c c c h h h h h c q h q q h c c c h h h h c q q q h c c c q q q q c c c c h h h h h h h h h h e e e h h h h h h h h h h h h h h h h h h h h h h h h h h h h h h h h h h t e q t t q q q q q q q 6 6 6 6 3 1 = = & # o o X X                       X X o # # ; 9 e C S I ' &.} ^.KXwX_ @.' I Z C e 7 ; $ # o X           O ",
"O       X     X o # = 4 h l C S | %.[ ~.KX;X[ %.| I C e 6 3 : & # o                             X X # & = = 1 7 5 0 0 h k k C C l l l l l l l l l l l l l l l l l l l l l l l l l l l l l l l l C l l l l l l l l l l l l l l l C l l l l l l l l l l l C l l l A A A A A l A l l l A A A A A A l l l l l l l l l l l l l l l l l l l l l l l l l l l l l l l l l l l l l l l l l l l l l l l l l l l l l l l l l l l l l l l l l l l l l l l l l l l l l l l l l l l l l l l l l l l l l l l l A A A A A l l l l l A A A A A A l l l l C A l l l l l l l l l l l l l l l l l l l l l l l l l l A A l l l l l l e e l e w 0 0 0 7 1 1 = # # o o X X                     X X o # # $ 9 e C S P T &.[ ^.KXwX_ @.' I Z C e 3 ; $ # o X   X       O ",
"O             X o & ; 4 q l C D | %.[ ~.KX;X[ %.| I C e q 3 ; & # X                       X o o O O & = 2 5 0 w N S w C D Q Y Y I P D D D D S S S S S S S S S S D D D D D D D D D D D D D D D D S S S S S S S S S S S S S S S S S S S S S S S P S S S S S S S S S S S S S S S S S S S S S S S S S S S S S S S S S S S S S S S S S S S S S S S S S S S S S S S S S S S S S S S S S S S S S S S S S S S S S S S S S S S S S S S S S S S S S S S S S S S S S S S S S S S S S S S S S S S S S S S S S S S S S S S S S S S S S S S S S S S S S S S P S S S S S S S S P P P P P P P P P P P P P P P P P P C Z D S P P S w D C D S w N w 0 0 2 = # # o o X X                   X o o o # = 9 e l S P T @.[ ^.KXpX_ { | I Z C e 3 ; $ $ o X   X       O ",
"O             X o & = 4 q l C D | %.[ ~.KX;X[ &.| I C l q 3 ; $ # o X                 X X X o o O O & - i k w N N P P Q Q o.X.*.X.| ' ' ' ' T T T T T ' ' ' ' ' ' ' ' ' ' ' ' ' ' ' ' ' ' ' ' ' ' ' ' ' ' ' ' ' ' ' ' ' ' ' ' ' ' ' ' ' ' ' ' ' ' ' ' ' ' ' ' ' ' ' ' ' ' ' ' ' ' ' ' ' ' ' ' ' ' ' ' ' ' ' ' ' ' ' ' ' ' ' ' ' ' ' ' ' ' ' ' ' ' ' ' ' ' ' ' ' ' ' ' ' ' ' ' ' ' ' ' ' ' ' ' ' ' ' ' ' ' ' ' ' ' ' ' ' ' ' ' ' ' ' ' ' ' ' ' ' ' ' ' ' ' ' ' ' ' ' ' ' ' ' ' ' ' ' ' ' ' ' ' ' ' ' ' ' ' ' ' ' ' ' ' ' ' ' ' ' ' ' ' ' ' ' ' ' ' ' ' ' ' ' ' ' ' ' ' ' ' ' ' ' ' ' ' ' ' ' ' [ @.[ T W Q ' [ [ } Y T | o.' P N N C w 5 1 = # # o X X X                 X o o o # = 9 e C S P T @.[ ^.KXpX_ @.| I Z C e 3 ; & # o X X X       O ",
"O             X o & = 4 q l C D | %.[ ~.KX;X[ %.| W C l q 3 ; & # o X                 X X o # o % % = 2 z k w N E N P I Q ' ' &.&.l.l.&.&.&.&.%.%.%.%.&.&.&.&.&.&.&.&.&.&.&.&.&.&.&.&.&.&.&.&.&.&.&.&.&.&.&.&.&.&.&.&.&.&.&.&.&.&.&.&.&.&.&.&.&.&.&.&.&.&.&.&.&.&.&.&.&.&.&.&.&.&.&.&.&.&.&.&.&.&.&.&.&.&.&.&.&.&.&.&.&.&.&.&.&.&.&.&.&.&.&.&.&.&.&.&.&.&.&.&.&.&.&.&.&.&.&.&.&.&.&.&.&.&.&.&.&.&.&.&.&.&.&.&.&.&.&.&.&.&.&.&.&.&.&.&.&.&.&.&.&.&.&.&.&.&.&.&.&.&.&.&.&.&.&.&.&.&.&.&.&.&.&.&.&.&.&.&.&.&.&.&.&.&.&.&.&.&.&.&.&.&.&.&.&.&.&.&.&.&.&.&.&.&.&.&.&.&.&.&.&.&.&.&.&.&.&.&.&.&.&.&.&.k.k.%.%.&.&.k.k.@.&.@.%.&.@.} Y P S w 0 5 = = # o X X X                 X o o o # = 9 e C S P ' @.[ ^.KXpX_ @.| I Z C e 3 ; = $ o X X X       O ",
"O       X     X o & = 4 q l C D | %.[ ~.KX;X[ %.| W C l q 3 ; $ # o X                   X o # # $ $ 2 i z k N N V B R P Y Y } [ @.@.@.@.@.{ { { [ [ [ [ [ [ @.@.[ { [ [ [ [ [ [ [ { [ [ [ [ [ [ [ [ [ [ [ [ [ [ [ [ [ [ [ [ [ [ [ [ [ [ [ [ [ [ [ [ [ [ [ [ [ [ [ [ [ [ [ [ [ [ [ [ [ [ [ [ [ [ [ [ [ [ [ [ [ [ [ [ [ [ [ [ [ [ [ [ [ [ [ [ [ [ [ [ [ [ [ [ [ [ [ [ [ [ [ [ [ [ [ [ [ [ [ [ [ [ [ [ [ [ [ [ [ [ [ [ [ [ [ [ [ [ [ [ [ [ [ [ [ [ [ [ [ [ [ [ [ [ [ [ [ [ [ [ [ [ [ [ [ [ [ [ [ [ [ [ [ [ [ [ [ [ [ [ [ [ [ [ [ [ [ [ [ [ [ [ [ [ [ [ [ [ [ [ [ [ [ @.{ { { [ [ [ { @.{ [ [ [ [ @.$.@.{ ' { @.#.$.[ &.@.%.@.[ Y B P S N w 5 1 = $ # o X X                 X o o o # = 6 e C S P ' @.[ ^.KXpX_ @.| I Z C e 3 ; = # o X X X       O ",
"O             X o & = 4 q l C D | %.[ ~.KX;X[ %.| W C h q 3 : & # o X                   X o # # $ 1 5 h k C N V -.W.Q.Q.Q././.Q.Q.Q.Q.Q.Q.W.W.W.W.W.W.W.W.W.W.W.W.W.W.W.W.W.W.W.W.W.W.W.W.W.W.W.W.W.W.W.W.W.W.W.W.W.W.W.W.W.W.W.W.W.W.W.W.W.W.W.W.W.W.W.W.W.W.W.W.W.W.W.W.W.W.W.W.W.W.W.W.W.W.W.W.W.W.W.W.W.W.W.W.W.W.W.W.W.W.W.W.W.W.W.W.W.W.W.W.W.W.W.W.W.W.W.W.W.W.W.W.W.W.W.W.W.W.W.W.W.W.W.W.W.W.W.W.W.W.W.W.W.W.W.W.W.W.W.W.W.W.W.W.W.W.W.W.W.W.W.W.W.W.W.W.W.W.W.W.W.W.W.W.W.W.W.W.W.W.W.W.W.W.W.W.W.W.W.W.W.W.W.W.W.W.W.W.W.W.W.W.W.W.W.W.W.W.W.W.W.W.W.W.W.W.W.W.W.W.W.W.W.W.W.W.W.W.Q.Q.Q.W.W.W.Q.Q.Q.Q.W.Q.Q.Q.W.g.( N P S w 0 7 = = # # X X                 X o o o $ ; 6 e C S P ' @.[ ^.KXpX_ @.| I Z C e 3 ; = $ o X X X         ",
"O             X o & = 4 q l C D | %.[ ~.KX;X[ %.| W C l q 3 : & # o X                     o # $ 1 1 5 k Z S B B gXKXHXFXFXFXGXGXKXKXKXKXKXKXKXKXKXKXKXKXKXKXKXKXKXKXKXKXKXKXKXKXKXKXKXKXKXKXKXKXKXKXKXKXKXKXKXKXKXKXKXKXKXKXKXKXKXKXKXKXKXKXKXKXKXKXKXKXKXKXKXKXKXKXKXKXKXKXKXKXKXKXKXKXKXKXKXKXKXKXKXKXKXKXKXKXKXKXKXKXKXKXKXKXKXKXKXKXKXKXKXKXKXKXKXKXKXKXKXKXKXKXKXKXKXKXKXKXKXKXKXKXKXKXKXKXKXKXKXKXKXKXKXKXKXKXKXKXKXKXKXKXKXKXKXKXKXKXKXKXKXKXKXKXKXKXKXKXKXKXKXKXKXKXKXKXKXKXKXKXKXKXKXKXKXKXKXKXKXKXKXKXKXKXKXKXKXKXKXKXKXKXKXKXKXKXKXKXKXKXKXKXKXKXKXKXKXKXKXKXKXKXKXKXKXKXKXKXKXKXKXKXKXKXKXKXKXKXKXKXKXPXGXGXKXKXJXNXB Y P N w 5 1 ; $ # X X                 X o o o $ ; 6 e l S P ' @.[ ^.KXpX_ @.| I Z C e 3 ; = $ o X X X         ",
"O             X o & = 4 0 l C D | %.[ ~.KX;X[ %.| W C l q 3 : & # X X                   X o # $ 3 7 h k D P B B gXHXaXwXwXwXdXaXpXpXwXwXwXpXpXpXpXpXpXpXpXpXpXpXpXpXpXpXpXpXpXpXpXpXpXpXpXpXpXpXpXpXpXpXpXpXpXpXpXpXpXpXpXpXpXpXpXpXpXpXpXpXpXpXpXpXpXpXpXpXpXpXpXpXpXpXpXpXpXpXpXpXpXpXpXpXpXpXpXpXpXpXpXpXpXpXpXpXpXpXpXpXpXpXpXpXpXpXpXpXpXpXpXpXpXpXpXpXpXpXpXpXpXpXpXpXpXpXpXpXpXpXpXpXpXpXpXpXpXpXpXpXpXpXpXpXpXpXpXpXpXpXpXpXpXpXpXpXpXpXpXpXpXpXpXpXpXpXpXpXpXpXpXpXpXpXpXpXpXpXpXpXpXpXpXpXpXpXpXpXpXpXpXpXpXpXpXpXpXpXpXpXpXpXpXpXpXpXpXpXpXpXpXpXpXpXpXpXpXpXpXpXpXpXpXpXpXpXpXpXpXpXpXpXaXaXaXpXpXpXdXdXdXdXdXaXJXMXB ' Y S w 0 1 3 $ # o X                   o o o $ = 6 e l S P ' @.[ ^.KXpX_ @.| I Z C e 3 ; $ $ o X X X         ",
"O             X o & = 4 0 l C D | %.[ ~.KX;X[ %.| W C l q 3 : & # X X                   X o # = 3 6 k Z D Y [ _ MXZXz.$.k.#.$.$.$.$.$.$.$.[ [ [ _ _ _ _ _ _ _ _ _ _ _ _ _ _ _ _ _ _ _ _ _ _ _ _ _ _ _ _ _ _ _ _ _ _ _ _ _ _ _ _ _ _ _ _ _ _ _ _ _ _ _ _ _ _ _ _ _ _ _ _ _ _ _ _ _ _ _ _ _ _ _ _ _ _ _ _ _ _ _ _ _ _ _ _ _ _ _ _ _ _ _ _ _ _ _ _ _ _ _ _ _ _ _ _ _ _ _ _ _ _ _ _ _ _ _ _ _ _ _ _ _ _ _ _ _ _ _ _ _ _ _ _ _ _ _ _ _ _ _ _ _ _ _ _ _ _ _ _ _ _ _ _ _ _ _ _ _ _ _ _ _ _ _ _ _ _ _ _ _ _ _ _ _ _ _ _ _ _ _ _ _ _ _ _ _ _ _ _ _ _ _ _ _ _ _ _ _ _ _ _ _ _ _ _ _ _ _ _ _ _ _ _ _ _ _ _ ` ` } } [ $.` ` ` z.k.k.$.-.DXNX} { ' P C 0 6 3 = # o                     o o o # = 6 e l S P ' @.[ ^.KXpX_ @.| I Z C e 3 ; $ # o X X X       O ",
"O       X     X o # : 4 h l C S | %.[ ~.KX;X[ %.| W C l q 3 : & # X X               X X X o $ = 3 6 k Z P ' $.` gXGXz.x.x.x.l.#.#.*.*.&.%.%.%.{ { { { { @.@.@.{ { { { { { { { { { { { { { { { { { { { { { { { { { { { { { { { { { { { { { { { { { { { { { { { { { { { { { { { { { { { { { { { { { { { { { { { { { { { { { { { { { { { { { { { { { { { { { { { { { { { { { { { { { { { { { { { { { { { { { { { { { { { { { { { { { { { { { { { { { { { { { { { { { { { { { { { { { { { { { { { { { { { { { { { { { { { { { { { { { { { { { { { { { { { { { { { { { { { { { { { { { { { { { { { { { { X.X.&.#.k.k.l.l.m.m.x.$.LXNX} @.[ Y C e 5 4 ; $ o X                 o   o o $ ; 6 e l S I ' @.[ ^.KXpX_ @.| I D C e 3 ; & # o X X X         ",
"O             X o # ; 4 h l C S | %.[ ~.KX;X[ @.| W Z l q 9 3 & # o X                 X X o $ $ ; 6 l C I ' $.` xXGXN.x.I.x.l.&.*.*.%.%.%.X.X.X.X.| | | X.X.X.X.{ ' ' ' ' | X.| ' ' ' ' ' ' ' ' ' ' | ' ' ' | ' | ' | ' | ' | ' | ' | ' | ' | ' | ' | ' ' ' ' ' | ' | ' | ' | ' | ' | ' | ' | ' | ' | ' | ' | ' | ' | ' | ' | ' | ' | ' | ' | ' | ' | ' | ' | ' | ' | ' | ' | ' | ' | ' | ' | ' | ' | ' ' ' | ' | ' | ' | ' | ' | ' | ' | ' | ' | ' | ' ' ' | ' | ' | ' | ' | ' | ' | ' | ' | ' | ' | ' ' ' | ' | ' | ' | ' | ' ' ' | ' | ' | ' | ' | ' | ' | ' X.X.X.| | | | ' ' ' ' ' ' ' ' ' X.| | o.%.*.&.&.l.v.m.m.x.#.HXNX{ &.{ Y S e q 4 : $ o X                 o   o o $ ; 6 e l S I ' @.[ ^.KXpX_ @.| I Z C e 3 ; $ # o   X X         ",
"O             X o # ; 4 h l C S | X.[ ~.KX;X[ @.| W C l q 3 3 = # o X                   X o $ $ , 6 k C I ' $.$.xXGXN.x.I.m.l.&.*.*.*.X.X.| | ' T T T T T T T T T T T T T ' ' ' ' ' ' ' ' ' ' ' T T ' ' T T T T T T T T T ' T T T T T T T ' ' T T T ' ' T T T T T T T T T T T T T ' ' ' T T T T T T T T T T T T T ' ' ' T T T T T T T T T T T T T ' ' ' T T T T T T T T T T T T T ' ' ' T T T T T T ' ' T T T T T T T T ' ' T T T T T T T ' ' T T T ' ' T T T T T T T T ' ' T T T T T T T ' ' T T T ' ' T T T T T T T T T ' T T T T T T T ' ' T T T ' T T ' T T T T T T T T T T T T T T T T T T T T |  .X.*.*.*.*.v.m.I.x.k.LXNX{ &.{ Y S l h 6 : $ # X                 o   o o $ ; 6 e l S P ' @.[ ^.KXpX_ @.X.I Z C e 3 ; = $ o X X X       O ",
"O             X o # : 4 h l C S | X.[ ~.KX;X[ @.| W C l q 3 3 = # o X                   X o $ = ; 8 l S P ' $.$.xXGXN.x.I.x.v.*.=.+.+...R R P P P S P S P P P P P P P P P P P P P P P P P P P P P P P P P P P P P P P P P P P P P P P P P P P P P P P P P P P P P P P P P P P P P P P P P P P P P P P P P P P P P P P P P P P P P P P P P P P P P P P P P P P P P P P P P P P P P P P P P P P P P P P P P P P P P P P P P P P P P P P P P P P P P P P P P P P P P P P P P P P P P P P P P P P P P P P P P P P P P P P P P P P P P P P P P P P P P P P P P P P P P P P P P P P P P P P P P P P P P U U R ..O.-.+.*.t.m.m.x.k.LXNX[ &.@.T S C h 6 : $ o X                 o   o o $ ; 6 e C S P ' @.[ ^.KXpX_ @.X.I Z C e 3 ; = $ o X X X       O ",
"O             X o # : 4 h l C S | %.[ ~.KX;X[ @.| W Z l q 3 : = # o X                   X o $ = 3 6 C D I ' $.$.mXGXN.x.m.l.t.+.+./ / ~ K K A A l e e e e e e e A A A A A A A A A A A A A A A A A A A A A A A A A A A A A A A A A A A A A A A A A A A A A A A A A A A A A A A A A A A A A A A A A A A A A A A A A A A A A A A A A A A A A A A A A A A A A A A A A A A A A A A A A A A A A A A A A A A A A A A A A A A A A A A A A A A A A A A A A A A A A A A A A A A A A A A A A A A A A A A A A A A A A A A A A A A A A A A A A A A A A A A A A A A A A A A A A v v e e e e e e e e e e e e e A A K K ^ ~ ) ) +.*.v.x.k.` JXNX[ &.%.T S C h 6 : $ o X X               o   o o $ ; 6 e l S P ' @.[ ^.KXpX_ @.| I Z C e 3 ; = $ o X X X       O ",
"O             X o # : 4 h l C S | %.[ ~.KX;X[ @.| W Z l q 3 : = # X X                   X o $ = 4 6 A D I ' $.` mXGXz.x.x.l.O./ ) ( ( K K v t t t t 8 8 8 8 8 8 t t t t t t t t t t c c c c c t c c c c c t c c c c c t c c c c t t c c c c c t c c c c c c c c c c c c c t t t c c c c c c t t c c c c c c t t c c c c c c t t c c c c c c t t c c c c c c t t c c c c c c t t c c c c c c t t c c c c t t c c c c c t c c c c t t c c c c c t c c c c t t c c c c c t c c c c t t c c c c c t c c c c t t c c c c c t c c c c c c c c c c c c c c c c c c c c t t t t t t t t t t t t t t t t t t c v K ( ( ( / ..l.l.k.` JXNX[ &.%.T S C h 8 : $ o X                 o   o o $ ; 6 e l S P ' @.[ ^.KXpX_ @.| I Z C e 3 ; = $ o X X X       O ",
"O             X o # : 4 h l C S | %.[ ~.KX;X[ @.| W Z l q 3 : & # o X                   X o $ ; 6 h Z D I ' $._ mXKXz.k.l.%.! L ( ( K v v c 8 8 8 8 9 9 9 9 9 8 8 8 8 8 8 8 t 8 c c c c c c c c c c c c c c c c c c c c c c c c c c c c c c c c c c c c c c c c c c c c c c c c c c c c c c c c c c c c c c c c c c c c c c c c c c c c c c c c c c c c c c c c c c c c c c c c c c c c c c c c c c c c c c c c c c c c c c c c c c c c c c c c c c c c c c c c c c c c c c c c c c c c c c c c c c c c c c c c c c c c c c c c c c c c c c c c c f c f c f c c f f 8 8 8 8 8 8 8 8 8 8 8 8 8 8 8 8 c v v K ( L L  .v.l.k.$.JXAX} &.%.' S A h 8 ; > o O                 o   o # $ ; 9 e l S P ' @.[ ^.KXpX_ @.| I Z C e 3 ; & # o X X X       O ",
"              X o # = 4 q k C D | %.[ ~.KX;X[ %.| W Z l q 3 : & # o X                   o # = ; 9 h Z I T ' #._ mXLXz.k.k.{ ~ L L K v v f 8 6 6 6 4 4 4 9 9 9 4 9 6 6 8 8 6 6 6 8 8 8 8 8 8 8 8 f f f f 8 8 f f f f 8 8 8 f f f 8 8 f f f f f 8 f f f f f f f f f f f f f f f 8 f f f f f f f 8 f f f f f f f 8 f f f f f f f 8 f f f f f f f 8 f f f f f f f 8 f f f f f f f 8 f f f f f f f 8 f f f f f 8 f f f f f 8 f f f f f 8 f f f f f 8 f f f f f 8 f f f f f 8 f f f f f 8 f f f f f 8 f f f f f 8 f f f f f 8 f f f f 8 8 8 f f f f 8 8 8 8 8 8 8 8 8 8 6 9 9 9 6 6 6 6 6 6 6 6 6 6 9 9 9 8 t v v v K ^ ! t.l.l.$.JXAX} &.%.' D H c 8 ; > o O X               o   o # $ ; 9 e l S P ' @.[ ^.KXpX_ @.X.I Z C e 3 ; & # o X   X       O ",
"                o # ; 6 q l C D | X.[ ~.KX;X[ %.| W C l q 9 3 = # o X                   o # = ; 9 t C P T { @.} IXJXz.k.*.| I ^ K v v c 8 6 3 : = = = = = = : : 3 3 3 6 4 6 6 i 5 5 i i h h h c f 8 8 8 8 8 8 8 8 8 8 8 8 8 8 8 8 8 8 8 8 8 8 8 8 8 8 8 8 8 8 8 6 6 6 6 6 6 6 6 6 6 6 6 6 8 6 6 6 6 6 6 8 6 8 8 6 6 6 8 6 6 6 6 6 6 6 6 6 6 6 6 8 8 8 8 8 8 8 8 8 8 8 8 8 8 8 8 8 8 8 8 8 8 8 8 8 8 8 8 8 8 8 8 8 8 8 8 8 8 8 8 8 8 8 8 8 8 8 8 6 6 6 6 6 6 6 6 6 6 6 6 6 6 6 6 8 8 6 6 6 6 8 8 6 6 6 6 6 6 6 6 6 6 6 6 6 6 6 9 9 9 9 8 8 8 8 8 8 8 8 8 8 8 9 9 3 9 3 3 ; ; ; ; ; ; = = = = = = = ; 3 8 8 c v K G U %.l.l.$.JXAX} &.{ T S A h 8 : > # X X               o   X o % ; 9 e C S P ' @.[ ^.KXpX[ @.X.I D C e 3 ; & # o X           O ",
"                o # ; 3 q l C D | X.[ ~.KX;X[ %.| W Z l q 9 3 = # o o                 X o # = ; 9 t C P T { %.} IXJXc.k.%.| R U K v c 8 6 3 = = = & = = = = = = = ; 3 3 3 4 6 6 6 5 6 6 6 q h 6 8 8 8 8 8 8 8 8 8 8 8 8 8 8 8 8 8 8 8 8 8 8 8 8 8 8 8 8 8 8 8 8 8 8 8 8 8 8 8 8 8 8 8 8 8 8 8 8 8 8 8 8 8 8 8 8 8 8 8 8 8 8 8 8 8 8 8 8 8 8 8 8 8 8 8 8 8 8 8 8 8 8 8 8 8 8 8 8 8 8 8 8 8 8 8 8 8 8 8 8 8 8 8 8 8 8 8 8 8 8 8 8 8 8 8 8 8 8 8 8 8 8 8 8 8 8 8 8 8 8 8 8 8 8 8 8 8 8 8 8 8 8 8 8 8 8 8 8 8 8 8 8 8 8 8 8 8 8 8 8 9 9 9 9 8 8 8 8 8 8 8 8 8 9 9 9 9 9 3 3 ; ; ; % $ $ $ $ $ $ $ $ & = y 7 8 8 v K K U X.&.k.$.JXAX} #.{ Y S A h 8 : = # X X X             o   X o % ; 9 e C S I R %.[ ^.KXpX[ @.X.I D C e 3 , $ # o X           O ",
"              X o # ; 3 q l C D | X.[ ~.KX;X[ @.| W C l q 9 3 = # o X                 X o # $ ; 9 t C P T { %.} IXJXc.k.%.| I G v c 8 6 3 = $ # # # # # # # # & & > ; ; : 3 6 8 6 8 8 9 8 8 8 8 f f f f f f f f f f f f f f f f f f f f f f f f f f f f f f f f c f f f f f f f f f f f f f f f f f f f f f f f f f f f f f f f c f f f f f f f i i i i i i i i i i f f f f f f i i f f f f f f f f f f f f f f f f f f f f f f f f f f f f f f f f f f f f f f f f f f f f f f f f f f f f f f f f f f f f f f f f f f f f f f g g g g f f f f f i i i i u u 9 6 3 3 3 3 ; = = $ $ $ # # # # # # $ y y 3 9 c v A E X.&.k.$.JXAX} #.{ Y S A h 8 : = # X X X             o   X o % ; 9 e C S I R %.[ ^.KXpX` @.X.I D C e 3 , $ # o X           O ",
"        X     X o # ; 3 q l C D | X.[ ~.KX;X[ @.| W Z l q 9 3 = # o X                 X o # $ ; 9 t C S T { %.} IXJXc.k.%.| I F v t 6 4 1 $ # # # # # # # # # # & & > ; : 3 3 8 8 8 8 8 8 8 t t c v v v v v v v v v v v v v v v v v v v v v v v j v j v j v j v j j j v v j j j j j j v v v j j v v j j j v v v j j v v v v j j j j j v v j j j v v v v v v v v j v v v v v v v j v v v v v v v v v v v v v v v v v v v v v v v v v v v v v v v j v j v j v j v v v v c v c j v j v j v j v j c j c j v j v j v v v v c v c j j f f f c j c v v v c v c i f i f 6 6 6 3 3 ; ; $ # # # # o o o o o # $ y 3 6 t v A P { &.k.$.JXAX} #.{ Y S A h 8 : = # X X               o X X # # ; 9 e C S I T %.[ ^.KXpX` @.X.I D C e 3 , $ # o X           O ",
"        X     X o # ; 3 q k C D | X.[ ~.KX;X[ %.| W Z l q 9 3 = # o X                 X o # $ ; 9 t C S T { %.} gXJXz.k.%.| P F v 8 6 3 = $ # # # o # # # # # $ & & ; : 3 4 6 6 c t c v v v c v v l l l v l l l l l l l v l v l l l v v v l v l v l v l v l v l l l l l l l l l l l l l l l l l l l l l l l l l l l l l l l v l l l l l l l l l v l v l v l v l v l v l l l v l v l v l v l v l v l v l v l v l v l v l v l v l v l v l v v v l l l l l l l v l l l l l l l l l l l l l v l v l l l l l l l v l l l l l l l l l v v v v v v A A l v l l l l l h q 0 0 6 7 1 = = = $ # # # o o o o # $ y 3 6 q l A S ' &.k.$.JXAX} #.{ Y S A h 8 : = # X X               X   X o # ; 9 e C S I T %.[ ^.KXpX` @.X.I D C e 3 , & # o X           O ",
"        X     X o # ; 3 q k C D | X.[ ~.KX;X[ @.| W Z l q 9 3 = # o X                 X o # $ ; 9 t C S T { %.} gXJXz.k.%.Q P F v 8 6 3 = # # # # # # # # # # $ = 1 1 7 6 0 q l l l C C C C C C Z C F C F C F C F C F C F C F C F C F C F C F C F F F C F F F F F F F F F F F F G F G F F F F F F C F C F C F C F C F C F C F F F F F F F F F F S S S S S C S C C C C C C C C C C C C C C C C C C C C C C C S C C C C C C C C C F C F C F C F C F C F C F C F C F C F C F C F C F C F C F C F C F C F C F C F C F C F C F C F C C C F F F F G F F F F C C C C C e e w 0 0 7 1 1 = $ # # o o X o o # $ $ ; 6 q l A S ' &.k.$.JXAX} #.{ Y S A j 8 : = # X X               X   X o # ; 9 e C S I T %.[ ^.KXpX` @.X.I D C e 3 , & # o X           O ",
"              X o # ; 3 q k Z D | X.[ ~.KX;X[ @.| W C l q 9 3 = # o X                 X o # = ; 9 8 C S T { %.Y gXJXz.k.%.Q P F h 8 6 3 = $ # o o o o # # # = = 7 r 0 r w N C S D P I I W W W W I I Y P Y P Y P Y I Y I Y I Y P Y P Y P Y P Y P Y P Y P Y P Y Y Y Y Y Y Y Y Y Y Y Y Y Y Y Y Y Y Y P Y P Y P Y P Y P Y P Y P Y Y Y Y Y Y Y Y Y Y Y P Y P Y P Y P P P P P P P Y P P P P P P P P P P P P P P P P P P P P P P P P P Y P Y P Y P Y P Y P Y P P P Y P Y P Y P Y P Y P Y P Y P Y P Y P Y P Y P P P Y P Y P Y P Y P Y Y Y Y Y Y Y Y Y Y Y Y Y P P P P S N N N w 0 0 5 1 1 = # # o X X X o o % y ; 6 q v A P ' &.k.$.JXAX} #.{ Y S A h 8 : = # X X               X   X o % ; 9 e C S I R %.[ ^.KXpX` @.X.I D C e 3 , & # o X           O ",
"              X o # ; 3 q k Z D | X.[ ~.KX;X[ %.| W C l q 9 3 = # o X                 X o # $ ; 9 8 C S T { %.Y gXJXz.k.%.Q P G e 6 6 3 = # o o o o o # # # = = r w w N N N P Y Y T Q Q | |  .| | ' ' ' ' ' ' ' ' ' ' ' ' ' ' ' ' ' ' ' ' ' ' ' ' ' ' T ' ' ' ' ' ' ' ' ' ' ' ' ' ' ' ' ' ' ' ' ' ' ' ' ' ' ' ' ' ' ' ' ' ' ' ' ' ' ' ' ' ' ' ' ' ' ' ' ' ' ' ' ' ' ' ' ' ' ' ' ' ' ' ' ' ' ' ' ' ' ' ' ' ' ' ' ' ' ' ' ' ' ' ' ' ' ' ' ' ' ' ' ' ' ' ' ' ' ' ' ' ' ' ' ' ' ' ' ' ' ' ' ' ' ' ' ' ' ' ' ' ' ' ' ' ' ' ' ' ' ' ' ' ' ' ' ' ' ' ' ' ' ' ' T T Y Y S N N N w r 0 5 1 = $ # o o     o o % $ ; 6 6 e A P X.&.k.$.JXAX} #.{ Y S A h 8 : = # X X               X   X o % ; 9 e C S I R %.[ ^.KXpX` @.X.I D C e 3 ; & # o X           O ",
"              X o # ; 3 q k Z D | %.[ ~.KX;X[ %.| W Z l q 9 3 = # o o                 X o # $ ; 9 8 C S T { @.Y gXJXz.k.%.T I C h 6 6 : & # o o o o o $ = = ; 1 r N S N N R } B } { { X.X.X.X.X.| | | | | | | | | | | | | ' ' ' ' | | | ' ' ' ' ' ' ' ' ' ' ' ' ' ' ' ' | ' ' ' ' ' ' ' ' ' X.X.| ' ' ' ' ' ' ' ' ' ' ' ' ' ' ' ' ' ' ' | ' ' ' ' ' ' ' ' ' X.X.X.' ' ' ' ' ' ' ' ' ' ' ' ' | | ' ' | | ' ' ' ' ' ' ' ' | ' ' ' ' ' ' ' ' ' | | ' ' ' ' ' ' ' ' ' | | | ' ' ' ' ' ' ' ' ' ' ' ' ' ' | | ' ' ' ' ' ' ' ' | ' ' ' { { { X.| | | | | | | | { { { ' Y U P S w N w 0 5 1 = & # o O   o # % y ; 4 6 l A S ' &.k.$.JXAX_ #.{ Y S l h 8 : = # X X               o   X o % ; 9 e l S I T %.[ ^.KXpX` @.X.I D C e 3 , $ # o X           O ",
"              X o # ; 3 q l Z D | %.[ ~.KX;X[ %.| W Z l q 9 3 = # o o                 X o # $ ; 9 8 C S T { @.Y gXJXz.k.%.T I C h 6 6 : & # o o o o o $ = = 3 7 z N S S P Y B -.} } } $.} } } } } } } } ' } ' } } } } ' } } } } } } } } } } } } } } } } } } } } } } } } } } } } } } } } } } } } } } } } } } } } } } } } } } } } } } } } } } } } } } } } } } } } } } } } } } } } } } } } } } } } } } } } } } } } } } } } } } } } } } } } } } } } } } } } } } } } } } } } } } } } } } } } } } } } } } } } } } } } } } } } } } } } } } } } ' } ] ' O.] ] ] { O.{ O.Y Y B N E S r k 5 7 1 = # o O   o o % $ ; 4 6 h A S ' &.k.$.JXAX} #.{ Y S l h 8 : = # X X               o   X o % ; 9 e C S I T %.[ ^.KXpX` @.X.I D C e 3 , $ # o X           O ",
"O             X o # ; 3 q l C D | %.[ ~.KX;X[ %.| W Z l q 9 3 = # o X                 X o # $ ; 9 8 C S T { X.Y IXJXz.k.%.T I C e 6 6 : & # o o o o # & = 3 1 5 k k S N N -.B -._ _ _ _ _ _ _ _ B B B B B B B B B B R R B B B B B B B B B B B B B B B B B B B B B B B B B B B B B B B B B B B B B B B B B B B B B B B B B B B B B B B B B B B B B B B B B B B B B B B B B B B B B B B B B B B B B B B B B B B B B B B B B B B B B B B B B B B B B B B B B B B B B B B B B B B B B B B B B B B B B B B B B B B B B B B B B B B B B B _ _ B B R B } _ _ _ } _ } } B } -.N P E r C 0 5 1 = & o O   o o % $ ; 4 6 h A N ' &.k.$.JXAX_ #.{ Y S l h 8 : = # o X X             o   o # % ; 9 e C S P T %.[ ^.KXpX` @.X.I D C e 3 , & # o X           O ",
"O             X o # ; 3 q l C D | %.[ ~.KX;X[ %.| W Z l q 9 3 = # o X                 X o # $ ; 9 8 C S T { X.Y IXJXz.k.%.T I C e 6 6 : & # o o o o # & 1 3 3 5 5 k D S /.ZXPXLXHXHXPXJXJXJXJXJXLXLXHXLXHXLXHXHXHXLXHXLXHXLXLXLXHXHXHXHXLXLXLXLXHXHXHXHXLXLXLXLXHXHXHXHXHXHXHXHXLXLXLXLXHXHXHXHXLXHXHXHXHXHXLXLXLXLXLXLXLXLXLXLXHXHXHXHXHXHXHXHXLXLXLXLXHXHXHXHXHXHXHXHXHXHXLXLXLXLXLXLXHXLXHXHXLXLXHXHXHXHXLXLXHXHXHXHXHXHXLXLXLXLXLXLXHXLXHXHXLXLXLXLXLXLXLXLXLXLXLXLXLXLXLXLXHXHXHXHXLXLXLXLXLXLXHXHXHXHXLXLXLXLXLXLXLXLXLXLXHXHXHXHXHXHXHXHXHXHXHXHXHXHXHXHXGXFXCX~.R U N w w 0 5 = & o O   o o % $ ; 4 6 h A S ' &.k.} JXAX} #.{ Y S l h 6 : = # o X X             o   X # % ; 9 e C S I T %.[ ^.KXaX` @.X.I D C e 3 , & # o X           O ",
"O             X o # ; 3 q l C D | %.[ ~.KX;X[ %.| W C l q 9 3 = # o X                 X o # = ; 9 8 l S Y ' X.Y IXJXz.k.%.T I C e 6 6 3 = # o o o o # = 1 3 6 0 C U P N ~.KXZXgXMXMXMXMXMXMXMXMXMXMXMXMXMXMXMXMXMXMXMXMXMXMXMXMXMXMXMXMXMXMXMXMXMXMXMXMXMXMXMXMXMXMXMXMXMXMXMXMXMXMXMXMXMXMXMXMXMXMXMXMXMXMXMXMXMXMXMXMXMXMXMXMXMXMXMXMXMXMXMXMXMXMXMXMXMXMXMXMXMXMXMXMXMXMXMXMXMXMXMXMXMXMXMXMXMXMXMXMXMXMXMXMXMXMXMXMXMXMXMXMXMXMXMXMXMXMXMXMXMXMXMXMXMXMXMXMXMXMXMXMXMXMXMXMXMXMXMXMXMXMXMXMXMXMXMXMXMXMXMXMXMXMXMXMXMXMXMXMXMXMXMXMXMXMXMXMXMXMXMXMXMXMXMXMXMXxXGXwXB N R F w 0 5 1 = o o   o o % $ ; 3 6 h A S ' &.k.$.JXAX_ #.{ Y S l h 8 : = # X X X             o   X o % ; 8 e C S I T %.[ ^.KXaX` @.X.I D C e 3 ; & # o             O ",
"              X o # ; 3 q l C D | %.[ ~.KX;X[ %.| W Z l q 9 3 = # o X                 X o # $ ; 9 8 l S Y ' X.Y IXJXz.k.%.T I C e 6 6 3 = # o o o o $ = 3 6 6 q N S R Y ~.ZX/._ ` ` ` ` ` ` ` ` _ _ _ _ _ _ _ _ _ _ _ _ _ _ _ _ _ _ _ _ _ _ _ _ _ _ _ _ _ _ _ _ _ _ _ _ _ _ _ _ _ _ _ _ _ _ _ _ _ _ _ _ _ _ _ _ _ _ _ _ _ _ _ _ _ _ _ _ _ _ _ _ _ _ _ _ _ _ _ _ _ _ _ _ _ _ _ _ _ _ _ _ _ _ _ _ _ _ _ _ _ _ _ _ _ _ _ _ _ _ _ _ _ _ _ _ _ _ _ _ _ _ _ _ _ _ _ _ _ _ _ _ _ _ _ _ _ _ _ _ _ _ _ _ _ _ _ _ _ _ _ _ _ _ _ _ _ _ _ _ _ _ _ _ _ _ _ _ _ _ ` ` ` ` ` ` ` z.ZXwX} N E N N 0 5 3 = # o . o o % $ ; 3 6 h A S ' &.k.} JXAX_ #.{ Y S l h 8 : = # X X X             o X X o $ ; 8 e C S I T %.[ ^.KXpX` @.X.I D C e 3 ; & # o             O ",
"              X o # ; 3 q l C D | X.[ ~.KX;X[ %.| W C l q 9 3 = # o X                 X o # = ; 9 8 l S Y ' X.Y IXJXz.k.%.T I C e 6 6 3 = # o o o # & = 3 6 q e E B } } ~.GX/.$.k.z.l.l.l.&.&.*.@.@.@.@.@.@.@.@.@.@.@.@.@.@.@.@.@.@.@.@.@.@.@.@.@.@.@.@.@.@.@.@.@.@.@.@.@.@.@.@.@.@.@.@.@.@.@.@.@.@.@.@.@.@.@.@.@.@.@.@.@.@.@.@.@.@.@.@.@.@.@.@.@.@.@.@.@.@.@.@.@.@.@.@.@.@.@.@.@.@.@.@.@.@.@.@.@.@.@.@.@.@.@.@.@.@.@.@.@.@.@.@.@.@.@.@.@.@.@.@.@.@.@.@.@.@.@.@.@.@.@.@.@.@.@.@.@.@.@.@.@.@.@.@.@.@.@.@.@.@.@.@.@.@.@.@.@.@.@.@.@.@.@.@.@.@.@.@.&.&.k.k.l.l.l.l.$.z.GXaX-.B P N C e 5 3 = # o . o o % $ ; 3 6 h A S ' %.k.} JXAX_ #.{ Y S l h 8 : = # X X X             o   X o $ ; 6 e C S I T %.[ ^.KXaX[ @.X.I D C e 3 ; $ # o X           O ",
"              X o # ; 6 q l C D | X.[ ~.KX;X[ %.| W C l q 9 3 = # o X                 X o # $ ; 9 8 l S Y ' X.Y IXJXz.k.%.T P C e 6 6 3 = # o o o # & = 3 6 q e N } $._ /.GX/.k.x.x.l.l.&.*.%.%.%.%.%.%.%.%.%.%.%.%.%.%.%.%.%.%.%.%.%.%.%.%.%.%.%.%.%.%.%.%.%.%.%.%.&.%.&.%.&.%.&.%.&.%.&.&.&.%.%.%.%.%.%.%.%.%.%.%.%.%.%.%.%.%.%.%.&.%.&.%.&.%.&.%.&.%.&.&.&.%.%.%.%.%.%.%.%.%.%.%.%.%.%.%.%.%.%.%.%.%.%.%.%.%.%.%.%.%.%.%.%.%.%.%.%.%.%.%.%.%.%.%.%.%.%.%.%.%.%.%.%.%.%.%.%.%.%.%.%.%.%.%.%.%.%.%.%.%.%.%.%.%.X.X.X.X.X.X.X.X.X.X.X.%.%.%.%.%.*.&.&.l.l.l.v.l.#.F.KX;X} } Y P C e 5 4 = # o o o o % $ = : 6 h l S ' %.k.$.JXAX_ #.{ Y S l h 8 : = # X X               X   X o $ ; 6 e C S I ' %.[ ^.KXpX[ @.X.I D C e 3 ; & # o X           O ",
"O       X     X o # = 4 h l C D | %.[ ~.KX;X[ %.| W C l q 9 3 = # o o                 X o # $ ; 4 6 C S Y { { Y gXJXz.k.X.T P C t 8 3 ; $ # o X o # # 3 6 q q e P [ $.$./.GX/.k.x.x.l.*.o. ...| X.X.X.{ { { ' ' ' ' ' } } } } [ { { { X.X.X.X.X.X.X.X.{ X.X.X.X.X.{ @.{ %.{ %.{ %.{ %.{ %.{ %.X.X.X.X.X.X.X.X.X.X.X.X.X.X.X.X.X.X.X.%.X.%.X.%.X.%.X.%.X.%.X.%.X.X.X.X.X.X.X.X.X.X.X.X.X.X.X.X.X.X.X.X.X.X.X.X.X.X.X.X.X.X.X.X.X.X.X.X.X.X.X.X.X.X.X.X.X.X.X.X.X.X.X.X.X.X.X.X.X.%.X.%.X.X.X.%.X.| | | | | | | | T T | | | Q ' T R Y Y Y T Y ' ' | | *.*.&.l.l.l.l.G.KXpX_ @.' I S l i 4 = # # o o # % $ = ; 6 e e S | %.k.$.JXAX} #.{ Y S l h 8 : = # X X               X   X o # ; 9 e C S I ' %.[ ^.KXpX_ @.X.I D C 0 3 ; & # o X   X       O ",
"O             X o # = 4 h l C D | %.[ ~.KX;X[ %.| W Z l q 9 3 = # o o                 X o # $ : 4 i C S Y { { Y gXJXz.k.%.T P C t 8 3 ; $ # o X o # # 3 6 q q l P [ #.$.!.GX/.k.x.l.l.*.+./ / R ..] Q R R R R U U U U U U R R R ......................] ..........] ] ] ..] ..] ..] ..] ..] ........................................................| | ............................................................................| | ..............................] ........................R R R ~ R ~ R ~ R U R U R U U U U U U E U U U R R ..+.*.*.*.l.l.l.G.LXpX` &.' I S N i : $ % # # o # % $ = ; 6 e e S ' %.k.$.JXAX} #.{ Y S l h 8 : = # X X               X   X o # ; 9 e C S I ' %.[ ^.KXpX_ @.| I Z C 0 3 ; = # o X   X       O ",
"O             X o # = 4 h l C D | X.[ ~.KX;X[ &.| W Z l q 9 3 = # o X                 X o # $ : 4 i C S Y { { Y gXJXz.k.%.Y P C t 6 3 ; $ # o X o # # 3 6 q q l P ' @.[ !.KX/.k.x.l.*.*.+./ / ~ ^ K K K v K K K K K K K L K L L ^ L L L L L L L L L L ^ L L L L ^ ^ ^ ^ ^ ^ ^ ^ ^ ^ ^ ^ ^ ^ ^ ^ ^ ^ ^ ^ ^ ^ ^ ^ ^ ^ ^ ^ ^ ^ ^ ^ ^ ^ ^ ^ ^ ^ ^ ^ ^ ^ ^ ^ ^ ^ ^ ^ ^ ^ ^ ^ ^ ^ ^ ^ ^ ^ ^ ^ ^ ^ ^ ^ ^ ^ ^ ^ ^ ^ ^ ^ ^ ^ ^ ^ ^ ^ ^ ^ ^ ^ ^ ^ ^ ^ ^ ^ ^ ^ ^ ^ ^ ^ ^ ^ ^ L L ^ L L L L L L L L L L L ^ / / / / / ~ ^ ~ ~ ~ ^ ^ ~ G G G G G G G U U U U ^ / +.+.*.*.l.l.l.G.LXUX` &.' I S e i : ; % # # o # % $ ; : 6 e e S ' %.k.$.JXAX} #.{ Y S l h 8 : = # X X               X   X # # ; 9 e C D I | %.[ ^.KXpX_ @.| I Z C q 3 ; = # o X           O ",
"O             X o # = 4 h l C D | X.[ ~.KX;X[ %.| W Z l q 9 3 = # o X                 X o # $ : 4 i C S Y { { Y gXJXz.k.%.Y P C e 6 3 ; $ # o X o # = 3 6 q q l P ' @.} !.KX/.k.l.l.*.+.r./ ^ L K v v v v v v v v v v K L L L L L L L L L L L L L L L L L L L L L L L L L L L L L L L L L L L L ( ( ( ( ( ( ( ( ( ( ( ( ( ( ( ( ( ( ( ( ( ( ( ( ( ( ( ( ( ( ( ( ( ( ( ( ( ( ( ( ( ( ( ( ( ( ( ( ( ( ( ( ( ( ( ( ( ( ( ( ( ( ( ( ( ( ( ( ( ( ( ( ( ( ( ( ( ( ( ( ( L L L L L L L L L L L L L L L ) / / / ) / / L L L L L L K K K K K K K K K K K ^ / +.r.+.*.*.&.l.G.LXUX_ &.' T S e i 4 ; % # # o # % $ ; ; 8 t e S ' %.k.$.JXAX} #.{ Y S l h 8 : = # X X               X   X o # ; 9 e l D I | %.[ ^.KXpX_ @.| I Z C q 3 ; = # o X           O ",
"O             X o & = 4 h l C D | X.[ ~.KX;X[ %.| W C l q 9 3 = # o X                 X o # $ : 4 i z S Y { X.Y gXJXz.k.%.Y P C e 6 3 ; $ # o X o # = 3 6 q q l D ' { } !.KX/.#.k.*.o.+./ L L K v c c c c c v v v K K ^ ^ / / / ) ) ) ) ) ) ) ) ) ) ) ) ) ) ) ) ( ( ) ) ) ) ) ( ) ) ( ( ( ( ( ( ( ( ( ( ( ( ( ( ( ( ( ( ( ( ( ( ( ( ( ( ( ( ( ( ( ( ( ( ( ( ( ( ( ( ( ( ( ( ( ( ( ( ( ( ( ( ( ( ( ( ( ( ( ( ( ( ( ( ( ( ( ( ( ( ( ( ( ( ( ( ( ( ( ( ( ( ( ( ( ( ( ) ) ( ) ) ) ) ) ( ) ) ) ) ) ) ) ) ) ) ) ) ( ( L L L L K K v v v v v v v v K K L L / / +.o.*.*.k.G.LXUX_ &.' T S A i 4 ; $ # # o # % $ ; : 8 c l S ' %.k.$.JXAX} #.{ T S l h 8 : = # X X               X   X o # ; 9 e l D I | %.[ ^.KXpX_ @.| I Z C q 3 ; = # o X           O ",
"O             X o & = 4 h l C D | %.[ ~.KX;X[ %.| W Z l q 9 3 = # o X                 X o # $ : : i l S Y { X.Y gXJXz.k.%.Y P C e 6 3 ; $ # o X # # $ 3 6 q q l D T { } !.KX/.$.&.&.O./ L L K v c c t t t c v v v K K L ^ ^ ^ ^ ^ / / / / / / / / / / / / / / / / / / / / / / / / / / / / / / / / / / / / / / / / / / / / / / ) / / / / / / ) ) / / / / / / / / / / / / / / / / / / / / / / / ) / / / / / / / / / / / / / / / / / / / / / / / / / / / / / / / / / / / / / / / / / / / / / / / / / ) / / ) / L ( L L L L K v v v c c c c c c v v v K L ^ / ..| *.&.G.LXUX_ &.' T G A i 4 ; $ # # o # % $ ; : 8 c l S ' %.k.$.JXAX} #.{ Y S l h 8 : = # X X               X   X # # ; 9 e l D I | %.[ ^.KXpX_ @.| I Z C q 3 ; = # o X           O ",
"O             X o + = 4 h l C D | %.[ ~.KX;X[ %.| W C l q 9 3 = # o X                 X o # $ : 4 i l S Y { X.Y IXJXz.k.%.Y P C t 8 3 ; $ # o X # # = 3 6 q h l P | @.} !.KX/.$.&.%.| ^ L v v v t t t t t e l v v v K K K K L ^ / / / / / / / / / / / / / / / / / / / / / / / / / / / / / / / / / / / / / / / / / / / / / / / / / / / / / / / / / / / / / / / / / / / / / / / / / / / / / / / / / / / / / / / / / / / / / / / / / / / / / / / / / / / / / / / / / / / / / / / / / / / / / / / / / ~ ~ ~ ~ ~ ~ ~ ~ ~ ^ K K K K v c c f 8 8 8 f f v v L L ~ R | %.&.G.LXUX_ &.' T S A f 4 ; % $ # o # % $ ; : 8 h e S ' %.k.$.JXAX} #.{ Y S l h 8 : = # o X X             X   X # # ; 9 e C D I ' %.[ ^.KXpX_ @.X.I Z C q 3 ; = # o X           O ",
"O             X o + = 4 h l C D | %.[ ~.KX;X[ &.| W C l q 9 3 = # o X                 X o # $ : 4 i l S Y { X.Y IXJXz.k.%.T P C t 8 3 ; $ o o X # # = 3 6 q h l P | @.{ !.KX/.$.#.@.' U v v v t t t e q q e e l A H H K K K ^ ~ ~ ! ........ ................................................... . . . . . . . . . . . . . . . . . . . . . . . . . . . . . . . . . . . . . . . . . . . . . . . . . . . . . . . . . . . . . . . . . . . . . . . . . . . . . . . . ...............! ................] ] ] ] ] R R R ~ U ~ ~ G G A h 6 6 6 6 8 8 8 f v v K U R | %.&.G.LXUX_ &.' I G A i 4 ; $ $ # o # % $ ; : 8 h e S | %.k.$.JXAX} #.{ Y S l h 8 : = # o X X             X   X # # ; 9 e C S I | %.[ ^.KXpX_ @.X.I Z C q 3 ; = # o X           O ",
"O               o & = 4 h l C D | %.[ ~.KX;X[ &.| W C l q 9 3 = # o o                 X o # $ : 4 i l S Y ' { Y gXJXz.k.%.T P C t 8 3 ; $ # o X o # = 3 6 q q C I X.@.[ !.KX/.$.#.@.T D v v t t 8 8 6 6 0 q l C F U S R Y Y Y ] ' ' ' ' ' ' ' ' ' ' ' ' ' ' ' ' ' ' ' ' ' ' ' ' ' ' ' ' ' ' ' ' | | | | | | | | | | | | | | | | | | | | | | | | | | | | | | | | | | | | | | | | | | | | | | | | | | | | | | | | | | | | | | | | | | | | | | | | | | | | | | | | ' ' ' ' ' ' ' ' ' ' ' ' ' ' ' ' | | | | | | | Q | Q T D D W D G l q 6 6 6 6 9 9 8 f v K G Y ' %.@.G.LXUX_ &.' I S e 6 : ; $ $ # o # % $ ; : 6 h l S ' %.k.$.JXAX_ #.{ Y S l h 8 : = # X X X             X   X # # $ 9 e C F I ' %.[ ^.KXpX_ @.X.I Z C q 3 ; = # o X           O ",
"O               o & = 4 h l C D | %.[ ~.KX;X[ &.| W C l q 9 1 = # o o                 X o # $ : 4 i l S Y ' X.Y IXJXz.k.%.T P C e 8 3 ; $ # o X o # = 3 6 q q C I X.@.[ !.KX/.$.#.@.' D v c t t 8 9 6 6 q 0 C S S Y P Y [ { @.@.@.%.%.%.%.%.*.%.@.@.@.@.@.@.@.@.%.%.&.%.&.%.&.%.&.%.&.%.&.@.&.%.&.%.*.%.*.%.*.%.*.%.*.%.*.%.*.%.*.%.*.%.*.%.*.%.&.%.*.%.*.%.*.%.*.%.*.%.*.%.*.%.*.%.&.%.*.%.*.%.*.%.&.%.*.%.*.%.*.%.*.%.*.%.*.%.*.%.&.%.*.%.*.%.*.%.*.%.*.%.*.%.%.%.%.%.%.@.%.%.%.%.%.%.%.@.@.%.%.*.*.%.%.%.%.X.' X.o.Q Q I I C l h q 6 6 9 9 9 8 f v A G Y ' %.@.G.LXUX_ &.' I S e i : ; $ $ # o # % $ ; : 6 h l S ' %.k.$.JXAX_ #.{ Y S l h 8 : = # X X X             X   X # % $ 9 e C F I ' %.[ ^.KXpX_ @.X.I Z C q 3 ; = # o X           O ",
"O             X o & = 4 h l C D | %.[ ~.KX;X[ &.| W C l q 9 1 & # o X                 X o # $ : 4 i C S Y { X.Y IXJXz.k.%.T P C e 6 3 ; $ # o o o # = 3 6 q q C I { @.[ !.KX/.$.#.@.' D v c t 8 9 4 4 6 5 k C S N } @.@.@.#.$.k.&.&.&.&.&.&.&.&.&.&.&.&.&.&.&.&.&.&.&.&.&.&.k.&.&.&.&.&.&.&.k.&.#.#.k.#.#.#.#.#.#.#.#.#.#.#.k.#.#.#.#.#.#.#.k.#.#.#.#.#.#.#.#.#.#.#.k.#.#.#.#.#.#.#.#.#.#.#.#.#.#.#.#.#.#.#.#.#.#.#.#.#.k.#.k.#.#.#.#.#.k.#.k.#.#.#.#.#.k.#.k.#.&.&.&.&.&.&.&.&.&.&.&.&.&.&.&.&.&.%.&.&.&.&.&.&.&.&.*.{ *.' X.N C l q 0 7 6 3 9 8 f v A G Y ' %.@.G.LXUX_ &.' I S e i : ; $ $ # o # % $ ; : 8 c e S ' %.k.$.JXAX_ #.{ Y S l h 6 : = # X X X             X   X o % ; 9 e C D I | %.[ ^.KXpX_ @.X.I Z C q 3 ; = # o X           O ",
"O             X o & = 4 h l C D | %.[ ~.KX;X[ &.| W C l q 9 = & # o X                 X o # $ : 4 i C S Y { X.Y IXJXz.k.%.T P C e 6 3 ; $ # o o o # = 3 6 q q C I { @.[ !.KX/.$.$.@.T D v c t t 6 6 4 6 0 k C S P P Y } [ [ _ $.} } } [ } } } } [ [ [ [ [ [ [ [ } } } } } [ [ [ } } } } } } } } $.` ` ` ` ` ` ` ` ` ` ` ` ` ` ` ` ` ` ` ` ` ` ` ` ` ` ` ` ` ` ` ` ` ` ` ` ` ` ` ` ` ` ` ` ` ` ` ` ` ` ` ` ` ` ` ` ` ` ` ` ` ` ` ` ` ` ` ` ` ` ` ` ` ` ` ` ` ` ` } } } } } } } } [ [ [ [ } } } } } } } [ [ $.$.$.$.$._ _ } B B ] S C w 0 0 6 9 3 8 8 v A S Y ' %.@.G.LXUX_ &.' I S e i 4 ; $ $ # o # % $ ; : 8 c e S ' %.k.$.JXAX_ #.{ Y S l h 6 : = # X X               X   X # # $ 9 e C D I | %.[ ^.KXpX_ @.| I Z C q 3 ; = # o X           O ",
"O       X     X o # = 4 h l C D | %.[ ~.KX;X[ %.| W Z l q 9 3 $ # o X                 X o # $ : 4 i C S Y { { Y gXJXz.k.%.Y P C t 8 3 ; $ # o X o # = 3 6 q q C P ' @.} !.KX/.$.#.{ T D v c t t 6 0 q 0 k k z C C C !.MXZXPXNXMXNXAXAXAXAXAXAXAXAXAXAXAXAXAXAXAXAXAXAXAXAXAXAXAXNXNXNXNXAXAXAXAXAXAXAXAXAXAXAXAXAXAXAXAXAXAXAXAXAXAXAXAXAXAXAXAXAXAXAXAXAXAXAXAXAXAXAXAXAXAXAXAXAXAXAXAXAXAXAXAXAXAXAXAXAXAXAXAXAXAXAXAXAXAXAXAXAXAXAXAXAXAXAXAXAXAXAXAXAXAXAXAXAXAXAXAXAXAXAXAXAXAXAXAXAXAXAXAXNXNXNXNXNXNXNXNXMXNXSXSXMX^.r V N C N w 0 7 9 9 8 8 c A S I ' %.@.G.LXUX_ %.T I F e i : ; $ # # o # % $ ; ; 6 c l S ' %.k.$.JXAX} #.{ Y S l h 6 : = # X X               X   X o % ; 3 e C D I | %.{ ^.KXpX_ @.| I Z C q 3 ; $ # o X           O ",
"O       X     X o # = 4 h l C D | %.[ ~.KX;X[ %.| W Z l q 9 3 $ # o X                 X o # $ : 4 i C S Y { { Y gXJXz.k.%.Y P C t 6 3 3 $ # o X o # = 3 6 q e l P ' { } !.KX/.[ @.{ T D v c t t 6 q q q l l C C C F aXKXNXPXPXJXSXSXSXSXSXSXSXSXSXSXSXSXSXSXSXSXSXSXSXSXSXSXSXSXSXSXSXSXSXSXSXSXSXSXSXSXSXSXSXSXSXSXSXSXSXSXSXSXSXSXSXSXSXSXSXSXSXSXSXSXSXSXSXSXSXSXSXSXSXSXSXSXSXSXSXSXSXSXSXSXSXSXSXSXSXSXSXSXSXSXSXSXSXSXSXSXSXSXSXSXSXSXSXSXSXSXSXSXSXSXSXSXSXSXSXSXSXSXSXSXSXSXSXSXSXSXSXSXSXSXSXSXSXSXSXSXJXJXAXNXJXgXV V N C C N e q 6 3 9 8 c l S P ' X.@.G.LXUX_ %.T I F e i : ; $ # # o # % $ ; ; 6 e l S ' %.k.$.JXAX_ #.{ Y S l h 6 : = # X X               X   X # $ ; 9 e C D I | %.{ ^.KXpX_ @.| I Z C q 3 ; $ # o X           O ",
"O             X o # = 4 h l C D | X.[ ~.KX;X[ %.| W C l q 9 3 $ # o X                 X o # = : 4 i C S Y { { Y gXJXz.k.%.Y P C t 8 3 ; $ o o X o # = 3 6 q q l D T [ Y !.KX/.[ @.[ T Z j f 8 8 6 6 6 h l C F P B B dXPXz.` _ _ $.$.$.$.$.$.$.$.$.$.$.$.$.$.$.$.$.$.$.$.$.$.$.$.$.$.$.$.$.$.$.$.$.$.$.$.$.$.$.$.$.$.$.$.$.$.$.$.$.$.$.$.$.$.$.$.$.$.$.$.$.$.$.$.$.$.$.$.$.$.$.$.$.$.$.$.$.$.$.$.$.$.$.$.$.$.$.$.$.$.$.$.$.$.$.$.$.$.$.$.$.$.$.$.$.$.$.$.$.$.$.$.$.$.$.$.$.$.$.$.$.$.$.$.$.$.$.$.} } } -.$.$.$.$.` _ _ =.ZXxX_ } P S S C e q 6 9 9 8 c l S I ' X.@.G.LXUX_ %.T I F e i : ; $ # # o # % $ ; ; 6 e l S ' %.k.$.JXAX_ #.{ Y S l h 6 : = # X X               X   X o % % 3 e C F I | %.{ ^.KXpX_ @.| I D C q 3 ; $ # o X           O ",
"O             X o # = 4 h l C D | X.[ ~.KX;X[ %.| I C e q 9 3 $ # o X                 X o # = : 4 i l S Y ' @.Y gXLXz.k.%.T P C e 8 3 ; $ o o X o # = 3 6 q q l D T [ Y !.KX/.[ @.' I Z j f t 8 6 6 6 h l C E Y -._ dXPX` k.c.x.l.l.l.l.l.l.k.k.k.k.k.k.k.k.k.k.l.l.l.l.l.l.l.l.l.l.l.l.l.l.l.l.l.l.l.l.l.l.l.l.l.l.l.l.l.l.l.l.l.l.l.l.l.l.l.l.l.l.l.l.l.l.l.l.l.l.l.l.l.l.l.l.l.l.l.l.l.l.l.l.l.l.l.l.l.l.l.l.l.l.l.l.l.l.l.l.l.l.l.l.l.l.l.l.l.l.l.l.l.l.l.l.l.l.l.l.l.l.l.l.l.l.l.l.l.l.l.l.&.#.$.$.#.#.k.k.l.l.x.[ FXxX_ { Y P S C e q 8 8 8 f c v F P ' X.@.G.LXUX_ { T I S e 6 : ; $ $ # o o % $ = ; 6 e A S ' %.k.$.JXAX} #.{ Y S C h 6 : = # o X                   X o # % 3 e C F I Q %.[ ^.KXaX_ { | I D C q 3 ; = # o X           O ",
"O             X o # = 4 h l C D | X.[ ~.KX;X[ %.| I C e q 6 = = # o X                 X o # = : 6 h l C I ' @._ gXLXz.#.| W P N e 6 3 ; $ # o X o # = 3 6 q q l P ' { } !.KX/.[ @.[ P Z j c t t 6 6 f h e N Y ' { } sXHXk.x.x.x.l.v.v.v.l.&.&.*.&.&.l.l.l.l.l.&.*.*.l.l.l.l.l.l.l.v.v.l.l.l.l.l.l.l.l.l.l.l.l.l.l.l.l.l.l.l.l.l.l.l.l.l.l.l.l.l.l.l.l.l.l.l.l.l.l.l.l.v.l.l.l.l.v.v.v.v.l.l.l.l.l.l.l.l.v.v.v.v.l.l.l.l.l.l.l.l.l.l.l.l.l.l.l.l.l.l.l.l.l.l.l.l.v.v.l.l.l.l.l.l.t.t.t.t.t.t.t.&.*.&.*.*.*.*.l.l.l.x.x.k.PXgX_ { ' Y C l j 6 6 6 8 t c l C P ' %.@.G.KX^._ { ' I S e 8 , ; = # % X o # $ > > 6 e C S T X.#.$.JXNX} @.{ Y S C h 6 3 = # o X X               o o o # = 6 q l Z I T @.[ ^.KXpX_ { ' I Z C e 3 $ $ # o X           O ",
"O             X o # = 4 h l C D ' X.[ ~.KX;X[ %.| I C e q 6 = & # o X                 X o # = : 6 h l C I | @._ gXLXz.@.| W P F e 6 3 ; $ # o X o # $ 3 6 q q l D ' @.} !.KX/.[ @.' I Z j c c q 6 6 i h e N T ' { } sXHXk.x.x.v.v.v.v.v.t.*.o.o.O.*.*.l.*.*.=.=.t.t.t.u.v.v.v.v.v.v.v.v.u.u.u.u.v.v.v.v.v.v.v.v.v.v.v.v.v.n.v.n.v.v.v.v.v.v.v.v.v.n.v.n.v.v.v.v.n.n.n.v.v.n.n.n.v.v.v.v.n.n.n.v.n.n.n.v.v.v.v.v.n.v.v.v.v.v.v.v.n.v.v.v.v.v.v.v.n.v.v.v.v.v.v.v.v.v.v.v.v.v.t.t.t.t.t.t.t.7.7.o.*.*.*.O.O.*.v.v.v.m.x.k.PXgX_ @.X.T S l c 8 6 t t t c l C P ' %.@.G.KX^._ [ | W S e 8 3 : = % % X % # & > : 6 e C S T X.#.$.JXNX} @.{ Y S C h 6 3 = # o o                 o o o # = 6 q l C I T @.[ ^.KXpX_ { ' I Z C e 3 $ $ # o X           O ",
"O             X o # = 4 h l C D ' X.[ ~.KX;X' %.| I C e 6 6 - & # o X                 X o # $ : 6 h l C I | @._ gXLXz.@.| W P N t 6 3 ; $ # o X o # $ 3 6 q q l D ' { } !.KX/.[ @.' P Z j c c e q 6 i h e F T ' { } sXHXk.x.x.l.*.=.t.u.9.+.....+.O.*.=.t.u.u.u.u.u.u.u.u.u.n.n.n.n.n.n.u.u.u.u.u.u.n.n.n.n.n.n.u.u.u.u.u.u.n.u.n.n.n.n.u.u.u.u.u.u.n.u.n.n.n.n.n.u.u.n.n.n.n.n.n.n.n.n.n.n.n.n.n.n.u.n.n.n.n.n.u.n.u.u.n.n.n.n.n.n.u.u.n.n.n.n.n.n.u.u.n.n.n.n.n.n.n.z.z.=.=.=.=.=.=.=.O.+.O.+.O.O.O.+.+.+.t.v.v.v.x.k.JXIX_ { | T C l c 8 6 8 t t c l C P ' %.@.G.KX^._ [ | W S e 8 3 : = $ % % % # & > > 6 e C S T X.#.-.JXNX} @.{ Y S C h 6 3 = # o o                 o o o # = 6 q l C I T %.[ ^.KXpX_ { ' I Z C e 3 % & # o X           O ",
"O             X o # = 4 h l C D ' X.[ ~.KX;X' %.| I C e 6 6 - & # o X                 X o # $ : 6 h l C I | @._ gXLXz.@.| W P N t 6 3 ; $ # o X o # = 3 6 q q l D ' { } !.KX/.[ @.' P Z j c c q q i i h N F T ' X.} sXHXk.x.l.l.*.+.+.r.r./ / / +.+.r.r.r.u.u.u.u.u.u.u.u.u.u.n.n.n.n.u.u.u.u.u.u.u.u.u.u.u.u.u.u.u.u.u.u.u.u.u.u.u.u.u.u.u.u.u.u.u.u.u.u.u.u.u.u.u.u.u.u.u.u.u.u.u.u.u.u.u.u.u.u.u.u.u.u.u.u.u.u.u.u.u.u.u.u.u.u.u.u.u.u.u.u.u.u.u.u.u.u.u.u.u.u.u.u.u.;.;.;.;.;.=.+.+.+.+.+.+.+.+.+.+.r.r.u.t.*.l.l.#.JXIXB { | Y S l c f t t t t c l C P ' %.@.G.KX^._ { | W S e 8 3 : = % % X % # & > > 6 e C S Q X.#.-.JXNX} @.{ Y S C h 6 3 = # o X                 o o o # = 6 q l C I T %.[ ^.KXpX_ { | I Z C e 3 % & # o X   X       O ",
"O             X o # = 4 h l C D | X.[ ~.KX;X' %.| I C q 6 6 - & # o X                 X o # $ 3 6 h l C I | @._ gXLXz.@. .W P N t 8 3 ; $ # o X o # = 3 6 q q l P ' @.} !.KX/.[ @.' I Z j c c e q c f h N E ' X.X.} sXHXk.l.l.*.O.+.+./ ) / / / / r.r.r.r.r.u.u.i.i.i.i.i.u.u.u.i.u.u.u.u.u.u.u.i.i.u.u.u.u.u.u.u.u.u.u.i.i.i.u.u.u.u.u.u.u.u.u.i.i.u.u.u.u.u.u.u.u.u.u.i.i.i.i.u.u.u.u.u.u.u.u.u.i.i.i.u.u.u.u.u.i.i.i.u.u.u.u.u.i.i.i.u.u.u.u.u.i.i.i.u.u.u.u.u.u.u.u.u.u.r.r.r.r.+.+.+.+.+.+.+.+.+./ / r.r.u.*.l.l.$.JXIXB { X.Y D l c f t t t t c l C P ' %.@.G.KX^._ [ | W S e 8 3 : = $ % % % # & > : 6 e C S Q X.#.$.JXNX} @.{ Y S C h 6 3 = # o X                 . o o # = 6 q l C I T %.[ ^.KXpX_ { | I Z C e 3 % = # o X   X       O ",
"O             X o # = 4 h l C D | X.[ ~.KX;X' %.| I C q 6 6 - & # o X                 X o # $ : 6 h l C I | @._ gXLXz.@. .W P N e 8 4 ; $ # o X o # = 3 6 q h l P ' @.} !.KX/.[ @.' I Z j c c q e c i j N E ' X.X.} sXHX$.l.l.&.O.+.) ) ) / / / / +.+.+.r.r.9.u.t.t.u.u.u.u.u.u.b.n.t.u.u.u.u.u.u.u.u.u.u.u.u.u.u.u.u.u.u.u.u.u.u.u.u.u.u.u.u.u.u.u.u.u.u.u.u.u.u.u.u.u.u.u.u.u.u.u.u.u.u.u.u.u.u.u.u.u.n.u.u.u.u.u.u.u.u.u.u.u.u.u.t.t.u.u.u.u.u.u.t.t.u.u.u.u.u.u.u.u.u.u.u.u.u.r.r.+.+.+.+.+./ / / ) ) / r.r.o.*.l.$.JXIXB { X.Y D z c f t t t t c l C P ' %.@.G.KX^._ [ | W S e 8 3 : = $ % % % # & > : 6 e C S Q X.#.$.JXNX} @.{ Y S C h 6 3 = # o X X               . o o # = 6 q l C I T %.[ ^.KXpX_ { | I Z C e 3 % = # o X           O ",
"O             X o # = 4 h l C D | X.[ ~.KX;X' %.| I C q 6 6 - & # o X                 X o # $ : 6 h l C I | @._ gXLXz.@. .W P F h 6 4 ; $ # o X o # = 3 6 q h l P ' @.} !.KX/.[ @.' I Z j c c q e c f c N E ' X.{ } sXHX$.l.l.*.O.+./ ) ) / / / ..+.+.O.O.*.t.t.v.v.v.v.v.v.v.v.m.m.m.m.m.m.v.v.v.v.v.v.v.v.v.v.v.v.v.v.v.v.v.v.v.v.v.v.v.v.v.v.v.v.v.v.v.v.v.v.v.v.v.v.v.v.v.v.v.v.v.v.v.v.v.v.v.v.v.v.v.v.v.v.v.v.v.v.v.v.v.v.v.v.v.v.v.v.v.v.v.v.v.v.v.v.v.v.v.v.v.v.v.v.v.v.v.v.*.*.*.*.t.*./ ^ L ) ) ) r.9.X.*.&.$.JXIXY { X.T D z c f t t t t c l C P ' %.@.G.KX;X_ { | W S l 8 3 : = $ % X % # & > : 6 e C S T X.#.$.LXNX} @.{ Y S C h 6 3 = # o o X               o o o # = 6 h l C I T %.[ ^.KXpX_ { | I Z C e 3 ; = # o X           O ",
"O             X o # = 4 h l C D | X.[ ~.KX;X' %.| I C q 6 6 - & # o o                 X o # $ : 6 h l C I | @._ gXLXz.@. .W P F h 6 4 : $ # o X o # = 3 6 q h l P ' @.} !.KX/.[ @.' I Z j c c q e c c c A E ' X.{ Y sXHX$.l.&.*.O.+./ ) ) ^ / ..o.o.O.O.O.*.*.l.l.l.l.l.x.x.l.l.x.x.x.x.x.x.x.x.l.l.l.l.x.x.x.l.x.x.l.l.l.l.l.l.l.l.l.x.l.l.l.l.l.l.l.l.x.x.x.l.l.l.x.x.x.l.l.x.x.x.x.x.x.x.l.l.x.l.l.l.x.x.x.x.l.l.l.l.l.l.l.l.l.l.l.l.l.l.l.l.l.l.l.l.l.l.l.l.v.v.v.v.m.v.v.v.l.l.*.*.&.&.t.*./ ^ L L ( L / +.O.*.&.$.JXIX} { X.T D z c c t t t t c l C P ' %.@.G.KX;X_ { | W S l 8 3 : = $ $ X % # & > : 6 e C S Q X.#.-.JXNX} @.{ Y S C h 6 3 = # o o X               o o o # = 6 h l C I T %.[ ^.KXpX_ { | I Z C e 3 ; = # o             O ",
"O       X     X o & = 3 h l C D | X.[ ~.KX;X[ %.| I C e 6 6 = & # o X                 X o # $ : 6 h l C I | @._ gXKXz.#.| W S F e 6 3 : $ # o o # # = 3 6 q h l D ' { } !.KX/.[ @.' I Z j c c q t c c j N E ' { { B sXLX$.&.%.o.o.+./ ) L ^ ~ ..' ' -._ -.[ l.#.#.$.#.#.#.#.#.#.#.k.k.#.k.k.k.k.#.#.#.#.#.#.#.#.#.#.#.#.#.#.#.#.#.#.#.#.#.#.#.#.#.#.#.#.#.#.#.#.#.#.#.#.#.#.#.#.#.#.#.#.#.#.#.#.#.#.#.#.#.#.#.#.#.#.#.#.#.#.#.#.#.#.#.#.#.#.#.#.$.#.#.#.#.#.#.#.k.k.k.l.l.&.&.&.#.#.[ { [ *.X.Y ~ ^ ^ L ( L /  .| %.&.$.JXIX_ @.X.T D l j f t 6 t c c l C P ' %.@.G.KX^._ { | W S l 6 3 : & $ $ % % # & & : 6 e G D Q X.@.$.LXNX} @.{ Y S C h 6 3 = # o X                 . o o # = 6 q l C I T %.[ ^.KXpX_ { | I Z l q 6 ; & # o X           O ",
"O       X     X o & = 4 h l C D | X.[ ~.KX;X[ %.| I C e 6 6 = & # o X                 X o # $ : 6 h l C I | @.} gXKXz.#.| Q S F e 6 3 : & # o o # # = 3 6 q h l D ' @.} !.KX/.[ @.' I Z j c c e e t f j N E ' { X.B sXLX$.&.%.o. .! ^ ( ( ^ !  .u.' _ ~.pXdXdXrXdXdXdXdXdXdXdXdXdXdXdXdXdXdXdXdXdXdXdXdXdXdXdXdXdXdXdXdXdXdXdXdXdXdXdXdXdXdXdXdXdXdXdXdXdXdXdXdXdXdXdXdXdXdXdXdXdXdXdXdXdXdXdXdXdXdXdXdXdXdXdXdXdXdXdXdXdXdXdXdXdXdXdXdXdXdXdXdXdXdXdXdXdXdXdXdXdXdXdXdXdXdXdXdXdXdXfXdX~.B Y +.U ^ ^ L L L / ..| %.&.$.JXIX_ @.X.T D z j f t 6 t c c v Z P ' %.@.G.KX^._ { | W S l 6 3 : & $ $ % % # & & : 6 e F D Q X.@.$.LXNX} @.{ Y S C h 6 3 = # o X                 . o o # = 6 q l C I T %.[ ^.KXpX_ { | I Z C e 6 ; & & o X           O ",
"O       X     X o & = 4 h l C D | X.[ ~.KX;X[ %.| I C e 6 6 - & # o X                 X o # $ : 6 h l C I | @.} gXKXz.#.| W S F e 6 3 ; & # o o # # = 3 6 h h z D ' @.} !.KX/.[ @.' I Z j c h q q c i j N E ' { X.B sXLX$.#.%.o.5.! L ( ( L ^  .T Y -.NXKXZXCXFXFXFXFXFXFXFXFXFXFXFXFXFXFXFXFXFXFXFXFXFXFXFXFXFXFXFXFXFXFXFXFXFXFXFXFXFXFXFXFXFXFXFXFXFXFXFXFXFXFXFXFXFXFXFXFXFXFXFXFXFXFXFXFXFXFXFXFXFXFXFXFXFXFXFXFXFXFXFXFXFXFXFXFXFXFXFXFXFXCXCXCXCXFXFXFXFXHXHXHXFXFXFXFXFXGXPXHXKXPX~ S S R ~ ^ ^ L L / ..| %.&.$.JXIX_ %.X.T D z j f t 6 q c c l Z P | %.@.G.KX^._ { | W D l 6 3 : & $ # % % # & > : 6 e F S Q X.@.$.LXNX} @.{ Y S C h 6 3 = # o X                 . o o # = 6 q l C I T %.[ ^.KXpX_ { | I Z C e 3 = & # o X           O ",
"O       X     X o & = 4 h l C D | X.[ ~.KX;X[ %.| I C e 6 6 - & # o X                 X o # $ : i h l C I | @.} gXKXz.#.| W S F e 6 4 = & # o o # # = 3 6 h h z D ' @.} !.KX/.[ @.' I Z j c h q q f f h N E ' { { B sXLX$.@.%.o.5.! L n n K ! Q o.O.-.NXgXz.$.z.=.O.O.O.O.+.+.+.O.O.O.O.*.*.=.=.=.=.=.=.=.=.=.=.=.=.=.=.=.=.=.=.=.=.=.=.=.=.=.=.=.=.=.=.=.=.=.=.=.=.=.=.=.=.=.=.=.=.=.=.=.=.=.=.=.=.=.=.=.=.=.=.=.=.=.=.=.=.=.=.=.=.=.=.=.=.=.=.=.=.=.=.=.=.=.=.-.-.-.=.*.*.=.=.-._ ;.fXPX-./ ~ R ~ ^ ^ ^ ^ ! ..| %.&.$.JXgX_ %.X.T D z j f t 6 q c c l Z P | %.@.G.KX;X_ { | W D l 6 3 : & $ # % % # & > : 6 e C S Q X.@.$.LXNX} @.{ Y S C h 6 3 = # o X                 . o o # = 6 q l C I Q %.[ ^.KXpX_ { | W Z C q 6 = & # o X           O ",
"O       X     X o # = 4 h l C D | X.[ ~.KX;X[ %.| I C q 6 6 - & # o X                 X o # $ : i h l C I | @._ gXKXz.#. .W S F h 6 3 = & # o o o # = 3 6 h h z D ' @.} !.KX/.[ @.' I Z j c c q q 8 f c N E T ' X.B sXLX} &.%.o. .! L n n K !  . .' B NXMX-.#.l.l.v.v.v.v.v.v.v.v.v.v.v.v.v.v.v.v.v.m.v.m.m.m.m.v.m.m.m.v.v.v.v.v.m.m.m.m.m.m.m.v.v.m.m.v.v.v.m.m.m.v.v.v.v.m.m.v.v.m.m.m.m.v.v.m.m.m.m.v.v.v.v.m.m.m.m.m.m.v.v.v.v.m.m.v.v.v.v.m.m.m.v.v.v.v.l.l.l.l.l.v.v.l.l.z.z.` fXCX[ [ ' | R / ^ L L ! ..' @.#.$.JXgX_ @.X.T D z j f c 6 q c c l Z P | %.@.G.KX;X_ { | W D l 6 3 ; & $ # % # # & > : 6 e C D Q X.#.$.LXNX} @.{ Y S C h 6 3 = # o o                   o o # = 6 q l C I Q %.' ^.KXwX_ { | W Z z e 6 = = # o X           O ",
"O       X     X o # = 4 h l C D | X.[ ~.KX;X[ %.| I C q 6 6 = & # o X                 X o # $ : 6 h l C I | @._ gXKXz.#. .W S F q 6 3 = & # o o o # = 1 6 h h k D ' @.} !.KX/.[ @.' I Z j c h q q f f c N E T ' | B sXLX} &.%.o. .! L n n K ! 5.7.X.] NXNX` x.m.m.m.m.m.m.m.m.m.m.m.m.m.m.m.m.m.M.M.H.H.H.M.M.M.M.H.H.H.M.M.M.M.M.M.H.H.H.H.H.M.M.M.M.M.M.M.M.H.H.H.M.M.H.M.H.H.M.M.H.H.H.H.m.m.H.H.H.H.M.M.M.M.M.H.H.H.M.M.M.m.H.H.H.H.M.M.M.M.m.m.m.m.m.m.m.m.v.v.m.m.m.m.m.m.x.x.k.xXCX#.&.*.| ../ / ^ ^ ^ ! ' { @.} JXIX_ { X.T D z j f c 6 q c c l Z P | %.@.G.KX^._ { | W D l 6 3 ; & $ # % # # & > : 6 e C D | X.#.$.LXMX} @.{ Y S C h 6 3 = # o o X               . o o # = 6 q l C I Q %.' ^.KXwX_ { | W Z z e 6 = = # o X           O ",
"O       X     o o # = 4 h l C D | X.[ ~.KX;X[ %.| I C q 6 6 - & # o X                 X o # $ : 6 h l C I | @._ gXKXz.#.| W S F h 6 3 = & # o o o # = 1 6 h h k D ' @.} !.KX/.[ @.' I Z j c c t q f f f e N T ' | B sXLX$.&.%.o.o...^ ( ( K  .7.X.%.-.ZXNX` x.m.m.m.m.m.m.m.m.v.v.v.m.m.m.m.m.m.m.m.m.m.m.m.m.m.m.m.m.m.m.m.m.m.m.m.m.m.m.m.m.m.m.m.m.m.m.m.m.m.m.m.m.m.m.m.m.m.m.m.m.m.m.m.m.m.m.m.m.m.m.m.m.m.m.m.m.m.m.m.m.m.m.m.m.m.m.m.m.m.M.M.M.m.M.m.m.m.v.v.b.b.b.b.m.v.l.k.$.gXCX} %.' |  .! / L L ! ! ' { @.-.JXIXB { | T D z j f t 6 q c c l Z I | %.@.G.KX;X_ { | W D l 6 3 ; & $ # % # # & > * 6 e C D Q X.#.$.LXMX} @.{ Y S C h 6 3 = # o o                 o o o # = 6 q l C I Q %.' ^.GXwX_ { | W Z C e 6 ; = # o X           O ",
"O       X     o o & = 2 h l C D | X.[ ~.KX;X[ %.| I C h 6 6 = & # o X                 X o # $ : 6 h l Z I | { } gXKX=.%.| W S F h 6 3 = & # o o o # = 1 6 h h k P ' { } !.KX/.@.@.' I Z v c c t q f f f e F T ' { B sXLX$.&.%.o.o...^ ( ( ^  .o.t.&._ ZXMX$.l.m.m.v.v.V.B.M.M.m.v.v.m.m.M.M.M.M.M.M.M.M.M.M.M.H.M.H.H.H.H.M.H.M.M.M.M.M.M.M.M.M.M.M.M.M.M.M.M.M.M.M.M.M.M.M.M.M.M.M.M.M.M.M.M.M.M.M.M.M.M.M.M.M.M.M.M.M.M.M.M.H.H.H.M.M.M.M.H.H.M.m.m.m.m.m.m.m.b.V.b.b.b.b.b.v.n.#.$.gXCX_ *.%. . .! / L L ! ! | X.@.} JXIXB { | T D z j f 8 6 q c c v Z D | %.@.G.KX;X_ { | W D l 6 : ; & # # o # # & * : 6 e C D Q X.@.$.LXMX} %.{ Y S l h 6 3 = # o X                 . o o # = 6 q l C I Q %.[ ^.GXwX[ { | D Z l h 4 ; = # o             O ",
"O             X o + = 4 h l C D ' %.[ ;XGX;X[ &.| I Z z i 4 = & # o X                 X o # = ; 9 q z Z W | { _ gXKX=.%.| Q S F h 6 4 = & # o o # # & = 6 h h l P ' [ Y !.GX/.@.@.' I Z z l c e h h f f l S T | { B sXHX$.#.o. .Q ! ^ L ^ ^  .o.%.@.} ZXMX$.l.v.n.n.n.n.V.M.M.M.t.n.B.m.M.M.H.H.H.H.H.H.H.H.H.H.H.H.H.H.H.H.H.H.H.H.H.H.H.H.H.H.H.H.H.H.H.H.H.H.H.H.H.H.H.H.H.H.H.H.H.H.H.H.H.H.H.H.H.H.H.H.H.H.H.H.H.H.H.H.H.H.I.I.M.M.M.H.H.H.M.M.v.b.M.M.M.b.V.V.V.V.i.i.u.t.v.l.$.gXPX-.X.%. .../ / L L / ! | X.%.} JXgX} { ' T D l h f f 6 t c c j Z I ' %.@.G.GX;X} { ' P S l 6 : : $ # # o # # & * : q e C D W X.@.-.KXMX} %.X.Y S l h 6 : & # o X                   o o # = 4 q l D W Q { [ ^.GXwX{ @.' D Z l h 4 ; = # o             O ",
"O             X o + = 4 h l C D ' %.' =XGX;X[ @.' I Z z i 4 : $ # o X                 X o # = : 9 6 z Z W | { Y xXGX=.%.| Q S F h 6 4 = & # o o # # & = 6 h h l P ' ' Y !.GX/.@.{ T I Z z l c q h h f f l D T | | Y sXGX$.$.X. .Q ^ ^ / / /  . .X.{ } ZXMX$.&.l.n.n.u.n.N.B.M.M.n.=.v.m.M.M.M.H.H.H.H.H.H.H.H.H.H.H.H.H.H.H.H.H.H.H.H.H.H.H.H.H.H.H.H.H.H.H.H.H.H.M.M.M.H.H.H.H.H.M.M.M.H.H.H.H.H.M.M.M.H.H.H.H.H.H.M.H.H.H.H.H.I.I.M.b.M.H.H.H.M.m.v.m.v.v.m.M.V.V.V.V.f.f.u.u.v.v.{ gXPX-.%.%.o.! / ^ L / / R | o.@.} JXgX} { ' Y D l h f i 6 q c c j Z P ' %.@.G.GX;XY { ' P S l i : ; $ # o o # & & * : q e N D W X.@.-.KXMX[ %.X.Y S l h 6 : > # X X                   o o # = 4 q l Z W Q [ ' ^.GXwX{ @.' D C l i 4 ; = # o             O ",
"O             X o + = 4 h l C D ' %.[ =XGX;X[ @.| I Z k i 4 : $ # o X                 X o # = : 9 6 z Z W | { Y xXGX=.%.| Q S F h 6 4 = & # o o # # = 1 6 h h l P ' ' Y !.GX/.@.{ T I Z z v j q h h f f l Z Q | | Y sXGX$.$.X. .Q ^ ^ / ^ / .. .X.{ } ZXMX$.&.v.n.n.i.f.V.B.M.b.} O.l.m.m.v.v.m.m.m.m.m.m.m.m.m.m.m.m.m.m.m.m.m.m.m.m.m.m.m.m.m.m.m.m.m.m.m.m.m.m.m.m.m.m.m.m.m.m.m.m.m.m.m.m.m.m.m.m.m.m.m.m.m.m.m.m.m.m.m.m.m.m.m.v.v.v.m.m.m.m.m.x.m.m.l.x.l.v.V.V.V.f.f.u.n.v.v.{ gXPX-.%.%.X.! / ^ L L / R | o.%.} JXgX} { ' Y D l h f i 6 q h c l Z I ' X.@.G.GX;XY { ' P S l i : ; $ # o o # & & * : 6 e C D Q X.@.} KXMX[ %.X.Y S l h 6 : $ # X X                   o o # = 4 q l D W Q { } ^.GXwX{ %.' D C l i 4 ; = # o             O ",
"O             X o + = 4 h l C D ' %.[ =XGX;X[ @.| I Z k i 4 : $ # o X                 X o # = : 9 6 z Z W | { Y gXGX=.%.| Q S F h 6 4 = & # o o # # = 1 6 h h l P ' ' Y !.GX/.@.X.T I Z z v j q h h f f l D Q | | Y sXGX$.$.X. .Q ^ ^ / ^ / .. .X.{ } ZXxX$.&.v.n.u.u.f.V.V.b.v.F.~.0X0X0X0X0X0X0X0X0X0X0X0X0X0X0X0X0X0X0X0X0X0X0X0X0X0X0X0X0X0X0X0X0X0X0X0X0X0X0X0X0X0X0X0X0X0X0X0X0X0X0X0X0X0X0X0X0X0X0X0X0X0X0X0X0X0X0X0X0X0X0X0X0X0X0X0X0X0XoX0XoXoX0X0X0XE.v.v.V.V.i.u.u.n.v.v.{ gXPX] %.*.X.! / ^ L L / R | o.&.} JXgX} { ' T D l h f i 6 q h c l Z I | X.@.G.GX;XY { ' P S l i : ; $ # o o # & & * : 6 e C D Q X.%.} KXMX[ %.X.Y S l h 6 : > # X X                   o o # = 4 q l D W Q { } ^.GXwX{ %.' D C l i 4 ; = # o             O ",
"O       X     X o o = 2 h l C D ' %.' ;XGX;X' @.' I Z k i 4 : $ # o X                 X o # = ; 9 6 z Z Q | { Y xXGX=.%.| Q D Z h 6 4 = $ # o o o # = 1 6 h h l P ' ' Y !.GXE.@.%.Q I Z z v h q h h f f l Z Q | | Y sXGX$.#.%. .Q ^ ^ / ^ /  . .X.{ } ZXxX$.l.v.n.i.i.f.n.n.v.t.ZXGXCXCXCXFXCXVXCXCXCXCXCXCXCXCXCXCXCXCXCXCXCXCXFXFXFXFXFXFXFXFXFXFXFXFXFXFXFXFXFXFXFXFXFXFXFXFXFXFXFXFXFXFXFXFXFXFXFXFXFXFXFXFXFXFXFXFXFXFXFXFXFXFXCXCXCXCXCXCXCXFXFXFXGXFXGXCX*.v.b.V.u.u.u.u.v.v.@.fXPX} %.*.| ! / ^ L / ! ! | o.%.} JXgX} { ' T D z h f f i q h c j Z I | %.@.G.GX;XY { ' P S l i : ; $ # o o # & & & : 6 e C Z W o.%.} KXMX[ %.X.Y D l h 6 3 $ # X X                   X o # = 4 q l Z W Q { } ^.GXwX[ %.' D Z l i 4 = = # o             O ",
"O             X o o = 2 h l C D ' %.[ =XGX;X[ &.| I Z k i 4 = $ # o X                 X o # = ; 9 6 z Z Q | { Y xXGX=.%.| Q D Z h 6 4 = & # o o o # = 1 6 h h z P ' ' Y !.GXE.@.X.Q D Z z v h q h h f f l Z Q | | Y sXGX$.#.%. .Q ^ ^ / ^ /  . .X.{ } ZXxX$.l.v.u.i.u.u.u.v.v.t.CXfXG.N.z.z.N.J.n.n.n.n.N.N.N.N.N.N.N.N.N.N.N.N.N.N.N.N.N.N.N.N.N.N.N.N.N.N.N.N.N.N.N.N.N.N.N.N.N.N.N.N.N.N.N.N.N.N.N.N.N.N.N.N.N.N.N.N.N.N.N.N.n.n.V.V.V.B.B.B.V.n.n.z.z.z.sXFXt.v.v.V.u.u.u.u.v.v.{ fXPX} X.*.| ! / ^ L / ! ! | o.%.} JXgX} { ' T D z h f f i q h c j Z I | %.@.G.GX;XY { ' P S l i : ; $ # o o # # & & : 6 e C Z Q o.%.} KXMX' %.X.Y D l h 6 : & # X X                   X o # = 6 q l Z W Q { } ^.GXwX[ %.| D Z l i 4 = = # o             O ",
"O       X     X o o = 4 h l C D ' %.' =XGX;X[ &.' I Z z i 4 = $ # o X                 X o # = ; 9 6 z Z W | { Y xXGX=.%.| Q D C h 6 4 = & # o o o # = 1 6 h h z P ' ' Y !.GX/.@.X.Q D Z z v c q h h f f l D Q | | Y sXGX$.#.%. .Q ^ ^ / / /  . .X.{ } ZXxX$.l.v.t.t.u.u.u.v.v.t.ZXdXl.N.N.N.l.x.m.m.m.m.m.m.m.m.m.m.J.J.m.J.J.H.H.H.H.H.H.H.H.H.H.H.H.H.H.H.H.H.H.H.H.H.H.H.H.H.H.H.H.H.H.H.H.H.H.H.H.H.H.H.H.H.H.H.H.H.H.H.H.H.I.I.I.I.I.I.I.I.m.m.K.J.c.#.wXFXv.m.v.b.u.u.u.n.v.v.{ fXPX] X.*. .! / ^ L / ! !  .o.%.} JXgX} { ' T D l h f i i q h j j Z I | %.@.G.GX;XY { ' P S l i : ; $ # # o # # & & : 6 e C Z Q o.%.} KXMX' %.X.Y D l h 6 : & # X X                   X o # = 6 q l Z W Q X.} ^.GXwX[ %.| D A l i 4 ; = # X             O ",
"O       X     X o o = 4 h l C D ' %.' =XGX;X' %.' I Z z i 4 = $ # o X                 X o # = ; 9 6 z Z W | { Y xXGX=.%.| Q D Z h 6 4 = & # o o # # = 1 5 h h z P | ' Y !.GX/.@.X.Q D Z z v c h h h f f l D Q | X.Y sXGX$.#.%. .! ^ ^ / / /  .o.X.{ } ZXxX{ *.v.t.u.u.u.u.v.v.v.CXfXz.x.l.m.m.H.H.H.I.I.I.I.I.I.I.I.I.I.I.I.I.I.U.U.U.U.U.U.U.U.U.U.U.U.U.U.U.U.U.U.U.U.U.U.U.U.U.U.U.U.U.U.U.U.U.U.U.U.U.U.U.U.U.U.U.U.U.U.U.U.I.I.`.`.U.U.U.U.U.H.H.m.x.l.aXFXl.m.m.v.u.u.u.u.v.v.{ fXPXR X.*. .! / / L / ! !  .o.%.} JXgX} { ' T D l h f i i q h j j Z I | %.@.G.GX;XY { ' P D l i : ; & # # o # # & > : 0 e C Z Q o.%.{ KXMX' %.X.Y D l h 6 : & # X X                   X o # = 6 q l Z W Q X.' ^.GXwX[ %.| D A l i 4 ; = # X             O ",
"O             X o & = 4 h k Z D ' X.[ =XGX;X[ @.' I Z z i 4 = $ # o X                 X o # = 3 9 6 z Z Q | { Y xXGX=.%.| Q P F h 4 4 = & & # o # # = 1 6 q h l P ' | Y !.GXE.@.X.Q D Z z j h h h h f f l Z Q | X.Y sXKX$.@.*. .! / ^ L ^ /  .o.o.X.} ZXxX{ &.v.v.u.u.u.u.v.m.v.CXfXx.m.m.M.M.H.H.U.U.H.U.U.U.'.U.U.U.U.U.U.U.U.U.U.U.U.U.U.U.U.U.U.U.U.U.U.U.U.U.U.U.U.U.U.U.U.U.U.U.U.U.U.U.U.U.U.U.U.U.U.U.U.U.U.U.U.U.U.U.U.U.I.U.'.I.U.U.U.H.H.H.M.m.l.wXGXv.m.m.v.n.u.u.t.v.v.{ fXZXR O.%. . ./ / L L ! ! | o.&.} HXhX' X.X.T D z h f f 6 i h h z Z I | X.@.G.GX;X' { ' P D k i : : & # # o # & & * : 6 e k Z Q  .%.{ KXMX' %.X.T D l h 4 = & # o o                 X X X # = 6 h z Z W Q { ' ^.GXwX[ %.| D Z z i 4 : = # X             O ",
"O             X o & = 4 h k Z D | X.{ =XGX;X[ %.| I Z z i 4 = = # o X                 X o # = : 9 6 z Z W | { Y xXGX=.%.| Q P F h 4 4 = & & # o # # = 2 5 5 h l P ' | Y !.GXE.@.| Q D Z z j h h h h f f z Z Q | X.Y sXGX$.@.*. .! / ^ L L /  .o.o.X.} ZXxX{ &.v.v.u.u.u.v.v.m.v.VXfXv.m.M.M.H.U.H.U.H.U.U.U.U.H.U.U.U.U.U.U.U.U.U.U.U.U.U.U.U.U.U.U.U.U.U.U.U.U.U.U.U.U.U.U.U.U.U.U.U.U.U.U.U.U.U.U.U.U.U.U.U.U.U.U.U.U.U.U.U.U.H.H.I.H.M.M.U.U.R.A.M.M.m.l.;XFXv.m.m.v.n.u.u.t.v.v.{ fXZXR *.o. . ./ / 3.L ! .. .o.%.} HXhX' X.X.T Z z h f h 6 i h h z Z I | X.@.G.GX;X' { ' D D k i : ; & # # o # & & * : 6 e C Z Q o.%.{ KXxX' %.X.T D l h 4 : & # o o                 X X X # = 6 h l Z W Q { ' ^.GXwX[ %.| D Z z i 4 : = # X             O ",
"O             X o & = 4 h k Z D | X.' =XFX;X[ %.| I Z z i 4 = & # o X                 X o # = : 9 6 z Z W | { Y xXGX=.%.| Q D F h 4 4 = & & o o # & = 2 5 i h z P T | Y !.GXE.@.X.Q D Z z j h h h h f f z Z Q | X.Y sXGX$.@.o. .! / ^ L L /  . .o.X.} ZXxX{ l.v.v.u.u.u.v.v.m.v.VXfXv.m.M.A.R.R.T.H.m.H.m.H.H.H.H.I.I.I.I.I.H.I.H.H.H.H.H.H.H.H.H.H.H.H.H.H.H.H.H.I.H.I.I.I.I.I.I.I.I.I.I.I.I.I.I.I.I.I.H.H.H.H.H.H.H.H.H.H.H.H.M.m.m.m.B.v.H.U.H.H.M.B.m.l.wXFXv.m.m.b.u.u.u.t.v.t.{ fXZXR *.o. .! / / L L ! !  .o.%.{ HXhX' %.| T Z z h f i i i h j z Z I | X.@.G.GX;X' X.' D D k i : ; & # # o # # & * : q e C Z Q  .%.{ KXxX' %.X.T D l h 4 : & # o o                 X X o # = 6 q l Z W Q { ' ^.GXwX{ %.| D Z k i u : = # X     X       O ",
"O       X     X o & = 4 h k Z D | X.[ =XFX;X[ %.| W Z z i 4 = & # o X                 X o # = : 6 6 z Z W X.{ Y mXGX=.%.| Q D Z h 4 4 = & # o o o & = 2 5 i h z I T | Y !.GXE.@.X.Q D Z z j h h h h f i z Z Q | X.Y sXGX$.@.o. .! / ^ L ^ /  . .o.X.} ZXxX@.l.v.b.u.u.u.v.v.m.v.VXfXm.M.M.A.R.R.v.&.0XrXrXrXtXrXrXrXrXrXrXrXrXrXrXrXrXrXrXrXrXrXrXrXrXrXrXrXrXrXrXrXrXrXrXrXrXrXrXrXrXrXrXrXrXrXrXrXrXrXrXrXrXrXrXrXrXrXrXrXrXrXrXrXrXrXeX0Xm.K.K.H.B.B.m.x.wXFXv.m.m.b.V.u.u.u.v.t.{ fXZXR %.o. .! / / L L !  . .o.%.{ HXhX' %.X.T Z z h i i i h h j z Z I | %.@.G.GX;X' X.T D D k i : ; & # # # # # & > : 6 e C W Q o.%.{ KXxX' %.X.T D l h 4 : & # o o                 X X o # = 6 q l Z W Q { ' ^.GXwX{ %.| D Z k i u : = # X     X       O ",
"O             X o & = 4 h k Z D | X.' =XFX;X{ %.| I Z z i 4 = & # o X                 X o # = : 6 6 z Z W | { Y mXGX=.%. .Q D Z h 6 2 = & & o o + & = 2 5 i h z I T | Y !.GXE.@.X.Q W Z z j h h h h f i z Z Q | X.Y sXGX$.@.o. .! / ^ L / /  .o.o.X.} ZXxX{ l.v.b.u.u.u.n.v.m.v.VXfXv.m.M.A.R.K.V.n.CXCXVXVXBXVXVXVXVXVXVXVXVXVXVXVXVXVXVXVXVXVXVXVXVXVXVXVXVXVXVXVXVXVXVXVXVXVXVXVXVXVXVXVXVXVXVXVXVXVXVXVXVXVXVXVXVXVXVXVXVXVXBXBXCXFXFXFXB.m.T.H.B.M.m.x.wXCXv.m.m.b.i.u.u.t.v.t.{ fXZXR %.o. .! / / 3.L !  . .o.%.[ PXhX' X.| T Z z j f i i h h j j Z I | %.@.G.GX;X' %.' P D k i : ; & # # # # # & * : 5 e C Z Q  .%.{ KXxX' %.X.T D l h 4 - & # o X                 X X o # = 6 q z Z W Q X.' ^.GXwX{ %.| D Z k i u - = # X     X       O ",
"O             X o & = 4 h k Z D | X.' =XFX;X{ @.| I Z z i 4 = & # o X                 X o # = : 6 6 z Z W | { Y gXGX=.%. .Q D Z h i 2 - & & o o o & = 2 i i h z I T | I !.GXE.@.X.Q W Z z j h h h h f i z Z Q | X.Y sXGX$.@.o. .! / ^ ^ / /  .o.o.X.} ZXxX{ l.v.b.t.i.u.n.v.b.v.ZXfXv.m.M.A.A.K.v.*.VXwXn.V.n.V.N.B.B.B.B.B.K.K.J.J.J.J.J.J.J.J.J.J.J.J.J.J.J.J.J.J.J.J.J.J.J.J.J.J.J.J.J.J.J.J.J.J.J.J.J.J.J.J.J.J.J.N.N.N.N.N.K.K.m.n.!.CXm.H.T.H.A.b.m.l.wXCXv.m.m.b.i.i.u.t.v.t.' fXZXR %.o. .! / / 3.L !  . .o.%.[ PXhX' X.| T Z z j f i i h h j j Z I | %.@.G.GX;X' %.' P D k i : ; & # # o # # & * : 5 e C Z ! o.%.{ KXxX' %.X.T D l h 4 - & # o X                 X X o # = 6 q z Z W Q X.' ^.GXwX{ %.| D Z z i u - = # X     X       O ",
"O             X o & = 4 h k Z D | X.' =XFX;X[ %.| I Z z i u = & # o X                 X o # = : 6 6 z Z W | { Y gXGX=.%. .Q D Z h 4 4 - & & o o o & = 2 5 i h l I T | I !.GXE.@.X.Q W Z z j h h h h f i z Z Q | X.Y sXGX$.@.o. .! / ^ L / /  .o.o.X.' ZXxX{ &.v.t.i.i.u.u.v.b.v.ZXfXl.m.M.B.M.K.M.m.VXtXm.H.H.H.U.U.U.U.U.'.{.{.{.{.{.{.{.{.{.{.{.{.{.{.{.{.{.{.{.{.{.{.{.{.{.{.{.{.{.{.{.{.{.{.{.{.{.{.{.{.{.{.{.{.{.{.{.U.U.U.I.I.m.v.=XFXB.H.U.A.C.C.m.v.wXCXv.m.b.b.i.i.u.t.t.t.' fXZXR *.o.o.../ / 3.L ! !  .7.%.[ PXhX' o.| T Z z j f i i i h j j Z I | X.@.G.GX;X' { ' P D k i : : & # # o # # & * : 5 e C D ! o.%.{ KXxX' %.X.T D z h 4 2 = # o o                 o X o # = 6 h z Z W Q { ' ^.GXwX{ %.| D Z z i 4 : = # X             O ",
"O             o o & - 4 i k Z D | X.' =XFX;X[ %.| I Z z i 4 = & # o X                 X o # = : 6 i z Z W | { T mXFX=.%. .Q D Z h 4 4 - & # o o o & = 2 5 i h z I T | Y !.GXE.@.X.Q W Z z j h h h h f h z Z W | X.Y sXGX@.@.o. .! / ^ L / !  .o.o.X.' nXxXX.t.v.t.i.i.i.u.v.v.v.ZXfXl.m.M.M.M.H.H.m.BXrXH.U.U.'.'.'.U.U.{.{.{.{.{.{.{.{.{.{.{.{.{.{.{.{.{.{.{.{.{.{.{.{.{.{.{.{.{.{.{.{.{.{.{.{.{.{.{.{.{.{.{.{.{.{.{.{.{.{.{.{.{.'.H.M.=XVXm.H.H.A.C.C.M.v.eXCXv.m.b.b.i.i.u.t.v.t.X.fXZXR *.*.o.! / / 3.L / !  .o.%.[ HXhX' X.| T Z z j i i i i h j j Z D | X.{ G.GX;XT @.' P D k i 4 : & # # o # # & > : 5 l z D Q o.%.O.GXxX' %.X.T D z h 6 - = # o o                 X o o # = 6 h z Z W Q { ' ^.GXwX{ %.| D Z z i u : = # X             O ",
"O         X   X o & - 2 i z Z D | X.X.=XCX;X' %.| W Z z i 4 ; $ # o X                   o # & : 4 i l Z I | X.' kXCXu.X.o.Q W Z h u 4 - & # o o o # & - 2 i h z I Q | Y !.GXE.%.X.Q W Z z z h i i i i j z Z W Q { ' sXFXo.%.o.o.! ! / L / ! !  .o.*.{ nXxXX.v.v.t.i.i.i.n.v.v.v.BXfXv.m.M.M.M.R.H.M.BXeXH.U.{.{.{.U.B.K.H.'.U.U.{.{.{.{.{.[.{.{.{.{.{.{.{.{.{.{.{.{.{.{.{.{.{.{.{.{.{.{.{.{.{.{.{.{.{.{.{.{.{.{.U.{.{.{.'.H.R.U.U.U.U.m.0XCXM.H.A.A.b.M.M.v.wXCXv.m.v.b.i.i.u.t.v.*.%.fXVX..%.%.| ! ^ ^ 3./ ! !  .o.*.X.CXhX' { | Q Z z j i h h h h j z Z D | %.{ G.GX;XT ' | I Z k i 4 = & $ # # o o & = 4 5 h z Z Q | %.O.FXxX| %.| I D z i u - = # o X               X X X o # = 3 i k Z W Q X.' ^.GXwXX.%.| W Z z a : > = # o             o ",
"O       X X   X o & - u i z Z D Q X.X.=XCX;X' %.| W Z z i 4 ; $ # o X                   o # & ; u i l Z I ..X.' kXCXu.X.X.Q W z h u 4 = & o o o o # & - 5 i h z I Q | Y !.GXE.%.X.Q W Z z z h i i i h z z Z D Q X.' sXFXO.%.o.o. .! / L L ! !  .o.*.{ nXxX%.t.v.i.u.i.i.u.v.v.v.BXfXv.m.M.M.A.R.H.M.VXeXH.U.{.{.{.T.wXwXtXtXtXrXtXtXtXtXtXtXtXtXtXtXtXtXtXtXtXtXtXtXtXtXtXtXtXtXtXtXtXtXtXtXtXtXtXtXtXtXtXtXtXtXrXtXtXtXtX0XT.H.U.U.U.M.0XCXM.H.A.A.M.M.m.v.wXCXv.v.v.b.i.i.i.u.v.l.%.kXVX .%.*.| ! ^ L / / ! ! | %.*.X.CXkX' { | Q Z z z h h h h h j z Z D | X.{ G.GX;XT ' | I Z z i 4 ; & $ $ # o o # ; 3 5 i z Z Q X.X.O.FXxX| X.| I Z l i u - & # o X               X X X o # = 3 i z Z W Q { ' !.GXwXX.%.| W Z z a : * = # X             o ",
"O       X X   X o & - u i z Z D Q X.X.=XCX;X' %.| W Z z i 4 ; $ # o X                   o # = ; u i l Z I | X.| kXCXu.X.o.Q W z h u 4 = & o o o o # & - 5 i h z I Q  .Y !.GXE.@.X.Q W Z z z h i i i h z z Z W Q X.' sXFXO.%.o.o. .! / L / / !  .o.*.{ nXxXX.t.v.b.i.i.i.t.v.v.v.BXfXv.m.M.b.A.R.H.M.VXeXM.U.{.{.U.,XCXBXBXcXbXbXbXBXBXBXBXBXbXBXBXBXBXBXBXBXBXBXBXBXBXBXBXBXBXBXBXBXBXBXBXBXBXBXBXBXBXBXBXBXBXbXBXbXbXCXVXCXtXU.U.U.U.M.0XCXM.H.A.M.M.M.m.v.wXCXv.v.v.b.i.i.i.u.v.l.o.kXVX .%.*. .! ! / / / ^ ! | %.*.| CXkX' { | Q Z z z h h h h h j z Z D | o.{ G.GX;XT ' | I Z z i 4 ; & $ $ # o o # = 4 q h z Z Q X.X.| FXxX| X. .I Z z i u - & # o X               X X X o # = 4 i k Z W Q { ' !.GXwXX.%.| W Z z a : ; = # X             o ",
"O       X X   X o & - u i z Z D | o.X.=XCX;X' %.| W Z z i 4 : $ # o X                   o # = ; u a z Z I | X.| kXCXu.X.o.Q W z h u 4 - & o o o o # & - i i h z W Q  .Y !.GXE.%.X.Q W Z z z h i i i h z z Z D Q X.' sXCXo.%.o.o.! ! / L / / !  .o.*.{ nXxXX.t.b.b.i.i.i.b.v.v.v.BXfXv.m.M.M.A.R.H.M.VXeXM.U.{.{.{.,XBXE.U.{.[.'.T.P.P.T.T.T.'.T.'.'.'.'.'.T.T.'.'.'.'.'.'.'.'.'.'.'.'.'.'.'.'.'.'.T.).'.'.T.P.K.K.K.H.K.B.bX0XH.U.U.U.M.0XCXM.H.A.M.M.M.m.v.eXCXv.m.v.b.i.i.i.u.v.l.o.kXBX .%.*.o.! ! / / / ^ ! o.%.%.X.CXkX' { | W Z z z h h h h h j z Z D | o.{ G.GX;XT ' | I Z z i 4 ; & $ $ # o o # = 4 q h z Z Q X.X.O.CXxX| X. .I Z z i u - = # o X               X X X o & = 3 i k Z W Q X.' !.GXwXX.o.| W Z z a : ; $ # X             o ",
"O       X X   o o & - u i z Z D | X.X.=XCX;X| %.| W Z z i 4 : $ # o X                   o # = ; u a z Z I | X.| kXCXu.X.o.Q W z h u 4 - & o o o o # = - i i h z W Q  .T !.GXE.%.| Q W J z z h i i i j z z Z W Q X.' eXCX .%.o.o.! ! / L L / !  .o.*.' nXnXX.t.b.b.i.i.i.b.v.v.v.BXfXv.m.M.M.A.R.H.M.VXeXM.U.U.{.U.,XCXE.U.{.[.{..X.X4X.X.X4X4X6X4X4X6X6X6X2X>X>X6X6X6X6X6X6X6X6X6X6X6X6X6X6X6X6X6X6X4X.X.X{.[.2X{.[..X{.M.CXtXU.U.U.U.M.0XVXM.H.A.A.M.M.M.v.eXCXv.m.v.b.i.i.i.u.v.v.o.kXBX .%.*.o.! ! / / / ^ ! o.%.%.| CXkX' { | W Z z z j h h h z j j Z D | o.{ G.GX;XT ' | Y Z z i 4 ; & # # # o o # : 4 q z z Z Q X.X. .CXxX| X. .I Z z i u - & # o X               X X X o & = 4 i z Z W Q X.' !.GXwXX.o.| W Z z i : ; = # o             O ",
"O       X X   o o & - u i z Z D | o.X.=XCX;X| %.| W Z z i 4 : $ # o X                   o # = : u a z Z I | X.| kXCXu.X.o.Q W z i u 4 - & # o o o # & - i i i z W Q | T !.GXE.%.o.Q W J z z h i i i j z z Z W Q X.' eXCX .o.*.o.<.! / L L / !  .o.*.' nXnXo.t.b.t.i.i.i.b.v.v.v.BXfXv.m.M.A.A.R.H.H.BXeXM.U.U.{.U.,XCXK.{.{.[.|.{.{.2X4X.X.X2X>X6X6X>X>X>X>X{.>X>X>X>X>X>X>X>X>X>X>X>X>X>X>X>X>X>X>X[.{.>X>X>X{..X.X.X{.R.VX8XU.U.U.U.M.0XVXM.H.A.A.M.M.M.b.eXCXv.m.v.b.i.i.i.u.v.t.o.kXBX .%.*. .! ! / / / / ! o.%.*.| CXkX' { | W Z z j p h h h j j j Z D  .o.{ G.GX;XT ' | T Z z i 4 ; & # # # o o # : 4 q i z Z Q o.%. .CXxX| X. .W Z z i u - & # o X               X X X o & = 4 i z Z W Q X.| !.FXwXX.o. .W Z z a : ; = # o             O ",
"O       X X   X o + - u i z z D | o.X.=XCX=X| %. .W Z z i 4 ; $ # o X                   o # & - u a z Z I | X.| kXCXu.X.o.Q W z i u 4 - & # o o o & & - i i i z W Q  .I !.GXE.%.o.Q W J z j h i i i j j z Z W Q X.' eXCXo.%.o.o.5.<.3.L L 3.<.5.7.*.' nXnXo.t.b.b.i.i.i.i.b.v.v.BXkXv.m.M.A.A.R.H.H.VXeXM.U.U.Y.Y.,XVXE.{.{.{.2XbXnXnXbXcXcXbXcXcXcXcXcXcXcXcXcXcXcXcXcXcXcXcXcXcXcXcXcXcXcXcXcXbXcXnXcXbXbXbXbX0X{..X[.T.VX8X{.U.U.U.M.0XVXM.H.A.A.A.M.M.b.eXVXv.b.b.b.i.i.i.u.b.t.o.kXBX .%.*. .! 3.3.3./ ! ! o.*.*.| VXjX' X.| W Z z j p h i h j j j x D  .o.{ G.GX;XQ | X.T Z z i 4 - & # # # o o & = 4 i i z Z Q o.%.o.CXxX| X.| W Z z p u - & # o X               X X X o & = 2 i z Z W Q X.| *XFXwXX.*. .W Z z a < : = # o             O ",
"O       X X   o o + - u i z z D  .o.X.=XCX=X| %. .W Z z i 4 : $ # o X                   o # & - u a z Z W | X.| kXCXu.X.o.Q W z i u 2 - & & o o o & & - u i i z W Q  .I !.GXE.%.o.Q W Z z j h i i i j j z J W Q X.' eXCX .%.t.7.5.<.3.3.3.3.<.5.7.7.| nXnXo.t.b.b.i.i.i.i.b.m.v.BXkXv.m.M.A.A.R.U.H.VXeXM.U.U.Y.U.8XVXE.{..X.XtXBXkXrXrXrXrXyXyXyXyXyXyXyXyXyXrXyXyXyXyXyXyXyXyXyXyXyXyXyXyXyXyXkXrXrXkXyXyXzXVXtX[.{.{.T.VX8X{.U.U.Y.A.qXVXM.H.R.A.A.M.M.b.eXVXv.b.b.b.i.i.i.i.b.t.o.kXBX .o.*. .<.3.3.3./ L ! o.*.*.| VXsX' X.| W J z j p i i h j j j x D  .o.{ G.GX;XQ | | I Z z i 4 - & # # # o o & = 4 i i x Z Q o.%.o.CXxX| o.| W Z z j u - & # o X               X X X o & = 2 i z Z W Q X.| *XFXwXX.*. .W Z z a < : = # o             o ",
"O       X X   X o & - u i z Z D  .o.X.=XCX=XX.%. .W Z z p 4 = # # o X                 X o # & : u a z Z W | X.| kXVXu.o.o.Q D J j u 2 - & + o o o # = 2 i i j z W Q  .Q !.FXE.%.o.Q W Z z j i i i i j j x J W Q X.' sXCX9.o.t.7.<.<.3.L L 3.<.5.t.o.X.nXnX7.t.b.y.i.i.i.y.b.b.b.bXkXv.m.b.A.A.R.U.H.BXeXM.U.Y.Y.Y.,XVXE.{.6X.XtXbXY.Y.Y.Y.$X{.,X,X{.{.>X{.2X{.2X[.[.[.{.{.{.[.[.[.{.2X{.{.{.>X2X6X{..X.X4X>XY.cXtX{.{.Y.D.VX8XU.U.U.U.A.qXVXH.H.R.A.A.M.M.b.eXVXb.b.b.b.i.i.i.i.v.v.o.kXBX .o.o. .! 3.3.3./ ! !  .t.o.o.VXjXT X.| W Z z j i i i h h j j x W  .o.X.V.FX;XT | | Q Z j i u : & # # # # o & = 4 h z x J Q X.%. .CXxX| o. .W Z z j u : = # o X               X X X o & = u h z Z W Q X.| *XCXwXX.*.| W Z z a < : = # o             o ",
"O       X X   X o + - u h z Z D  .o.X.=XCX=XX.%. .W Z z p u = & # o X                 X o # = : u a z Z W | %.| kXVXu.o.o.Q D J j u 2 - & + o o o & = 2 i i j z W  . .Q !.FXE.%.o.! W J x j p i i i j j x J W Q X.' sXCX9.o.7.7.<.<.3.L L 3.<.5.t.7.X.nXnX7.t.y.y.i.i.i.y.b.b.b.bXkXb.M.b.C.A.R.U.H.BXeXM.R.Y.Y.Y.,XVXE.{.6X>XtXvX<X,X{.8X8X3X5X5X5X5X5X5X5X2X2X5X5X5X5X5X5X5X5X5X5X5X5X5X5X5X3X5X5X8X5X4X5X<XlXtX{.{.Y.D.VX8XU.U.U.U.A.qXVXA.H.R.A.A.M.M.b.eXVXb.b.b.b.i.i.i.i.v.t.7.kXBX .o.o. .! 3.3.3.3.! !  .t.7.7.VXjX' X.| W Z z p p i i h h p j x W  .o.X.V.FX;XQ | | Q Z j i u : & # # # # o & = 4 h z x J Q o.%.o.CXxX| %. .W Z z j u : = # o X X             X X X o & - u h z J W  .X.| *XCXeXX.t.| W Z z a < : = # o             o ",
"O       X X   X o & - 2 h z Z D  .o.X.=XCX=XX.*. .W J z p u = & # o X                   o # = : u a z Z W | %.| kXVXu.o.o.Q J J j u 4 - & + o o + & & - i i j z W Q  .Q !.FXE.X.o.! J J x j p i i i j j x J W Q X.' eXCX9.o.t.7.<.<.L L L 3.<.5.7.o.| nXnX7.y.y.b.i.i.i.y.b.b.b.bXkXb.M.b.A.A.R.U.A.BXeXA.Y.Y.Y.Y.,XVXE.{.6X>X8XbX{.{.[.lXbXbXBXbXVXbXbXbXBXBXVXBXBXBXBXBXBXBXBXBXbXBXBXBXbXBXbXVXVXBXzX,X>X$XvXtX{.>X<XR.BX8XY.U.U.U.A.-XVXA.A.R.A.A.M.M.b.eXVXb.b.b.b.i.i.i.y.v.t.7.kXBX .7.*. .! 3.3.3.3.! ! 7.t.7.7.VXjX' X.| W J z p p i i i j p j x W  .o.X.V.FX;XQ | | Q Z j i u : & # # # o o & = 4 h z x J ! o.7.7.CXxX .o. .W Z z p u : = # o X               X X X o & - u j z J W  .o.| *XCXeXX.t. .W Z z a < : = # o             o ",
"O       X X   X o + - 2 h z Z D  .o.X.=XCX=XX.%. .W J z p u - & # o X                   o # = : u a z Z W  .%.| kXVXu.o.o.Q J J j u u - & + o o + & & - i i j z W Q  .Q !.FXE.X.o.! J J z x p p a i j x x J W Q X.| eXVX9.o.t.7.<.<.L L 3.3.<.5.7.7. .nXnX7.y.y.y.i.i.i.y.b.b.b.bXyXb.M.A.A.A.R.R.A.BXeXA.Y.Y.Y.Y.,XVXE.{.6X>XtXbX{.[.,XlXzX,X{.Y.&XR.R.R.R.R.E.E.E.E.E.E.E.R.E.E.E.E.E.E.R.E.Y.R.&XyXcX,X,XY.cXtX{.6X>XR.BX8XY.Y.Y.Y.A.-XVXA.R.R.A.C.A.A.b.eXVXb.b.b.b.i.i.i.y.b.t.7.kXBX! o.t.5.<.3.3.3.3.3.<.5.t.7.7.VXjX' X.| W J z j p p h h j j j Z W Q o.X.V.FX=XW  .| Q Z j i u * & # # # o o & = 4 h z x J ! o.7.o.VXxX .o. .W J z j u : = # o X               X X X o & - u j z J W  .o.| *XCXeXX.t. .W J z a < : = # o             o ",
"O       X X   o o + - 2 h z Z D  .o.o.=XCX=Xo.*. .W J x p u - & # o X                   o # = : u a z Z !  .%. .kXVXu.o.7. .J J z a u - & + o o o & & - i i j z W Q  .Q !.FXE.X.o.! J J z j p p a p j x x J W Q %.| eXVX9.o.t.7.<.3.3.3.3.3.<.5.7.o.| nXnXt.y.b.b.i.i.i.y.b.b.b.bXyXb.b.A.A.S.R.R.A.bXeXA.Y.Y.Y.{.,XVXE.{.6X>X8XcX<X2X,XlXyX<X,XtXqXqXuXuXqXqXqXqXqXqXqXqXqXqXqXqXqXqXqXqXqXqXqX,X{.tXcX>X<X$XcXtX{.6X{.R.BX8XU.Y.Y.Y.A.-XVXA.R.S.A.A.A.A.b.eXVXb.b.b.b.i.i.i.y.b.v.7.kXbX<.7.t.5.<.3.3.3.3.3.<.7.t.7.7.VXjXQ X. .W J x j p i i h j j x x W  .o.X.V.FX=XW  . .W J z p u * & # # # o o & = 4 h z x J ! o.7.7.VXxX .o. .W J z j a : - & o X               X X X o & - u h z J W  .o. .*XCXeXo.t. .W J z i < : = # o             O ",
"O       X X   o o & - 2 h z Z D  .o.o.=XVX=XX.*. .W J x p u - & # o X                   o # = : u a z J W  .o. .jXVXu.o.7. .J J j a u - & + o o o & & - i p j z W !  .! !.FXE.X.o.! J J x s p p a p j x x J W Q %.| eXVX9.%.t.7.<.3.3.3.3.3.<.5.7.7. .nXnXt.y.b.y.i.i.a.a.b.b.b.bXyXb.b.A.A.S.R.R.A.bXeXA.Y.Y.{.{.,XBXY.{.>X>X9XbX<X6X6XvXyX>X5XVXlXlXlXlXlXvXlXvXvXvXvXvXvXvXvXlXvXlXlXvXcXvXVX8X>XtXcX>X3X$XcXtX{.>X{.R.BX0XR.Y.Y.Y.A.-XBXA.R.S.A.A.A.A.b.eXVXb.b.b.b.i.i.i.i.b.v.7.kXBX! 7.7.5.<.3.3.3.3.3.<.7.t.7.7.VXjXQ o. .! J x j p p i h j j x Z W  .o.o.V.FX=XW o. .W Z z p u * & # # # o o & = 4 i z x J ! 7.7.7.VXxX .o.o.W J z j a : - & o X               X X X o & - u z z J W  .o.| *XCXeXo.t. .W J z i < * = # o             O ",
"O       X X   o o + - 2 h z Z D  .o.o.=XVX=Xo.*. .W Z z p u - & # o X                   o # = : u a z J !  .o. .jXVXu.o.7. .J J j u u - & & o o o & = 2 i j j x W ! 5.! !.CXE.%.o.! J J x j p p a p j x x J W Q %.| eXVX9.o.t.7.<.<.3.3.3.3.<.5.8.7. .nXnX8.y.b.y.i.i.i.a.b.b.b.bXyXb.b.C.A.R.R.R.A.bXeXA.Y.Y.{.{.,XBXY.<X>X>X9XbX$X>X>XlXyX>X5XlX<X,X{.{.{.U.U.U.U.U.U.U.U.U.U.U.Y.Y.Y.Y.{.<XlXtX,XtXcX6X6X<XlXtX<X>X<XR.BXqXR.Y.Y.Y.A.-XBXA.R.S.A.A.A.A.b.eXVXb.b.b.b.i.i.i.i.b.v.7.kXbX<.7.7.5.<.3.3.3.3.3.<.7.t.o.7.VXjXQ o. .! J j j p p i h j j x Z W  .o.o.V.CX=XW O. .W Z z p u * & # # # o + & = 4 i z x J <.7.t.7.VXxX .o. .W J z p a < - & o X               X X o o & - u z z J W Q o. .*XCXeXo.t.7.W J z a < : = # o             o ",
"O             X o & - u i z Z D  .o.o.=XVX=X .o. .W Z z z u - & # o                   . o # = - u p z J W  .o. .jXVXi.7.7. .W J j a u - & & o o o & = 2 i p j z W ! 7.! !.CXE.X.o.! J J x j p p a p j x x J J Q %.| eXVXt.o.t.7.<.<.3.3.3.3.<.5.8.7. .nXzX8.y.b.y.i.i.a.a.C.b.b.bXyXb.b.C.A.S.R.S.A.bXeXA.Y.$XY.Y.,XBXY.<X>X>X9XcX$X3X3XlXyX>X5XcX$X{.{.{.{.{.U.U.U.U.U.U.U.U.U.Y.U.Y.{.>X{.{.vXtX{.tXbX5X5X>XlXtX<X>X<XR.BX8XR.Y.Y.Y.A.-XBXA.R.S.A.A.A.A.b.eXBXb.b.b.y.a.a.i.y.b.t.7.kXbX<.7.t.5.<.3.3.3.3.3.<.5.t.7.7.VXjXQ o. .W J z j p p i j p j x Z J  .o.o.V.CX=XQ 9. .W x j p u - & # # # o + & = 4 i j x J ! 7.t.7.VXxX .7. .W J z j a - - & o X                 X o o + - u p z J W Q *. .*XCXeXo.t.7.W J z p < : = # o             o ",
"O             o o + - u p z Z W  .7.o.=XVX=Xo.o. .W J x z i - & o o X                 o o & & - u p z J W 5.7. .jXBXi.t.7. .J x p a u - > & o o o + & - a p j x J ! o. .!.CXE.o.5.<.W J x x p u u i j x x J J ! o.| eXVXt.7.8.5.<.<.3.3.3.3.<.5.7.t.7.nXzX8.y.y.i.i.a.a.a.b.b.b.bXyXb.C.A.A.S.S.S.A.bXeXA.Y.Y.Y.Y.8XbX&X<X>X>XtXcX$X6X6XlXyX6X7XcX$X{.{.Y.R.A.A.A.A.A.A.M.M.b.A.A.R.Y.Y.{.{.{.vXtX<XtXvX6X6X<XvXtX<X>X<X$XbXqXR.Y.Y.Y.S.qXBXA.A.S.S.A.A.A.y.eXBXb.b.y.y.i.i.i.i.y.y.7.kXbX5.t.7.7.<.3.3.3.3.<.<.5.7.t.7.BXkX .o. .W J x j p p i h j j x x J  .7.o.V.CX=X . . .W x j p i - & # # o o & & - u a p x J ! 7.7.8.VXnX .7.5.W J x j a 2 - & o o                   o o + > u p x J J ! o.| *XVXwXo.t. .W J x j < : & # o             O ",
"O             o o + - u p x J J <.5.o.=XVX=Xo.o. .W J x z i - & o o                   o o + > - u p z Z J <.7.5.jXBXi.t.7.5.J x p a u - > + o o o + & - a p j x J ! 7. .!.CXE.o.5.<.W J Z j p u u i j z x J J ! o. .eXBXt.t.6.<.<.<.3.3.3.3.<.5.7.t.7.vXzXq.y.y.i.i.a.a.a.b.b.b.bXyXy.C.A.S.S.S.S.A.bXrXA.Y.Y.$XY.<XbX&X<X<X>XtXcX$X6X6XlXyX>X7XcX$XY.Y.Y.S.D.d.a.a.C.C.b.i.i.i.D.C.S.Y.Y.Y.Y.vXtX<XtXvX6X6X<XlXtX<X>X<X$XbX8XR.Y.Y.Y.S.qXBXA.A.S.S.A.A.C.a.qXBXb.b.y.a.i.i.i.i.y.y.8.kXbX7.8.7.7.<.3.3.3.3.<.<.5.7.t.7.BXkX .o. .! J x s p p i h j p x x J <.7.o.V.CX=X .o. .J x s z i 2 & & o o o & = - < u p z D Q 7.5.8.BXzX5.7.5.W J x j a 2 - & o o .                 o o + > u p x J J ! o.| *XVXqXo.t. .W J x z < : = # o             O ",
"O             o o + - u p x J J <.5.o.=XVX=X .o. .W x x z i - & o o                   o o + > - a p z J ! <.7.5.jXBXi.t.7. .J x p a u - > + o o o + & - a p j x J ! 7. .!.CXE.o.5.<.W J Z j p g u p j z x J J ! o. .eXBXt.t.8.<.<.<.3.3.3.3.<.5.7.8.5.nXzXq.y.y.i.i.a.a.a.C.b.b.bXyXy.C.A.S.S.S.S.A.bXrXA.Y.Y.Y.$X<XbX&X<X<X>X9XcX$X6X6XlXyX<X7XcXR.Y.Y.R.S.D.d.d.p.i.i.i.i.e.i.d.d.Z.S.R.R.R.vXtX<XuXvX6X6X<XlXtX<X>X<X$XbX8XY.Y.Y.Y.S.qXBXA.S.S.S.A.A.C.a.qXbXb.b.y.a.d.d.i.i.y.y.8.kXbX7.8.7.8.<.3.3.3.3.3.<.5.7.t.7.BXkX .o. .! J x s p p i p j p s x J <.7.o.V.CX=X .o. .W x s z i - = & o o o & = - < u p x J ! 7.5.8.BXzX5.7.5.W J x j a - - & o o .                 o o + > u p x J J ! *.| *XVXqXo.t.o.W J x z u - = # o             O ",
"O             o o + - u p x J J <.7.o.=XVX=X .7. .W x x z i - & + o .                 o o + * - a p z J ! <.7.5.jXBXi.t.t.5.J x p a u - > + o o o + & - a p j x J <.7. .!.CXE.o.5.<.W J J z p g u p j z x J J <.7. .eXBXt.t.8.<.<.3.3.3.3.3.<.5.8.8.6.vXzXq.y.y.i.i.a.a.a.a.b.b.bXyXy.C.A.S.S.S.S.A.bXrXA.Y.Y.$X$X<XbX&X<X<X>X9XcX$X6X6XlXyX<X7XcXS.Y.R.R.D.d.d.4.4.2.2.3.3.3.,.4.d.d.D.S.S.S.vX8X<XuXvX6X6X<XvXtX>X>X<X$XbX8XY.Y.$XY.S.qXbXA.S.S.S.S.A.C.a.qXbXb.b.a.a.d.d.i.y.y.y.8.kXbX7.8.7.8.<.3.3.3.3.3.<.5.7.7.7.bXkX .o. .! J x s p p h p p p x x J <.7.o.V.CX=X .o. .W x s z i 2 = & o o o & = - < u p x J ! 7.5.8.BXzX5.7.5.W J x j a - = & o o .                 o o + > u p x J J ! 7.| *XVXeXo.t.o.W J x j u : & # o             O ",
"O             o o + - u p x x J <.7.o.=XVX=X .7. .W x x z i - & + o                   o o + > - a p x J J <.7.7.jXBXi.t.t.5.J x p a u - & + o o o & = - a p j x J <.7. .!.CXE.7.5.<.W J J z p g g p j x x J J <.7. .eXBXt.t.q.<.<.3.3.3.3.3.<.5.8.8.8.vXzXq.y.y.i.a.a.a.a.a.C.b.cXyXy.C.A.S.S.S.S.S.bXrXS.$X$X$X$X8XbX&X<X<X>X9XcX<X3X6XlXyX<X7XcXS.R.R.S.C.i.4.,.3.3.3.3.3.3.,.,.4.d.D.C.Z.D.vX8X<XuXvX6X6X<XvXuX<X6X<X$XbXqXY.Y.Y.$XR.qXbXA.S.S.S.A.A.C.a.qXbXb.b.a.a.d.d.a.y.b.y.8.kXbX5.8.8.8.<.3.3.3.3.3.<.5.8.8.7.bXkX .7. .! J x s p p p p p s x x J 5.7.o.V.CX=X .o. .W x s z i 2 = & o o o & & - < a p x J ! 7.5.6.BXzX5.7.5.! J x j a - - & o o .                 o o + - u p x J J ! 7. .*XVXeX7.t.7.W J x p u - = # o             O ",
"O             o o + - u p x Z J <.7.o.=XVX=X .7. .W x x z i - & + o                   o o + * - a j z J ! <.7.5.jXBXy.t.t.5.J x p a u - & + + o o & = - a p j x J <.7. .!.CXE.7.5.<.<.J J x p p g p j x x J :.<.7. .eXBX8.t.q.1.<.3.3.3.3.3.<.6.8.8.8.vXzXq.y.y.i.i.a.d.a.a.C.C.cXyXy.C.A.S.S.S.S.S.bXrXS.$X$X$X$X8XbX&X<X<X>X9XcX<X7X6XlXyX<X7XcXS.R.A.A.a.e.,.,.M 3.3.L 3.M 3.,.4.p.D.C.C.D.vX8X<XuXvX6X7X<XvXuX<X6X<X$XbX8X$XY.$X$XS.qXbXA.S.S.S.S.A.S.a.qXbXb.C.a.a.d.d.a.y.b.b.8.yXbX6.8.8.8.<.3.3.3.3.3.<.5.8.8.5.bXkX .7.5.! J x s p p p p p s x x J 5.7.o.V.CX=X .7.5.J x s j i 2 = & o o o & & - < a p x J ! 7.5.6.BXzX5.7.5.! J x p a < - & o . .                 o o & - u p x J J ! 7. .*XVXqX7.t.7.W J x p u - & # o             O ",
"O             o o + - u z z Z J <.7.7.=XVX=X .7.5.W x x z i - & + o .                 o o + * - a p z J ! <.7.5.jXBXy.t.8.<.J x p a u - > + o o o + = - a p j x J <.7. .!.CXE.7.6.<.<.J J x p p g g j x x J :.<.7. .eXBX8.8.q.1.<.<.3.3.3.3.<.6.8.8.8.vXzXq.y.y.a.a.d.d.a.a.C.C.cXyXa.C.A.S.S.+XS.Z.bXrXS.$X$X$X$X1XbX&X<X<X>X9XcX<X7X6XlXyX<X7XcXD.A.A.C.i.2.3.3.M L L L L b 3.3.2.w.D.C.C.D.vX8X<XuXvX3X7X<XlXuX<X6X<X$XbXqX$X$X$X$XS.qXbXA.S.S.S.S.S.Z.a.qXbXC.C.a.a.d.d.a.a.b.y.8.yXbX6.8.8.6.<.3.3.3.3.3.<.5.8.8.5.bXkX .7.5.<.J x s s p p j j s x x J 5.7.5.D.CX=X .7.5.J x s z a u - & + o o & & - < a p x J ! 7.5.6.BXzX5.8.5.! J x p a < - & o . .                 o o & - a p x J ! <.t. .*XVXqX7.t.7.W J x p < * & & o             O ",
"O             o o + - u z z Z J <.5.7.=XVX=X .7.5.W x x z i - & + o                   o o + > - u p z J ! <.7.5.jXbXy.t.8.<.J x s a u - > + o o o + = - a p j x J <.7.5.!.CXE.5.5.<.<.J J x s p g p j x x J :.<.7. .eXBX8.8.q.1.<.3.3.3.3.3.<.5.8.q.8.vXzXq.y.y.a.a.d.d.a.a.C.C.cXyXa.C.S.S.S.+X+XZ.bXuXS.$X$X$X$X1XbX&X<X<X<X9XvX<X7X6XlXyX<X7XcXD.A.A.C.e.,.3.M b b K K b b 3.3.2.i.C.C.A.A.vX8X<XuXlX3X7X<XlXuX<X6X<X$XcXqX$X$X$X$XS.qXbXA.S.S.S.S.S.Z.a.qXbXC.C.a.a.d.d.a.a.y.y.8.yXbX6.q.8.6.<.3.3.3.3.3.<.5.8.8.5.bXkX .7.5.<.J x s s p p j p s s x J <.7.7.i.VX=X5.7.5.J x s z a u - & & o o & & - < a s x J ! 7.5.6.BXzX6.8.5.W J x p a < - & o . .                 o o & - a s x J <.<.t. .*XVXqX7.t.7.W J x p < * & & o             O ",
"O       X     o o + - u j x J J <.8.7.=XBX=X .7.5.W x x x i - @ + o                 o o o + > : u a x J J <.8.6.jXbXy.8.7.5.J x j a a < > + o o + & - - a p s x J <.7. .*XVXE.7.5.<.<.J J x s a g p s x x J :.<.7.5.eXBXt.8.q.1.<.3.3.3.3.3.1.6.8.q.6.vXzXy.y.y.a.a.d.d.d.a.C.C.cXyXC.C.S.S.S.+XS.S.cXeXS.$X$X$X$X8XbX&X$X1X1X9XvX<X6X3XlXyX<X7XcXD.A.C.C.e.,.3.M b L L L L b 3.3.2.i.C.C.A.S.vX8X<XuXvX3X6X<XlXuX<X6X<X$XbX8X$X$X$X$XS.qXbXS.S.+X+XS.S.Z.a.qXbXC.C.a.a.d.d.a.a.y.y.y.yXbX6.8.8.q.1.3.3.3.3.3.<.5.6.8.6.bXkX5.7.5.<.J x s s p p p j s x x :.<.8.7.i.VX=X5.7.5.J x s j a - & & o o o & = - < a s x J <.8.8.q.BXzX6.6.5.<.J x p a < - & o .                   o o @ - a s x J <.<.t. .*XVXqX7.t.5.J J x a < * & # o             o ",
"O       X     o o + - u j x J J <.6.7.=XBX=X .7.5.<.x x x i - & + o                 o o o + > < a a x J J <.8.6.jXbXy.8.8.5.J x j a a < > + + o + & - - a p s x J <.8.5.*XVXE.7.6.<.<.:.x x s a u p s x x J :.<.7.5.eXBXy.t.q.1.<.3.3.3.3.3.1.6.8.q.6.vXzXw.a.a.a.d.d.d.a.a.C.C.vXyXC.C.S.S.+X+XS.S.cXuXS.$X$X$X$X8XbX&X$X1X1X9XvX<X6X3XlXyX<X7XcXD.A.C.C.p.,.3.M b b L L b b 3.3.2.a.C.C.A.S.vX8X<XuXlX3X7X%XlXuX<X1X<X$XbX8X$X$X$X$XS.qXbXS.S.+X+XS.S.Z.a.qXbXC.C.C.a.d.d.a.a.a.y.y.yXcXq.q.8.6.1.>.,.3.3.3.<.<.6.q.6.bXkX5.7.5.<.J x s s p p p p s x x :.<.8.8.i.VX=X5.7.5.J x s j i - > & o o o & = - < a s x J <.8.8.q.BXzX6.6.5.<.J x s a < > & o . .                 o o @ * a s x J <.<.t. .*XVXqX7.t.7.<.J x a < * = & o             o ",
"O       X     o o + - u j x J J <.8.7.=XBX=X .7.5.<.x x x p - & + o                 o o o + > < a s x J :.<.8.6.jXbXi.8.8.6.J x s a a < * + + o + + - - a p s x J <.8.5.*XVXE.7.6.<.<.:.J x s a a p s x x J :.<.7.5.eXBXy.8.0.1.<.3.3.3.3.3.1.6.8.q.6.vXzXw.a.a.a.d.d.d.a.a.C.C.vXyXa.Z.Z.S.+X+X+XS.cXuX+X$X$X$X$X8XcX&X<X1X1X9XvX<X7X7XlXyX<X7XvXD.S.A.D.p.4.,.M M m L b b M M ,.4.p.C.C.Z.D.vX9X<XuXvX7X7X1XlXuX<X1X<X$XbX8X$X$X$X$XS.qXbXS.S.+X+XS.S.Z.a.qXbXC.A.a.a.d.d.a.a.a.y.w.yXcXq.q.q.0.1.>.,.3.3.3.<.1.6.q.6.bXkX5.7.5.<.J x s s p p p s s x x :.<.8.8.D.VX-X5.7.5.J x s p a - & & o o o & - - < a s x J <.8.6.q.bXzX6.6.6.<.J x s a < > & o . .                 o o + * a s x J <.<.t. .*XVXqX7.t.7.<.x x a < * & & o             o ",
"O             o o + - u j x J J <.6.7.=XBX=X .7.5.<.x x x p - @ + o                 o o o + > < a s x J :.<.8.6.jXbXi.8.8.6.J x s a a < > + + o + + - < a p x x J <.8.5.*XVXE.8.6.<.<.:.x x s a a p s x x J :.<.8.5.eXBXy.8.q.1.<.2.,.3.3.3.2.0.q.y.q.lXzXw.a.a.a.d.d.d.a.a.C.C.vXyXa.Z.S.+X+X+X+XS.cXuX+X$X$X$X$X8XcX&X<X1X1X9XlX1X7X7XlXyX<X7XvXD.S.A.Z.d.4.,.M M m :.:.m M M ,.4.d.D.C.Z.Z.lX9X<XuXvX7X7X1XlXuX<X1X<X$XcX8X$X$X$X$XS.qXbXS.S.+X+XS.S.Z.a.qXbXC.C.a.a.d.d.a.a.a.a.w.yXcXq.q.q.0.1.>.,.,.3.3.<.6.0.q.0.bXkX5.7.5.<.J x s s s p p s s x x :.<.8.8.i.VX-X5.8.5.J x s p a - & & o o o & - - < a s x :.<.8.8.q.bXzX6.6.6.<.J x s a < > + o . .                 o o @ * a s x J <.<.8.5.*XVXqX8.t.7.<.x x a < * & & o             o ",
"O             o o + - u j x J J <.6.7.=XBX=X5.8.5.<.x x x p - @ + o .               X o o + > < a s x J :.<.8.6.jXBXi.t.8.6.:.x s a a < * + + o + & - - a j x x :.<.6.5.*XVXE.8.6.<.<.:.J x d d a p s x x :.:.<.8.5.eXBXy.t.q.1.1.2.,.,.3.3.1.6.q.y.0.vXzXw.a.a.a.d.d.d.s.a.C.C.vXyXC.Z.S.+X+X+X+XS.cXuX+X$X$X$X$X8XcX&X1X1X1X9XlX1X7X7XlXyX<X7XvX+XS.S.S.a.4.4.,.,.3.3.3.3.,.,.4.4.d.D.Z.S.Z.lX9X<XuXvX7X7X1XlXuX1X7X1X$XvX9X$X$X$X$X$XqXbXS.S.+X+XS.S.S.a.qXbXC.C.a.a.d.d.a.a.a.a.w.yXcX0.q.q.0.1.>.,.,.3.2.<.0.q.q.0.bXkX5.8.6.<.:.x d s s p p s s s x :.<.8.8.D.VX-X5.8.6.:.x s s a < > & + o o & - - < a s x J 5.q.q.q.bXzX6.6.6.<.J x s a < > + o . .                 o + * < a s x :.<.<.8.5.*XVXqX7.t.8.:.J x a < < * & o             O ",
"O       X     o o + - u j x J J <.6.7.=XBX=X5.6.5.<.x x x p < & + o                 o o o + > < a s x J :.<.8.6.jXbXa.y.8.6.:.m s a a < * + + o + & - - a j x x :.<.8.5.*XVX&X8.0.<.<.:.m x d a a p s x x :.:.<.8.5.eXBXy.q.q.1.1.2.,.,.,.3.1.6.q.q.0.lXzXw.a.a.a.d.d.s.s.a.C.C.vXyXC.Z.S.+X+X+X+XS.cXuX+X$X$X$X$X8XcX&X1X1X1X9XlX1X7X7XlXyX1X7XvX+X$XS.S.s.d.4.4.,.>.2.3.3.,.4.4.d.s.Z.S.+X+XlX9X<XuXlX7X7X1XlXuX1X7X1X$XvX9X$X$X$X$X$XqXbXS.S.+X+XS.S.S.a.qXbXC.Z.a.s.d.d.s.a.a.a.w.yXcXq.q.q.0.1.>.,.,.3.2.<.0.q.q.0.bXjX5.8.6.<.:.x s s s p s s s x x :.<.6.8.D.VX-X5.8.6.:.x s s a < > & + o o & - - < a s x <.5.8.q.w.bXzX0.q.6.<.J x s a < > + o .                   o + * < a s x :.<.<.8.5.*XVXqX8.t.8.<.J x a < < > & o             O ",
"O       X     o o + - u p x J J <.6.7.=XBX=X<.6.5.<.x x x p < & + o                 X o o + > < a s x J :.<.8.6.jXBXa.y.8.6.:.m s a a < * + + + + & - - a j x x :.<.q.5.*XVXE.8.0.<.<.:.:.x d d d p s x x :.:.<.8.5.eXBXy.8.q.1.<.2.4.,.,.,.1.6.q.q.0.lXzXw.a.a.a.d.d.s.s.a.C.C.vXyXC.Z.S.+X+X+X+XS.cXuX+X$X$X$X$X1XcX&X1X1X1X9XlX1X7X7XlXyX1X7XvX+X$X$X+XD.d.d.4.4.2.e.e.2.4.4.d.d.Z.+X+X$X+XlX9X<XuXlX7X7X1XlXuX1X7X1X$XcX9X$X$X$X$X$XqXbXS.S.+X+X+XS.S.Z.qXbXC.Z.s.s.d.d.s.a.C.a.w.yXcXq.q.w.q.1.>.,.,.3.<.<.0.q.q.0.bXkX6.8.6.<.:.x d s s s s s d x x :.<.6.8.D.VX-X5.8.6.:.x s s a < > & + o o & - - < a s x <.5.q.q.w.bXzX0.q.6.<.J x s a < * + o .                   o + * < a j x J <.<.8.5.*XVXqX8.y.6.:.x x a < < > & o             O ",
"O       X     o o + - u p x J J <.6.5.=XBX-X<.6.<.<.x x x a < & + o .               X o o + > < a s x J :.1.8.6.jXbXa.y.q.6.:.m s p a < * & + + + & - < a s s x :.1.6.<.*XVXE.8.0.<.<.:.m x d d d s s x m :.:.<.6.5.eXBXq.q.w.1.2.2.4.,.,.,.1.0.q.w.0.lXzXw.a.a.d.d.s.s.s.a.C.C.vXyXa.S.S.+X+X+X+X+XcXuX+X$X$X$X$X1XcX&X1X1X1X9XlX1X7X7XlXyX1X9XlX$X$X$X+XOXs.d.d.d.p.p.p.p.p.d.d.s.OX+X$X$X$XlX9X<XuXlX7X7X1XlXuX1X1X1X$XcX9X$X$X$X$X$XqXbXS.+X+X+X+X+XZ.a.qXbXC.C.a.s.d.d.d.a.a.a.w.yXcXw.q.w.0.1.>.,.,.3.>.<.0.q.q.0.bXkX6.8.6.<.:.x d s s p s s d x x :.<.6.6.D.VX-X5.6.6.:.x d s a < > + + o + & - - < a s x :.<.q.q.w.bXzX0.q.6.<.J x s a < * + o .                   o + * - a s x J :.1.8.5.*XVXqX8.y.6.:.x x p a < > & o             O ",
"O             o + & * u p x x J <.6.5.=XBX-X5.6.<.<.:.x s a - * + o .               o o o + > < a s x :.:.1.6.6.jXbXd.y.w.1.:.x s a a < * & + o + & - u a s x x :.1.0.<.*XVXE.6.1.1.<.:.m s s s p s x x m :.<.1.6.5.eXbXy.q.w.1.1.2.,.,.,.>.1.0.w.w.w.lXzXa.a.a.d.d.s.s.s.s.Z.C.vXyXZ.S.+X+X+X@X+X+XvXuX+X$X$X%X%X1XcX&X1X1X1X9XlX1X7X7XlXuX1X9XlX%X%X@X@X+X+XZ.s.s.s.s.s.s.s.Z.OX+XOX+X$X$X$XlX9X1XuXlX7X7X1XlXuX1X1X1X&XcX9X%X$X$X$X$XqXcX+X+X+X+X+X+XOXZ.qXbXC.Z.s.s.s.s.s.s.a.a.y.yXcXw.w.w.e.1.>.,.,.,.2.1.0.q.w.0.bXkX6.6.6.<.:.x d s s s j s s x m :.1.q.6.D.VX-X5.6.<.:.x s d a u - + + + + & - - u s d m :.1.q.q.w.bXzX0.q.1.:.:.x s a < - & o o .               o o + * - a s x :.:.1.q.6.=XBXqX6.q.6.:.m x s a - & + o             O ",
"O             o + & < u s x x J <.6.5.=XBX-X5.6.<.<.:.x s a - & + o .               o o o + > < a s x :.:.1.6.6.jXbXD.w.w.1.:.x s a a < * & + o + & - u a s s x :.1.0.<.*XVX&X6.1.<.<.:.m d s p p s x J m m <.1.6.<.eXbXw.w.w.1.2.2.,.,.,.>.1.e.w.w.w.lXzXa.a.a.s.d.s.s.s.s.Z.C.vXyXZ.Z.+X+X+X@X@X+XvXuX+X$X$X%X%X1XcX%X1X1X1X9XlX1X7X7XlXuX1X9XlX%X%X%X%X$X@X+XOXOXZ.Z.Z.S.+X+X+X@X@X%X$X$X$XlX9X1XuXlX7X7X1XlXuX1X1X1X&XcX9X%X%X$X$X$XqXbX+X+X+X+X+X+XOXZ.qXcXZ.Z.Z.s.s.s.s.d.a.a.a.yXcXw.w.e.e.1.>.,.,.,.2.1.0.w.w.0.bXkX6.6.6.<.:.x d s s j j s s x m :.1.0.6.D.VX-X<.6.<.:.x d s a u - + @ @ + & - - u d d m :.2.0.q.w.bXzX0.0.1.<.:.x s a < - & o o .               o + + * * a s x :.:.<.0.6.=XBXqX6.q.0.:.m x s a 2 & @ o .           O ",
"O             o + & * < p x x J <.q.5.=XBX-X5.6.<.<.:.x s a - & + o .               o o o + > < a p x :.:.1.q.6.jXbXs.w.w.1.:.x s a a < > + + o + & * < a s s x :.1.0.<.*XVX&X6.1.2.<.:.m d s p p s x x m m <.1.6.<.eXbXw.w.w.1.1.2.,.,.,.,.2.e.y.w.w.lXzXa.a.a.s.d.s.s.s.s.S.Z.vXyXZ.Z.S.+X+X@X@X+XvXuX+X$X$X%X%X1XcX%X1X1X1X9XlX1X7X7XlXyX1X9XcX8X$X%X%X$X$X$X+X+X+X+X$X$X$X$X$X$X$X1X<X<X<XlX9X1XuXlX7X7X1XlXuX1X1X1X&XcX9X%X%X$X%X$XqXbX+X+X+X#X+X+XOXZ.qXcXZ.Z.Z.s.s.s.d.d.a.a.y.yXcXw.w.e.e.1.>.,.,.,.2.1.0.w.w.0.bXkX6.6.6.<.:.m d d s s p s s M m :.1.q.6.D.VX-X1.6.<.:.x d d a a * + @ @ + & - - u d d m :.1.w.q.w.bXzX0.q.0.<.:.x s a < - & o o .             . . + + * * a s x :.:.<.0.6.=XBXqX6.q.0.:.m s s a 2 & @ o .           O ",
"O             o + & * < p x x J <.q.5.=XBX-X5.6.<.<.:.x s a - & + o .               o o o + > < a s x :.<.1.q.6.jXbXs.w.w.1.:.x s a a < > + + o + & * < a s s x :.1.0.<.*XBX&X6.1.1.<.:.m d s s a s x x m m <.1.6.5.eXbXw.w.w.e.2.2.,.,.,.,.2.e.w.w.w.lXzXa.a.a.s.d.s.s.s.Z.Z.C.vXyXZ.Z.+X+X@X@X@X+XvXuX+X%X%X%X%X1XcX%X1X1X1X9XlX1X7X7XlXuX1X9XyXE.R.S.+X+X+X+X+X+X+XS.+X+X$X$X$X$X$X$X$X$X$XyX9X1XuXlX7X7X1XlXuX1X1X1X&XcX9X%X%X$X%X+XqXbX+X+X@X+X+X+XOXZ.qXcXZ.Z.Z.s.s.s.d.d.a.a.a.yXcXw.w.e.e.1.>.,.,.,.2.1.0.w.w.0.bXkX6.6.6.<.:.m x d s s p s s M m :.1.q.6.D.VX-X1.6.5.:.m d d a a * + @ @ + & - - u d d m :.1.e.q.w.bXzX0.q.0.<.:.x s a < - & o o .               . o + * * a s x :.:.<.0.6.=XBXqX6.q.0.:.m s s a 2 & @ o .           O ",
"O             o o & * < s x x J 1.q.5.=XBX-X5.6.1.<.:.x s a : & + o .               o o + + * < a s x :.<.0.q.6.jXbXD.w.w.1.:.m s a a < * + + o + & * < a s d x :.1.0.<.*XBX&Xq.1.2.1.:.m d s s p s x x m :.<.1.0.6.eXbXw.w.p.e.2.2.,.,.,.,.2.e.w.w.w.lXzXa.a.a.s.d.s.s.s.s.Z.Z.vXyXZ.Z.+X+X@X@X@X+XvXuX+X%X%X%X%X8XcX%X%X1X1X9XlX%X7X7XlXyX1X$Xt.B *.t.y.C.C.C.C.C.C.C.C.C.C.C.Z.Z.Z.C.C.C.b.&X8X1XuXlX7X7X1XlXuX1X1X1X&XcX9X%X%X%X%X+XqXbX+X+X@X+X+X+XOXs.qXcXZ.Z.s.s.s.s.d.s.a.a.a.yXcXw.w.w.e.1.>.,.,.,.2.1.0.w.w.0.bXkX6.6.0.<.:.m x d s s s s s M m :.1.q.6.D.VX-X6.q.5.<.x d d a a - + + @ + & - - u d d m :.1.w.q.w.bXzX0.q.0.<.:.x d a < - & o o .               . o + * * a s x :.:.<.0.6.=XBXqXq.q.0.:.m x s p 2 & + o .           O ",
"O           X o o & * u s x x J 1.q.5.=XbX-X5.6.1.<.:.x s a - > + o .               o o + + * < a s m :.2.0.q.6.jXbXD.w.p.1.:.m d a a < * + + o + & * < a s d x :.1.e.<.*XBX&Xq.1.2.1.:.m d s s p s x x m m <.1.0.1.eXbXw.w.p.e.2.2.,.,.,.,.1.e.w.w.w.lXzXa.a.s.s.d.s.s.s.s.Z.Z.vXyXZ.S.+X+X@X@X@X+XvXuX+X%X%X%X%X8XcX&X%X1X1X9XlX%X7X7XlXyX$Xb.%.{ n.v.y.C.S.S.C.a.a.a.C.C.C.C.C.C.C.C.C.b.8.t.Y.<XyXlX1X7X1XlXuX1X1X1X&XcX9X%X%X%X%X$XqXbX+X@X@X@X@X+XOXs.qXcXZ.Z.s.s.s.s.s.s.s.a.a.yXcXw.w.w.e.1.>.,.,.,.2.1.0.w.w.0.bXkX0.6.0.<.:.m x d s s s s s M m :.1.q.0.D.VX-X6.q.6.<.x d d a a - + + @ + & - - u d d m :.1.w.q.p.bXzX0.q.0.<.:.x s s < - & o o .               . o + * * a s x :.:.<.0.6.=XBXqXq.q.0.:.m x s p u * + o .           O ",
"O       X   X o + & < u s x x J 1.q.5.=XBX-X5.0.1.<.:.x s a < > + o .               . o + + * < a s m :.>.0.q.6.jXbXD.w.p.1.:.m d s a < * & + + + & * a a s d x :.1.e.1.*XBX&Xq.1.2.1.:.m x s s d s x x m m <.1.0.1.eXbXw.w.p.e.2.2.4.,.4.>.1.e.w.w.w.lXzXa.a.s.s.d.s.s.s.s.Z.Z.vXyXZ.S.+X+X@X@X@X+XvXuX+X%X%X%X%X1XcX&X%X1X1X9XlX1X1X1XvXyXb.7.t.t.u.*.%.t.C.Z.Z.Z.D.Z.Z.Z.Z.Z.Z.Z.Z.Z.D.D.b.y.b.R.yXlX1X7X1XlX9X1X1X1X%XcX9X%X%X%X%X$XqXbX+X@X@X+X@X#XOXs.qXcXZ.Z.s.s.s.s.s.s.s.a.a.yXcXw.w.w.e.1.>.,.,.,.2.1.e.w.w.e.bXkX0.0.0.<.:.m x s s s s s s M m :.1.q.0.D.VX-X6.0.6.<.x d d a u * + + @ @ & - - a d d m :.1.w.w.p.bXzXq.w.0.<.:.m d s < - & o o .             . o o + * * a s x :.:.1.0.6.=XBXqXq.q.0.:.m x s p u * + o .           O ",
"O       X   X o + & < u s x x J 1.q.5.=XBX-X5.0.1.<.:.x s a - > + o .               . . o + * < a s m :.>.0.q.6.jXbXD.w.p.1.:.m s s a < * & + + + & * a a s d m :.1.e.1.*XBX&Xq.1.2.1.:.m d s s d d x x m m <.1.0.1.eXbXw.w.p.2.2.2.4.,.4.>.1.e.p.a.p.lXzXa.a.s.s.d.s.j.s.s.Z.Z.vXuXZ.Z.+X@X@X@X@X+XvXuX+X%X%X%X%X8XcX&X%X1X1X9XlX1X1X1XvXeX' t.%.t.t.u.n.V.C.S.Z.Z.S.S.S.S.S.S.S.Z.S.Z.C.C.b.b.b.A.qXlX9X1X1XlX9X1X1X1X%XvX9X%X%X%X%X$XqXbX+X@X@X@X@X#XOXs.qXcXZ.Z.s.s.j.s.s.d.s.a.a.yXcXw.w.e.e.1.>.,.,.,.2.1.e.w.w.1.bXkX0.0.0.<.:.m x s s s s s s M m :.1.q.0.D.VX-X1.0.6.<.m d d a u * + + @ + & - - a d d m :.1.w.w.p.bXzXq.w.0.<.:.m d s < - & o o .             . o + + * * a s x :.:.1.0.6.=XBXqXq.q.0.:.m x s p u * + o .           O ",
"O             o o & < a p x x J 6.6.6.=XbX-X6.0.1.<.:.x s a - & + o .               . o o & * < a s m :.2.0.q.6.jXbXs.w.p.1.:.m d s a < * * + + + & * u a s x m :.1.0.1.*XBX&Xq.1.2.2.:.m M d s d s x m m m <.1.0.1.eXbXa.w.p.e.2.2.4.,.4.4.2.e.w.p.e.lXzXa.a.s.s.s.s.h.h.Z.Z.Z.lXuXZ.OX+X@X@X@X@X@XlXuX@X%X%X%X%XiXcX%X%X1X1X9XlX1X1X1XrXT { *.t.t.t.u.n.V.A.S.S.S.S.S.S.S.S.S.S.S.S.S.A.A.A.M.m.t.=XlX1X9X%XlX9X1X1X1X%XvX9X@X%X%X%X@XqXcX@X@X@X@X@X#XOXs.qXcXZ.Z.s.s.j.j.s.d.s.a.a.yXvXw.p.e.p.2.4.,.,.,.2.2.e.w.e.e.cXkX0.0.0.<.:.m d d s s s s x M m :.1.w.0.D.bX-X1.0.6.<.m d d a a - @ + @ @ & - - a d d m :.1.w.w.a.bXzXw.w.e.<.:.m d s < - & o o               . o + + * < a s x :.:.2.q.6.=XBXqXq.y.0.:.m x s a u * + o .           O ",
"O             o o & < a p x x J 6.q.6.=XbX-X6.0.1.<.:.x s a < & + o .               . o o & * < a s m :.2.0.q.0.jXbXs.a.p.1.:.m d s a < * * + + + * * u d s x m :.2.0.1.*XBX&X0.2.2.2.:.m M d d d d x m m m <.1.0.1.eXbXa.w.p.e.2.2.4.,.4.4.2.e.p.p.p.lXzXa.a.s.s.s.j.h.h.Z.S.Z.lXuXs.OX#X@X@X@X@X@XlXuX@X%X%X%X%X1XcXiX%X1X1X9XlX%X9X1Xb.' } =.t.t.t.t.b.b.A.A.S.S.R.S.R.S.S.S.S.S.S.S.A.A.M.M.M.t.8.qX1X1X1XlX9X1X1X1X%XvX9X%X%X%X%X$XqXcX@X@X@X@X@X#XOXs.qXcXZ.Z.s.h.h.j.s.d.d.a.a.yXvXw.p.e.p.2.4.,.,.,.2.2.e.w.e.e.cXkX0.0.1.<.:.m M d s s s s x M m :.1.w.0.D.BX-X1.0.6.<.m d d a a - @ @ @ @ & - u a d d m :.1.w.w.a.bXzXw.w.e.2.:.m d s < - * o o               . o + + * < a s x :.:.2.q.6.=XBXqXq.w.0.:.m x s a u * + o .           O ",
"O           X o o & < a p x x :.6.q.6.=XbX-X6.0.1.<.:.x s a < * + o .               . o o & * < a s m :.2.e.q.0.jXbXs.a.p.1.:.m d s a < * * + + + * * u d s x m :.2.0.1.*XBX&X0.2.2.2.:.m M d d d d x m m m >.1.e.1.eXbXa.w.p.e.4.4.4.,.4.4.2.e.w.p.p.lXzXa.s.s.s.s.j.h.h.s.Z.Z.lXuXs.OX+X@X@X@X@X@XlXuX@X%X%X%X%XiXvXiX%X1X1X9XlX%X8XA.[ { *.*.v.v.v.b.C.C.A.A.S.S.S.S.S.S.S.S.S.S.S.A.A.A.b.b.b.b.| A.1X1X1XlXuX1XiXiX%XvX9X%X%X%X%X@XqXvX@X@X@X@X@X#X#XZ.qXcXZ.OXh.h.h.j.s.s.s.s.a.yXvXp.p.p.p.2.4.,.,.,.2.2.e.w.e.p.cXkX0.0.1.<.:.m M d s s s s x M m :.1.e.0.D.BX-X1.0.6.<.m d d a a < @ @ @ @ & - < a d d m :.1.w.w.a.bXzXw.w.e.2.:.m d s < - & o o             . . . + + * < a s x :.>.2.q.6.=XBXqXq.w.0.:.m x s a u * @ o .           O ",
"O       X   X o o & < a p x x :.6.q.6.-XbX-X6.0.1.<.:.x x a < * + o .               . o o & * < a s m :.2.e.q.0.jXbXD.a.p.1.:.m d s a < * * + + + * * u d s x m :.2.0.1.*XBX&Xe.2.2.2.:.m M d d d d x m m m >.2.e.1.eXbXa.w.p.e.4.4.4.,.4.4.2.e.p.p.p.lXzXa.a.s.s.s.j.h.h.h.Z.Z.lXuXh.OX+X@X@X@X@X@XlXuX@X%X%X%X%XiXvXiX%X1X1X9XlX&XR.&.l.$.=.*.v.v.v.b.C.C.A.A.S.S.S.S.S.S.S.S.S.S.S.S.A.C.b.b.b.B.*.t.R.8X%XlXuX1X%X%X%XvX9X%X%X%X%X@XqXvX@X@X@X@X@X@X#XZ.qXcXZ.OXh.h.h.j.s.s.s.s.a.yXvXp.p.p.p.2.4.,.,.,.>.2.e.p.e.p.cXkX0.0.1.<.:.m M d s s s s d M m :.1.w.0.D.BX-X1.0.6.<.m d d a a - @ @ @ @ & - < a d d m :.1.w.w.a.bXzXw.w.e.2.:.m d s < - * o o               . o + + * < a s x :.:.1.q.6.=XBXqXq.w.0.:.m x s a u * @ o .           O ",
"O             o + & < a p x x :.6.q.6.-XbX-X6.0.1.<.:.x x a < * + o .               . o + + * < a s m :.>.1.q.0.jXbXs.a.p.1.:.m d d a < * * + + + * < u a s x m :.2.e.1.*XBX&Xe.2.2.2.:.m M d d d d x m m m 2.2.e.1.eXbXa.w.p.2.4.4.4.4.4.4.4.2.p.p.p.lXzXa.s.s.s.j.j.j.h.h.OXZ.lXuXZ.#X+X@X@X@X@X@XlXuX@X%X%X%X%XiXcX&X%X1X1X9XcX&Xv.l.k.*.%.v.v.v.v.b.C.Z.A.A.S.S.S.S.S.S.S.+X+X+X+XS.S.A.A.A.M.m.n.&.M.$X&XlXuX1X%X%X%XvX9X%X%X%X%X@XqXcX@X@X@X@X@X@X#Xh.qXcXOXOXh.h.h.j.j.s.s.s.a.yXvXp.p.p.p.2.4.,.,.,.>.2.e.p.p.p.cXkX0.0.1.<.:.m M d d s s s d M m :.2.w.0.D.BX-X1.e.6.<.m d s a a < @ @ @ @ & - < a d d m :.1.w.w.a.bXzXw.w.e.2.:.m d d < - * o o               . . + + * < a s x :.:.1.q.6.=XBXqXq.w.0.:.m x s p u * @ o .             ",
"O             o o & < a p x x :.6.q.6.-XbX-X6.0.1.<.:.x x a < * + o .               . o o + * < a s m :.>.1.w.0.jXbXD.a.p.1.:.m d s a < * * + + + * * u d s x m :.2.e.1.*XBX&Xe.2.2.2.:.m M d d d d x m m m 2.2.e.1.eXbXa.w.p.2.4.4.4.4.4.4.4.2.p.p.p.lXzXa.s.s.s.j.j.j.h.h.OXZ.lXuXOX#X+X@X@X@X@X@XlXuX@X%X%X%X%XiXcX&X%X1X1X9XbXt.l.#.k.z.*.v.v.m.m.M.C.S.A.R.R.S.S.R.S.S.$XS.+X+X+XS.S.S.A.A.M.m.z.z.H.v.8XlXuX1XiX%X%XvX9X%X%X%X%X@XqXcX@X@X@X@X@X@X#XOXqXcXOXOXOXh.h.j.s.s.s.s.a.yXvXp.p.p.p.2.4.,.,.,.>.2.e.p.p.p.vXkX0.0.0.1.:.m M d d s s d d M m :.1.w.0.D.BX-X1.e.6.<.m d s a a < @ @ @ @ & - < a d d m :.1.w.w.a.bXzXw.w.e.2.:.m d d < - * o o               . . + + * < a s x :.:.1.q.6.=XBXqXq.w.e.:.m x s p u * @ o .             ",
"O             o o & < a p x x :.1.0.6.-XbX-X6.0.1.<.:.x x a < * + o .               . o + & * < a s m :.>.1.w.0.jXbXs.a.p.1.:.m d d a < * * + + + * < u d s x m :.2.e.1.*XBX&Xe.2.2.2.:.m M d d d d x m m m 2.2.e.1.eXbXa.w.p.e.4.4.4.,.4.4.4.2.p.p.p.lXzXa.s.s.s.j.j.j.h.h.Z.Z.lXuXOX#X@X@X@X@X@X@XlXuX@X%X%X%X%XiXcX&X%X1X1X9XyX[ l.#.x.l.n.*.m.m.m.M.C.S.A.R.R.R.R.R.R.R.R.R.R.R.R.R.R.R.A.A.A.m.#.z.x.l.qXlX9X%XiX%X$XvX9X%X%X%X%X@XqXvX@X@X@X@X@X@X#Xh.qXcXOXOXOXh.h.j.s.s.s.s.a.yXvXp.p.p.p.4.4.,.,.,.>.2.e.p.p.p.vXkX0.0.1.1.:.m M d d s s s d M m :.2.e.0.D.BX-X1.e.0.<.m d d a a < @ @ @ @ & - u a d d m :.1.w.w.a.bXzXw.w.e.2.:.m d d < - * o o               . . + + * < a s x :.:.2.q.6.=XBXqXq.w.e.:.m x s p u * @ o .           O ",
"              o o & < a a x x :.1.0.6.-XbX-X6.0.1.<.:.x s a < * + o .                 o o & * < a d m :.>.1.w.0.jXbXs.p.p.2.:.m d d a < * @ + + + * * u a s x m :.2.e.1.*XBX&Xe.2.2.2.:.m M d d d d x m m m >.2.e.1.eXbXa.w.p.p.2.4.4.,.,.4.4.e.p.p.p.lXzXa.s.s.h.j.j.j.h.OXOXZ.lXuXOX#X#X@X@X@X@X@XlXuX@X%X%X%X%XiXcX&X%X1X%X1Xt.&.@.N.l.l.&.n.m.m.m.M.A.S.R.R.R.R.R.R.R.R.R.R.R.R.R.R.R.R.R.A.R.M.x.c.x.m.*.R.1X%X%X%X@XvX9X%X%X%X%X@XqXvX@X@X@X@X@X@X#XOXqXcXOXOXOXh.h.j.j.s.s.s.a.yXvXp.p.p.p.4.4.,.,.,.>.2.e.p.p.p.vXkX0.e.0.1.:.m M d d s s s d M m :.1.e.0.D.BX-X1.0.0.<.m d s a a < @ @ @ @ & - u a d d m :.1.w.w.a.bXzXe.w.e.2.:.m d d < - * o o               . o + + * < a s m :.>.2.q.0.=XBXqXq.w.e.:.m x s p u * @ . .           O ",
"        X   . o + & * u s x :.:.1.q.6.-XbX-X0.0.1.<.:.x s a < * + o .               X o + & - < < d :.:.>.2.e.0.jXbXD.p.p.2.>.m d d a < * @ + + + * < < a s x m :.2.1.1.*XBX&Xe.2.2.2.:.m M d d d d d m m :.>.1.e.1.eXbXa.e.p.p.4.4.4.,.,.4.4.p.p.p.p.lXzXa.s.s.s.s.j.j.h.OXOXZ.lXuXh.OX@X@X@X@X@X@XlXuX@X%X%X%X%X%XcX&X%X%X%Xb.l.k.k.l.x.x.l.v.m.m.H.M.A.A.R.R.R.Y.Y.Y.Y.Y.Y.Y.Y.Y.Y.R.R.R.R.R.A.M.N.x.x.x.m.m.$X1X%X%X%XlXuX@X@X%X%X@XqXcX@X@X@X@X@X@X#XOXqXcXOXOXOXh.h.j.j.s.s.s.a.yXlXp.p.p.p.e.4.,.,.,.2.2.e.p.e.p.cXkX0.0.0.1.:.m M d d s d d d M m :.1.e.0.D.bX-X1.0.1.:.m x s a < * * @ @ @ & - < a d d m :.1.e.w.p.bXzXw.w.e.2.:.m d a < * * o .                 . o + * < a d m :.>.2.0.0.=XBXqXq.w.e.:.m x s p a * + . .           O ",
"O       X . . o + & - u s x :.:.1.q.0.-XbX-X0.0.1.<.:.x s a < * + o .               X o + & - < < d :.:.>.2.e.0.jXbXD.p.p.2.>.m d d a < * @ + + + & < < a s x m :.2.1.1.*XBX&X0.e.2.>.:.m M d d d d d m m :.>.1.e.1.eXbXp.e.p.p.p.4.4.,.,.4.4.p.p.p.p.lXzXa.s.s.s.s.j.j.h.OXZ.Z.lXuXh.#X@X@X@X@X@X#XlXuX@X%X%X%X%XiXvX&X%X%XR.m.l.l.l.x.x.x.m.m.m.m.H.H.H.R.R.R.Y.Y.Y.Y.$X$X$XY.Y.Y.Y.R.R.R.R.R.A.M.J.J.c.x.x.m.R.$X1X%X%XlXqX@X@X%X%X@XqXcX@X@X%X@X@X@X#XOXqXcXOXOXOXh.h.j.j.s.s.s.a.yXlXp.p.p.p.e.4.,.,.,.2.2.e.p.p.p.cXkX0.0.0.1.:.m M d d s d d d M m :.1.e.0.D.bX-X1.0.1.:.m x s a < < * + @ @ & - < a d d m :.2.e.e.p.bXzXe.w.e.<.:.m d d < * * o o                 . o + * < d d m :.:.2.0.0.-XBXqXw.w.e.:.m M s p a * + o .           O ",
"O       X . . o + & - u s x m :.1.q.0.-XbX-X0.0.1.<.:.x s a < * + o .               X o + + * < < d :.:.>.2.e.0.jXbXD.p.p.2.>.m d d a < * @ + + + & < < a s M m >.2.1.1.*XBX&Xe.e.2.>.:.m M d d d d d m m :.>.1.e.1.eXbXp.e.p.p.p.4.4.,.,.4.4.p.p.p.p.lXzXa.s.s.s.j.j.j.h.OXOXZ.lXuXh.#X@X@X@X@X@X@XlXuX#X%X%X%X@XiXcX&X&XR.v.v.l.x.x.x.x.x.N.m.m.M.H.H.R.R.R.R.R.Y.Y.Y.Y.Y.$XY.Y.Y.Y.Y.R.R.R.R.A.H.H.J.N.c.x.m.H.A.$X$X@XcXqX@X@X%X@X@XqXcX@X@X%X@X@X@X#XOXqXcXOXOXh.h.h.j.j.s.s.s.a.yXlXp.p.p.p.4.4.,.,.,.4.2.p.p.p.p.cXkX0.0.1.1.:.m M d d s s s d M m :.1.e.0.D.bX-X0.0.1.:.m x s a < * * + @ @ & - - a d d m :.2.e.w.p.bXzXw.w.e.2.:.m d d < - * o o                 o o + * < a d m :.>.2.0.0.=XBXqXw.w.e.:.m M d p a * @ o .           O ",
"O       X . . o + & - u s x :.:.1.q.0.-XbX-X0.0.1.<.:.x s a < * + o .               X o + + - < < d :.:.>.2.e.0.jXbXD.p.p.2.>.m d d a < * @ + o + & * < a s M m >.2.1.1.*XBX&Xe.e.2.>.:.m M d d d d d m m :.>.1.e.1.eXbXp.e.p.p.4.4.4.,.,.4.4.p.p.p.p.lXzXa.s.Z.h.j.j.j.h.OXOXZ.lXuXh.#X@X@X@X@X@X@XlXuX#X@X%X%X%X%XbX&X&XA.m.m.x.x.x.x.x.x.N.m.m.H.H.H.R.R.R.R.Y.Y.Y.$XY.$X$X$XY.Y.Y.Y.R.R.R.R.H.H.H.J.J.c.m.m.m.M.$X%X@XlX9X#X@X@X@X@XqXcX@X@X@X@X@X#X#XZ.qXcXOXOXh.h.h.j.j.s.s.s.a.yXlXp.p.p.p.2.4.,.,.,.4.2.e.p.p.p.cXkX0.0.0.1.:.m M d d s s s d M m :.1.e.0.D.bX-X0.0.1.:.m x s a < < * + @ @ & - < a d d m :.2.e.w.p.bXzXw.w.e.2.:.m d d < * * o .                 o o + * < d d m :.>.2.0.0.=XBXqXw.w.0.:.m M d p a * @ o .           O ",
"O         . . o + & - u s x :.:.1.q.0.-XbX-X0.0.1.:.:.x s a < * + o .               X o + & * < < d :.:.>.2.e.0.jXbXZ.p.p.2.>.m d d a < * + + o + & < < d d M m >.2.1.1.*XBX&Xe.e.2.>.:.m M d d d d d m m :.>.2.e.1.eXbXp.e.p.p.4.4.4.,.,.4.4.p.p.p.w.lXzXa.s.Z.h.s.j.j.h.OXOXZ.lXuXh.#X#X@X@X@X@X@XlXuXOX$X$X%X%X%XBXuXM.k.x.k.x.x.x.x.x.x.m.m.J.H.H.H.R.R.R.Y.Y.Y.Y.Y.$X$X$X$XY.Y.Y.Y.Y.R.R.R.R.H.H.H.J.J.J.m.m.m.M.8X9XlX9X@X%X%X%X@XqXcX@X@X@X@X@X#X+XZ.qXcXZ.OXOXh.h.j.j.s.s.s.a.yXlXp.p.p.p.4.4.,.,.,.4.2.e.p.p.p.cXkX0.0.0.1.:.m M d d s s s d M m :.1.e.0.D.BX-X1.0.1.:.m m s a < < * + @ @ & - - a d d m :.2.e.w.p.bXzXe.w.e.2.:.m d d < - * o o                 X o + * < a d m :.:.2.0.0.-XBXqXw.w.0.:.m M s p a * + . .           O ",
"O         . . o + & * u s x m :.1.q.0.-XbX-X0.0.1.:.:.x s a < * + o .               X o + & * < < d :.:.>.2.e.0.jXbXZ.p.p.2.>.m d d a < * + + o + & * < d d M m :.2.1.1.*XBX&Xe.e.2.>.:.m M d d d d d m m :.>.2.e.1.eXbXp.e.p.p.4.4.4.,.,.,.4.p.p.p.p.lXzXa.s.Z.h.s.j.j.h.OXOXZ.lXuXh.OX#X@X@X@X@X@XlXuXOX+X$X%X@XiXvXzXl.x.c.c.x.x.x.x.x.m.m.m.J.H.H.H.R.R.R.Y.Y.Y.Y.Y.Y.$X$X$X$X$XY.Y.Y.R.R.U.R.H.H.H.J.J.J.c.x.m.l.tXvXcXiX@X%X%X%X@XqXcX#X@X@X@X@X#X+XZ.qXcXOXOXh.h.h.j.j.s.s.s.a.yXlXp.p.p.p.4.4.,.,.,.4.2.e.p.p.p.cXkX0.0.0.1.:.m M d d s s s M M m :.2.e.0.D.BX-X1.0.1.:.m x s a < * * + + @ & - - a d d m :.1.e.w.p.bXzXe.w.e.2.:.m d d < - * o o                 X o + * < d d m :.:.2.0.0.-XBXqXw.w.0.:.m M s p u * + . .           O ",
"O       . . . o + & - u s x :.:.1.q.0.-XbX-X0.0.1.<.:.x s a < * + o .                 o + & - < < d :.:.>.2.e.0.jXbXZ.p.p.2.>.m d d a < * @ + + + & < < d d x m :.2.1.1.*XBX&Xe.e.2.>.:.m M d d d d d M m :.>.2.e.1.eXbXp.p.p.p.p.4.4.,.,.,.4.p.p.a.p.lXzXa.s.s.h.s.j.j.h.OXOXZ.lXuXh.OX#X@X@X@X@X@XlXuXOX@X%X%X%X@X&XB.` c.x.x.c.x.x.x.N.N.J.J.H.H.K.K.U.R.Y.Y.Y.Y.Y.Y.$X$X$X$X$X$XY.Y.Y.Y.Y.R.R.U.H.H.I.J.J.c.c.J.k.m.&X&X#X%X%X%X%X@XqXcX#X@X@X@X@X+X+XZ.qXcXOXOXOXh.h.j.j.s.s.s.a.yXlXp.p.p.p.2.4.,.,.,.>.2.e.p.p.p.cXkX0.0.0.1.:.m M d d s d s d M m :.2.e.e.D.BX-X1.0.1.:.:.x s a < * * + + @ & - - a d d m :.1.e.e.p.bXzXe.w.e.2.:.m d d < * * o o                 X o + * < d d m :.>.2.0.0.-XBXqXw.w.0.:.m x s p a * + . .           O ",
"O       . . . o + & - u s x :.:.1.q.0.-XbX-X0.0.1.<.:.m s a < * + o .               X o + & * < < d :.:.>.2.e.0.jXbXZ.p.p.2.>.m d d d < * + + + + & < < a s x m :.2.1.1.*XBX&X0.e.2.>.:.m M d d d d d m m :.>.1.e.1.eXbXa.p.p.p.p.4.4.,.,.,.4.p.p.a.p.lXzXa.s.s.h.s.j.j.h.OXOXZ.lXuXh.OX#X@X@X@X@X@XlXuXOX@X%X%X%X%XA.#.x.c.x.c.c.c.c.c.J.J.J.J.I.K.K.T.U.Y.Y.Y.Y.Y.Y.Y.$X$X$X$X$X$XY.Y.Y.Y.Y.Y.U.T.U.H.I.I.J.c.c.x.J.m.b.$X%X@X%X%X%X@XqXcX#X@X@X@X@X#X+XOXqXcXOXOXOXh.j.j.j.s.s.s.a.yXlXp.p.p.p.2.4.,.,.,.4.2.e.p.p.p.cXkX0.0.0.1.:.m M d d s d s d M m :.2.e.e.D.bX-X1.0.1.:.:.x s a < * * + + @ & - 2 a d d m :.2.e.e.p.bXzXe.w.1.<.:.m d d < * * o o                 X o + * < d d m :.>.2.0.0.-XBXqXw.w.0.:.m x s p u * + . .           O ",
"O           . o + & * u s x :.:.1.q.0.-XbX-Xq.0.1.:.:.x s a < * + o .                 o o & * < < d :.:.>.2.e.0.jXbXZ.p.p.2.:.m d d d < * @ + + + & * < d d x m :.2.1.1.*XBX&X0.2.2.>.:.m M d d d d x M m :.>.2.e.1.eXbXp.e.p.p.2.4.4.,.,.4.4.p.p.p.w.lXzXa.s.s.h.j.j.j.h.OXOXZ.lXuXs.OX@X@X@X@X@X@XlXuX#X@X@X%X%XS.v.x.c.c.c.c.c.J.J.J.J.J.J.J.I.K.K.U.Y.Y.Y.Y.Y.$X$X$X$X$X$X$X$XY.Y.Y.Y.Y.Y.T.U.U.U.U.I.I.I.c.c.c.c.x.m.R.$X%X@X%X@X@XqXcX#X@X@X@X@X#X#XOXqXcXOXOXOXh.h.j.s.s.s.a.a.yXvXp.p.p.p.e.4.,.,.,.>.2.e.p.e.p.cXkX0.0.1.2.:.m M d s s s s M M m :.2.e.e.D.BX-X1.e.<.:.m m d d < < + @ @ @ & - - a d d m :.2.e.e.p.bXzXe.w.e.2.:.m d d < * * o o                 X o + * < d d m :.>.2.0.0.=XBXqXq.q.0.:.m M s p u > + . .           O ",
"O           . o + & * u s x :.:.1.q.0.-XbX-Xq.0.1.:.:.x s a < * + o .                 . + & * < < d :.:.>.2.0.0.jXbXZ.a.p.2.:.m d d a < * @ + + + & * < d d x m :.2.1.1.*XBX&X0.2.2.>.:.m M d d d d d M m :.>.2.e.1.eXbXp.e.p.p.2.4.4.,.,.4.4.p.p.a.w.lXzXa.s.s.s.j.j.j.h.OXZ.Z.lXuXs.OX+X@X@X@X@X@XcXqXh.%X%X%X$XA.x.x.c.c.c.c.c.J.J.J.J.I.I.I.I.P.U.U.Y.Y.Y.Y.Y.$X$X$X$X$X$X$X$X$X{.Y.Y.Y.Y.T.U.U.U.U.I.I.I.L.c.c.c.c.m.R.R.$X%X@X%X@XqXvX#X@X@X@X@X#X#XOXqXvXOXOXOXh.h.j.j.s.s.a.a.yXvXp.p.p.p.e.4.,.,.,.>.2.e.p.e.p.cXkX0.0.1.1.:.m M d s s d s M M m :.2.e.e.D.BX-X1.e.1.:.m x d d < < + + @ @ & - - a d d m :.2.e.e.p.bXzXe.w.1.2.:.m d d < * * o o                 X o + * < d d m :.>.2.0.0.=XBXqXq.w.0.:.m M s p u > + . .           O ",
"O       X . . o + & * u s x :.:.1.q.0.-XbX-Xq.0.1.:.:.x s a < * + o .                 . + & * < < d :.:.>.2.0.0.jXbXZ.p.p.2.:.m d d a < * @ + + + & * < d d x m :.2.2.1.*XBX&X0.2.2.>.:.m M d d d d d m m :.>.2.e.1.eXbXp.e.p.p.2.4.4.,.,.4.4.p.p.a.p.lXzXa.s.s.s.j.j.j.h.OXZ.Z.lXuXs.OX+X@X@X@X@XOXvXuXh.@X%X$XA.m.x.c.c.I.c.c.c.J.J.J.I.I.I.I.P.P.U.U.Y.Y.Y.Y.{.$X<X<X<X$X<X$X<X<X{.{.Y.Y.Y.Y.U.U.U.U.I.I.I.I.c.c.c.c.m.H.R.R.$XZ.@XOX-XcX@X#X@X@X#X#X#XOXqXvXOXOXOXh.h.j.j.s.s.a.a.yXvXp.p.p.p.2.4.,.,.,.>.2.e.p.e.p.cXkX0.0.1.1.:.m M d s s d d d M m :.1.e.e.D.BX-X1.e.1.:.m x s a < < * + + @ & - - a d d m :.2.e.w.p.bXzXe.w.e.2.:.m d d < * * o o                 X o + * < d d m :.:.2.e.0.=XBXqXq.w.e.:.m M s p u * + . .           O ",
"O       o . . o + & * u s x :.:.1.q.0.-XbX-Xq.0.1.:.:.x s a < * + o .                 o + + * < < d :.:.>.2.e.0.jXbXZ.p.p.2.:.m d d a < * @ + + + & * < d d x m :.2.2.1.*XBX&X0.e.2.>.:.m M d d d d d m m :.>.2.e.1.eXbXp.e.p.p.2.4.4.,.,.4.4.p.p.a.p.lXzXa.s.s.s.j.j.j.h.OXZ.Z.lXuXs.OX#X+X#X@X@X#XvXyXh.OX$XY.H.m.c.c.I.I.I.J.I.I.I.I.L.I.I.I.P.P.U.U.Y.Y.Y.Y.{.<X<X<X<X<X<X$X<X<X<X{.Y.Y.Y.Y.'.'.P.P.I.I.I.L.c.L.L.L.I.I.H.R.$X$X%X+X-XcX#X@X@X@X#X#X#XOXqXvXOXOXs.h.h.j.j.s.s.s.a.yXvXp.p.p.p.4.4.,.,.,.>.2.e.p.e.p.cXkX0.0.1.1.:.m M d s s d d d M m :.1.e.e.D.BX-X1.e.1.:.:.x s a < < * + + @ & - < a d d m :.2.e.w.p.bXzXe.w.1.<.:.m d d < * * o o                 X o + * < d d m :.:.2.e.0.=XBXqXq.w.e.:.m M s p u * + . .           O ",
"O       o . . o + & - u s x :.:.1.q.0.-XbX-X0.0.1.:.:.x s a < * + o .                 o + * * < < d :.:.>.2.e.0.jXbXD.p.p.2.>.m d d a < * + + o + & * < d d x m :.2.1.1.*XBX&X0.e.2.>.:.m M d d d d d m m :.2.2.e.1.eXbXp.e.p.p.2.4.4.,.,.4.4.e.p.p.p.lXzXa.s.s.s.j.j.j.h.s.Z.Z.lXuXs.OX#X@X#X@XOX#XbXuXs.+XY.H.I.c.c.c.I.I.I.L.I.I.I.I.L.L.I.I.P.P.U.U.{.{.{.Y.{.{.<X<X<X<X<X<X<X<X<X{.{.{.Y.Y.'.).).P.P.I.I.L.L.L.L.L.I.I.I.H.A.R.+XZ.-XbXOX#X#X+X#XOXOXZ.qXcXOXOXh.h.j.j.s.s.s.a.a.yXvXp.p.p.p.4.4.,.,.,.>.2.e.p.p.p.cXkX0.0.1.1.:.m M d d s d d d M m :.2.e.0.D.BX-X1.e.1.:.:.x s a < * * + @ @ & - < a d d m :.2.e.w.p.bXzXe.w.1.<.:.m d s < - * o o                 . o + * < d d m :.:.2.e.0.=XBXqXq.w.e.:.m m d p a * + . .           O ",
"O       o . . o + & - u s x :.:.1.q.0.-XbX-X0.0.1.:.:.x s a < * + o .                 o + & * < < d :.:.>.2.e.0.jXbXD.p.p.2.>.m d d a < * + + o + & * < d s x m :.2.e.1.*XBX&X0.e.2.>.:.m M d d d d d m m :.2.2.e.1.eXbXp.e.p.p.2.4.4.,.,.4.4.p.p.p.p.lXzXa.s.s.h.j.j.j.h.s.Z.Z.lXuXs.OX#X@X#X@X@XZ.cXqXOX&Xm.I.I.L.c.c.L.I.I.L.I.I.I.L.L.L.L.L.P.P.U.U.{.{.{.{.{.{.<X<X<X<X<X<X<X<X<X{.{.{.Y.Y.'.).).).P.I.I.I.L.L.L.L.L.L.L.I.H.R.S.S.qXcXOX#X#X+XOXOXOXZ.qXcXZ.OXh.h.j.j.s.s.s.a.a.yXvXp.p.p.p.4.4.,.,.,.>.2.e.p.p.p.cXkX0.0.1.1.:.m M d d s d d d M m :.2.e.0.D.BX-X1.e.<.:.:.x s a < * * + + @ & - < a d d m :.1.e.w.p.bXzXe.w.1.<.:.m d d < - * o .                 . o + * < d d m :.:.2.e.0.=XBXqXq.w.e.:.m m d p a * + . .           O ",
"O         . . o o & - u s x :.:.1.q.0.-XbX-X0.0.1.:.:.x s a < * + o .                 o o & * < < d :.:.>.2.e.0.jXbXD.p.p.2.>.m d d a < * @ + o + & * < d d x m :.2.e.1.*XBX&X0.e.2.>.:.m M d d d d d m m :.2.2.e.1.eXbXp.e.p.p.2.4.4.,.,.4.4.e.p.p.p.lXzXa.s.s.h.j.j.j.h.s.Z.Z.lXuXs.OX#X+X#X#XOXOXcXBXcXtXx.c.L.L.c.L.L.I.I.I.I.L.L.L.L.L.L.L.P.P.U.'.{.{.{.{.{.<X<X<X<X<X<X<X<X<X<X{.{.{.{.{.'.'.).).`.`.(.(.(.(.L.L.L.L.L.c.m.0XlXbXbXlX#X#X+X#XOXOXZ.Z.qXcXZ.Z.s.h.j.j.s.s.s.a.a.yXvXp.p.p.p.2.4.,.,.,.>.2.e.p.p.p.cXkX0.0.0.1.:.m M d d s s s d M m :.2.e.0.D.BX-X1.e.1.:.m x s a < * * + @ @ & - < a d d m :.1.e.e.p.bXzXe.w.1.<.:.m d d < - * o .                 o o + * < a d m :.>.2.e.0.-XBXqXw.w.e.:.m M s p u * + . .           O ",
"          . . o o & - u p x :.:.1.q.6.-XbX-X0.0.1.<.:.x s a < * + o .                 o + & * < < d m :.>.1.0.0.jXbXD.p.p.2.>.m d d a < * @ + + + & * < d d x m :.2.e.1.*XBX&X0.2.2.2.:.m M d d d d x m m :.2.2.e.1.eXbXa.e.p.p.2.4.4.,.,.4.4.e.p.a.p.lXzXa.s.s.s.s.j.j.h.Z.Z.Z.vXuXs.OX#X#X#X#X#XOX&X-XqXB.c.c.L.L.L.L.L.L.I.I.L.L.L.L.L.L.L.L.P.P.'.'.{.{.{.{.{.<X<X<X<X<X<X<X<X<X<X{.{.{.{.{.'.'.).).`.`.(.(.`.(.(.(.L.(.(.L.J.m.8XqX-X-Xh.#X#XOXOXZ.Z.s.qXcXZ.Z.s.h.j.j.s.s.s.a.a.yXvXp.p.p.p.2.4.,.,.,.>.2.e.p.p.p.cXkX0.0.0.1.:.m M d d s s s x M m :.2.e.e.D.BX-X1.e.1.<.m x s a < * * @ @ + & - < a s d m :.1.w.w.p.bXzXw.w.e.2.:.m d s < - & o .                 o o + * < a d m :.>.2.e.0.=XBXqXq.w.0.:.m M s p u > + . .           O ",
"          . . . o & : u p x J :.1.q.6.=XbX-X5.0.1.<.:.x s a < * + o .                 o + + * < a s m :.2.1.q.0.jXbXD.p.p.2.:.m d s < < * + + + + & * < a s x m :.2.e.1.*XBX&X0.2.2.2.:.m M d d d d x m m m 2.1.0.0.eXbXp.w.p.p.2.2.4.,.,.4.4.e.p.p.p.lXzXa.s.s.s.d.j.j.Z.Z.Z.Z.lXuXs.h.OX#X#X#Xh.OXD.b.m.x.c.L.L.L.L.I.L.L.L.L.L.L.L.L.L.L.).).).'.'.{.{.{.{.{.{.{.<X<X<X<X<X<X<X<X<X<X<X{.{.{.{.'.'.'.'.).).(.(.(.(.(.(.(.(.(.(.I.H.M.C.s.h.h.#X#XOXOXZ.a.qXcXZ.OXs.h.j.j.h.s.s.s.p.yXvXw.w.w.e.2.>.,.,.,.>.2.e.w.e.1.bXkX0.0.1.<.:.m d d d s s x x M m :.1.e.0.D.VX-X0.e.1.:.m d d a u - @ @ + + & = - < a d m :.e.w.w.a.bXzXw.w.e.2.:.m d s < * & o o                 o o + * < a s x :.>.2.e.0.-XBXqXq.w.0.:.m x s a u & + o .           O ",
"          . . o o & : u p x J :.1.q.6.=XBX-X6.0.1.<.:.x x a < * + o .               . . + + * < a s m :.2.e.q.0.jXbXs.w.p.1.:.m s s a < * + + + + * * < a s x m :.2.e.1.*XBX&X0.2.2.2.:.m M d d d d x m m m <.1.0.0.eXbXy.w.p.p.2.2.4.,.,.4.2.e.w.p.e.lXzXp.a.s.d.d.d.s.Z.Z.Z.Z.lXuXs.h.OXOXOXh.j.OXZ.M.m.c.L.(.(.L.L.L.L.L.(.(.(.(.L.L.(.(.).).).'.'.{.{.{.{.{.{.{.{.{.<X<X<X<X<X<X<X<X<X{.{.{.{.{.'.'.'.).).(.(.(.(.(.(.(.(.(.(.(.I.H.A.Z.j.j.j.OXOXZ.Z.s.qXvXOXOXh.j.j.j.h.s.s.a.p.yXvXw.w.w.e.2.>.,.,.,.2.1.e.w.e.1.bXkX0.0.1.<.:.m d d d s s x x M m :.1.q.0.D.VX-X1.0.0.<.m d d a a - @ @ + + & - : < a d m :.e.w.w.a.bXzXw.w.e.1.:.m d s < * & o o               X o o + * < a s x :.>.2.e.0.-XBXqXq.w.0.:.m x s a 2 & + o .           O ",
"O       X . . o o & : u j x J :.1.q.6.=XBX-X6.0.1.<.:.x x a < * + o .               o . + + * < a d m :.2.e.q.q.jXbXs.w.p.1.:.m s s a < * + + + + * * < a s x m :.2.e.1.*XBX&X0.2.2.2.:.m d d d d d x m m m 2.1.0.0.eXbXw.w.p.p.2.2.,.,.,.4.2.e.w.w.w.lXzXa.a.a.s.d.d.s.s.Z.Z.Z.lXuXs.OXOXOXOXh.#XD.A.H.J.L.(.(.L.L.L.L.L.(.(.(.(.(.(.(.(.`.).).).'.{.{.{.{.{.<X{.{.<X{.<X<X<X<X>X>X<X<X<X{.{.{.{.'.'.'.'.).).`.(.(.(.(.(.(.(.(.(.(.L.H.A.S.OXj.j.OXOXOXZ.s.qXcXZ.Z.s.j.j.j.s.s.s.a.a.yXcXw.w.w.e.2.>.,.,.,.>.2.e.w.e.1.bXkX0.q.1.<.:.m d d s s s d d M m :.1.q.0.D.VX-X0.0.0.<.m d d a a - @ @ + + & = : < d d m :.e.w.w.a.bXzXw.w.e.1.:.m d s < - & o o               X o o + * - a s x :.>.2.e.0.=XBXqXq.w.0.:.m s s a 4 & + o .           O ",
"O       X . . o o & : u j x J :.1.q.6.=XBX-X6.0.1.<.:.x x a < * + o .               o . + + * < a s m :.>.1.q.6.jXbXs.w.p.1.:.m s s a < * + + + + & * < a s x m :.1.e.1.*XBX&Xq.1.2.2.:.m x d s d d x m m m <.1.0.0.eXbXy.w.p.p.2.2.,.,.,.,.2.e.w.w.w.lXzXp.a.a.s.s.s.d.s.s.s.s.lXyXZ.Z.OXOXh.h.OXD.A.H.L.L.(.(.(.L.L.L.L.(.(.(.(.(.(.(.(.(.).).).'.'.{.{.{.{.{.<X<X<X>X<X<X<X<X>X>X<X<X<X<X{.{.{.{.'.'.'.).).`.(.(.(.(.(.(.(.(.(.(.L.I.H.A.D.h.j.h.#X+XZ.a.qXcXZ.Z.s.s.s.s.s.s.Z.a.a.yXcXw.w.w.e.2.>.,.,.,.>.1.e.w.e.1.bXkX0.0.6.<.:.m d d s s s d d M m :.1.q.0.D.VX-X0.0.0.<.m d d a a - @ @ + + & = : < d d m :.e.w.w.a.bXzXw.w.e.2.:.m d s < - & o o               X o o + * - a s x :.>.2.e.0.=XBXqXq.w.0.:.m x s a u & + o .           O ",
"O       X   . o o & : u j x J :.1.q.6.=XBX-X6.0.1.<.:.x x a < * + o .               o o + + * < a s m :.>.1.q.6.jXbXD.w.p.1.:.x s s a < * + + + + * * < a s x m :.1.0.<.*XBX&Xq.1.2.1.:.m x s d d s x m m m 2.1.0.0.eXbXw.w.e.2.2.2.,.,.,.,.2.0.w.w.w.lXzXa.a.a.s.s.s.d.d.s.s.s.lXyXZ.Z.S.Z.s.D.D.A.H.I.L.(.(.(.(.L.L.L.(.(.(.(.(.(.(.(.(.`.).).).'.'.{.{.{.{.{.>X>X>X>X>X>X>X>X>X>X>X>X>X<X{.{.{.{.'.'.'.).`.`.`.(.(.(.(.(.(.(.L.L.(.`.U.R.D.D.j.h.OX+XS.Z.qXcXZ.Z.s.s.s.s.s.s.s.a.p.yXcXw.w.w.e.2.>.,.,.,.>.1.0.w.w.1.bXkX6.6.6.<.:.m x d s s s d x M m :.1.q.0.D.VX-X0.e.6.<.m d d a u - + + + + & & : < d d m :.0.w.w.a.bXzXw.w.e.<.:.m d s < - & o o               X o o + & - a s x :.>.2.0.6.=XBXqXq.y.0.:.m x s a u & + o .           O ",
"        X   . o o & : u j x J :.1.q.6.=XBX-X5.0.1.<.:.x s a < * + o .               o o o + * < a s m :.>.1.q.6.jXbXD.w.p.1.:.x d s a < * + + + + * * < a s x m :.<.0.<.*XBX&X0.1.2.1.:.m x s s d s x m m m <.1.0.0.eXbXw.w.w.2.2.2.,.,.,.,.2.0.w.w.w.lXzXa.a.C.s.s.d.d.d.d.s.a.lXyXZ.S.S.S.s.D.A.H.I.L.L.(.(.(.(.(.L.L.(.(.(.(.`.(.(.(.(.`.`.).'.'.{.{.{.{.[.>X>X>X>X>X>X>X>X>X>X,X>X>X>X{.{.{.{.{.{.'.'._.).`.`.`.(.(.(.(.`.(.L.L.`.`.`.P.A.D.s.s.OX+XS.Z.qXcXC.C.s.s.d.s.s.s.a.a.a.yXcXw.w.w.e.2.>.,.,.,.>.1.0.w.w.1.cXkX6.6.6.<.:.m x d s s s d x M m :.1.q.6.D.VX-X0.0.6.<.m d d a u - + + + + & = - < d d m :.0.w.w.y.bXzXq.w.e.<.:.m d s < - & o o               X o o + & - a s x :.:.2.0.6.=XBXqXq.y.0.:.m x s a u & + . .           O ",
"        X . . o o & : u p x J :.1.q.6.=XBX-X6.0.1.<.:.x x a < & + o .               o o o + * < a s m :.:.1.q.6.jXbXD.w.w.1.:.x s a a < * + + + + & * < a s x m :.1.0.<.*XBX&Xq.2.2.<.:.m d s s d s x m m m <.1.0.6.eXbXy.w.e.e.1.2.,.,.,.,.2.0.w.w.w.lXzXp.a.C.s.s.d.d.d.d.s.a.vXyXZ.S.S.S.Z.C.H.P.L.(.(.(.(.(.(.L.(.(.(.`.`.`.`.(.(.(.`.`.)._.'.'.{.{.{.[.[.>X>X>X>X>X>X>X>X>X>X>X>X>X>X>X[.[.{.{.{.'.]._.`.`.`.`.`.`.`.`.`.(.L.(.`.`.`.(.K.A.D.Z.Z.Z.Z.C.qXbXC.C.s.d.d.d.s.s.a.a.a.yXcXw.w.w.e.1.>.,.,.,.>.1.0.w.w.1.bXkX6.6.6.<.:.m x s s s s s s M m :.1.q.6.D.VX-X1.0.6.<.m d d a a - & + + + & = : < d d m :.0.w.q.y.bXzXq.w.0.<.:.x s a < - & o o               X o o + * - a s x :.:.1.0.6.=XBXqXq.y.0.:.m x s a u & + . .           O ",
"        X . . o o + : u j x J :.1.q.6.=XBX-X6.0.1.<.:.x x a < * + o .               o o o + > < a p m :.:.1.q.6.jXbXD.w.w.1.:.x s a a < * + + o + & * < a s x m :.1.0.<.*XBX&Xq.1.2.<.:.m d s s p s x x m :.<.1.0.0.eXbXy.w.w.e.1.2.,.,.,.,.2.0.w.w.w.lXzXp.a.a.s.s.d.d.d.d.a.a.vXyXC.C.A.A.A.A.I.L.(.(.(.(.`.(.(.(.(.(.(.`.`.`.`.(.`.(.`.`.)._.'.].{.{.{.[.[.,X>X>X>X>X>X>X>X>X>X>X>X>X>X>X[.[.{.{.{.{.]._._.`.`.`.`.`.`.`.`.`.(.(.`.`.`.(.P.H.A.C.Z.Z.Z.C.qXbXC.C.a.d.d.d.d.a.a.a.w.yXcXw.w.w.e.2.>.,.,.,.2.1.0.w.e.1.bXkX6.6.6.<.:.x x s s s s s s x m :.1.q.6.D.VX-X6.q.6.<.m d d a a - & + + + & = : < d d m :.0.w.q.y.bXzXq.w.0.<.:.x s a < - & o .               X o o + & : a s x :.:.1.0.1.=XBXqXq.y.0.:.:.x s a u & + . .           O ",
"O         . . o o + * u j x J :.<.q.6.=XBX-X5.6.1.<.:.x x a < & + o .               o o o + > < a s x :.<.0.q.6.jXBXa.w.w.0.:.x s a a < * + + o + & * < a s x x :.1.0.<.*XVX&X6.1.2.<.:.m s s s p s x x m :.<.1.0.<.eXbXw.q.w.e.1.2.4.,.,.>.2.0.w.w.0.lXzXw.a.a.a.d.d.d.d.a.a.a.vXzXa.C.A.R.M.H.L.(.(.(.(.(.`.(.(.(.(.`.`.`.`.`.`.`.`.`._._._._.].{.].{.{.[.[.>X>X>X>X>X>X>X>X>X>X>X>X>X,X>X>X[.{.{.{.{.].]._._._._.`.`.`.`.`.`.(.(.`.`.`.`.(.P.A.A.C.C.+Xw.qXbXC.C.a.d.d.d.d.a.a.a.w.yXcX0.q.w.0.1.>.,.,.,.>.1.0.q.q.0.bXkX5.6.6.<.:.m x s s s s s s x m :.1.q.5.D.VX-X5.6.5.<.x d s a u - & + + + & > : < a d m :.1.q.q.w.bXzXq.q.0.<.:.x s a < * & o o                 o o + & : a s x :.:.1.0.1.=XBXqXq.q.0.:.m s s p 2 & + . .           O ",
"O           . o o + * u j x J :.<.q.6.=XBX-X5.6.1.<.:.x s a < & + o .               o o o + > < a s m :.<.0.8.8.jXbXa.w.w.0.:.x s a a < * + + o + & * < a s x x :.1.0.<.*XVX&X6.1.<.<.:.m s s s p s x x m :.<.1.0.<.eXbXw.q.w.e.1.2.4.,.,.>.2.0.q.w.0.lXzXw.a.a.d.d.d.d.a.a.a.a.bXyXw.b.R.H.H.T.(.(.`.`.`.`.`.`.`.`.`.`.`.`.`.`.`.`._._._._._.].].].].{.[.[.>X>X>X>X>X,X>X>X>X>X>X>X>X>X>X>X>X[.{.{.{.].].]._._._._._.`.`.`.`.`.`.`.`.`.`.`.`.).U.M.R.C.a.a.qXcXC.a.p.d.d.d.d.a.a.a.w.yXcX0.q.w.0.1.>.,.,.,.3.1.0.q.q.0.bXkX6.6.5.<.:.x s s s s s s s x :.:.1.6.6.D.VX-X5.6.5.<.x d s a u - & + + + & > : < a d m :.1.q.q.w.bXzX0.q.0.<.:.x s a < * & o o .               o o o & : a s x :.:.<.0.<.=XBXqXq.q.0.:.m s s p 2 * + o .           O ",
"O           . o o + > u j x J :.<.q.6.=XBX-X5.6.1.<.:.x s a - & + o .               o o o + * < a s x :.<.0.8.6.jXBXa.w.q.0.J x s a a < * + + o o & * < a s x x :.1.0.<.*XVX&X6.1.<.<.:.x s s s p s x x m :.<.<.6.<.eXbXy.q.w.e.1.2.,.,.,.>.2.6.q.q.0.lXzXw.a.a.p.p.p.d.a.a.a.a.cXBXbXBXvX[.P.).`.`.`.`.`.`.`.`.`.`.`.`._.`._._._._._._._._.].].].].[.[.[.>X>X>X,X>X>X>X>X>X>X>X>X>X>X>X,X,X>X[.[.[.[.].].]._._._._._._._._._.`.`.`.`.`.`.`.`.`.P.[.lXbXbXbXbXcXy.y.p.p.4.d.d.a.a.y.w.yXcX0.q.q.0.1.>.,.,.,.3.1.0.q.q.0.bXkX6.6.5.<.:.x s s s j j s s x :.:.<.6.6.D.VX-X5.6.5.<.x d s a a - & + + + & > : < a d m :.1.q.q.w.bXzXq.q.0.<.:.x s a < - & o o .             o o o # & : a p x :.:.<.6.<.=XBXqXq.q.6.:.m x s p 2 * + o .           O ",
"O           . o + + > u j x J :.<.q.6.=XBX-X5.6.1.<.:.x s a - & + o .               o o o + * < a s x :.<.0.8.6.jXbXa.w.q.0.J x s a a < > + + o o & * < a s x x :.1.6.<.*XBX&X6.1.<.<.:.x s s s p s x x x m <.<.6.5.eXbXy.q.w.e.1.2.,.,.,.3.2.6.q.q.0.vXzXw.a.a.p.4.4.p.p.p.w.w.*X-XqX0X0XI.I.(.`.`.`.`.`.`.`.`._._._._._._._._._._._._._._.].].].[.[.[.[.>X>X,X>X,X>X>X>X,X,X6X>X>X>X,X,X,X>X,X[.[.[.[.].]._._._._._._._._._._.`.`.`.`.`.`.`.`.I.I.tXtXqXqXqX*Xw.w.e.e.4.4.p.a.a.y.q.yXcX0.q.q.0.1.>.,.,.3.3.1.0.q.q.0.bXkX6.8.5.<.:.x s s s j s s s x :.:.<.6.6.D.VX-X<.6.5.<.x s s a a - & + + + & > : < a d x :.1.q.q.w.bXzXq.q.0.<.J x s a < - & o o               o o o o & : a p x :.:.<.6.<.=XBXqX6.q.6.:.m x s p u * + o .           O ",
"          . . o + & > u j x J :.<.q.6.=XBX-X5.6.1.<.:.x s a - & + o .               o o + + * < a s x :.<.1.8.6.jXbXa.w.q.0.J x s a a < > + + o o & * < a s x x :.<.6.5.*XVX&X6.1.<.<.:.x d s s p s x x x m <.<.6.5.eXbXy.q.w.1.1.2.,.,.3.3.2.6.q.q.q.vXzXw.a.a.w.p.4.4.p.e.w.w.<.q.7.v.P.)._.`.`.`.`.`._._._._._._._._._._._._._._._._._.].].].[.[.[.[.>X>X,X>X,X,X>X2X6X6X6X6X>X>X,X2X2X,X,X,X[.[.[.[.].].]._._._._._._._._._.`.`._._._.`.`.`._.(.I.m.v.7.e.<.w.w.e.2.4.4.e.w.y.y.q.yXcXq.q.q.0.1.>.,.,.3.2.1.0.q.q.0.bXkX6.8.5.<.J x s s s j j j s x J :.<.6.6.D.VX=X5.6.5.<.x s s a a 2 & + + + & = - < a d x :.1.q.q.q.BXzX0.q.0.<.:.x s a < - & o o .             o o o + & : a p x J :.<.6.<.=XBXqX8.q.6.:.m x s p < * @ . .           O ",
"          . . o o + > u j x J :.<.6.6.=XBX-X5.6.<.<.J x s a - & + o .               o o o + * < u p x :.<.1.8.5.jXbXa.y.q.0.J x s a a < > + + o o & * < a s x x :.<.6.<.*XBXE.8.1.<.<.:.x s s p p s x x x :.<.<.6.5.eXbXy.q.q.1.1.2.,.3.3.3.2.6.q.q.q.vXzXw.a.y.w.e.4.4.4.2.e.e.6.i.v.H.I.(.(.`.`.`.).`.)._._._._._._._._._._._._._._.].].].].].[.[.[.|.>X>X,X,X,X2X2X2X6X6X6X6X6X6X6X2X2X2X2X,X[.|.|.[.[.].]._._._._._._._._._._._._._._._.`._.`._.(.I.M.7.1.2.e.e.2.2.4.2.e.w.y.y.q.yXbXq.q.q.0.1.>.,.,.3.<.1.6.q.q.0.bXkX6.8.6.<.J x s s s j j s s x J :.<.6.5.D.VX=X5.6.5.<.x s s a a 2 & + + + & & - < a d x :.<.q.q.q.BXzX6.q.1.<.J x s a < - & o o               X o o + & : a p x J :.<.6.<.=XBXqX8.q.6.:.m x s p u * @ o .           O ",
"O         . . o o + > u p x J J <.q.5.=XBX-X5.6.1.:.J x s a - & + o .               . o o + * < a p x :.<.0.8.5.jXBXa.y.q.0.J x s a a < > + + o + + * < a s x x :.<.6.<.*XBXE.8.1.<.<.:.x s s p p p x x x :.<.<.6.5.eXbXq.q.q.1.<.2.,.3.3.3.<.6.q.q.q.vXzXw.y.y.y.e.4.4.,.2.2.0.6.8.v.I._._._._.`.).).).).)._._._._._._._._.].].].].].].].].].[.|..X|.[.,X,X2X,X,X,X6X6X6X6X3X6X6X6X6X6X2X,X2X2X[.|.|.|.[.].].]._._._._._._._._._._._._._._._.).(.`._._.P.t.2.>.0.e.2.4.4.4.e.w.w.w.q.yXbXq.q.q.0.1.3.,.,.3.<.1.6.q.q.0.bXkX5.8.5.<.J x s s s j j s s x J :.<.6.5.D.VX=X5.6.5.<.x s p a a - & + + + & & - < a d x :.<.q.q.q.BXzX6.q.1.<.J x d a < * & o o .               o o o & : a p x J :.<.6.<.=XBXqX8.q.6.:.m s s p < * + o .           O ",
"O             o o + > u j x J J <.q.6.=XBX-X5.6.<.<.J x s a - & + o .               . . o + > < u s x :.<.1.8.5.jXBXa.q.q.6.J x s p a < > + + o + & * < a s x x :.<.6.5.*XVXE.8.1.<.<.:.x s s p p p x x x :.<.<.8.5.eXbXq.8.q.0.1.2.3.3.3.3.<.6.8.q.6.vXzXq.y.y.y.e.4.4.,.,.>.1.5.V.T.)._.`.).L._._._._._._._._._._._._._.].].].].].].].}.}.|.|.|.|.[.>X,X2X2X6X6X6X6X6X6X6X3X6X6X6X6X6X6X2X2X2X[.|.|.|.[.].].]._._._._._._._._._._._.].]._._._.XX(._._.I.B.6.2.2.2.4.4.4.4.e.w.w.y.q.yXbX0.q.q.0.1.>.3.3.3.<.<.6.q.q.0.bXkX5.7.5.<.J x s s s p j s s x x :.<.8.5.D.VX=X5.9.5.<.x s p a u - & + + + & & - < a d x :.<.q.8.q.BXzX6.q.6.<.J x s a < - & o o                 o o o & : a j x J :.<.6.5.*XBXqX8.8.6.:.m x s a - * + o             O ",
"O             . o @ - u p x J J 5.8.5.=XVX-X7.t.5.<.J x p a - & + o .               X o o + > < a s x J :.<.8.6.jXBXi.8.8.5.J x s a a < * + + + + + > < a p j x J <.6.5.*XCXE.8.6.<.<.:.x x s p p p s x m :.<.5.8.5.eXBX8.8.q.0.1.<.3.3.3.3.<.0.6.q.5.vXzXq.y.y.a.p.4.4.,.,.3.3.t.K.).]._._.).)._._._._._._.]._.].].].].].].].].}.}.}.}.}.|.|..X|.>X2X,X6X6X2X6X6X6X3X3X3X3X3X3X3X3X3X3X6X6X2X2X[.|.|.|.|.[.[.].].].].].}._.]._._._._.].}._._._._._._.).P.K.M.t.3.3.,.,.4.e.e.w.w.w.6.yXbX6.q.q.q.0.2.3.3.3.3.<.6.q.8.5.bXjX .7.5.<.J x s s s p p s s x x :.<.8.7.D.VX-X<.5.5.W x s a u - & & & + + & = - < a p x :.<.8.q.q.BXzX8.8.6.<.J x s a < > + o                   X o o & - a s x J <.<.8.5.*XVXqX8.t.6.<.x x p a - & & o               ",
"O             o o @ - u j x J J 5.8.7.=XVX=X7.t.5.<.x x p a - & & o .               X o o + > < a s x J :.<.8.5.jXBXi.8.8.6.J x s p a < * + + + + + > - a j j x J <.8.5.*XCXE.7.6.<.<.:.x x s a p p s x m J <.5.t.5.:XBX8.8.q.0.1.2.3.3.3.3.<.6.8.8.5.vXzXq.y.y.y.w.4.4.,.,.3.r.V.P._.}._._.).).].].]._.].].].].].].].].].].].].}.}.}.|.|.|..X|.[.2X,X,X6X6X6X6X3X3X3X3X3X3X3X3X3X3X3X3X6X6X6X2X2X|.|.|.|.[.[.[.}.].].].}.].}.].]._._._.].].}._._._._.).).P.I.v.3.,.,.,.4.i.w.w.w.w.6.yXbX6.q.8.6.6.3.3.3.3.3.<.6.q.8.5.bXjX .7.5.<.J x s s s p p s s s x :.<.8.t.D.VX=X<.5.5.W x x a u * * & & + + & = - u a p x :.5.8.8.q.BXzX8.8.6.<.J x p u < > + o                   X o o > - a j x J <.<.8.5.*XVXqX8.t.8.<.J x p a * & # o               ",
"O             X o @ - u j x J J 5.8.7.=XVX=X7.t.5.<.x x a a - & & o .               X o o + > < a s x J :.<.8.6.jXBXi.8.8.6.J x s p a < * + + o + + * - a p j x J <.8.5.*XCXE.6.6.<.<.:.x x s p p p s x x J <.5.t.5.:XBX8.8.8.6.<.<.3.3.,.3.<.6.6.8.6.vXzXq.y.y.y.y.p.4.,.3.2.i.K.'.]._.].].'.'.].].].].].].].].].].].].].].}.}.}.}.|.|.|.|.|.|.2X>X,X2X6X6X6X3X3X3X3X3X3X3X3X3X3X3X3X3X3X6X6X6X2X2X|.|.|.|.|.|.}.}.}.}.}.}.}.}.].].].].].}.].}.]._._._.).).P.B.9.3.,.,.4.i.i.y.y.y.6.kXbX6.q.8.8.6.3.3.3.3.3.<.6.q.8.5.BXjX .7.5.<.J x s s p p p p s x x :.5.8.t.D.VX=X<.5.5.W x x a u * & & & + + & = - u a p x :.5.8.8.q.BXzX8.8.6.<.J x p u - > + o                   X o o & < a j x J <.<.8.5.*XVXqX8.t.8.<.J x p a - & # o             O ",
"O       X     o o @ - u j x J J 5.8.7.=XVX=X7.t.5.<.x x p a - & & o .               X o o + > < a p x J :.<.8.5.jXBXi.8.8.6.J x s p a < * + + o + + * - a p j x J <.8.5.*XCXE.7.6.<.<.:.J x p a p p s x x J :.5.t.5.:XBX8.8.8.6.<.<.3.3.,.3.<.1.8.8.6.vXzXy.y.b.y.y.e.4.2.<.i.B.T.].].]._.].].].].].].].].].].].}.].].[.[.[.}.}.|.|.|.|.|.|.|.|.2X2X6X6X6X3X3X3X3X3X3X3X3X3X3X3X3X3X3X3X3X3X3X6X2X2X2X2X|.|.|.|.}.}.}.}.}.}.}.}.].].].}.}.}.}.].}.]._._.).).).P.V.i.2.,.4.e.y.y.y.y.6.kXbX6.t.t.8.<.3.3.3.3.3.<.6.q.8.5.BXjX .7.5.<.J x s s p p p j s x x :.<.8.7.D.CX=X<.5.5.! x j a u * & & # + + & = - u a p x J 5.8.8.q.BXzX8.8.6.! J x p a < > + o X                 X o o & - a j x J <.<.t.5.*XVXqXt.t.8.<.J x p a * & # o             O ",
"O       X     o o + - u z x J J 5.8.7.=XVX=Xo.t.5.<.x x s a - = & o .               X o o + > < a s x J J <.8.5.jXBXi.8.8.6.J x s p a - > + + o + & * - a p j x J <.7.5.!.CXE.5.5.<.<.J x x p a p p s x x J W 5.t.5.:XBX8.8.8.6.<.<.3.3.3.3.<.<.8.8.6.vXzXy.b.b.y.y.e.e.0.y.B.T.'.].].].].].].].].].].].].].].[.}.}.|.|.|.|.|.|.|.|.|.|.|.|.2X2X2X2X6X6X3X3X3X3X3X3X3X7X3X3X7X7X3X3X7X3X3X3X3X6X2X2X2X2X|.|.|.|.|.|.}.}.}.}.}.}.}.}.}.}.}.}.}.}.].]._._._._.'.'.K.b.6.2.4.2.q.b.b.b.6.kXbX6.t.t.6.<.3.3.3.3.3.<.5.8.8.6.BXjX .o.5.<.J x s s p p p j s s x J <.8.7.V.CX=X<.5.5.W x j a u - & & & + + & = - u u p x J 5.8.6.q.BXzX7.8.9.<.J x p a : > + o X                 X o o * - a j x J W <.t. .*XVXqX7.t.7.<.J x p < * & # o             O ",
"O             o o + - u z x J J 5.8.7.=XVX=Xo.t.5.<.x x s a - = & o .               X o o + > : a p x J J <.7.5.jXBXi.8.8.6.J x s p a - > + + o + & * - a p j x J <.7. .!.CXE.7.5.<.:.J x x s a p p s x x J W 5.7. .:XBX9.7.8.6.<.<.3.3.3.3.<.<.5.8.6.cXzXy.b.b.y.y.q.q.y.M.P.'.]._.].].].].].}.].].].].].[.[.[.|.|.|.|.|.|.}.|.|.|.|.|.|.2X2X2X2X2X6X3X3X3X5X5X5X3X7X7X3X7X7X7X3X3X7X7X3X3X3X3X6X2X2X2X|.|.|.|.|.|.|.}.}.}.}.}.}.}.}.}.}.}.}.].].].].].]._.].'.'.M.t.0.e.0.q.b.b.b.8.kXbX6.t.8.5.<.3.3.3.3.3.<.5.8.8.5.BXjX .o.5.! J x s p p p p p s x x J 5.7.7.V.CX=X! 5.5.W x j a u - & & # + + & = - u u p x J 5.8.8.q.BXnX7.8.9.W J x p u : > + o X                 X o o & - u j x J W <.t. .*XVXqX7.t.7.<.J x p < * & # o             O ",
"O             o o + - u z x J J 5.8.7.=XVX=Xo.t.5.! x x p a - & & o .               X o o + > < a p x J J <.7.5.jXBXi.8.8.5.J x s p a - > + + o o & > - a p s x J <.7. .!.CXE.7.5.<.:.J J x p u p a s x x J W 5.7. .:XVX9.7.8.5.<.3.3.3.3.:.<.<.5.7.5.nXzXt.b.b.y.y.y.y.M.T.'.].}.].].].].].}.}.}.}.}.}.].}.|.|.|.|.|.|.|.|.|.|.|.|.|.|.2X2X2X2X2X6X3X3X3X5X5X5X5X5X5X5X5X5X7X7X5X5X5X5X7X3X3X3X6X2X2X2X2X2X|.|.|.|.|.|..X.X.X}.}.}.}.}.}.}.}.].].].].].]._.].].].T.M.t.q.q.y.y.b.b.t.kXbX8.8.8.5.<.3.3.3.3.3.<.5.8.t.5.BXjX .o. .! J x s p p p p p s x x J <.7.o.V.CX=X!  .5.W J j a a * & = & + + & = = 4 u p x J <.8.7.q.BXnX7.7.5.! J x p u < > + o o           X     X o o & - u p x J W <.t. .*XVXqX7.t.7.W J x p u * & # o             O ",
"O             o o + - u z x J J 5.7.o.=XVX=Xo.t.5.! x x p a - & & o .               X o o + > < a p x J J <.7.5.jXBXi.t.7.5.J x s p a - > + + o o & & - a p s x J <.7. .!.CXE.7.5.<.:.J J x p u p p s x x J W 5.o. .:XVX9.7.8.5.<.3.3.3.3.:.<.<.5.7.5.nXzXt.b.b.y.i.b.v.K.'.]._.}.}.].].].].].}.}.}.}.}.}.}.|.|.|.|.|.|.|.|.|.|.|.|.|.2X2X2X2X2X2X6X3X3X5X5X5X5X5X5X5X5X5X5X7X7X5X5X5X5X7X3X3X3X6X6X2X2X2X2X|.|.|.|.|.|..X.X}.}.}.}.}.}.}.}.].].].].].}.}.]._.].].'.T.v.t.y.y.y.b.b.t.kXbX7.8.5.<.<.3.3.3.3.3.<.5.8.8.5.BXjX .o. .! J x s p p p p j s x x J <.7.7.V.CX=X!  .7.! J x p a - & = # + + & = - 4 u p x J ! 7.7.9.BXnX7.8.9.W J x p u : & & o o o               X o o & - u z x J W ! t. .*XVXqX7.t.7.W J x p u * & # o             O ",
"O             o o & - a j x J J 5.7.o.=XVX=Xo.t. .J x j p u - & # o .               X . o o > - a p x J ! <.7.5.jXBXi.t.7.<.J x s a u - > + + o o & & - u p j x J <.7. .!.CXE. .5.<.<.J J x p g i p p x x J W  .o.| eXVX7.7.8.5.<.3.:.3.3.:.J ! 9.! ! cXnX .7.t. .i.v.H.'.].].}.].].].].].].].].[.}.}.}.|.|.|.|.|.|.|.|.|.|.|.|.|. X X2X2X2X2X2X2X2X5X5X5X5X5X5X5X5X5X5X5X5X7X7X5X5X5X5X5X5X5X5X3X2X2X2X2X2X2X|.|.|. X X.X.X.X.X.X}.}.}.}.}.}.].].].}.}.}.}.}.}.].'.'.H.m.b.7.8.8.8.o.yXbX .5.! <.J J b 3.3.J :.7.t.t.5.BXjX| o. .! J x j p p i p j j x x J <.7.o.V.CX=X! 5. .W J j a u - & = # + + & = : 4 a p b J <.8.7.8.BXzX5.7.5.W J x p a : & & o o o                 o o & - u p x J W ! 7. .*XVXeXo.t.5.W J x p < - & # o             O ",
"O             o o & - a j x J J 5.7.o.=XVX=Xo.t. .J x j p u - & & o .                 . o o > - a p x J ! <.7.5.jXBXi.t.7.<.J x p a u - > + + o o o & - a p j x J <.7. .!.CXE.o.5.<.<.J J x p u i p j x x J W  .o.| eXVX9.7.8.5.! J 3.3.3.L J ! W ! 9.nXbX*X=X=XqX0XT.P.].}.]._.].].].].].].].].].}.}.}.}.|.|.|.|.|.|.|.|.|.|.|.|. X X2X2X2X2X2X4X2X5X5X5X5X5X5X5X5X5X5X5X5X7X7X5X5X5X5X5X5X5X5X3X2X2X2X2X2X|.|.|.|. X.X.X.X.X.X.X}.}.}.}.}.}.}.].}.}.}.}.}.}.}.].].|.).'.tX0X*X*X=X=XzXnX .<.<.J J b b L L J ! 7.t.7.5.BXjX| o. .! J x s p p i p j s x x J 5.7.o.V.FX=X! o. .W J j p u * & = # + + # = : 4 u p x J ! 8.7.8.BXnX5.7.5.W J z p a : = & o o o X               o o & - u p x J ! ! 7. .*XCXeXo.t.5.W J x p < - & # o               ",
"O             o o & - u j x J J <.7.o.=XVX=Xo.t. .W x j a u 2 & & o .               X o o o & - a j x J J <.7.5.jXBXi.t.t.5.J x p a u - & + o o o & & - a p j x J <.7. .!.CXE.o.5.<.<.J J x p u i i j x x J W  .o.| eXVX7.7.8.5.! ! L L M b J J W W ! fXCXVXCXVXVXnXtX).`._.].].].].].].}.].].].].}.}.}.}.}.}.|.}.|.|.|.|. X}.|.|. X X X2X2X2X2X4X4X4X5X5X5X5X5X5X5X5X5X5X5X5X5X5X5X5X5X5X5X5X3X4X4X4X2X2X2X X X|.|.|. X X.X.X X}.}.}.}.}.}.}.}.}.}.}.}.}.}.}.}.].].].`.tXcXCXCXCXCXbXVXzX7.W J J J b b L L J ! 7.t.7.7.BXjX| o.o.! J x s p p i h j j x x J 5.7.o.V.FX=XQ o. .W Z j p u * & & # o o # = = 4 u a x J ! 7.7.8.VXnX .7.5.W J z p a : = & o o o                 o o & - u p x J J Q o. .*XCXeXo.t. .W J x p < - & # o               ",
"O             o o & - u z x J J <.7.o.=XVX=Xo.t. .W x j a u 2 = & o .                 . o o & - a p x J J <.7. .kXVXi.t.7. .J x p a u - & + o o o & & - u p j x J ! o. .!.CXE. .5.<.W J J z p u i i j j x J W  .o. .eXVX9.o.t.5.! ! J b b b J J ! ! D r.u.9.V.t.B.T.P.`.}.}.}._._.].].].}.}.].].}.}.}.}.}.}.}.}.}.}.}.}.|. X}.|.|.|. X X X2X2X2X4X4X4X5X3X5X3X3X5X5X5X5X5X5X5X5X5X5X5X5X5X5X5X3X4X4X4X2X2X2X X X X X X.X X.X X X}.}.}.}.}.}.}.}.}.}.}.}.}.}.}.].]._.}.].].'.m.o.9.9.u.V.u.I W J J J b b b L J J 5.t.7.7.BXjX| o.o.! J x j p j i h j j x x J 5.7.o.G.FX=XQ o. .W Z z p u * & & # o o # = = 4 u a x D ! 7.5.9.VXnX .7.5.W J z p a : = & o o X                 o o & - u p z J J Q o. .*XCXeXo.t. .W J x p < - & & o             O ",
"O             o o @ - u j x J J <.7.o.=XVX=Xo.*. .W x j a a 2 & # o .                 . o o & - a p x J J <.7. .kXVXi.t.7. .J x p a u - > + o o o + & - a p j x J ! 7. .!.CXE. .5.<.W J J z p u i i j j b J W  .o.| eXVX9.o.t.5.! ! J b b b x J Z D W W W Q  .%.l.L.(.`._._.}._.].].].].].}.].}.}.}.}.}.}.}.}.}.}..X}.}.}.}..X.X X X|. X X X2X2X4X4X4X4X2X2X5X5X5X5X5X5X5X5X5X5X5X5X5X5X5X5X3X3X4X4X4X2X2X X X X X.X.X.X X X X}.}.}.}.}.}.}.}.}.}.}.}.}.}.}.}.].]._.].}._.(.v.t. .! Q Q I ! ! Z J x x b b L J J  .7.o.7.VXjX| X. .! J x j p i h h h j x x J ! 7.%.V.CX;XQ o. .W Z j p u : & # # o o & = = 4 u a x J Q 7.o.9.VXnXo.7.5.W J z p a : - & o o X                 o o & - u p z J J ! o.| *XCXeXo.t. .W J x p < : & # o             O ",
"O             o o @ - u j x J J ! 7.o.=XVX=Xo.*. .W x j a u 3 & & o .                 . o o & - a p z J J <.o. .kXVXi.t.7. .J x p a u - > + o o o & & - a p j x J !  . .!.FXE. .5.<.W W Z z p u i i p j x J W  .%.| eXVX9.o.t. .! ! J b s j b Z W Z Z D !  .| %.P._._._._._.XX_._.].].].].}.}.}.}.}.}.}.}.}.}.}..X.X.X.X.X}..X.X X X|.|. X X X4X4X4X4X4X2X2X4X5X5X5X5X5X5X5X5X5X5X5X5X5X5X4X2X2X4X4X4X2X X X X X.X.X X X X}.}.}.}.}.}.}.}.}.}.}.}.}.}.}.}.].]._._._.].}.}.].K.*.Q W W D D ! W Z Z z x b b L L J  .o.o.7.VXjX| X. .! J x j p j h h j j x x J ! 7.%.V.CX;XQ o.| W Z j p u : & $ # o o & = = 3 u a x J Q 7. .9.VXnX .7. .W J z j u : = & # o o                 o o & - u p z J W ! o.| *XCXeXo.t. .W J z p < : & # o             O ",
"O             o o @ - u p z x J ! 7.o.=XVX=XX.*. .J x j a u 2 & & o .                 . o o & - u p z J W ! o. .kXVXi.7.7.! J x p a u - > + o o o + & - u p j x J !  . .!.CXE. .5.! W W Z z p u i i p j x J W  .%.| sXVX9.o.7. .! ! b b j j z z Z D J W Z C | B.XX_.`._._._.}.XX]._.].].].}.}.}.}.}.}.}.}.}.}.}.}.}. X X X X.X.X X X X X X X X X4X4X4X4X4X4X4X4X5X5X5X5X5X5X5X5X5X5X5X5X4X4X4X4X4X4X4X4X X X X X.X X X X}.}.}.}.}.}.}.}.}.}.}.}.}.}.}.}._._._._._.]._._.].].P.N.| D J Z J D D W Z z j j b K J W  .o.o.7.VXjX| X. .! J x j p i h i p j x x J ! 7.%.V.FX;XQ o. .W Z j p u : & $ $ o o & = = 3 u p b D Q 7. .9.VXnX .o. .W J z j u : = & # o X                 X o & = u p z J W ! o.| *XCXeXo.t. .W J z p < : = # o               ",
"O             o o & - a p z Z W  .7.o.=XVX=XX.*. .W x j a u - & # o .                 . o # & - u p x J W ! o. .kXVXi.7.7.! J x j a u - > & o o o + & - u i j x J !  .Q !.FXE.X.5.! W J Z j p u u i p j x J W | %.X.eXVX9.o.t. .! J J b j j z z z k z Z Z I t.P._._._.XX_.`.XXXXXXXX].].].}.}.}.}.}.}.}.}.}.}.}.}.}. X X X.X X.X X X X X X X X X4X4X4X4X4X4X4X4X2X4X4X4X4X5X5X5X5X5X5X4X4X4X4X4X4X4X4X4X X X X X.X X X}.}.}.}.}.}.}.}.}.}.}.}.}.}.}.}.}.}._._._._._.].}.}._.XXT.%.I z z b k C Z z z p s b b J W  .o.o.7.VXjX| X. .! J x j p h h h j j x x J ! 7.%.V.FX;XQ o. .W Z z p u - & $ # # + & = = : u p b D Q 7.o.9.VXnX .o. .W J z j u : = # o o X                 o o & = 2 i z J W Q o.| *XCXeXo.t. .W J z p < : = # o               ",
"O       X     X o & - u i z Z W  .o.X.=XCX=XX.*. .W J x p u - & o o                     o # & : u p x J W  .o.| kXVXi.o.7. .D H j i u - & & o o o & = 2 i i z z W Q 7.Q !.FXE.%. .! J J x j p i u i p p x J ! | %.{ eXCXo.%.*.o.! W J b j j z k i i j z i  .P._._._._._._._._.XX_._.].].}.}.}.}.}.}.}.}.}.}.}.}.}.}.}.}.}.}.}. X X X X X X X X X X X4X4X4X4X4X4X4X4X4X4X4X4X4X4X4X4X4X4X4X4X4X4X4X4X X X X X X X X X}.}.}.}.}.}.}.}.}.}.}.}.}.}.}.}.}.}.}.].].].].XX}.}.}.}._.).E.Q h j p i z k i a p p j b J !  .o.%. .VXjXQ o. .Q J x j j z h z z j j Z W Q o.X.G.FX;XW  .| W Z j a 4 * & # # # # # & > : i z z D !  .t.7.CXnX .%. .W J z j a - - # o                 X o o o & ; 4 h z J W Q o.| *XFXwXo.t. .W J z p < : = # o X X X       O ",
"O       X     X o & - u i z Z W  .o.X.=XCX=X| *. .W J x p u - & # o X                 X o # = : u p x J W  .X.| kXCXi.o.7. .W H h i 4 - & & o o # & = 2 i i z z D Q  .W !.FXE.%.o.! W J z j p i u i p j x J ! | %.{ eXCXo.%.t.o.! J J b j j h h i j i i Z n.).}._._._._._._.XXXX_._.}.}.}.}.}.}.}.}.}.}.}.}.}.}.}.}.}.}.}.}. X X X X X X X X X X X X4X4X4X4X4X4X4X4X4X4X4X4X4X4X4X4X4X4X4X4X4X4X4X4X4X X X X X X X X.X}. X}.}.}.}.}.}.}.}.}.}.}.}.}.}.}.}.}.}.}.}.XX].].}.}.]._.T.n.D z p i q h i a p p j b W Q  .o.%.| VXjXQ o.o.Q D x j j h z z z j j Z W  .o.X.G.FX;XW  .| W Z j a 4 * > # # # # # & > : i z Z D !  .*.7.CXnX| %.o.W J z j a - & # o                 o o o o & = 4 h z J W  .o.| *XFXeXo.t. .W Z z p < : = # o X X X       O ",
"O       X     o o & - u i z Z W  .o.o.=XCX=X| *. .W J x p u - & # o X                   o # = : u p x J W  .X.' kXCXi.o.7. .W H h i u - & & o o # & = 2 i i i z W Q  .W !.GXE.%.o.! J J z j p i i i p j z Z ! | %.| eXCXo.o.7. .! J K b j j i u i b i 0 n.P._._._._._._._._.XX}.}.}.}.}.}.}.}.}.}.}.}.}.}.}.}.}.}.}.}.}..X.X X X X X X X X X X X X4X4X4X4X4X4X4X4X4X4X4X4X4X4X4X4X4X4X4X4X4X4X4X4X4X4X4X X X X X X X X.X X}.}.}.}.}.}.}.}.}.}.}.}.}.}.}.}.}.}.}.].XX].].].].]._.).T.t.C k h u f h z j j b K W Q  .o.&.X.VXjXX.&.X.Q D z j j h z h j j j x W  .o.X.G.FX;XT X.| W z j a u * > # # # # # & > : i z Z J W  .*.7.CXnX| %.o.W J z j a - & # o                 o o o o & = 4 h z J W  .o.| *XFXeXo.t. .W J z p < : = # o X           O ",
"O       X     X o & - u i z Z W  .o.X.=XCX=X| *. .W J x p u - & # o X                 X o # = : u i x J W  .X.| kXCXi.o.7. .D H h u 4 - & & o o # & = 2 i i z z W Q  .W !.GXE.%. .! W x z j i i i i p j z J W | %.| eXCX .o.7.5.J K K K b j i u i z h R J.XX_._._._._._._._.XX}.].].}.}.}.}.}.}.}.}.}.}.}.}. X}..X.X.X.X X X X X X X X X X X X X4X4X4X4X4X4X4X4X4X5X4X4X4X4X4X4X4X4X4X4X4X4X4X4X4X4X4X4X4X X X X X X X X X X X}.}.}.}.}.}.}..X}.}.}.}.}.}.}.}.}.]._.].]._._.]._._.XXK.%.C i u g h C v b b K ! !  .o.&.%.CXkX%.&.X.Q D z j j j z h j j j x W  .o.X.G.FX;XT | | W z j i u * > # # # # # & > : i z z D W  .*.o.CXnX| %.| W Z z j u - & # o                 X o o o & = 4 h z J W  .o.| *XFXwXo.t. .W Z z p < : = # o X   X       O ",
"O       X     o o & - u i z Z W | o.X.=XCX=X| *. .W J x p u - & # o X                   o # = = 4 i z J W  .X.' kXCXi.o.7. .D H h i 4 - & & o o o # = 2 i i i z D Q  .I !.GXE.X.o.! W x z j i i i h j z z J W | X.| eXCX .7.7.<.J L L L b j f p i 5 P N.).XXXX)._._._._.]._.}.}.}.}.}.}.}.}.}.}.}.}.}.}.}.}.|.|. X X X X X X X X X X X X X X X4X4X4X4X4X4X4X4X5X5X5X5X5X5X5X5X5X5X4X4X4X4X4X4X4X4X4X4X4X4X4X X X X X X.X X}.}..X.X.X.X.X.X}.}.}.}.}.}.}.}.}.}.}.].].].].].].}.}.].].XXJ.' k g < l H K K L L ! !  .o.&.X.CXfX@.k.X.Q D z z j h h h j j z Z W  .o.X.G.FX;XT X.| I Z j i u * > $ # # # # & & : i z Z D !  .&.o.CXnX| %. .W Z z p u - & # o X                 o o o # ; 4 h z J W  .o.| *XFXwXX.o. .W Z z p < : = # o X           O ",
"O       X     o o & - u i z Z W  .o.X.=XCX=X| %. .W J x p 2 - & # o X                   o # & = 4 i z J W  .X.' kXCXi.o.7. .D H h i 4 - & # o o o # = 2 i i i z D Q  .I !.GXE.X.o.! W Z z j i i h h j z z J W | X.| eXCX5.7.8.5.3.L L L L b j j p 0 z.)._._._.)._._.].].].].}.}.}.}.}.}.}.}.}.|. X X X|..X.X|.|. X X X X X X X X X X X X4X4X4X4X4X4X4X4X4X5X5X5X5X5X5X5X5X5X5X5X5X5X5X5X5X5X5X5X4X4X4X4X4X4X4X X X X X X X X X X.X.X.X X}.}.}..X}.}.}.}.}.}.}.}.].].].].].].].}.}._.}.XXl.S g < l K K K b L 3.<.<.7.*.X.CXfX@.#.X.Q D z j j h h z j j z Z W  .o.{ G.FX;XT X.| I Z j i u * & $ # # # # & & : i z z D !  .&.*.CXxX| %. .W Z z i u - = & o                   o o o # ; 4 h z J W  .X.| *XFXwXX.o.| W Z z i < : = # o X           O ",
"O       X     o o & - u i z Z D | o.X.=XCX=X| %. .W J z p u - & # o X                   o # & : 4 i z J W  .X.' kXCXi.o.7. .D H z i 4 - & # o o o & = 2 5 i i z W Q  .I !.GXE.X.o.Q W Z z j i i h h j z z J W | %.| eXCX7.t.t.7.<.3./ / L L K b z / J.XXXX_._._.].].].].].].].].}.}.}.}.|.|.|.|.}.}.}.}. X X X X X X X X X X X X4X X4X4X4X4X4X4X4X4X4X4X5X5X5X5X5X5X5X5X5X5X5X5X5X5X5X5X5X5X5X5X5X4X4X4X4X4X4X2X2X X X X X X X X|.|..X|.}.}.|..X}.}.}.}.}.}.}.}.].].].].].].].}.}._.}.XXJ.*.z i v K K L L 3.3.<.5.7.t.| CXsX{ @.| Q D z j i h h h j j z Z W  .o.X.G.FX;XT  .| I Z j i u * & $ # # # # & & : i z z D !  .&.*.CXxX| %. .W Z z h u : = & o X               o o o o # ; 4 h z J W  .X.' *XFXwXX.o.| W Z z i < : = # o X           O ",
"O       X     o o & - u i z Z D | o.X.=XCX;X| %. .W J z p 4 = & # o X                   o # & : 4 i z J W  .X.' kXCXu.o.o. .D H h i 4 - = # o o o # = 2 5 i h z W Q | I !.GXE.%.X.Q D Z z j i i i h j j z Z W  .*.X.eXCX7.t.v.t.7.5.<.<.! ! J J D G.XX_.XXXX_.XX].].].].].}.}.}.}.}.}.|.|.|.|.|.|.|.|. X X X X X X X X X X X X X4X4X4X4X4X4X4X4X4X4X4X5X5X5X5X5X5X5X5X5X5X5X5X5X5X5X5X5X5X5X5X5X5X4X4X4X4X4X4X4X2X2X X X X X X X|. X X X|.}.}.}.|.|.}.}.}.}.}.].].].].}.].].].].}.}._._.XXN.D z K K L L 3.3.<.6.5.7.t. .CXhX} { | W Z z j i h h j j j z Z W  .o.{ G.GX;XT | | I Z j i u * & $ # # # # & & : i z z D !  .&.*.CXxX| %.| W Z z h u : = & o X               o o o o # ; 4 h z J W  .X.' !.FXwXX.o.| W Z z i < : = # o X           O ",
"O             X o & - u i k Z D  .X.X.=XFX;X| %. .W Z z p u = & # o X                   o # = : 4 i z J W Q X.' kXCXu.X.7.Q D z h i 4 - & & # o # # = 2 5 i h z W Q  .I !.GXE.@.| Q D Z z j h i i i i j z Z W | %.{ sXCX%.v.t.v.t. .5.9.u.5.J D V.K.).].].]._.].].].].].].].].}.}.}.|.|.|.|.|.|.|.|.|.|.|.|. X X X X4X4X4X4X4X4X4X4X4X4X4X4X4X4X5X5X5X5X5X5X5X5X5X5X5X5X5X5X5X5X5X5X5X5X5X5X5X5X5X5X5X5X5X4X4X4X4X4X4X4X4X X X X|.|. X|.|.|.|.|.|.|.|.|.|.}.}.}.].].}.}.}.].].].].}.}._.XXT.n.I G H L Z 3.<.9.t.t.b.&.o.CXjXY *.| W Z z i i i i h h j j Z D | X.{ G.FX;XY | | T Z z i u * & # # # # # # & : i z z D W o.%.*.FXxX| %.| I Z z h u - & # o X                 o o o # ; 4 h z J W  .X.' *XGXwXX.%. .W Z j p < : = # o X X X       O ",
"O             X o & - u i k Z D | X.X.=XFX;X' %. .W Z z p 4 : & # o X                   o # = : 3 i z Z W Q X.' mXFXu.X.7.Q D z h i 4 = & # o o # # = 2 5 i h z I Q  .I !.GXE.@.X.Q D Z z j h 6 6 i i j z Z I | &.{ eXCX*.m.v.m.v.t.u.7.o.Q <.u.T.'.].].].].}.}.].].].].[.[.[.[.}.}.|.|.|.|.|.|.|.|.|.|. X X X2X2X2X4X4X4X4X4X4X4X4X4X4X4X5X4X5X5X5X5X5X5X5X5X5X5X5X5X5X5X5X5X5X5X5X5X5X5X5X5X5X5X5X5X5X5X5X4X4X4X4X4X4X2X2X X X X|. X X|.|.|.|.|.|.|.|.|.|.}.}.].}.}.}.}.}.].].].].]._._.'.K.l.Y W ! W <. .t.b.v.v.m.t.CXjXP ' | I Z z i i i i h h j j Z D | X.{ G.GX;XY | | T Z z i u - & # # # # # # & : i l z D W o.&.%.FXxX| %.| I Z z h u - = # o X                 o o o # ; 4 h z Z W Q X.' *XGXwXX.%.| W Z j p < * = # o X X X       O ",
"O       X     X o & - u i k Z D | X.X.=XFX;X' %. .W Z z i 4 : $ # o X                   o # = : 3 i z Z W Q { ' mXFXu.X.7.Q D C h i 4 = & # o o # # = 2 5 i h z I Q  .I !.GXE.@.X.Q D Z z j h 6 6 i i i z Z I ' %.%.sXFX&.l.l.v.v.&.&.*.t.Q 7.B.].].'.'.'.].}.}.].].].].[.[.}.}.}.}.|.|.|.|.|.|.|.|.|.|.4X4X4X4X2X2X2X4X4X4X4X4X4X4X4X4X5X5X5X5X5X5X5X5X5X5X5X5X5X5X5X5X5X5X5X5X5X5X5X5X5X5X5X5X5X5X5X5X5X5X5X4X4X4X2X2X2X2X X X X X X X|.|.|.|.|.|.|.|.|.|.}.}.}.}.}..X}.}.].].'.'.]._._._.).K.@.' o.o.t.o.v.v.M.l.l.&.CXxXO.O.| I Z z a i i 5 q h j v z D | X.{ G.GX;XY | | T Z h i u - & # # # # # # > : i l z D W X.&.O.GXxX' %.| I D z h u - = # o X               X X o o # ; 6 h z Z W Q X.' *XGXwXX.%.| W Z j p < ; = # o X           O ",
"O       X     o o + - 2 i k Z D | X.X.=XFX;X' %.| W Z z i 4 : $ # o X                   o # = : 3 i z Z W Q { ' xXFXu.X.7.Q D C h i 4 = & # o o o # = 1 5 i h z I Q | Y !.GXE.@.X.Q D Z z j h 6 6 6 i i i z Z R %.} eXGX*.N.B.v.%.&.v.&.t.o.B.[.].].].'.'.].].}.].].].].[.[.}.}.|.|.|.|.|.|.|.|.|.|.4X4X4X4X4X4X2X4X4X4X4X4X4X4X4X4X4X4X5X5X5X5X5X5X5X5X5X5X5X5X5X5X5X5X5X5X7X7X5X5X5X5X5X5X5X5X5X5X5X5X5X5X5X4X4X4X4X2X2X2X2X X X X X|.|.|.|.|.|.|.|.|.|.|.}.}.}.}.|.}.}.[.].].].'.'.].]._.].'.J.&.@.%.&.t.v.m.m.l.J.l.VXkXB { ' I Z i a i 6 6 5 h h z z D | X.{ G.GX;XY X.| T Z z i 4 : & # # # # # # > : i l z D W X.&.O.GXxX' %.| P D l h i - = # o X   X           X X o o # ; 6 h z Z W Q X.} !.GXwXX.%.| W Z j i : ; = # o X   X       O ",
"O       X     o o & - u i k Z D | X.X.=XFX;X' %.| W Z z i 4 : $ # o X                   o # = : 3 i z Z W Q { ' xXFXu.o.o.| P C h i 4 = & # o o o # = = 5 i h z I | | Y !.GXE.@.X.Q D Z z j h 6 4 4 i a i k Z P { ' sXGX' } l.%.*.t.v.{ o.n.P._.].].].'.'.'.].].].].].[.[.[.}.}.|.|.|.|.|.|.|.|.|.2X2X2X4X4X2X4X4X4X4X4X4X4X4X4X4X4X5X5X5X5X5X5X5X5X5X5X5X5X5X5X5X7X7X7X7X7X7X7X5X5X7X7X5X5X5X5X5X5X5X5X5X5X5X4X2X4X4X2X4X2X2X2X2X2X2X2X2X|.|.|.|.|.|.|.|.|.|.|.}.}.[.[.[.[.].].].].'.].]._.].XX'.m.l.v.*.%.&.&.l.l.#.@.CXxX' &.' P k i i u 6 6 5 i h z Z D Q X.{ G.GX;XY | ' T Z z i 4 : & # # # # # $ > : i z z Z W X.%.%.GXxX' %.X.T D l h 6 - = # o X   X           X X o o # ; 6 h k Z W Q X.} ^.GXwX{ %.| W Z z i : ; = # o X           O ",
"O       X     o o & - u i k Z D | X.X.=XFX;X' %.| W Z z i 4 : $ # o X                   o # = : 3 i z Z W Q { ' xXFXu.o.o.| D C h 6 4 = & # o o o # = 1 6 5 h l I ' | Y !.GXE.@.X.Q D Z z z i 6 4 6 i i i z Z P Y R sXKXF.=.n.u.u.*.n.E.B.J._.}._._.].].].].].].].].].[.[.[.}.}.|.|.|.|.|.|.|.|.2X2X2X2X2X2X4X4X4X4X4X4X4X4X4X4X4X4X5X5X5X5X5X5X5X5X5X5X5X5X5X5X5X5X7X7X5X5X7X7X5X5X5X5X5X5X5X5X5X5X5X5X5X5X5X4X4X4X4X4X4X4X2X2X2X2X2X2X2X2X|.|.|.|.|.|.|.|.|.|.|.}.[.[.].].}.}.].].].'.]._._.].'.J.m.B.u.=.n.n.u.z.#.n.ZXhXB [ T D k i u 6 6 6 5 i h z Z D | X.{ G.GX;XY | ' T Z z h 4 : & # # # # # $ > : i z z Z W | %.%.GXxX' %.X.T S l h 6 2 = # o o X X           X X o o # ; 6 h k Z W Q X.} ^.GXwX{ %.| I Z z i : ; = # o X           O ",
"O       X     o o & - u i k Z D | X.X.=XFX;X' %.| W Z z i 4 : $ # o X                   o # = : 3 i z Z W Q { ' xXFXu.X.o.| D C h 6 4 = & # o o # # = 1 6 5 h z I ' | Y !.GXE.@.X.Q D Z l j h 5 5 5 i i i z C S R U ;XKXCXGXGXFXGXFXGXCXtXL.I.XX_._.].].].].'.'.].].[.[.[.].}.}.|.|.|.|.|.|.|.|.|.2X2X2X2X2X2X2X4X4X4X4X4X4X4X4X4X5X5X5X5X5X5X5X5X5X5X5X5X5X5X5X5X5X7X7X5X5X5X5X5X5X5X5X5X5X5X5X5X5X5X5X5X5X5X4X4X4X4X4X4X4X4X2X2X2X2X2X2X2X2X|.|.|.|.|.|.|.|.|.|.}.[.[.[.].}.}.}.}.].].'.].]._.).oXrXCXFXGXGXGXFXGXGXGXKXsX} @.T D k i u 4 4 6 6 i h z Z D | X.{ G.GX;XY | ' T Z z i 4 : & & # # o # # > : i z z Z W | @.%.GXxX' %.X.T C l h 6 - = # o X   X           X X X o # = 6 h k Z W Q | } ^.GXwX{ %.| D Z z i 4 : = # o X           O ",
"O       X     o o & - u i k C P | X.X.=XFX;X' %.| W Z z i 4 : $ # o X                   o # = : 4 i z Z W Q { ' xXFXu.X.o.Q P Z h 6 4 = & # o o # # = 1 6 5 h z I ' | Y !.GXE.@.X.Q D Z l j 6 6 6 5 5 i i i k C S S ) ;X;X;X~.wX0X0X;XwXJ.).XX).XX].].].].].'.'.].].[.[.].[.}.}.[.}.|.|.|.|.|.|.|.2X2X2X2X2X2X2X2X2X4X4X4X4X4X4X4X4X4X4X5X5X5X5X5X5X5X5X5X5X5X5X5X5X5X5X5X5X5X5X5X5X5X5X5X5X5X5X5X5X5X5X5X5X5X4X4X4X4X4X4X4X4X2X2X2X2X2X2X2X|.|.|.|.|.|.|.}.|.|.|.}.[.[.].].}.}.}.}.].].'.].]._.).I.P.0X0X;X;X;X;X;X~.;X^.f.N ' I C h i 4 4 4 4 6 i h z Z D Q X.{ G.GX;XY X.| I Z k i 4 - & # # o o # $ > : 5 l z Z W | %.%.GXxX' %.X.T C l h 6 : = # o X               X X X o # = 6 h k Z W Q X.} ^.GXwX{ %.| W Z z i 4 : & # o X           O ",
"O             X o & - 4 i k Z D | X.[ =XGX;X{ %.| I Z z i 4 = & # o X                 X o # = : 4 i z J W | @.} mXGXu.%.| W D Z z 6 4 = & # # o # # = 1 6 h h z P | ' Y !.GX/.@.X.Q D Z z h 6 3 4 6 5 5 5 5 5 i k S P Y [ { ' ' @.$.#.N.P.).)._._._.].].].].].].].].].].].].].[.[.[.|.|.|.|.|.|.|.|.|.|.|.|.4X4X4X4X2X2X4X4X4X2X4X4X4X4X4X4X4X4X5X5X5X5X5X5X5X5X5X5X5X5X5X5X5X5X5X5X5X5X5X5X5X5X5X5X5X5X5X4X4X4X4X4X4X2X2X2X2X2X2X X2X X X|.|.|.|.|.|.|.}.}.|.|.|.}.}.].].].].}.].].].].].]._._.)._._.I.&.' ' ' ' ' } P C S Y I C k 0 5 2 2 3 3 3 6 i v Z D T X.{ G.GX;XY X.| I S l i 4 - & # % o # # & > : 6 l z W W  .%.{ KXxX' %.| T S l h 6 : = # o X                   o o $ = 4 q l Z W Q X.' ^.GXwX{ %.| W Z l q 4 ; & & o X X X       O ",
"O             X o & = 4 h k Z D | X.[ =XGX;X{ @.| I Z z i 4 = & # o o                 X o # = : 4 5 z Z W | @._ mXKXz.%.| W D D z 6 4 : & # o o # # = 1 6 h h z I | ' Y !.GX/.@.X.Q D Z z h 6 3 3 3 7 7 7 5 2 5 h C Y [ { { ' { #.x.J.P.).)._._._._.'.].].].].].].].].].].].].].[.[.[.|.|.|.|.|.|.|.|.|. X X X X X4X X X4X4X4X4X4X4X4X4X4X4X4X4X4X4X4X4X5X5X5X5X5X5X5X5X5X5X5X5X5X5X5X5X5X5X5X5X5X5X5X4X4X4X4X4X2X2X2X2X4X4X X X X|. X|.|.|.|.|.|.|.|.|.}.}.}.}.}.}.}.}.}.].].].].].].].].]._._.)._._.).J.&.@.%.{ { ' Y P P P C k 0 5 5 2 1 3 : : 6 i v Z D T | @.G.GX;X' %.| I S e i 4 - & % % o o # & & : 6 e C W Q o.%.{ KXxX' %.X.T S l h 6 : > # X X                   o o $ = 4 q l Z W Q X.' ^.KXwX' %.| W Z l q 4 ; & & o X X X       O ",
"O             X o & = 4 h k Z D | X.[ =XGX;X{ @.| I Z z i 4 = & # o X                 X o # = : 6 5 z Z W | @.} mXKXz.%.| W D D z 6 4 = & # o o o & = 1 6 h h z I | ' Y !.GX/.@.X.Q D Z z h 6 3 : : 1 1 2 5 2 5 h k S P Y T I ' $.J.).).).)._.)._._.'.'.].].].].].].].].].].].].}.}.}.}.}.}.|.|.|.|.|.|.|.|.|.|. X X X X X X X4X4X4X4X4X4X4X4X4X4X4X4X4X4X4X4X4X4X4X4X4X4X4X4X4X4X4X4X4X4X4X4X4X4X4X4X4X4X4X4X4X2X2X4X2X X X|.|. X X|.|.|.|.|.|.|.|.|.|.}.}.}.}.}.}.}.}.].].].].].].].].]._._._.]._.).'.).x.@.' ' T Y P P S C 0 0 5 5 1 1 = = ; : u i v Z D T | @.G.GX;X' %.| I S e 6 4 - & % % o o # & & : 6 e C D Q o.%.{ KXxX' %.X.Y S l h 6 : > # X X                   o o $ = 4 q l Z W Q %.{ ^.KXwX' %.| W Z l q 3 ; & & o X           O ",
"O             X o & = 4 h k Z D | X.[ =XGX;X{ @.| I Z z i 4 = $ # o X                 X o # = : 6 5 z Z W | @.} mXKXz.%.| W D D z 6 4 = & # o o # & = 1 6 h h z I | ' Y !.GX/.@.X.Q D Z z h 6 3 = = = = 1 1 2 2 0 0 w Z S C C Y k.J.oX).(.)._.)._._._.].].].].].].].].].].].].].}.].].].}.}.}.}.|.|.|.|.|.|.|.|.|.|.|.|.|.|.|.|. X X4X4X4X4X4X4X4X4X4X4X4X4X4X4X4X4X4X4X4X4X4X4X4X4X4X4X4X4X4X4X4X4X4X2X4X4X4X4X X|. X|.|.|. X|. X|.|.|.|.|.|.|.|.|.}.}.}.}.}.}.}.}.}.].].].].].].].].]._._._._._.`.P.'.XXL.&.P I P S C N w 0 5 5 2 1 1 = = = = : 6 i l Z I T X.@.G.GX;X' %.| I S e 6 4 - & % % o o # & & : 6 e C D Q o.%.{ KXxX[ %.X.Y S l h 6 : > # X X                   o o # = 4 q l Z W Q %.{ ^.KXwX' X.| W Z l q 3 ; & & o X   X       O ",
"O             X o & = 4 h k Z D | X.[ =XGX;X{ @.| I Z z i 4 = $ # o X                 X o # = : 6 6 z Z W | @.} mXKXz.%.| W D D h 6 4 = = # o o o & = 1 6 h h z I | ' Y !.GX/.@.X.T D Z l h 6 3 > & & = = 1 7 2 2 2 5 i i 0 w P N.P.).).).).XX_._._._.'.].].].].].].].].].].}.].}.].}.}.}.}.}.}.}.}.}.|.|.|.|.|. X X X|.|. X X X X X X X X X X X X4X4X4X4X4X4X4X4X4X4X4X4X4X4X4X4X4X4X4X4X4X4X4X4X4X4X4X4X X X|. X|. X|.|.|. X|.|.|.|.}.}.}.}.}.}.}.}.}.}.}.}.}.}.].].].].].].]._._._._._._._._._._.P.)._.).m.[ C k C C w 0 5 6 1 = = = = = = & : 6 h l Z D T | @.G.GX;X' %.| I S e 6 4 - & % % o o # & & : q e C Z Q  .%.O.KXMX' %.X.Y S l h 6 : $ # X X                   X o # = 4 q l Z W Q X.' ^.KXwX' X.| W Z l 0 3 ; & & o X           O ",
"O             X o & = 4 h k Z D | X.[ =XGX;X{ @.' I Z z i 4 = $ # o X                 X o # = : 4 6 z Z W | @.} mXKXz.%.| W D D h 6 4 = = # o o o # = 1 6 h h z I | ' Y !.GX/.@.X.Q D Z l h 6 3 > & + # = 1 y 1 1 = : : 2 5 C O.E.P.L.).)._._._.)._._._._.].].].].].].].].].].].].].}.}.}.}.}.}.}.}.}.}.}.}.}.}.|.|.|.}.}.}.|.|. X X X X X X X X X X X X X X X X4X4X4X4X4X4X4X4X4X4X4X X4X X4X X X X X|.|.|.|.|.|.|.|.|.|.|.}.}.|.|.}.}..X}.}.}.}.}.}.}.}.}.}.}.].].].].].].]._._._._._._._._._._._.).L._.XXP.z.N 0 k l q 1 = = = = = = & & & & : 6 h l Z D T | @.G.GX;X' %.| P S e 6 4 - & % % X # # = & : q e C Z Q  .%.O.KXMX' %.X.Y S l h 6 : $ # o X                   X o # = 6 q l Z W Q X.' ^.KXwX' X.| W Z l 0 3 ; & & o X           O ",
"O             X o & = 4 i k Z D ' X.[ =XGX;X[ @.' I Z z i 4 = $ # o X                 X o # = : 4 6 z Z W | @.} mXKXz.%.| W D F h 6 4 = = # o o o # = 1 6 h h z I | ' Y !.GX/.@.X.T D Z z h 6 3 > & + # $ $ y 1 = & & > = 0 ..G.P.P.L.).)._._._.).)._.)._._._._._._._._._.].].].].].}.}.}.}.}.}.}.}.}.}.}.}.}.}.}.}.}.}.}.}.}.}. X X X X X X X X X X X X X X X X X X X X X X X X X X X X X X X X X X X|. X|.|. X X X}.|.}.}. X X}.}.}.}.}.}.}.}.}.}.}.}.}.}.}.}.].].].].]._._._._._._._._._._._.)._._.).).).).J.Y 0 2 2 1 = # # & & & & & & & & : 4 h l C D T X.@.G.GX;X' %.| I S e 6 4 - & % % o # # = & : 6 e C D Q  .%.{ KXMX' %.X.Y S l h 6 : $ # X X                   X o # = 6 q l Z W Q X.' ^.KXwX' X.| W Z k 0 3 ; & & o X           O ",
"O             X o & = 4 h k Z D ' X.[ =XGX;X{ @.' I Z z i 4 = $ o o X                 X o # = : 6 6 z Z W | @._ mXKXz.%.| W D F h 6 4 = & # o o o # = 1 6 h h z I | ' Y !.GXE.@.X.T D Z z h 6 3 = & & o # $ $ $ & + @ & 1 N z.E.L.).).).)._._.).).).).)._._._._._._._._._._.].].].].}.}.}.}.}.}.}.}.}.}.}.}.}.}.}.}.}.}.}.}.}.}. X}.}. X X}. X X X X X X X X X X X X X X X X X X X X X X X X X X X X X X|.|.|.}. X}.}.}.}.}.}.}.}.}.}.}.}.}.}.}.}.}.}.}.}.}.}.}.].].].].]._._._._._._._._._._.)._._._.).L.L.).).=.S 1 & = : = ; & & & # $ & & = : 4 h l S P T X.@.G.GX;X' %.| P S e 6 4 - & % % X # # & & : 6 e C D Q o.%.O.KXMX' %.X.Y S l h 6 : > # X X                   X o # = 6 q l Z W Q X.' ^.KXwX[ X.| W Z l q 3 > & & o X           O ",
"O             X o & = 4 h k Z D | X.{ =XGX;X[ @.' I Z z i 4 = $ # o X                 X o # = : 6 6 z Z D | @.} mXKXz.@.| ! D D h 6 4 = & # o o o # = 1 6 q h z D | ' Y !.GX/.@.X.T D Z z h 6 3 = = o o o o # # > o + = r -.P.).P.P.).).).)._._.).).).)._._._._._._._._._._._._.].].}.}.}.}.}.}.}.}.}.}.}.}.}.}.}.}.}.}.}.}.}.}.}.}.}.}. X X X X}.|.|.|. X X X X X X X X X X X X X X X X X X X X X X X X X}. X}.}.}.}.}.}.}.}.}.}.}.}.}.}.}.}.}.}.}.}.}.}.XX}.}._.].]._._.]._._._._._._._._.).).).)._.).).P.P.L.P.O.$ . , # X = # & & # # # $ ; : 6 h l F I T X.@.G.KX;X} { ' P F e 6 4 - & % % X # # & > : 6 e H Z Q o.@.} LXMX[ %.X.Y S l h 6 3 = $ X X                   X o # = 6 h l Z W Q %.' ^.KXwX[ %.| W Z C q 3 > & & o X X         O ",
"O             X o & = 4 h k Z D | X.{ =XGX;X[ @.' I Z z i 4 : $ # o X                 X o # = : 6 6 z Z D | @._ mXKXz.@.| ! D S h 6 4 : & # o o o # = 3 6 5 h z P | ' Y !.GX/.#.X.T D Z z h 6 3 1 = # o o o o o o & # $ U G.).).).P.).).).).).).).).).).)._._._._._._._._._._._.].].].}.}.}.].}.}.}.}.}.}.}.}.}.}.}.}.}.}.}.}.}.}.}.}.}.}. X X X}.}.|.|. X X X X X X X X X X X X X X X X X X X X X X}.}.}.}.}.}.}.}.}.}.}.}.}.}.}.}.}.}.}.}.}.}.}.}.}.}.}.XX}.}._._._._._.]._._._._._._._._.)._.).).).).).).L.L.).N.A o . # % % # o o o # # $ = 3 4 h l D I T X.@.G.KX;X} { ' P F N 8 4 - & % % X # # & > : 6 e C C Q X.@.{ LXMX[ %.X.Y S l h 6 3 = # X X                   X o # = 6 h l Z W Q %.' ^.KXwX[ %.| W Z C q 3 > & & o X X         O ",
"O             X o + = 4 h k Z D ' X.[ ;XGX;X} @.' P Z z i 4 : $ # o X                 X X # = : 6 6 z Z D Q $._ mXGXz.@.| ! D S h 6 4 ; & # o o o # = 3 6 q h z P | ' Y !.GX/.#.X.T I Z z h 6 3 1 $ # o o o o o o = $ r G.T._._.).P.).).).).).).).).).).)._._._._._._._._._.].].].].].].].].].}.}.}.}.}.}.}.}.}.}.}.}.}.}.}.}.}.}.}.}.}.}.}.|.}.}.|.|.}.|.|.|.|.|.|.|.|.|.|. X X X X|.|. X|.|. X|.|.|.|.|.}.}.}.}.}.}.}.}.}.}.}.}.}.}.}.}.}.}.}.}.}.XXXX}.}.}._._._._._._._._._._._._._.).).)._.`.).).).).).L.L.).P.u.7 . o 3 $ # o o o # # $ = : 6 h l D I T X.@.G.KX;X' { | P F N 8 4 - & % % o # # & > : q e H C Q X.%.-.LXMX[ %.X.Y S l h 6 3 = # X X                   X o # = 6 q l Z W Q X.[ ^.KXwX' %.| W Z C q 3 > & & o X           O ",
"O             X o & = 4 h k Z D ' X.[ =XGX;X} @.' P Z l i 4 : $ # o X                 X X # = : 6 6 z Z W | $._ gXKXz.@.| W D S h 6 4 ; $ # o o o # = 3 6 q h l P | ' Y !.GX/.#.X.| W Z z h 6 3 3 y $ o o o o # # $ r +.E.).(._.).P.).).).).).).).).).).)._._._._._._._._.].].].].].].].].].].].}.}.}.}.}.}.}.}.}.}.}.}.}.}.}.}.}.}.}.}.}.|.|.|.|.|.|.|.|.|.|.|.|.|.|.|.|.|. X|.|.|.|.|.|.|.|.|.}.}.|.|.|.|.|.|.|.}.}.}.}..X X}.}.}.}.}.}.}.}.}.}.}.}.}.].XX_._._._._._._._._._._._._._.).).).).).).).).).).).).(.P.J.] # o 7 y # # # # # # = ; 3 6 h C D I | X.@.G.KX;X' { | P F N 6 4 - & % % o # # & > : 6 e H C Q X.@.-.KXMX[ %.X.Y C l h 6 3 = # X X                   X o # = 6 h l Z W Q X.[ ^.KXwX} %.| W Z C q 3 > & # o X   X       O ",
"O             X o & = 4 h k Z D | X.[ =XGX;X[ @.' P Z l i 4 ; $ # o X                 X o # = : 6 6 z Z W | $._ gXKXz.@.| W D C h 6 4 ; $ # o o o # = 3 6 q h l P | ' Y !.GXE.#.%.| W J z c 8 9 3 3 $ $ # # # $ $ y ] G.P.L.(.).).P.).).).).).).).).).).)._._._._._._._.].].].].].].].].].].].].].}.}.}.}.}.}.}.}.}.}.}.}.}.}.}.}.}.}.}.|.|.|.|.|.|.|.|.|.|.|.|.|.|.|.|.|.|.|.|.|.|.|.|.|.|.|.|.|.|.|.|.|.|.|.|.|.}.|.|.|..X.X}.}.}.}.}.}.}.}.}.].]._._.]._._._._._.].]._._._._._._._._.).).).).).).).).).).).).L.L.P.N.F $ y $ # # # # # $ ; 3 4 6 l H D I | X.@.G.KX;X' { | P F e 6 4 - & % % o # # & > : 6 e C C Q | @.-.LXNX[ %.X.Y S l h 6 3 = # X X                   X o # = 6 q z Z W Q X.[ ^.KXwX} %.| I Z C q 3 > & # o X   X       O ",
"O             X o & = 4 h k Z D | X.[ ;XGX;X[ @.' P Z l 5 4 ; $ # o X                 X o # = : 6 6 z Z W | $._ gXKXz.@.| W S F h 6 3 ; $ # o o o # = 3 6 q h C P | ' Y !.GX/.#.%.| ! J K v t 8 3 3 3 $ $ $ $ y y N G.E.J.L.'.P.P.P.P.).).).).).).).).).)._._._._._._.].].].].].].].].].].].].].].}.}.}.}.}.}.}.}.}.}.|.|.|.|.|.|.}.|.|.|.|.|.|.|.|.|.|.|.|.|.|.|.|.|.|.|.|.|.|.|.|.|.|.|.|.|.|.|.|.|.|.|.|.|.|.|.|.|.|.|.}.}.}.}.}.}.}.}.}.}.}.].].]._.].].]._._.].].].]._._._._._._._.).).).).).).).).).).).).).L.).).z.N $ # # # $ # $ $ 3 3 8 c v H U T | X.@.G.KX;X' { | P F e 6 4 - & % % o # # & > : 6 e C C Q | @.-.LXNX[ %.X.Y S l h 6 3 = # X X                   X o # = 6 q z Z W Q X.[ ^.KXwX} %.| I Z C q 3 > & # o X           O ",
"O             X o & = 4 h k Z D | X.[ ;XGX;X[ @.' I Z l 5 4 ; $ # o X                 X o # = : 6 6 l Z I ' @._ gXKXz.@.| W S C e 6 4 : $ # o o o # = 3 6 q h C P | [ ' !.GX/.#.*. .! J L v c 8 9 3 3 7 3 y y y w ;.E.P.L.P.T.P.P.P.P.P.P.).).).).).).).)._._._._._._.].].].].].].].].].].].].].].].].}.}.}.}.}.}.|.|.|.|.|.|.|.|.|.|.|.|.|.|.|.|.|.|.|.|.|.|.|.|.|. X|. X|.|.|. X|. X X X X|.|.|.|.|.|.|.|.|.|.|.|.|.|.|.|.|.|.|.}.}.}.}.].}.}.}.].].].].].].].].].].].]._._._._._._._.).).).).).).).).).).).).).).(.).L.*.1 o > = = ; 3 3 3 8 c v K ^ W Q  .X.@.G.KX;X} { | P F e 6 4 - = % % X o # & > : 6 e C C Q | @.-.LXMX[ %.X.Y S l h 6 : > # X X                 X o o # = 6 h z Z W Q X.[ ^.KXwX} %.| I Z N q 3 > & # o X           O ",
"O             X o & = 4 h k Z D | X.[ ;XKX;X[ &.' I Z l 5 4 ; $ # o X                 X o # = : 6 6 l Z I | @._ gXKXz.#.| Q S F e 6 4 : & # o o o # = 3 6 q h C D | [ ' !.KX/.#.*. .Q W ^ K v t 9 9 9 6 6 7 7 r -.G.P.P.).P.J.K.P.P.P.P.P.P.).).).).'.'.'.'._._.'.'.'.'.].].'.'.].].].].].].].].].].].].}.}.}.}.|.|.|.|.|.|.|.|.|.|.|.|.|.|.|.|.|.|.|.|.|.|.|.|.2X|.4X X4X X X X4X X4X2X4X2X X X X|.|.|.|.|.|.|.|.|.|.|.|.|.|.|.}.}.}.}.].].}.}.].].].].].].].].].].].].].].].]._._._.).).).).).).).).).).).).).(.).(.(.).J.G 1 3 3 3 9 9 9 8 c v v K ^ ~ Q  .%.#.G.KX;X[ @.' I C e q 6 - & % % o # # & > : 6 e C C Q | @.$.LXMX} %.X.Y S l h 6 : = # o X                 X o o # = 6 q z Z W Q X.[ ^.KXwX} %.' I Z C q 3 > & # o X           O ",
"O               o & = 4 h l Z D | X.[ ~.KX;X[ %.| I Z l 6 6 : $ # o o                 X o # $ : 6 i C D T X.@.} gXLXz.#.o.Q I C h 6 4 3 & # o X o # & 3 6 q l C D Q @.{ !.KX/.#.&.o. .+.+./ v t c t 8 8 i 5 w P G.K.P.P.P.P.K.K.P.P.P.P.P.P.).).).).'.'.'.'.'.'.'.'.'.'.[.[.].].].].].[.[.[.[.[.[.[.[.|.|.|.|.|.|.|.|.|.|.|.|.2X|.|.|.|.2X2X2X2X2X2X2X2X2X2X2X2X2X2X4X2X4X2X4X2X2X2X2X2X2X2X2X2X2X2X2X2X2X2X2X2X2X2X|.|.|.|.|.|.|.|.|.|.|.|.}.[.].].].].].].].].].].].].].'.]._.).).).)._.).).).).).).).(.(.(.(.L.).L.L.L.P.N.} r 8 8 8 9 8 t t v K ^ / / .. .X.k.G.GX;X@.k.@.P h i q 0 1 & # # o # # & > > 6 e C D Q X.@.$.JXNX} @.{ Y S C h 6 3 = # o X                 X X o # $ 9 e l S I Q %.[ ^.KXaX_ { | W Z z q 3 ; & # o X           O ",
"O               o & = 4 h l Z D | X.[ ~.KX;X[ %.| W Z h 6 3 = $ # o o                 X o # $ : 4 i C S T X.@.Y gXLXz.k.o.Q I C l 6 4 3 & # o   o o & 3 6 q e C D | #.[ !.KX/.#.*.*.7.9.=.+.K v K v c v h 0 U u.K.P.).).P.P.K.K.P.P.P.P.P.P.P.T.'.'.'.'.'.'.'.'.'.'.'.'.'.'.[.[.[.[.[.[.[.[.[.[.[.[.[.[.[.[.|.|.|.2X2X2X2X2X2X2X2X2X2X2X2X2X2X2X2X2X2X2X2X2X2X2X4X4X2X2X2X2X4X2X2X2X2X2X2X2X2X2X2X2X2X2X2X2X2X2X2X2X2X2X|.|.|.|.|.|.|.|.|.|.|.|.[.[.[.].[.].].].].].].].].'.].].).).).).).).).)._.).).).(.(.(.L.L.P.P.L.L.P.L.z.N q q t t c v v K ^ / +.+.o.*.*.k.G.GX;X@.k.@.P h u l 0 1 & # o o # # & > > 6 e C D Q X.#.$.JXNX} @.{ Y S C h 6 3 = # o X               X X X o # $ 9 e C S I Q %.[ ^.KXpX_ { | W Z z q 3 ; & # o X           O ",
"O             X o + = 4 h l Z D | X.[ ~.KX;X[ %.| W Z h 6 3 = $ # o X                 X o # $ : 4 i C S T X.@.Y gXLXz.k.o.Q I C l 6 4 3 & # o X o o & 3 7 6 e C I X.#.@.!.GX/.k.l.&.t.t.t.+.^ K K F A A C C +.E.K.P.P.P.P.K.K.K.P.P.P.P.P.T.T.T.'.'.'.'.'.'.'.'.'.'.'.'.'.[.[.[.[.[.[.[.[.[.[.[.[.[.[.[.[.[.[.,X2X2X2X2X2X2X2X2X2X2X2X2X2X2X2X2X2X2X2X2X2X2X2X2X2X2X2X2X2X2X2X2X2X2X2X2X2X2X2X2X2X2X2X2X2X2X2X2X2X2X2X2X2X2X2X|.|.|.|.|.|.|.|.|.[.[.[.].[.].].].].].].].].].'.].'.'.).).).).).).).).).).).(.(.L.L.L.P.L.L.L.P.J.] C w C H H H K / / +.t.*.t.v.l.k.G.GX;X@.k.@.P h u q 0 1 & o o o # # & > > 6 e C D Q X.@.} JXNX} @.{ Y S C h 6 3 = # o X               X X X o # $ 9 e l S I Q %.[ ^.KXpX_ { | W Z z q 3 ; & # o X           O ",
"O             X o + = 4 h l Z D | X.[ ~.KX;X[ %.| W Z l 6 3 = $ # o X                 X o # $ : 4 i C S T X.@.Y gXLXz.k.o.Q I C l 6 4 3 & # o X o o & = 3 6 q C I X.#.@.!.GX/.k.l.l.t.t.t.o.^ ^ U E E S P ..n.E.K.P.P.P.P.K.K.K.P.T.T.T.P.T.T.T.'.'.'.'.'.'.'.'.'.'.'.'.[.[.[.[.[.[.[.[.[.[.[.[.[.[.[.[.[.,X,X,X,X,X2X,X,X2X2X2X2X,X2X2X2X2X2X2X2X2X2X2X3X3X3X3X2X2X2X2X2X2X2X2X3X2X2X2X2X2X2X2X2X2X2X2X2X2X2X2X2X2X2X2X2X2X2X2X2X,X2X|.|.|.[.[.[.[.[.[.[.[.[.].].].].].].].].].'.'.'.).'.'.).).).).).).).).L.L.L.L.P.L.L.J.L.J.n...P P P D G U ! ..o.*.*.l.v.x.l.G.GX;X@.k.{ I i u 0 0 3 $ o o o # # & > > 6 e C D Q X.@.} JXNX} @.{ Y S C h 6 3 = # o X               X X X o # $ 9 e l S I Q %.[ ^.KXpX_ { | W Z z q 3 ; & # o X           O ",
"O       X     X o & = 4 h l Z D | X.[ ~.KX;X[ %.| W Z l 6 3 = & # o X                 X X # $ : 4 i C S T X.@.B gXLXz.k.o.Q I C l 6 4 1 & # o X o o $ = 3 6 5 l I [ #.[ !.KX/.k.x.l.&.&.&.*.! U ] ] Y Y %.N.K.K.K.K.P.K.K.K.K.K.T.T.T.T.P.T.T.T.T.T.'.'.'.'.'.'.'.'.'.'.'.'.[.[.[.[.[.[.[.[.[.[.[.[.,X,X,X,X,X,X,X,X2X,X2X2X,X,X,X,X3X3X3X3X3X3X3X3X3X3X3X3X3X3X3X3X3X3X3X3X3X3X3X3X3X3X3X3X3X3X3X3X2X3X2X2X2X2X2X2X2X2X2X2X2X2X2X,X2X[.|.[.[.[.[.[.[.[.[.[.[.[.].].].].].].].].].'.'.'.'.).).).).).).).).).P.P.L.L.L.L.L.J.J.J.B.n.{ ' T Y I R Q  .X.*.l.l.x.x.k.G.KX;X$.#.{ P i u 0 r 1 $ o o o # # & > , 6 e C D Q X.#.$.JXNX} @.{ Y S C h 6 3 = # o o               X X X o # $ 9 e l S I Q %.[ ^.KXpX_ { | W Z z q 3 ; & # o             O ",
"O       X     X o & = 2 h l Z D | X.[ ~.KX;X[ %.| W Z l 6 3 = & # o X                 X X # $ : 6 i C S T X.@.B gXLXz.k.o.Q I C h 6 4 3 & # o X o o # = 3 6 6 k D T @.[ !.KX/.k.x.l.l.l.l.l.o. .O.{ { @.n.K.P.J.K.K.K.K.K.K.K.P.T.T.T.T.T.T.T.T.T.T.T.'.'.'.'.'.'.'.'.'.'.{.[.[.[.[.[.[.[.[.[.,X,X,X,X,X,X,X,X,X,X,X2X,X,X,X2X,X,X,X3X3X3X3X3X3X3X3X3X3X3X3X3X3X3X3X3X3X3X3X3X3X3X3X3X3X3X3X3X3X3X3X3X3X3X2X3X2X2X2X2X2X2X2X2X2X,X,X,X,X2X[.[.[.[.[.[.[.[.[.[.[.].].].].].].].].].'.'.'.'.'.).).).).).).).P.P.P.L.L.L.P.P.P.L.J.K.B.l.%.{ ' | ..| | *.*.l.l.x.x.k.G.KX;X$.$.[ P i u 0 5 = # o X o # # & > , 6 e C D Q X.#.$.JXNX} @.{ Y S C h 6 3 = # o o               X X X o # $ 9 e l S I Q %.[ ^.KXpX_ { | I Z z q 3 ; & # o             O ",
"O             X o & = 4 h l Z D | X.[ ~.KX;X[ %.| W Z l q 3 = & # o X                 X o # $ : 6 i C S T X.@.B gXLXz.k.%.Q P C e 6 4 3 = # o X o o $ = 3 7 6 i Z D ' ' !.GX/.k.k.x.x.x.x.x.l.&.@.{ #.z.J.P.P.J.K.K.K.K.K.K.P.P.T.T.T.T.T.T.T.T.T.T.T.'.'.'.'.'.{.{.{.'.{.{.{.{.[.[.[.[.[.,X,X,X,X,X,X,X,X,X,X,X,X,X,X,X,X,X,X,X,X,X,X,X3X3X3X3X3X3X3X3X3X3X3X3X3X3X3X3X3X3X3X3X3X3X3X3X3X3X3X3X3X3X3X3X3X3X3X3X2X2X2X2X2X2X,X,X,X,X,X,X,X,X,X[.[.[.[.[.[.[.[.[.[.].[.[.[.].].].'.'.'.'.).).).).).).).).P.P.P.P.P.L.P.P.P.P.L.J.K.K.B.v.%.X.o.X.X.%.&.l.x.x.x.x.k.z.GXwX[ $.' S i u 5 7 ; % X X o # # # > , 8 e C D Q X.#.$.JXNX} @.{ Y S C h 6 3 = # o o X             X X o o # $ 9 e k S I Q %.[ ^.KXpX_ { | I Z C e 3 ; & # o X           O ",
"O             X o & = 4 h l Z D | X.[ ~.KX;X[ %.| W Z l q 3 : & # o X                 X o # $ : 6 i C S T X.{ B gXLXz.k.%.Q P C e 6 4 3 $ # o X o o $ = 1 3 6 0 k D Y Y !.KX/.` ` $.k.k.k.k.@.@.{ [ #.N.P.J.J.P.K.K.K.K.K.K.P.P.T.T.T.T.T.T.T.T.T.T.T.T.'.'.'.'.{.{.{.'.{.{.{.{.{.[.[.[.[.,X,X,X,X,X,X,X,X,X,X,X,X,X,X,X,X,X,X,X,X,X3X,X3X3X3X3X3X3X3X3X3X3X3X3X3X3X3X3X3X3X3X3X3X3X3X3X3X3X3X3X3X3X3X3X3X3X3X3X2X2X2X2X2X2X,X,X,X,X,X,X,X,X,X[.[.[.[.[.[.[.[.[.[.[.].[.[.[.].'.'.'.'.'.).).).).).).).).P.P.P.P.P.P.P.J.J.J.J.J.J.P.J.x.#.@.O.} } } } $.$.#.k.k.` z.GXwX_ [ Y C i u 5 1 $ # X X o # # # > , 8 t C D Q X.#.$.JXNX} @.{ Y S C h 6 3 = # o o X             X X o o # $ 9 e k S I Q %.[ ^.KXpX_ { | I Z C e 3 ; & # o X           O ",
"O             X o & = 4 h k C D | X.[ ~.KX;X[ %.| W Z h 6 3 = & # o o                 X o # $ : 6 i C S T X.@.B gXLXz.k.%.Q P C h 6 3 3 $ # o X X o # $ : 3 6 6 w B B B W.JXDXMXAXAXAXSXSXSXSXPXCXVXE.N.J.P.P.J.K.K.B.K.K.K.P.P.P.T.T.T.T.T.T.T.T.T.T.T.'.'.'.'.'.'.'.{.{.{.{.{.{.{.{.{.[.[.,X,X,X,X,X,X,X,X,X,X,X,X,X,X,X,X,X,X,X,X,X,X3X3X3X3X,X3X3X3X3X3X3X3X3X3X3X3X3X3X3X3X3X3X3X3X3X3X3X3X2X2X2X2X6X6X,X,X,X,X,X,X,X,X,X,X,X,X,X,X,X[.,X,X[.[.[.[.[.[.{.[.[.].].].[.[.'.].'.'.'.'.'.'.).).).).).P.P.P.P.P.L.L.L.L.J.J.J.J.L.c.c.c.wXHXPXNXSXSXSXAXSXSXSXNXNXZXKX;XB } P C i u 2 1 $ o X X o # # & > > 8 e C D Q X.#.$.JXAX} @.{ Y S C h 6 3 = # o o X             X X X o # $ 9 e l S I T %.[ ^.KXaX[ @.| W Z l q 3 ; & # o X   X       O ",
"O             X o & = 4 h l C D | X.[ ~.KX;X[ %.| W Z h 6 3 = & # o o                 X o # $ : 6 i C S T X.@.B gXLXz.k.%.W P C e 6 3 3 $ # o X X o # $ = 3 3 6 r V B B g.NXSXJXSXDXDXSXDXJXJXPXFXxXG.N.J.P.J.K.K.B.B.B.K.K.P.P.P.T.T.T.T.T.T.T.T.T.T.T.T.'.'.'.'.'.'.'.{.{.'.{.{.{.{.{.[.[.[.[.[.[.[.,X,X,X,X,X,X,X,X,X,X,X,X,X,X,X,X,X,X,X,X,X3X3X3X3X3X3X3X3X6X3X3X3X3X3X6X6X3X3X3X3X6X6X6X3X2X2X2X2X2X2X,X,X,X,X,X,X,X,X,X,X,X,X,X,X[.[.[.[.[.[.[.[.[.[.[.[.[.].].[.'.'.'.'.'.'.'.'.'.'.).).).P.P.P.P.P.P.P.L.P.P.J.J.J.J.J.c.c.c.` F.NXPXSXDXDXDXDXDXDXJXDXPXZXZX^.N B N w i 2 2 = $ o X X X # # & > > 8 e C S Q X.#.$.JXAX} @.{ Y S C h 6 3 = # o o X             X X X o # $ 9 e l S I T %.[ ^.KXaX[ @.| W Z l q 3 ; & # o X   X       O ",
"O             X o & = 4 h k C D | X.[ ~.KX;X[ %.| W Z h q 3 = & # o X                 X o # $ : 6 i C S T X.@.B gXLXz.k.o.W P C e 6 3 ; $ # o X X X # $ $ 3 3 5 Z I P N N -._ ` B _ _ _ _ -._ B N =.=.N.N.K.J.K.K.B.B.B.K.K.P.P.K.K.K.K.T.T.T.T.T.T.T.T.T.T.T.T.'.'.'.'.'.'.'.'.'.'.{.{.{.[.[.[.[.[.[.[.[.[.[.,X,X,X,X,X,X,X,X,X,X,X>X,X,X,X,X,X,X,X,X,X,X2X3X2X2X2X2X2X2X2X2X2X2X2X3X2X3X3X2X2X2X2X2X2X2X2X2X2X2X2X2X2X2X2X|.2X,X,X[.[.[.[.[.[.[.[.[.[.[.[.[.[.].].].'.].'.'.'.'.'.'.'.).).).).).P.P.P.P.P.P.P.L.J.J.J.J.J.J.J.J.c.c.N.z.=.B _ } -._ _ _ _ ` _ _ B -.E N N G k 5 2 = & $ o o X X # # $ > , 8 e C S Q X.#.$.JXAX} @.{ Y S C h 6 3 = # o o X             X X X o % ; 9 e l S I T %.[ ^.KXaX[ @.| W Z z q 3 ; & # o X           O ",
"O             X o & = 4 h k C D | X.[ ~.KX;X[ %.| W Z h q 3 = & # o X                 X o # $ : 4 i C S T X.@.B gXLXz.k.o.W P N e 6 3 ; $ # o X X X # # $ = = 2 z z C I I S } } } } $.$.$.@.#.@.z.G.G.N.l.K.K.K.B.B.B.B.K.K.K.K.K.K.K.K.K.K.T.T.T.T.T.T.T.T.T.T.T.T.T.'.'.'.'.'.'.'.'.'.'.'.[.[.[.[.[.[.[.[.[.[.[.[.[.[.[.[.,X,X,X,X,X,X,X,X,X,X,X,X,X,X,X,X,X,X2X2X2X2X2X2X2X2X2X2X2X2X2X2X2X2X2X2X2X2X2X2X2X,X2X2X2X|.|.|.|.|.[.[.[.[.[.[.[.[.[.[.[.].[.[.].].].].].'.'.'.'.'.'.'.'.).).).).).).P.P.P.P.P.L.L.J.J.J.J.J.J.J.J.J.N.m.N.n.l.&.$.[ @.#.$.#.#.#.@.B N N E N N N 7 2 = = & # o o X X # # & > , 8 e C D Q X.#.$.JXNX} @.{ Y S C h 6 3 = # o o X             X X X o % ; 9 e l S I Q %.[ ^.KXaX[ @.| W Z z q 3 ; & # o X           O ",
"O             X o & = 4 h l Z D | X.[ ~.KX;X[ %.| W C l q 3 = & # o X                 X o # $ : 6 i C S T { @.B gXLXz.k.o.T P N e 6 3 ; $ # o X X X # # # $ = 1 z k w D W D | X.' T @.&.@.[ #.l.G.z.n.E.K.E.N.N.B.B.B.K.K.K.K.K.K.K.K.K.K.K.P.P.T.T.T.T.T.T.T.T.T.T.T.T.T.T.'.'.'.'.'.'.'.'.'.'.[.[.[.[.[.[.[.[.[.[.[.[.[.[.[.[.[.,X,X,X[.,X,X,X,X,X,X,X,X,X,X2X2X2X2X2X2X2X2X2X2X2X2X2X2X2X2X2X,X2X2X|.|.|.|.|.|.|.[.[.|.[.|.[.[.[.[.[.[.[.[.].].].].].].].].].].].].'.'.'.'.).).).).).).).).).P.P.P.L.L.P.L.L.J.J.J.J.J.J.J.J.x.K.B.N.N.N.N.%.[ @.@.#.%.@.@.[ ] ~ N S N w l 7 1 = & # o o o o X o # # > , 8 e C D Q X.$.-.JXAX} @.{ Y S C h 6 3 = # o X               X X o o # $ 9 e l S I Q %.[ ^.KXaX[ @.| I Z z q 3 ; & # o X           O ",
"O             X o & = 4 h l Z D | X.[ ~.KX;X[ %.| W Z l q 3 = & # o X                 X o # $ ; 6 i C S T | @.B gXLXz.k.o.T P N e 6 3 ; $ # o X X X o # # # $ = 1 5 k Z Z w P N I P [ &.X.[ *.N.N.N.N.N.N.N.N.E.B.B.K.B.J.J.K.K.K.K.K.K.K.K.K.P.P.P.P.P.T.T.T.T.T.T.T.T.T.T.'.'.'.'.'.'.'.'.'.'.'.[.[.[.[.[.[.[.[.[.[.[.[.[.[.[.[.[.[.[.[.[.[.[.[.[.[.[.[.[.[.[.|.|.|.|.|.|.|.|.[.[.[.[.|.|.|.|.[.[.[.[.|.|.[.[.[.[.[.[.[.[.[.[.[.[.[.[.[.].].].].].].].].].].'.].].].'.'.).).).).).).).).).).P.P.P.L.P.P.L.L.J.J.J.J.J.J.J.J.J.K.N.N.N.N.l.n.n.@.{ [ { | ' ' T w C N N N w 0 y 1 $ # o o o o o o o # # > , 8 e C S Q X.@.-.JXAX} @.{ Y S C h 6 3 = # o X               X X o o # $ 9 e l S I Q %.[ ^.KXaX_ @.| I Z z q 3 ; & # o X           O ",
"O             X o & = 4 h l Z D | X.[ ~.KX;X[ %.| W Z l 6 3 : & # o X                 X o # = : 6 i C S T { @.B gXLXz.k.%.T P N t 8 3 ; $ # o X X X o o # # # $ % $ 1 2 2 w C U w C P Y P R =.N.N.J.J.N.N.K.K.N.K.K.K.K.B.B.N.B.K.K.K.K.K.K.K.K.K.P.P.P.P.P.T.T.P.P.P.P.T.T.T.T.T.'.'.'.'.'.'.'.'.'.'.'.'.'.[.[.[.'.[.[.[.[.[.[.[.[.[.[.[.[.[.[.[.[.[.[.|.[.|.|.[.[.[.[.|.|.[.[.[.[.[.[.|.|.|.|.[.[.[.[.[.[.[.[.[.[.[.].[.[.[.[.[.[.[.[.].].].].].].].].]._.).).].].].].).).).).).).).(.).(.(.P.L.L.L.P.P.L.L.J.J.J.J.J.J.J.J.N.c.N.J.x.N.N.N.G.{ Y N S S Z k k Z Z S w r 7 1 1 $ # o o o o # o o o # # > , 8 e C S Q X.@.-.JXNX} @.{ Y S C h 6 3 = # o X               X X X o # $ 9 e k S I Q %.[ ^.KXaX[ @.| W Z z q 3 ; & # o X           O ",
"O             X o & = 4 h l C D | X.[ ~.KX;X[ %.| W Z l q 3 : = # o X                 X o # $ : 4 i C S T { @.B gXLXz.k.%.T P N t 8 3 ; $ # o X X X X o o # # # % % $ 3 1 c r w 0 l F N N +.G.N.N.N.N.N.G.n.N.B.B.J.J.B.B.N.N.N.J.K.K.K.K.K.K.K.K.P.P.P.P.P.P.P.P.P.P.P.P.P.T.T.T.T.'.'.'.'.'.'.'.'.'.'.'.'.'.'.'.'.'.'.[.[.[.[.].].].[.].].[.[.[.[.[.[.[.[.|.|.[.[.[.[.[.[.[.[.[.[.[.[.[.[.[.[.[.[.[.[.[.[.].].].].].].[.].[.].].].].].].].].].].]._._._._._._._._._.).).).).).).).(.(.(.L.L.L.L.P.L.L.L.L.J.J.J.J.J.J.J.N.N.N.J.x.J.x.N.z.z.n.=.] S C l z i a 5 0 C 0 0 6 $ $ # # o X X o o o o o # $ > , 9 q C S Q X.#.$.JXAX} @.{ Y S C h 6 3 = # o X                   o o # $ 3 q l S I | %.[ ^.KXaX[ @.| W Z z q 3 ; & # o X           O ",
"O       X     X o & = 4 h l C D | %.[ ~.KX;X[ @.| W Z l q 6 3 = # o o                 X o # $ : 4 i C S Y ' { Y gXLXz.k.%.T P C q 8 6 ; $ # o o X       X X o o $ $ # > = 3 7 7 1 c 6 r ^ f.N.N.N.N.N.N.N.N.N.N.N.N.B.B.N.N.N.N.J.J.K.K.J.J.K.K.K.K.P.P.P.P.P.P.P.P.P.P.P.P.P.P.P.P.P.).).).).).'.'.'.'.).).'.'.'.'.'.'.'.'.'.'.].'.].].].].].].].].].].].].].].].].].].].].].].].].].].].].].].].].].].].].].].].].].].].].].].].].]._.]._._._._._._._._._._._._._._.).).).).).).).(.L.L.L.L.L.L.L.L.L.J.J.J.J.J.J.J.J.N.N.N.N.N.N.x.x.x.z.n.z.z.O.R N r 6 9 , 4 5 5 7 1 = $ $ o o       X o o o o # % > ; 6 q l S | %.&.$.JXAX_ #.{ Y S C h 6 : = # o X       X           o # % 3 3 6 l Z I | %.[ ^.KXaX_ @.| W Z C e 3 ; & # o X           O ",
"O       X     X o # = 4 h l C D | %.[ ~.KX;X[ @.| W Z l q 9 3 = # o o                 X o # $ : 4 i C S Y { { Y gXJXz.k.%.T P C q 6 6 : $ # o X           X X o # # o o > = 3 3 3 3 1 e +.f.N.N.N.n.N.N.N.N.N.N.N.N.N.N.N.N.N.N.J.J.J.J.J.J.K.K.J.K.P.P.P.P.P.P.P.P.P.P.P.P.P.P.P.P.P.P.).).P.P.).).).).).).).).).).).).'.'.'.'.].].'.].'.].'.'.].].].].].].].].].].].].].].].].].].].].].].].].].].].].].].].].].].].].].].].]._._._._._._._._._._._._._._._.).).).).).).(.).(.(.L.L.L.L.L.L.L.L.L.L.J.J.J.J.J.J.J.J.N.N.N.N.N.N.x.x.z.N.N.N.n.n.=...N 7 3 , , ; 3 1 = $ $ $ o o         X X o . . % % = ; 6 q e S ' %.k.$.JXAX_ #.{ Y S l h 6 : = # o X       X           o % $ 3 3 6 h C T | %.[ ^.KXaX_ @.| I Z C e 3 ; = # o X           O ",
"O       X     X o # = 4 h l C D | X.[ ~.KX;X[ %.| W Z l q 9 3 = # o X                 X o # $ : 4 i C S Y } { Y gXJXz.k.%.Y P C q 6 6 : $ o o X             X o o o o # $ $ = ; 3 $ 5 ^ ;.n.n.z.N.n.n.n.N.N.N.N.N.N.N.N.N.N.N.N.N.N.J.J.J.J.J.J.J.J.K.K.K.J.L.L.L.P.P.P.P.P.P.P.P.P.P.P.).P.).).).).).).).).).).).).).).)._.).).].].].].].].].].].].].].].].].].].].].].].].].].].].].].].].].].].].].].].].].].].].].].].].]._._._._._._._._._._._._._._._.).).).).).).).(.(.(.(.P.L.L.L.L.L.L.L.J.J.J.J.J.J.J.J.J.J.N.N.N.N.N.x.z.z.z.N.N.n.n.n.n.=.G r y ; # = $ $ $ $ # # o X         X X X . . o # = ; 6 q e S ' %.k.$.JXAX_ #.{ Y S l h 6 : = # o X X     X           o # $ 3 9 8 h C T | %.[ ^.KXaX_ @.| I Z C e 3 ; = # o X           O ",
"O       X     X o # = 4 h l C D | X.[ ~.KX;X[ %.| W Z l q 9 3 = # o X                 X o # $ : 4 i C S Y ' { Y gXJXz.k.%.Y P C q 8 6 : $ # o X             X       o # # # # $ $ y H ;.u.z.n.z.n.n.n.n.N.N.N.N.N.N.N.N.N.N.N.N.N.N.N.J.J.J.J.J.J.K.J.J.K.J.K.L.P.L.P.P.P.P.P.P.P.P.P.P.P.).).).).).).).).).).).).).)._.).).).)._._._._._._._._.]._.]._.]._.].]._._._._.]._.]._.]._.]._.]._.].]._.]._._._._._._._._._._._._._._._._._._._._._._._._._._._.).).).).(.).(.(.(.(.L.L.L.L.L.L.L.L.L.J.J.J.J.J.J.J.J.J.N.N.N.x.x.N.N.N.N.z.z.x.z.n.n.z.z.=.~ w y # $ # # # # # # o X X           X   . . o % = ; 6 q e S ' %.k.$.JXAX} #.{ Y S l h 6 : = # o X X     X           o # $ y 9 8 l C T | %.[ ^.KXaX_ @.| I Z C e 3 ; = # o X           O ",
"O       X     X o & = 4 h l C D | X.[ ~.KX;X[ %.| W C l q 9 3 = # o X                 X o # $ : 4 i C S Y ' X.Y gXJXz.k.%.Y P C q 8 6 : $ o X X                     o o o o X X o 7 ;.F.z.z.n.n.n.n.n.n.n.n.n.N.N.N.N.N.N.N.N.N.N.N.J.J.J.J.J.J.J.J.J.J.J.J.J.J.L.L.P.P.P.P.P.P.P.P.P.P.P.).).).).).).).).).).).).)._._.)._._._._._._._._._._._._._._._._._._._._._._._._._._._._._._._._._._._._._._._._._._._._._._._._._._._._._._._._._._._._._.).).).).).).(.(.(.(.(.(.(.L.L.L.L.L.L.L.L.J.J.J.J.J.J.J.J.J.N.N.N.N.N.N.x.N.x.z.z.z.z.z.z.z.z.=.=.;.K y % $ o o o o X X X X X           X   . o % % = ; 6 q e S ' &.k.$.JXAX} #.{ Y S l h 6 : = # X X X     X           o % $ 3 3 8 h Z I | %.[ ^.KXaX_ @.X.I Z C e 3 ; = # o X           O ",
"O       X     o o & = 4 h l C D | %.[ ~.KX;X[ %.| W Z l q 9 3 = # o X                 X o # $ : 4 i l S Y ' X.Y gXJXz.k.%.Y P C q 8 6 : # o X                       X X o X   X $ K f.G.z.z.n.u.n.n.n.n.n.n.n.n.N.N.N.N.N.N.N.N.N.N.N.J.N.J.J.J.J.J.J.J.J.J.J.J.J.J.L.L.P.L.P.L.L.L.L.L.P.P.).).).).).).).).).).).).)._.).).).)._._._._._._._._._._._._._._._._._._._._._._._._._._._._._._._._._._._._._._._._._._._._._._._._._._._._._._._._._.).).).).(.`.(.(.(.(.(.(.L.L.L.L.L.L.L.L.J.J.J.J.J.J.J.J.J.N.N.N.N.N.N.z.z.x.z.z.z.z.z.z.z.z.z.z.=.=.;./ r y % X             X X X X           . o % % = ; 6 q e S ' %.k.$.JXAX} #.{ Y S l h 6 : = # X X X     X           o % $ y 9 8 h Z I ' &.[ ^.KXaX_ @.X.I Z C e 3 ; = # o X           O ",
"O       X     X o + = 4 h l C D | %.[ ~.KX;X[ %.| W C l q 9 3 = # o X                 X o # $ : 9 i C S Y ' X.Y IXJXz.k.%.Y P C q 9 6 ; $ o X                         X X X X o v ;.G.z.z.n.u.u.z.z.z.z.z.n.n.n.n.n.N.N.N.N.N.N.N.N.N.N.N.N.N.J.J.J.J.J.J.J.J.J.J.J.J.J.L.L.L.L.L.L.L.L.L.L.L.L.L.L.).).).).).).).).).).).).).).).)._._._._._._._._._._._._._._._._._._._._._._._._._._._._._._._._._._._._._._._._._._._._._._.`.`._._._._.).`.).`.`.(.(.(.(.(.(.(.(.L.L.L.L.L.L.L.L.L.J.J.J.J.J.J.J.J.J.N.N.N.N.N.N.z.z.z.z.z.z.z.z.z.z.z.z.z.z.=.=.=.;.~ r $ X               X X X X         . o % % = ; 6 q l S ' %.k.$.JXAX_ #.{ Y S l h 8 : = # X X X     X           o % $ 3 3 6 h Z I | &.[ ^.KXaX_ @.X.I Z C e 3 ; = # o X           O ",
"O       X     X o + = 4 h l C D | %.[ ~.KX;X[ %.| W C l q 9 3 = # o X                 X o # $ : 9 i l D Y ' X.Y IXJXz.k.%.Y P C q 9 6 ; $ o X                               # $ ) f.n.=.n.n.u.u.z.z.z.z.z.n.n.n.n.n.N.N.n.N.N.N.N.N.N.N.N.N.N.N.J.J.J.J.J.J.J.J.J.J.J.J.J.L.L.L.L.L.L.L.L.L.L.L.L.L.L.).).).).).).).).).).).).).).)._.)._.)._._._._._._._._._._._._._._._._._._._._._._._._._._._._._._._._._.`._._._.`._.`._._._._._._.`.).`.(.`.(.(.(.(.(.(.(.(.L.L.L.L.L.L.L.L.L.L.J.J.J.J.J.J.J.J.N.N.N.N.N.N.N.z.z.z.z.z.z.z.z.z.z.z.z.z.z.z.=.=.=.;.;.F y o               X X X X         . o % % = ; 6 e l S ' %.k.$.JXAX_ #.{ Y S l h 8 : = # X X X     X           o % $ 3 3 6 l Z I | %.[ ^.KXaX_ @.X.I Z C e 3 ; = # o X           O ",
"O             X o & = 4 h l C D | %.[ ~.KX;X[ %.| W Z l q 9 3 = # o o                 X o # $ : : i z S Y ' { Y IXJXz.k.%.Q P C q 9 3 ; $ o X                   o X   O O   % ) ;.;.n.n.n.u.u.=.=.=.z.z.n.n.n.n.n.n.z.n.n.n.n.N.N.N.N.N.N.N.N.N.N.N.N.J.J.J.J.J.J.J.J.J.J.J.J.J.L.L.L.L.L.L.L.L.L.L.L.(.L.L.).).).).).).).).).).).).).).).).).)._._._._._._._.`._._._._._._._._.`.`._.`._.`._._._._._._._._._._.`.`.`.`.`.`.`.`.).).).`.`.`.`.(.(.(.(.(.(.(.(.L.L.L.L.L.L.L.L.J.J.J.J.J.c.c.c.c.J.N.N.N.N.N.x.x.N.N.n.z.z.z.z.z.z.z.z.z.=.=.z.z.=.=.=.O.=.;.~ A o                 X X X X       . o % $ = : 6 e l S X.&.k.$.JXAX} #.{ Y S l h 8 : = # X X       X           o % $ 3 3 6 l Z T | %.[ ^.KXpX_ @.| I D C q 3 ; = # o X           O ",
"O             X o & = 4 h l C D | %.[ ~.KX;X[ %.| W Z l q 9 3 = # o o                 X o # $ : 4 i l S Y ' X.Y IXJXz.k.%.Q P H c 8 6 : $ # o X                 X X   O   o v ;.;.u.=.=.u.u.=.=.=.=.=.=.z.n.n.n.n.n.z.z.n.n.n.n.N.N.N.N.N.N.N.N.N.N.N.N.J.N.N.J.J.J.J.J.J.J.J.J.J.L.L.L.L.L.L.L.L.L.L.L.L.L.(.(.).).).).).).).).(.).).).).).).).).)._._.).)._.`._._._._._._.`.`.`.`._.`.`.`.`._._._._._._._.`.`.`.`.`.`.`.`.`.`.).).(.(.`.(.(.(.(.(.(.(.(.L.L.L.L.L.L.L.L.J.J.J.J.J.J.J.c.c.c.J.N.N.N.N.N.N.x.x.N.n.z.z.z.z.z.z.z.z.z.z.=.=.=.=.=.=.=.=.=.+.+.^ 1 o X             X X X X       . o % $ ; 3 6 e A S | &.k.$.JXAX} #.{ Y S l h 8 : = # X X       X           o % $ 3 3 6 l Z T | %.[ ^.KXpX_ @.| I Z C q 3 ; = # o X           O ",
"O       X     X o & = 4 h l C D | %.[ ~.KX;X[ %.| W Z l q 9 3 = # o X                 X o # $ : 4 i C S Y { X.Y IXJXz.k.%.Q P C c 8 6 : $ # o X                 X X o     6 ) ;.=.=.=.=.=.=.u.u.=.=.=.=.=.=.n.z.z.z.n.n.n.n.z.n.n.n.n.N.N.N.N.N.N.N.N.N.N.N.N.N.J.J.J.J.J.J.J.J.J.J.L.L.L.L.L.L.L.L.L.L.L.L.L.(.L.L.).).).).).).).).).).).).).).).).).).).).).).).).).).).)._._._._.`.`.`.`.`.`.`._._._.`.`.`.`.`.`.(.(.`.(.(.(.).).(.(.(.(.(.(.(.(.L.L.L.L.L.L.L.L.L.L.J.J.J.J.J.J.J.J.J.c.N.N.N.N.N.N.N.N.z.x.n.n.n.n.z.z.z.z.z.z.z.=.=.=.=.=.=.=.=.=.O.+.+.+.l y o X O         X X X X       . o # $ ; 4 6 h N S | &.k.$.JXAX} #.{ Y S l h 8 : = # X X       X           o % $ y 3 6 l Z I | &.[ ^.KXpX_ @.X.I Z C e 3 ; = # o X           O ",
"O       X     X o & = 4 h l C D | %.[ ~.KX;X[ %.| W Z l q 9 3 = # o X                 X o # $ : 4 i C S Y { X.Y IXJXz.k.%.Q P G v 8 6 3 $ # # o X X X   X     X X X X   # K ;.=.=.=.=.=.+.=.=.u.=.=.=.=.=.=.=.z.z.z.n.n.n.z.n.n.z.n.n.n.n.n.N.N.N.N.N.N.N.N.N.N.J.J.J.J.J.J.J.J.J.J.J.J.J.L.L.L.L.L.L.L.L.L.L.L.L.L.L.L.L.L.).).(.(.).(.).).).(.(.).).).).).).).).).).).).).).).`.`.`.`._._._._.`.`.`.`.`.`.`.(.).(.).(.(.(.(.(.(.(.(.(.(.(.(.(.L.L.L.L.L.L.L.L.L.L.L.J.J.J.J.J.J.J.J.J.N.N.N.N.N.N.N.N.N.N.x.z.n.n.n.z.z.z.z.z.z.z.=.=.=.=.=.=.=.=.=.=.-.O.+.+.^ e $ o           X X X o X   . . o $ $ ; 4 6 l A S X.&.k.$.JXAX} #.{ Y S l h 8 : = # X X       X           o % $ y 3 6 l Z I | &.[ ^.KXpX_ @.X.I Z C q 3 ; = # o X           O ",
"O       X     X o # = 4 h l C P | %.[ ~.KX;X[ %.| W C l q 9 3 = # o X                 X o # = : 4 i C S Y { { Y gXJXz.k.%.Q P F v 8 6 3 $ # # o X X X X X   X X X o X X v ) +.=.=.=.=.+.+.=.=.u.=.=.=.=.=.=.=.=.z.z.n.n.n.n.n.n.n.n.n.n.n.N.N.N.N.N.N.N.N.N.N.N.N.N.N.J.N.J.J.J.J.J.J.J.J.J.J.J.L.L.L.L.L.L.L.L.L.L.L.L.L.P.P.P.(.(.(.(.(.(.(.(.(.(.).).(.).).).).).).).).).).).`.`.).).).)._._._.)._.).`.`.`.(.).).).(.(.(.(.(.(.(.(.(.L.L.L.L.L.L.L.L.L.L.L.L.L.J.J.J.J.J.J.J.J.J.N.N.N.N.N.N.N.N.N.N.N.n.n.n.z.z.z.z.z.z.z.z.z.z.=.=.=.=.=.=.=.=.=.=.=.+.+.+.+.^ r %     O     X X X o o o . . o % $ ; 4 i v N P X.&.k.$.JXAX} #.{ Y S l h 8 : = # X X       X           o # $ 3 9 6 l C I | &.[ ^.KXpX_ @.X.I Z C q 3 ; = # o             O ",
"O       X     X o # = 4 h l C D | %.[ ~.KX;X[ %.| W Z l q 9 3 = # o X                 X o # = : 4 i C S Y { { Y IXJXz.k.%.Q P G v c 6 4 ; $ # # o X X X X X X     X X 7 ;.;.+.=.=.=.=.=.=.=.=.=.=.=.=.=.=.=.=.=.=.z.n.n.n.n.n.n.n.n.n.n.n.n.n.n.N.N.N.N.N.N.N.N.N.N.N.N.N.N.N.J.J.J.J.J.J.J.J.J.J.J.L.L.L.L.L.L.L.L.L.L.L.L.P.P.(.(.(.(.(.(.(.(.(.(.(.(.(.(.(.(.).).).).).).).).).).).).).).).`.).).).).`.(.(.(.).(.(.(.(.(.(.(.(.(.(.L.L.L.L.L.L.L.L.L.L.J.L.J.J.J.J.J.J.J.J.J.N.N.N.N.N.N.N.N.N.N.N.N.n.n.z.z.z.z.z.z.z.=.=.=.z.z.=.=.=.=.=.=.=.=.O.=.=.O.....+.+.A $ X   O     X X o o o o . o o % $ ; 4 c v A P X.&.k.$.JXAX} #.{ Y S l h 8 : = # X X       X           o # $ 3 9 8 l C I | %.[ ^.KXaX_ @.X.I Z C q 3 ; = # o             O ",
"O       X     X o # = 4 h l C D | X.[ ~.KX;X[ %.| W C l q 9 3 = # o X                 X o # = : 4 i C S Y { { Y IXJXz.k.%.| P G v c t 6 3 = $ # o o o o o o o X     y ~ ;.=.+.=.+.+.+.=.=.=.+.;.=.=.=.=.=.=.u.u.=.=.z.u.n.n.n.n.n.n.n.n.n.n.n.n.n.n.N.N.N.N.N.N.N.N.N.N.N.N.N.N.J.J.J.J.J.J.J.J.J.J.J.J.J.L.L.L.L.L.L.L.P.L.L.L.(.P.(.(.(.(.(.(.(.(.(.(.(.(.).(.(.(.).(.(.).).).).).).).).).).).).).).).).).(.(.(.(.(.(.(.P.(.P.L.L.L.L.L.L.L.L.L.L.L.L.J.J.J.J.J.J.J.J.J.J.J.J.J.N.N.N.N.N.x.x.N.N.N.N.z.z.z.z.z.z.z.z.z.=.=.=.z.=.=.=.=.+.+.+.=.-.-.O.O.O.O.O.O.+.~ 0 #         X o o # # o o o # $ y 3 9 c v A E X.&.k.$.JXAX} #.{ Y S l h 8 : = # o X X     X           o # $ 3 9 8 h Z I | %.[ ^.KXaX_ @.| I Z C q 3 ; = # o X           O ",
"O       X     X o # = 4 h l C D | X.[ ~.KX;X[ %.| W C l q 9 3 = # o X                   o # = ; 4 i l S Y ' @.B IXJXz.k.*.| P G K v c 6 6 3 = $ $ $ # # # # # # o # K ;.+.O.=.+.+.+.+.=.=.+.+.+.=.=.=.=.=.=.u.u.=.=.=.=.u.u.z.z.z.z.n.n.n.n.n.n.n.n.N.N.N.N.N.N.N.N.N.N.N.N.N.N.N.J.J.J.J.J.J.J.J.J.J.J.J.J.J.L.L.L.L.L.P.P.P.L.L.P.P.P.P.P.P.P.(.(.(.(.).).).).(.(.(.(.).(.(.(.).).).).).).).).(.).).(.).(.(.(.(.P.(.P.P.L.P.L.L.L.L.L.L.L.L.L.L.L.L.J.J.J.J.J.J.J.J.J.J.J.J.J.N.N.N.N.N.x.x.x.N.N.N.z.z.z.z.z.z.z.z.=.=.=.=.=.=.=.=.=.O.+.+.+.=.-.O.=.+.....=.O.+./ K 6 o   O o o # # # # + + + & 3 3 9 8 v v K U X.l.k.$.JXAX[ #.{ Y S C h 8 : = # o X X     X           o # % 3 9 8 l C I ' %.[ ^.KXpX_ @.X.I Z C q 3 ; & # o X           O ",
"              X o # = 6 q l C D | %.[ ~.KX;X[ %.| W Z l q 9 3 = # o X                   o # = : 4 6 l S P } $._ mXLXz.k.&.{ U K v v v c 6 4 3 1 $ : : = = = - = 1 K ) ;.+.+.+.+.+.+.=.=.=.=.=.+.=.=.=.=.=.=.=.=.=.=.=.=.u.u.u.u.n.n.n.n.n.n.n.n.n.n.n.n.n.n.n.n.N.N.N.N.N.N.N.N.N.N.J.J.J.J.J.J.J.J.J.J.J.J.J.J.L.L.I.L.P.L.L.P.P.P.P.P.P.P.P.P.P.P.P.P.).).).).).(.).(.).).).).).(.).).).).).(.(.(.(.(.(.P.P.(.(.P.P.P.P.P.P.P.P.L.P.I.I.I.L.L.J.J.J.J.J.J.J.J.J.J.J.J.J.J.N.N.N.N.N.N.N.N.N.n.z.z.z.z.z.z.z.z.z.z.z.=.=.=.=.=.=.=.=.=.=.+.+.O.+.+.O.O.O.O.......~ / / K 1 $ $ % % $ $ # > > > ; : 6 8 8 t v v K R %.l.l.$.JXNX} &.@.' S A c 8 ; = # o X X                 o # $ ; 6 q l S P ' @.[ ^.KXpX_ @.X.I D C e 3 ; & # o X           O ",
"              X o # = 3 q l Z D | X.[ ~.KX;X[ %.| W C l q 9 3 = # X X                   X # = = 3 6 C D I } $._ mXLXz.k.k.&.U K K v v c c q 6 6 3 6 4 2 2 4 2 2 k ^ ;.+.+.+.+.+.+.+.+.=.=.=.=.=.=.=.=.=.=.=.=.=.=.=.=.=.u.u.u.u.u.u.n.n.n.n.n.n.n.n.n.n.n.n.n.n.N.N.N.N.N.N.N.N.N.N.N.N.N.B.J.J.J.J.J.J.J.J.J.J.I.I.I.P.P.P.P.P.P.P.P.P.P.P.P.P.P.P.P.P.P.P.P.P.).P.).P.).).).).).P.).P.).).).).).(.).P.P.P.P.P.P.P.P.P.P.P.P.P.I.I.I.I.I.I.L.J.J.J.J.J.J.J.J.J.J.J.J.J.J.N.N.N.m.N.N.N.N.N.m.v.n.z.z.z.z.z.z.z.z.=.=.=.=.=.=.=.=.=.=.=.=.O.+.O.+.+.O.O.O.......+.~ ~ / L e 7 y 3 3 ; ; > > > : 4 6 i f c v n K L ! t.l.l.$.LXNX[ #.@.' P A h 8 ; = # o X X             o   o o $ ; 6 e C S P T @.[ ^.KXpX` @.X.I D C e 3 , $ # o X           O ",
"              X o # ; 3 q l Z D | X.[ ~.KX;X[ %.| W Z l q 9 3 = # o X                   X # = ; 9 e F P Y { k.` mXLXz.k.x.l.../ L L K K v c t t t 8 8 8 8 6 3 6 ^ +./ / / +.+.+.+.+.+.+.=.=.+.+.=.=.=.=.=.=.r.r.=.=.u.u.u.u.u.u.u.u.u.u.n.n.n.n.n.n.n.n.n.n.n.n.N.N.N.N.V.V.N.N.B.B.B.B.N.B.B.J.J.J.K.K.K.K.K.J.K.K.K.K.P.K.K.P.P.P.P.P.P.P.P.P.P.P.P.P.P.P.P.P.P.P.P.P.).P.).P.).P.P.P.).P.).P.P.P.P.P.P.P.P.P.P.P.P.P.P.P.P.P.P.P.P.I.I.L.L.L.I.J.J.J.J.J.J.J.J.J.J.J.J.N.N.N.m.N.N.N.m.N.v.v.n.n.n.n.n.z.z.z.z.=.=.=.=.=.=.=.=.=.=.=.O.O.+.O.+.O.O.O.........+./ ~ ^ ^ K e 7 q 6 6 6 6 6 8 f i j v v K K L L / +.v.v.l.$.LXNX[ k.@.' P C h 6 : = # X X               o   o o $ ; 6 e C S I T @.[ ^.KXpX` @.X.I D C e 3 , $ # o X           O ",
"              X o # ; 3 q l Z D | X.[ ~.KX;X[ %.| W Z l q 9 3 = # o X                   X # $ 3 9 e F I T { k.` xXGXN.x.x.v.o.+./ L ^ K K K v e t t t t 8 9 8 v / +.+./ / +.+.+.+.+.+.+.+.+.+.+.=.=.=.=.=.=.=.=.r.r.u.u.u.u.u.u.u.u.u.u.n.n.n.n.n.n.n.n.n.n.n.n.n.N.n.N.V.V.V.N.B.B.N.B.B.B.B.J.H.K.H.H.K.K.K.K.K.K.K.K.K.K.K.K.K.P.P.P.P.P.P.P.P.P.P.P.P.P.P.P.P.P.P.P.P.P.P.P.P.P.P.P.P.P.P.P.P.P.P.P.P.P.P.P.P.P.P.P.P.P.P.P.P.P.P.P.I.I.I.K.K.K.K.K.J.J.J.J.J.B.J.B.N.N.N.N.m.N.N.N.N.N.m.v.n.n.n.n.n.n.n.z.u.=.=.=.=.=.=.=.=.=.=.O.O.+.O.O.O.O.O.O.............R ~ ^ ^ K e l e h h h h l l l v v v K ^ L / / +.v.v.l.$.JXNX} k.@.' P H h 6 3 = # X X               o   o o $ ; 6 e C S I T @.[ ^.KXpX` @.X.I D C e 3 , $ # o X           O ",
"O             X o # = 3 q l Z D | %.[ ~.KX;X[ %.| W Z l q 9 3 = # o X                   X o $ ; 9 t F P T { k.` xXGXN.x.m.v.7.r./ / ^ ^ K K A A A e t e q q v L / / / / / +.+.+.+.+.+.+.+.+.+.r.r.+.r.+.r.r.r.r.r.r.u.u.u.u.u.u.u.u.u.u.u.u.n.n.n.n.n.n.n.n.V.V.n.n.n.n.V.V.V.B.B.B.N.B.B.B.B.B.H.H.H.H.K.K.K.K.K.K.K.K.K.K.K.K.K.K.K.P.P.P.P.P.P.P.P.P.P.P.P.P.P.P.P.P.P.P.P.P.P.P.P.P.P.P.P.P.P.P.P.P.P.P.P.P.P.P.P.P.P.P.P.P.P.P.P.K.K.K.K.K.K.K.K.K.K.J.J.J.B.B.J.B.B.N.m.N.N.N.N.N.v.n.n.n.n.n.v.n.n.n.n.=.t.=.=.=.=.=.=.*.=.O.O.O.O.O.O.O.O.+.+.................~ ~ / ^ G C C C C C C C H A v A K K ~ ) +.+.O.l.l.k.-.JXAX} k.@.' S C h 6 3 > # X X               o   o o $ ; 6 e C S I R @.[ ^.KXpX` @.X.I D C e 3 , & # o             O ",
"              X o # = 3 q l Z D | %.[ ~.KX;X[ %.| W Z l q 9 3 = # o X                   X o $ ; 3 t C S I ' $.[ xXFXN.x.m.v.t.9.+./ / / U G F F F F N N N C ^ ) / / / / / +.+./ +.+.+.r.r.r.r.+.r.r.r.r.r.r.r.r.r.r.u.u.u.u.u.u.u.u.u.u.u.u.u.n.u.n.n.n.n.n.n.n.V.n.n.V.V.V.V.B.N.B.N.B.B.B.B.B.K.B.B.B.K.K.K.K.K.K.K.K.K.K.K.K.K.K.K.K.K.K.K.K.P.P.P.P.U.U.U.P.P.P.P.P.P.P.P.P.P.P.P.P.P.P.P.P.P.U.P.P.P.P.U.U.P.U.U.U.P.P.P.P.P.K.P.K.K.K.K.K.K.K.K.H.K.H.H.B.B.B.B.B.B.m.m.m.B.N.N.N.v.n.n.n.n.n.v.n.n.v.u.=.t.=.=.=.=.=.=.*.O.O.O.+.O.O.O.O.+.+.............Q ....! W ^ / U F F F G S P P P F F G U R -.-.+.O.*.l.x.k.-.JXAX} &.@.' S C h 6 3 > # X                 o   o o $ ; 6 e C S I R @.[ ^.KXpX` @.X.I D C e 3 , & # o             O ",
"              X o # = 3 q l Z D | %.[ ~.KX;X[ %.| W C l q 9 3 = # o X                   X o $ = , 9 h C S Y $._ xXGXN.x.x.v.&.*.+.! ! ! R W Y P P Y Y Y R ..+.+./ / / / / / +.+.+.r.r.r.r.r.r.r.r.r.r.r.r.r.r.r.r.r.r.r.r.r.r.u.u.u.u.u.u.u.u.u.u.n.n.n.n.n.n.n.V.V.V.V.V.V.V.V.B.B.B.B.B.B.B.B.B.B.B.B.B.K.K.K.K.K.K.K.K.K.K.K.H.K.H.H.K.K.K.T.T.T.P.P.T.U.T.U.U.P.U.P.P.P.U.P.U.P.U.P.T.T.U.P.U.U.U.U.P.P.P.U.U.U.K.K.K.K.K.P.K.K.K.K.K.K.K.K.H.H.H.K.K.B.B.B.B.B.B.m.m.B.B.V.V.V.V.m.v.n.n.n.v.v.n.n.n.u.t.t.t.t.t.=.=.=.*.*.O.+.+.+.O.O.O.O.+.+.............! / ! ! W ~ ~ ^ U U U U Y Y Y ' ' ' | X.%.&.*.l.l.v.m.I.x.k.JXNX} &.{ Y S C e 6 : > # X                 X   o o $ ; 6 e C S P T @.[ ^.KXpX` @.X.I D C e 3 , & # o X           O ",
"              X o # = 3 q l Z D | %.[ ~.KX;X[ %.| W Z l q 9 3 = # o X                   X o $ = , 3 i k C Y [ _ xXGXN.x.x.x.l.l.*.%.X.X.| X.{ ' ' | ' T  .r.9.+.+./ / / / / +.r.r.r.r.r.r.r.r.r.+.+.r.r.r.r.r.r.r.r.r.r.r.r.r.r.r.u.u.u.u.u.u.u.u.u.n.n.n.n.n.n.n.V.V.V.V.V.V.V.B.B.B.B.B.B.B.B.B.B.B.B.B.B.B.K.K.K.K.K.K.K.K.K.K.H.H.H.K.K.K.K.T.T.T.T.T.T.T.T.U.T.T.T.T.T.T.T.T.T.U.U.T.T.T.U.U.K.K.K.P.P.K.K.K.K.K.K.K.K.K.K.K.H.H.H.H.H.H.H.H.H.H.M.B.B.M.B.B.B.B.m.m.B.B.V.m.V.V.n.v.v.n.n.v.n.n.n.n.u.t.t.t.t.t.=.=.=.*.+.+.+.+.+.+.O.O...+............./ +.! W W ^ ~ ~ ^ U R R R Y } } { @.%.%.%.&.l.l.l.l.m.I.I.x.k.JXNX} #.{ Y S l e 6 ; $ # X                 X   o o $ ; 6 e C S P T @.[ ^.KXpX` @.X.I D C e 3 ; & # o X           O ",
"        X     X o # ; 3 q l C D | X.[ ~.KX;X[ %.| W Z l q 9 3 = # o X                   X o $ > , , i z Z Y } ` gXGXx.c.c.c.x.x.x.x.x.k.k.k.#.@.*.' o.| 9.r.9.9.r./ / / / r.r.r./ +.r.r.r.r.r.r.r.r.r.r.r.r.r.r.r.r.r.r.r.r.r.r.r.r.r.u.u.u.u.u.u.u.u.n.n.n.n.n.n.n.n.n.V.V.V.n.V.V.V.B.B.B.B.B.B.B.B.B.B.B.B.B.B.M.M.H.K.K.H.K.K.K.H.H.K.K.K.K.H.H.K.K.K.K.T.T.U.T.T.T.T.U.T.T.T.T.T.T.T.T.T.T.T.T.T.T.T.K.T.T.T.K.K.K.K.K.K.K.H.H.H.K.K.K.H.H.H.M.M.M.M.B.B.B.B.B.B.V.m.m.m.V.V.v.V.v.v.n.n.n.n.u.t.u.u.u.t.t.t.t.t.t.t.*.+.+.+.+.+.+.........+...../ R R R R ~ ~ ^ U U ^ ^ U ~ +.U N } ] } } @.@.%.%.l.l.l.l.l.x.x.x.x.$.JXNX[ @.' P C l 0 3 ; $ o X                 X o o o $ ; 3 e l S P T @.[ ^.KXpX` @.X.I D C e 3 , $ # o X   X       O ",
"              X o # ; 3 q l C D | X.[ ~.KX;X[ @.| W Z l q 9 3 = # o X                   X o $ = ; 4 i k Z P } _ xXPXz.k.k.x.k.k.k.$.$.$.$.$.$.[ B O.+.Q r.<.! r./ / / / / / r.r./ / r.r.r.r.r.r.r.r.r.r.r.r.r.r.r.r.r.r.r.r.r.r.r.r.r.r.u.u.u.u.u.u.u.u.u.n.n.n.n.n.n.n.n.V.V.V.V.V.V.V.V.V.V.B.B.B.B.B.B.B.B.B.B.B.M.M.M.M.B.H.K.K.K.K.K.K.H.H.H.H.K.K.K.K.K.K.K.K.K.K.T.T.T.T.K.K.K.T.T.T.K.K.T.K.K.K.K.K.K.K.K.K.K.K.K.K.K.K.H.H.H.H.K.K.H.H.B.B.M.M.M.B.B.B.M.V.m.m.m.V.v.v.V.n.v.n.n.n.n.n.u.t.u.u.u.u.t.t.t.t.t.*.t.+.+.+.+.+.+...O.........../ R / / R ~ ~ ~ ~ ~ ~ G ^ ~ U U U +.] } B } _ } Y Y { { $.$._ #.l.#.$.-.SXAX} { ' P C e 6 3 ; $ o                   X o o o $ ; 3 q l S P R @.[ ^.KXpX` @.X.I D C e 3 , $ # o X   X       O ",
"              X o # = 3 q l C D | X.[ ~.KX;X[ @.| W C l q 9 3 = # o X                   X o $ $ 7 r k k C S B V mXKXhXhXhXhXhXgXhXhXhXhXhXgXgXhXxXxX!.^ / / W r./ / / / / / / / / / / / r.r.r./ r.+.+.+.r.r.r.r.r.r.r.r.r.r.r.r.r.r.r.r.r.r.u.u.u.u.u.u.u.u.u.u.n.u.n.n.V.V.V.V.n.n.n.V.V.V.V.V.B.B.B.B.B.B.M.M.B.B.B.B.B.M.M.M.K.K.K.K.K.K.H.H.H.K.K.K.K.K.K.K.K.K.K.K.H.H.K.K.K.K.K.K.K.K.K.K.K.K.K.K.K.K.K.K.K.K.K.K.H.H.K.K.H.H.H.B.B.B.B.M.M.B.B.B.B.B.B.B.m.m.m.V.V.V.n.v.n.n.n.n.n.n.n.u.t.t.u.t.u.t.=.=.t.t.t.+.+.+.+.+.+.+.+.+........./ / R ~ / R / ~ ^ ~ ~ ^ ^ ^ ^ ^ U ~ U +.gXxXgXgXgXhXhXhXhXhXgXgXgXgXgXhXhXsXJXAXB ' Y S w 0 6 : = $ o                   X o o o $ ; 6 e l S P R @.[ ^.KXpX` @.X.I D C e 3 , & # o X           O ",
"              X o # ; 3 q l C D | X.[ ~.KX;X[ @.| W C l q 9 3 = # o X                   X o # $ 7 r w Z C S N V sXHXGXKXGXGXHXKXLXLXLXLXLXLXLXLXKXZXW.C ^ ^ ^ / / / / / / / / / / / / / / / / / / / +.+.r.r.r.r.r.r.r.r.r.r.r.r.r.r.r.r.r.r.u.u.u.u.u.u.u.u.u.u.u.u.u.u.n.n.n.n.n.V.n.n.V.V.V.V.V.V.V.V.B.m.m.M.B.B.B.B.B.B.B.B.B.B.B.B.B.B.B.H.K.K.K.K.K.K.K.K.H.H.H.K.H.H.H.H.K.K.H.K.H.H.H.H.H.H.K.K.K.K.K.K.H.K.H.H.H.H.H.H.M.M.M.B.B.B.M.B.M.M.M.m.M.m.m.m.m.V.V.V.V.V.n.n.n.n.n.v.n.u.u.u.t.t.t.t.u.=.=.*.+.+.+.+.+.+.+.+.....+........./ / ~ ~ ~ R ~ ~ ~ ~ ^ ^ ^ G G G G G G N N MXGXGXHXLXLXLXKXKXLXLXLXLXJXHXHXLXJXJXIXB Y P C 0 5 3 ; $ # X                   X o o o $ ; 6 e l S P R @.[ ^.KXpX` @.X.I D C e 3 , & # o X           O ",
"              X o # ; 3 q l Z D | X.[ ~.KX;X[ %.| W C l q 9 3 = # o X                   X o # $ y 7 0 k C S B B -.z.F.G.G.G.G.G.G.G.G.G.G.F.z.f.f.g.w K L K L L ^ / / / / / / / / / / / / / / / / / / +.+.+.r.r.+.+.r.r.r.r.r.r.r.r.r.r.r.r.r.r.r.u.u.u.u.u.u.u.u.u.u.u.u.n.u.n.n.n.n.n.V.V.V.V.n.n.V.V.V.V.V.m.B.B.m.B.B.B.B.M.B.B.B.B.M.B.B.B.B.K.K.K.K.K.K.K.K.K.K.K.H.K.H.K.K.K.K.K.K.K.K.K.H.H.H.H.K.K.H.K.H.M.H.B.H.M.M.M.M.B.B.B.B.B.M.B.M.m.M.m.m.m.V.V.V.V.V.n.n.n.n.n.n.n.n.u.u.u.u.u.u.u.u.u.t.t.*.+.+.+.+.+.+.+................./ / / ! ! ! ~ ! ! ~ ~ ~ ^ ^ K G G G ^ ^ F N N f.F.z.G.G.G.G.G.G.c.c.z.z.N.N.G.G.F.-.Y P S k 0 7 = = # o O                   X o o o $ ; 6 e C S P T @.[ ^.KXpX` @.X.I D C e 3 ; & # o X           O ",
"              X o # ; 3 q l Z D | X.[ ~.KX;X[ %.| W Z l q 9 3 = # o X                   X o # # $ $ 2 h k C N B _ _ [ [ @.l.k.k.k.k.k.$.$.$.[ } N N N ) L K L K ^ / / / / / / / / / / / / / / / / / / / / / +.+.+.+.r.r.r.r.r.r.r.r.9.r.r.r.9.9.9.9.u.u.u.u.u.u.u.u.u.u.u.u.u.u.n.n.n.n.V.V.V.V.n.n.n.n.V.V.V.V.B.B.m.B.B.B.B.B.B.B.B.B.B.B.B.B.M.M.K.B.K.K.K.K.H.H.H.H.H.H.H.H.K.K.K.H.K.K.K.K.H.H.H.H.H.H.H.M.M.M.M.M.M.M.M.M.B.B.B.B.M.M.M.B.M.m.m.m.m.m.m.V.n.n.n.n.n.n.n.n.u.u.u.t.u.u.u.u.u.u.u.t.t.*.*.+.+.+.+.+.+................./ / ! ! ! ! ! ~ ~ ~ ~ U U U G G G G G G F ~ ~ N N E -.k.k.#.%.#.k.k.k.k.k.k.#.k.#.` } Y S C w 5 1 = = o o X                   X o o o $ ; 6 e C S P T @.[ ^.KXpX` @.X.I D C e 3 ; & # o X           O ",
"O             X o # ; 3 q k C D | X.[ ~.KX;X[ %.| W Z l q 9 3 = # X X                   X X # o # o & 2 z k w N B _ O.O.X.%.#.#.&.%.%.{ { { ' ' r./ / ^ ^ J / ^ ^ ^ ^ ^ / / / / / / / / / / / / / / / / / / +.+.+.+.+.+.+.+.r.r.+.+.r.r.+.+.9.r.r.r.u.u.u.u.u.u.u.u.u.u.u.u.u.u.u.u.n.n.n.n.n.n.n.n.n.n.V.V.V.V.V.V.B.V.V.V.B.B.B.B.M.B.B.M.B.B.B.B.B.B.B.B.B.B.H.H.M.M.K.K.H.K.M.M.M.B.H.H.H.H.B.M.M.M.B.B.B.B.B.B.B.B.B.B.M.M.M.M.M.m.m.m.m.V.V.m.m.V.m.v.v.v.v.v.v.v.v.v.v.v.t.t.t.t.t.t.t.t.u.=.=.=.*.*.+.+.+.+.+.+.+...........! ! / / ! ! ! ! ~ ~ ~ ~ W W U U U U G J G G J Z G N ;.F N R #.#.X.| X.{ $.$.$.{ %.X.%.%.' Y P S N w 5 = # $ o O                       o o o $ ; 6 e C S P T @.[ ^.KXpX` @.X.I D C e 3 , $ # o X           O ",
"O             X o # ; 4 q k C D | X.[ ~.KX;X[ %.| I C l t 6 3 = # X X                     X o o O O o - 2 5 0 w N N P R I | { %.| | | | Q Q Q Q I W r.D / ^ ^ ^ ^ ^ ^ ^ ^ ^ ^ ^ / / / / / / / / / / / / / / / +.+.+.+.+.+.+.+.+.+.+.+.r.+.+.+.+.r.r.9.9.u.u.u.u.t.t.t.t.t.t.u.u.u.u.u.n.n.n.n.n.n.n.n.n.n.n.V.V.n.n.V.V.V.V.V.V.V.V.m.B.B.m.M.B.m.m.m.m.m.m.B.B.B.B.B.B.B.B.B.B.B.B.B.B.B.B.B.B.B.B.B.B.B.B.B.B.B.B.B.B.M.B.M.B.m.m.m.m.m.m.V.n.v.v.v.v.v.v.v.v.v.v.v.v.v.v.t.t.u.u.t.=.t.t.t.=.r.=.=.*.*.+.+.+.+.+.+.+.........! ! / / R ~ ~ ~ R ~ ~ ~ ~ U U U U U U G W G G G G G G G N F G E } { Q W Q R } } Y Y ..Q Q Y I S S w w 0 5 = # $ o X                       o o o $ ; 6 e C S P ' @.[ ^.KXpX_ @.X.I D C e 3 ; $ # o X           O ",
"              X o # = 4 q l C D | %.[ ~.KX;X[ %.| I C e q 3 = & # X X                           O o o & = = 1 5 0 r w k C S S P S S P E D S G / ^ ^ ^ ^ ^ ^ ^ ^ ^ ^ ^ ^ ^ ^ ^ ^ ^ ^ ^ ^ ^ ^ ^ ^ / / / / / / / / / / / / +.+./ / ..+.+.+.+.+.+.+.+.+.+.+.+.+.+.r.r.r.r.u.u.u.u.u.u.u.t.u.u.u.u.u.u.u.u.u.v.v.v.v.n.n.n.n.n.v.v.v.n.n.n.n.v.v.v.n.V.V.B.B.B.N.N.B.B.B.B.B.N.N.m.m.m.N.N.N.m.m.m.N.B.V.m.m.m.m.m.N.N.N.N.n.n.n.m.m.m.m.n.v.v.v.v.v.v.v.v.n.n.v.n.v.v.v.t.t.t.t.t.t.=.=.=.*.*.*.*.*.+.+.O.+.+.+.+................./ ! ~ R ~ ~ ~ ~ ~ U U U ^ U U U U G G G G G G G G H H G G G H H G S S S S S S P E N N C C C C k k 0 5 7 1 = $ # # X X                     X o o o $ = 6 e C S I T @.[ ^.KXpX_ @.X.I Z C e 3 ; & # o X           O ",
"O             X o & = 4 q l C D ' %.[ ~.KX;X[ %.| I C e q 3 = & # X X                           . o o # & = = 1 5 5 0 h k l C C N C C N C H ^ ^ ^ ^ ^ ^ ^ ^ ^ ^ ^ ^ ^ ^ K K ^ ^ ^ ^ ^ ^ ^ ^ ^ ^ / ^ ^ ^ / / / / / / / / / / / / / +./ +.+.+.+.+.+.+.+.+.+.+.+.+.+.+.=.=.r.=.=.=.=.u.u.u.=.=.u.u.t.t.u.u.u.u.n.n.v.n.v.n.v.v.v.v.n.n.n.n.n.n.n.n.n.n.v.N.n.n.N.N.N.N.N.N.N.N.m.m.m.N.N.N.m.m.N.N.N.N.m.m.m.m.n.n.n.n.n.v.v.n.v.v.n.n.v.n.v.v.v.v.v.v.v.v.v.v.u.u.=.=.=.=.=.=.=.=.=.*.*.*.*.O.+.O.O.O.O.+.+.+................./ / ~ ~ R R R R U U U U ~ U U U G ^ ^ G K G G G G G H H H H H H H H N C C C C C C C C C e e q 0 0 6 1 1 1 = $ # # # X X                     X o X o # = 6 e C S P T @.[ ^.KXpX_ @.| I Z C e 3 ; $ # o X           O ",
"O       X     X o & = 4 q l C D ' %.[ ~.KX;X[ %.| I C e q 3 = & # X X                           X o o # $ & = 1 1 5 5 0 q h l l l A A w l K L H K K K K K K ^ K ^ ^ ^ ^ ^ K ^ ^ ^ ^ ^ ^ ^ ^ ^ ^ ^ ^ ~ ^ ^ ^ / / / / / / / / / / / / / / +.+.+.+.+.+...+.+.+.+.+.+.+.+.O.+.+.*.+.*.*.=.*.=.=.=.=.=.=.t.u.t.u.n.n.t.t.v.n.v.v.v.v.n.n.v.v.n.v.v.v.v.v.v.v.v.v.n.n.v.v.m.v.m.v.m.v.m.v.N.v.m.v.m.v.n.v.v.v.n.n.n.n.v.v.v.v.v.v.v.v.v.n.v.v.v.v.v.v.v.z.v.=.t.=.t.=.=.=.*.*.*.*.=.=.=.*.*.*.O.O.O.O.O.+.+.+.O.O.............R / / ~ ~ R R R U U U U U U U U G G G G G K K K H G H H H H A A H H A A C l A A A A l e e e e q q 6 6 6 1 1 = = $ # # o X                       X o o o # = 6 e l S I T @.[ ^.KXpX_ @.| I Z C e 3 ; = $ o X           O ",
"O       X     X o & = 4 q l C D ' %.[ ~.KX;X[ %.| I C e q 3 = & # X X                             X o o # $ & = 1 1 7 6 6 q q h h h q 0 l L L v K K K K K K K K K ^ ^ ^ K K ^ ^ ^ ^ ^ ^ ^ ^ ^ ^ ^ ^ ~ ~ ~ ~ ^ ^ ~ ~ ! ! ! ! / / / / ! / ....+.........+.+.+.+.+.O.O.+.+.+.O.O.=.O.O.*.*.=.=.=.=.=.=.=.=.t.=.t.=.=.=.t.=.v.z.z.z.v.v.v.v.v.v.v.v.v.v.v.v.v.v.v.v.v.v.v.v.v.v.v.v.v.v.v.n.v.v.v.v.v.v.v.v.v.n.v.v.v.v.v.v.v.v.v.v.z.z.z.z.z.z.z.z.l.=.=.=.=.=.=.=.=.*.=.=.=.=.=.*.*.*.O.O.O.O.o.O.O.O.O.O.........../ / / R R R ~ ~ R U U U U U U U U U G G G G G K G G G H H H H H H A A A A A A A l l l l c q q q 6 6 6 6 3 4 3 = = = # # # o X                         X o o o # = 6 e l S I T @.[ ^.KXpX_ @.| I Z C e 3 ; = $ o X           O ",
"O       X     X o & = 4 q l C D ' %.[ ~.KX;X[ %.' P C e q 3 = & # X X                                 X o # $ & = = = 3 1 3 6 6 5 2 5 h v v v v b K K K K K K K K K K K K K K K K K ^ ^ ^ ^ ^ ^ ^ ^ ^ ^ ^ ^ ^ ^ ^ ~ ~ ~ ^ ^ ^ ^ ~ ~ / / / / ..........+...+.....O.O.O.O.+.+.O.O.O.+.=.=.=.=.=.=.=.=.=.*.=.=.=.=.=.=.=.=.z.z.z.z.v.z.v.z.v.z.v.z.v.z.v.v.v.v.v.z.v.l.v.l.l.l.l.l.v.v.v.v.v.v.v.v.v.l.v.v.z.z.v.z.l.l.l.l.z.z.z.z.z.z.z.z.z.=.=.=.z.=.=.*.*.*.*.*.=.*.*.*.*.*.*.*.*.*.O.O.O.O.O.O.O.................R R R R R R R R U U U U U U U G G G G G G G G G H H H H H H A A A A A A A A l A v e 6 6 6 6 4 4 4 4 ; 3 ; = = = $ # # # o X                             X o o # = 6 e l S I ' %.[ ^.KXpX_ @.' I Z C e 3 ; = $ o X           O ",
"O       X     X o & = 4 q l C D ' %.[ ~.KX;X[ %.| I C e q 3 = & # X X                                   X o o o # # $ $ $ $ ; 1 1 1 2 c v v v v b b K K K K K K K K K K K K K K K K ^ K ^ ^ K K ^ ^ ^ ^ ^ ^ ^ ^ U U ~ ~ ^ ^ ~ ~ ~ ~ ~ R R / ../ ................+.+.+.O.O.O.O.+.O.+.+.+.=.O.O.*.*.*.=.=.=.=.=.*.=.=.=.*.=.=.=.=.=.=.=.=.z.z.z.z.z.z.z.z.z.z.z.z.z.z.l.l.l.l.l.z.z.z.z.z.z.z.z.z.z.z.z.z.z.z.l.l.l.l.l.z.z.z.z.z.l.z.z.z.=.=.*.*.=.*.*.*.*.*.*.*.*.*.*.O.*.O.*.O.O.O.O.O.O.O.O...................R R R R R R R U U U U U U U U G G G G G G G G H H H H H H H A A A A C A A A l l v l q 6 1 = = ; > > > > $ $ $ $ # # # o o X                             X X o o # = 6 e C S I ' %.[ ^.KXpX_ @.{ I Z C e 3 ; = $ o X           O ",
"O       X     X o & = 4 q l C D ' %.[ ~.KX;X[ %.| I C e q 3 : & # X X                           X X         X X o o o o # # # # $ 1 i v v v v v v v K K K K K K K K K K K K K K K K G G K K K G G G G G ^ ^ ~ ~ ~ U U U ~ ~ ~ ~ ^ ~ ~ ~ ~ ~ / / R R / / / ..................O.O...O.O.+.O.O.O.O.O.O.*.*.O.*.=.=.=.*.=.*.=.=.=.=.*.*.=.*.=.=.=.=.=.=.z.z.z.z.z.z.z.z.z.z.z.z.z.z.z.z.z.z.z.z.z.z.l.l.z.z.l.z.l.z.l.=.z.=.=.=.z.*.z.=.z.=.=.*.*.*.=.=.=.*.*.*.*.*.O.O.O.O.O.O.O.O.O.O.O.....................R R R R U R R R U U U U U U U U U G G G F F G G F H H H H A A A A A A A A A A l l l l e l c 6 = # o o o o o o o o # o o o X X X                               X o o o # = 6 e C S I ' @.[ ^.KXpX_ @.{ I Z C e 3 ; & # o X           O ",
"O       X     X o & = 4 q l C D ' %.[ ~.KX;X[ %.| I C e q 3 : & # X X                           X X                 X X X X o o # 6 v v v v v v v v b K K H H H K K K K K K K K K K G G K K K K G G G G G G G G ~ U U U ~ ~ ~ ~ ~ U ~ ~ ~ ~ ~ / R R R / / ../ / ................] ....O.O.O.O.O.O.O.O.O.O.O.O.*.*.*.*.*.*.*.*.*.=.*.=.=.*.*.*.*.*.*.*.=.=.=.=.=.=.=.=.=.=.=.=.=.=.*.*.*.=.=.=.=.z.z.=.=.z.=.*.*.=.=.=.=.=.*.*.=.*.*.*.=.=.=.=.*.=.*.*.O.O.O.O.O.O.O.O.O.O.O.O.O.O...........] ] ......R R R R ~ U R R U U U U U U U U U U G G G G G G G F C H H H A A A A A A A A A A l l l l l 0 l v t = # X . . O O   X X X X X                                       X o o o # = 6 e C S I ' %.[ ^.KXpX_ @.{ I Z C e 3 ; & # o X           O ",
"O             X o # : 4 h l C S ' %.[ ~.KX;X[ %.' I C e q 3 = = # X X                                                     O X X $ 6 v v c v v K v K K K K K K K K K K K H K K K K K K K K K K K G G K K K K G G G G G U U U ^ ~ ~ ~ ~ ~ G ~ ~ ~ ~ ~ ~ R R R R R / R R R ............] ] ....O.O.....O.O.O.O.O.O.O.O.-.-.-.-.*.*.*.*.*.*.*.*.*.*.=.*.=.=.=.=.=.=.=.=.=.=.=.=.=.=.=.=.=.=.=.=.=.=.&.*.&.*.*.*.*.*.*.*.*.*.*.*.*.*.&.*.*.*.*.*.O.O.O.O.O.O.O.O.O.O.O.O.O.O.O.O.O.] ] ] ] ] ] ] ] ] R R R R R R R R R U U U U U U U U G G G G G G F F F F C C C C A H A A A l l l l l l l l l l l l e e l c 6 = o             X X X                                         X o X o # = 6 e C S I T %.} ^.KXwX_ @.' I Z C e 3 ; = $ o X           O ",
"O             X o # : 4 h l C S ' %.[ ~.KX;X[ %.' I C e q 3 = = # X X                                                         o 6 v v v v v v v K K K K K K G K K K K K K K K K H H H K K K K K G G K K K K ^ ^ K G G G ^ ^ ^ ^ ~ ~ ~ ~ ~ ~ ~ ~ ~ ~ ~ ~ ~ R R R / / R R R ......] ] ] ] ..............O.O.O.O.O.O.O.O.O.O.O.O.O.O.O.O.O.*.*.*.O.*.*.*.*.=.=.=.=.=.=.=.=.*.=.=.=.=.=.=.=.=.=.=.=.&.*.=.=.*.*.*.*.*.*.*.*.*.*.*.*.*.%.O.O.*.O.O.O.O.O.O.O.O.O.O.O.O.O.O.O.O.] ] ] ] ] ] ] ] ] R R R R R R R R R U U U U U U U U G G G G G G G G G C C C C C C A A A A A A l l l l l l l l l l l l e e e c c 6 #             X X X                                         X X X o # = 6 e C S I T %.} ^.KXwX_ @.' I Z C e 3 ; = $ o X           O ",
"O             X o # : 4 h l C S ' X.[ ~.KX;X[ %.' I C e q 3 = & # X X                                                 O     X $ v v v v v A v l v A K K H H H H K K K K H K K K K K K K K K K K K K K K K K K K K K K K G G G G G G G G G G G G ~ ~ ~ ~ ~ ~ R R ~ ~ ~ / R R R / R ] ] ] ......................O.O.O.O.O.O.O.O.O.-.-.-.-.O.O.O.O.O.O.O.*.*.*.*.*.=.=.*.*.*.*.*.*.*.*.*.*.*.*.*.=.*.*.*.*.*.*.*.*.*.*.*.-.*.O.O.O.O.O.O.O.O.O.O.O.O.O.O.O.O.O.O...O.O.] ] ] ] ] ] ] ] ] R R R R R R R R R R R U U U U U U U G G G G G G G G G G G G H C C H H C C C A A l l l l l l l l l l l l l C e e l c 8 = o X           X X                                         X o o o # ; 6 e l S I T %.} ^.KXwX_ @.' I Z C e 3 ; = $ o X           O ",
"O       X     X o # : 4 h l C S ' X.[ ~.KX;X[ %.' I C e q 3 = & # X X                                                     X # 8 v v v v A K K v v A K A K K H K K K K K H K K K H A K K K K K K K K K K K G K K K K K K K K K K G G G G G G G ~ ~ ~ ~ ~ ~ ~ ~ ~ ~ ~ ~ ~ ~ R R R R R R ] ] ] ......................O.O.O.O.O.O.O.O.O.O.O.O.O.O.O.O.O.O.O.*.O.*.*.*.*.*.*.*.*.*.*.$.$.*.*.*.*.*.*.*.O.*.O.*.*.*.*.O.O.O.O.O.O.O.O.O.O.O.O.O.O.O.O.O.O.O.O...] ] ] ] ] ] ] ] ] ] ] ] R R R R R R R R R R U U U U U U U U G G G G G G G G G G G G G H H H C H C C C A A l l l l l l l l l l l l l l l l e l v c 6 = o X X                                                   X o o o # ; 6 e l S I T %.} ^.KXwX_ @.' I Z C e 3 ; = # o X           O ",
"O             X o # : 4 h l C S ' @.[ ~.KX;X[ %.' I C e q 3 = & # X X                                                   X o 3 v c v v v v v v v v v v v A A A A H v H H v v v v K K K K K K K K K K K K K K H H H K K G K K K G ^ ^ ^ ^ ^ ^ ~ ~ ~ ~ U U ~ ~ ~ ~ U ~ ~ ~ ~ ~ ~ ~ ~ ~ R R ] ....../ ......] ] ] ........O.O.O.O.O.O.O.O.O.O.O.O.O.O.O.O.O.O.O.O.O.O.*.*.*.*.*.*.*.*.*.*.*.*.*.*.*.O.O.*.O.O.O.O.O.O.O.O.O.O.O.O.O.O.O.O.O.O.O.O.O.O.O.O.] ] ] ] ] ] ] ] ] ] ] ] R R R R R R R R U R U U U U E E U U U U G G G G F G F F F G C C F H H A C C C C C l l l l l l l l l l l h l l l l l l l e q q 6 8 # o X                                                   X o o o # = 6 e l S I ' &.[ ^.KXwX_ @.' I Z C e 3 % $ # o             O ",
"O             X o # : 4 h l C S ' @.[ ~.KX;X[ %.' I C e q 3 : & # X X                                                 X o = f v c v v v v h l v l v l v l l v l l l l l l l l l A A A A A A K K K K K K K K H H H H K G G K K H K G G G G G U U U U U U U ~ ~ ~ U U U ~ U U R R ~ ~ R R R ] R R R / / R R ] ] ] ........] ] ] ] O.O.O.O.O.O.O.O.O.O.O.O.O.O.O.O.O.O.*.*.*.*.*.*.*.*.*.*.*.*.*.*.O.O.O.O.O.O.O.O.O.O.O.O.O.O.O.O.O.O.O.O.O.O.O.] ] ] ] ] ] ] ] ] ] ] ] ] ] R R R R R R R U U U U U U E E E E U U U G G G G G F F F F F F C C C C H H C C A C C l l l l l l l l l l l l l l l h h e l l q 0 5 q c = # X                                                   X o o o # = 6 e C S I ' %.[ ^.KXwX_ @.' I Z C e 3 % = # o             O ",
"O             X o # : 4 h l C S ' @.[ ~.KX;X[ %.' I C e q 3 = & # X X                                                 X $ 8 v v c c c v v h h v l l v v v v v l l v v v l l l l A A A A A A A A A A A A A A H H H H H K H H H H K G G G G G G G U U U U U U U U U U U U U ~ ~ ~ R R R R R R R R R R R R R R ] R ........] ] ] ] O.O.O.O.O.O.O.O.O.O.O.O.O.O.O.O.O.O.O.O.$.$.O.O.O.O.*.O.O.O.O.O.O.{ O.O.O.%.@.O.O.O.O.O.O.O.O.O.O.O.O.O.O.} } ] ] ] ] ] ] ] R R ] ] ] ] R R R R R R R U U U U U U E E E U U U U E G G G G G F F F F F F C C C C C C C C A C l l l l l l l l l l l l h h h h h h h q q q q q q 6 6 = o                                                   X o o o # = 6 e C S I ' %.[ ^.KXwX_ @.' I Z C e 3 % = # o X           O ",
"O             X o # : 4 h l C S ' @.[ ~.GX;X[ %.' I C e 6 4 = & # o X                                             X o # 3 v v q v q q c v v v v l l c c c c c l l l l v v v l l l l l A l l l A A A A A A A A A H H H K K H H H G K G G G ^ G G G G U U U U U U U U U U U U ~ R U R R ~ R R R R R R R R R R ] ] ] ] ] ] ] ] ] ] ..O.O.O.O.O.O.O.O.O.O.O.O.O.O.O.O.O.O.O.@.@.O.O.O.O.{ { { { { { { O.O.O.O.O.O.O.O.O.{ O.O.O.O.O.O.O.O.O.} } ] ] ] ] ] ] ] ] R R R R ] R R R R R R U U U U U U U U U E U U U U G G G G F F F F C F C C C C C C C C C C C C l l l l l l l l l l l h h q q q h h h 0 0 0 q h h q 5 8 3 #                                                     X o o # = 6 e C D I ' %.[ ^.KXwX_ @.' I Z C e 3 ; = # o X           O ",
"O       X     o o & = 4 0 k C S ' @.[ ~.GX;X[ @.' P C l 5 4 : $ # o X                                           o   o 4 v v c v c j j j c c c c c c j j j c c v v v v l l l l l l l l l l l l l l l A A A A A A H H H H H H H H G G G G G G G G G G G G G G G G G G U U U U U U U U U U R U R R R R R R R R R R R R ] ] ] ] ] ] ..] ..] ] ] ] ] ] ] O.O.O.O.O.O.O.O.O.O.O.O.O.O.O.O.O.O.O.O.O.O.O.O.O.O.O.O.O.O.O.O.O.O.] ] ] ] ] ] ] ] ] ] ] ] ] ] ] ] ] ] ] ] R R R R R U U U U U U U U E U E E E E G G G G F G G G G F G G H A C C C C C C C C l l l l l l l l l l l e e e e e q q q q q q q 0 0 0 0 q q q 6 6 6 : X                                                     X o # ; 6 e C D I T @.[ ^.KXwX_ @.' I Z C q 3 ; $ # o X           O ",
"O       X     o o & = 4 0 k C S ' @.[ ~.GX;X[ @.' P Z z i 4 ; $ o o X                                             X # 8 c c c v j j j j c c c c j j j j c c c c c v v l l l v v l l l l l l l l l l A A A A A A A A H H H H H H G G G G G G G G G G G G G G G G G G U U U U U U U U U U U U U U R R R R R R R R R R ] ] ] ] ] ] ....] ] ] ] ] ] ] ] ....O.O.O.O.O.O.O.O.O.O.O.O.O.O.O.O.O.O.O.O.O.O.O.] O.O.O.O.O.O.O.O.] ] ] ] ] ] ] ] ] ] ] ] ] ] ] ] ] ] ] R R R R R U U U U U U U U E E E E E E G G G G F F G G G G G G C C C C C C C C l l l l l l l l l l l l l l e e e e q q q q q q q q 0 0 0 0 q q q 5 6 6 6 $                                                     X o # ; 6 e C D I T %.[ ^.KXwX_ @.' I Z C 0 3 ; $ # o X           O ",
"O             o o & = 4 i k C S ' @.[ ~.GX;X} @.' P Z z 5 3 : $ # o X                                             # 9 f c q h c h h h h h h h h h h h h h h h h c c v v l l l l v l l l l l l l l l l A l l A A A A H H H H H H H H G G G G G G G G G G G G G G G G G G U U U U U U U U U U U U R R R R R R R R R R R R R R R R ] ] ] ] ] ] ] ] ] ] ] ] ] ] ] ] ] ] ] ] ] ] ] ] ] ] ] ] ] ] ] ] ] ] ] ] ] ] ] ] ] ] ] ] ] ] ] ] ] ] ] ] ] ] ] ] ] R R R R R R R R U R R U U U U U U U U E U E E G G G G G G F F F F G G C C C C C C C C C C l l l l l l l l l l l l l w q q q q q q h h q q q q 0 0 0 q q q q 5 6 6 8 ; #                                                   X o # = 6 q l D I T %.[ !.KXwX_ @.' I Z C q 3 ; $ # o X           O ",
"O             X o & = 2 0 k C S ' @.[ ~.GX;X} @.' P C z i 3 : $ # o X                                           X ; f f 6 q h h h h h h h h h h h h h h h h h h h h l l l l l l l l l l l l l l l l l l l l A A A A A A A A A A H H H H H H H H G G G G G G G G G G G G U G U U U G U U U U U U U R R R R R R R R R R R R R R R ] ] ] ] ] ] ] ] ] ] ] ] ] ] ] ] ] ] ] ] ] ] ] ] ] } ] ] ] ] ] ] ] ] ] ] ] ] ] ] ] ] ] ] ] ] ] ] ] ] ] ] ] ] ] R R R R R R R R R R U U U U U U U U U U U U U E G G G G G G F F F F C C C C C C C A C C C C C l l l l l l l k l l l l e e q q q q q q q q q q q q 0 0 0 0 q q q q 5 6 6 8 > X                                                 o o # = 6 q l Z I Q %.[ !.KXwX_ @.| W Z C q 3 ; $ # o X           O ",
"O             X o # = 3 q l C S ' @.[ ~.GX;X[ @.' P Z z i 4 : $ # o X                                           $ 9 f 8 5 h j h h h h h h h h h h h h h h h h h l l l h h h l l v l l l l l l l l l l l l l l l A A A A A H A A H H H H H H H H H H G G G G G G F F G G G G G U U U U U U U U U U U R R U U U U R R R R R R R R R R R ] ] ] ] ] ] ] ] ] ] ] ] ] ] ] ] ] ] ] ] ] ] ] ] ] ] ] ] ] ] ] ] ] ] ] ] ] ] ] ] ] ] ] ] ] ] ] ] ] R R R R R R R R R R R R U U U U U U U E E U U U G G G G G G G G F F F F F C C C C C C C A l l C l l l l l l l l l l l 0 q q q q q q q q q q q q q q q q 6 6 q 5 0 0 0 0 q 7 3 8 9 $ X                                             . o o # = 6 q l Z I Q %.[ ^.KXwX_ @.| W D C q 3 ; = # o             O ",
"O             o o # = 3 q l C S ' %.[ ~.GX;X} @.' P Z z i 4 : $ # o X X                                     X X 9 9 f 6 6 h l h h h h h h h h h h h h h h h h h l l l l h h l l l l l l l l l l l l l l l l l l A A A A C C C C H H H H H H A A H H G G G G G G F F G F G G G G G G G G U U U U U U U R U U U U R R R R R R R R R R R R R R R ] ] ] ] ] ] ] ] ] ] ] ] ] ] ] ] ] ] ] ] ] ] ] ] ] ] ] ] ] ] ] ] ] ] ] ] ] ] ] ] ] R R ] ] R R Y Y R R R R R R R R U E U U E E E E U U U G G G G G G G G F F F F C C C C C C C C C l l l C l l l l l l l l w w h h q q q 0 q q q q q q q q q q q q 6 6 5 5 0 0 0 0 q 5 1 6 6 3 # X                                           . o o # = 6 q l Z I Q %.[ !.KXwX_ @.| W Z C q 3 ; = # o             O ",
"O             o o o = 3 q l C S ' X.[ ~.GX;X} @.Y P Z z i 4 = $ # o X X                                     # = g f 6 6 q e h q h h h h h h h h h h h h h h h h h l h h h h l l l l l l l l l l l l l l l l l l l l l l A A A A A A A A C C C A H H A A H H H H F F F F G F G G G G G G G G G U U U U U U U U U U R U U U U R R R R R R R R R R R R R ] ] ] ] ] ] ] R R ] ] ] ] ] ] ] ] R R ] ] ] ] ] ] ] ] ] ] R R R R R R R R R R R R R R R R R R R R R R R U U U E E E E P G E E G G G G G G G G F F F F F C C C C C C C C l C l l l l l l l w w w w w w 0 0 q q 0 0 q q 0 0 0 0 0 0 q q q q 6 6 5 5 0 0 0 0 q 5 5 7 6 3 1 #                                           o o o # = 6 q l Z I Q %.[ ^.KXwX[ @.| W Z C q 3 ; = # o X           O ",
"O             o o o = 3 0 k C S ' X.[ ~.GX;X[ @.' P Z z i 4 = $ # o o X                                   X = 9 g f 6 h q q q q h h h h h h h h h h h h h h h h h h h h h h l l l l l l l l l l l l l l l l l l l l l l l l l l A A A A C C C C H H A A A H H H G G F F F F G G G G G G G G G G U U U U U U U U U U U U U U U U R R R R R R R R R R R R R R ] R ] R R R ] R ] R ] R ] R ] R ] R ] R ] R ] R ] R R R R R R R R R R R R R R R R R Y P P P U U U U E E E E E P S G E G G G G G G F F G G F F C C C C C C C C l C l l l l l l l l w w w w w w 0 0 0 e 0 0 0 q 0 0 0 0 0 0 0 q q q q 6 6 6 5 0 0 0 0 5 q q 7 7 6 6 $ X                                       X o o o # = 6 h l Z W Q %.[ ^.KXwX[ @.' W Z C q 3 ; = # o X           O ",
"O             X o o = 4 h l C D | { [ ~.FX;X[ @.' I Z z h 4 3 = # o o X                                   # 4 g 8 8 6 q h h h h q q q q h h h h h h q q q q q q h h h h h h h h h h l h l l l l l l l l l l l l l l l l l l l l A A A A A A C C C C A A H H A A H H G G G G H H F F G F G G G U U U U U U U U U U U U U U U U U U U R R R U U U R R R R R R R R R R R R R R R R R R R R R R R R R R R R R R R R Y R Y R Y R Y R R R R R R R R R U U U U U U U U U U E G G G E G G G G G G F F F S C S S S C C C C C C C l C l l l l e w w w w w w w w h q q w w 0 0 0 0 0 0 0 0 q q q q 5 5 5 5 6 6 5 5 0 0 0 0 0 0 5 6 6 6 6 3 #       X O X                       X X o o o # $ : 6 h l Z W | %.[ ^.KXwX[ @.| W Z C 0 3 = = # o X   X       O ",
"O             X o o = 4 h l C D | { [ ~.FX;X[ @.' I Z z h 6 3 = $ # o X X X         X X   X X X         o ; 9 9 8 6 6 q h h h h q q q q h h h h h h q q q q h q h h h h q h h h h h l h l l l l l l l l l l l l l l l l l l l l C l l l l l C C C C A A H H A A H H G G G G C C F F F F G G G G G G U U U U U U U U U U U U U U U U U U U U U R R R R R R R R R R R R R R R R R R R R R R R R R R R R R R R R R R R R R R R R R R R R R R R R U U U U U U U U U U U G G G G S G G G G F F F F F C C C C C C C C C C C l l l l l l l e e k w w w w w 0 0 q q w h q 0 0 0 0 0 0 0 q q q q 5 5 5 5 6 6 5 5 0 0 0 0 0 5 5 5 6 6 6 9 $ o X X X X X X X                 X o o o o # # = 3 6 h C Z W | %.[ ^.KXwX[ @.| W Z C q 3 = = # o X   X       O ",
"O       X     X o o = 4 h l C D | { [ ~.FX;X{ #.' R Z z z i 4 3 $ # # o o o X X X o X X X o o o o o X o = 9 8 6 6 6 i i i h h h 5 6 i i i i h h i i i i i i i h h h h h q q h h h h h h h h h h h h h h h h l l l l l l l l l l l l l l l l l l A A A A C C A A H H C C C C C C G G F F F G G G G G G G G G G U U U U U U U U U U U U U U U U U U R R R R R U R R R R R U R R R U R R R R R R R R R R R R R U U R R R R R R R R R U U U U U U U U U U U P P P P G G G G G G G G F F F F F S S S C C C C C C C C C C l l l l k k l e e l w w w w k k w w q q h h q q q q q q 0 0 q q q 5 5 5 5 5 6 6 6 5 5 5 5 5 5 5 5 5 6 6 6 4 3 $ o X X o o o o X X X X X X X X o o # # # # $ ; 3 6 l Z D W | %.[ ^.KXwX[ @.| W Z C q 3 = = # o X           O ",
"O       X     X o o = 4 h l C D | { { ~.FX;X{ &.{ R D H v h 6 3 = $ # # # # # o o o o o # # # # # o # & 6 f f 6 6 6 i i i i i i 6 6 5 i i i h h i i i i i i i i h h h h q q q h h h h h h h h h h h h h h h l l l l l l l l l l l l l l l l l l l l C C C C C C C C C C C C C C C C C C F F F F G G G G G G G G U U U G U U U U U U U U U U U U U U R R R R R R R R R R R R R R R R U U R R R R R R R R R R R R U U U U U U U U U U U U U U U P U U U U P P P G G G G G G S S S F F F F F S S C C C C C C C C C C l l l l k k k e e e w e w w w 0 0 0 0 0 0 0 0 q q q q q q 0 0 q q 5 5 5 5 5 5 5 6 5 5 5 5 5 5 5 5 5 5 5 6 6 4 3 ; $ o o o # # # o o o o o o o o # # # # # & = 3 6 t v Z U W | %.{ ^.KXwX[ %.| W Z C q 3 = = # o X           O ",
"O       X     X o o = 4 h k C D ' { { ~.CX;X[ &.X.Q U G K c 6 6 3 = = = = & $ $ # # # # # # # # # & = 3 6 f 6 6 6 5 5 5 6 6 6 6 6 5 i i i h h h 5 5 i i 5 5 5 5 q q q q q q q q h h h h h h h h h h h h h h h h h h l l l l l l l l l l l l l l l l l l C C C C C C C C C C C C C C C C C C C G F F F F G G G G G G G G G G G G P U P U U U U U U U U U U U U U U U U U U U U U U U U U U U U U U U U U U U U U U U U U U U U U U U U U P P U U P P E G G G G G G G G F S S S S F F F F C C C C C C C C C C C C l l l k k k k k l w k k e 0 0 0 0 0 q 0 0 0 0 0 q q q q 5 5 5 5 5 5 5 5 5 5 5 6 5 6 5 5 5 5 5 5 5 5 5 6 5 6 6 4 6 3 = $ $ $ $ # # $ $ # & # # # # $ $ = = = = 3 6 8 c K G W Q | &.{ ^.GXwX[ %.X.W Z C q 3 > = # o X           O ",
"O       X     X o o = 2 i k C P { @.@.~.CX;X@.l.X.| W G K v c 6 6 4 3 = = : : = = = > > = = = = = = 3 6 6 6 6 h 5 5 5 6 6 6 6 6 6 5 i i i i h h 5 5 i i 5 5 6 5 q q q q q q q q q q q q q h q q h h h h q q h h h h l l l l h h l l l l l l l l l l l l C C C C C C C C C C C C C C C C C C C C F F F F F F F F G G G G G G G G P P U U U U U U U U U U U U U U U U U U U U U U U U U U U U U U U U U U U U U U U U U U U U U P U U U U P P P P S P G G G S S S F F F F S S S S F S C C C C C C C C C C C C C l l l k k k k k k w w w k 0 0 0 0 0 0 q q 0 0 0 0 q q q q 5 5 5 5 5 5 5 5 5 5 5 6 5 6 5 5 5 5 5 5 5 5 5 5 6 6 6 4 1 3 3 3 3 3 1 = = : ; ; = ; = ; = 3 3 3 3 3 6 6 8 c v K ^ W Q X.&.{ ^.GXwX[ %.X.W Z C q 3 > = # o X           O ",
"O       X     X o o = 4 q l C P ' @.@.~.CX;X@.l.%. .! ^ L K v c f 6 6 6 6 4 4 3 : : ; ; 3 3 3 3 4 3 4 6 i 6 5 h h 5 i i i i 6 6 5 5 5 i i i 6 6 5 5 i i i 6 6 6 q q h 5 q q q q q q q q h h h h h h h h q h h h h h h h l l l h l l l l l l l l l l l l l l l l C C C C C C C C C C C C C C C C F F F F F F F F F F F S G G G S G G G G P P P P U U U U P P P P U U P P U U U U P P P P U P U U U U U U P P P P P P P P P P P P U U U S P P P P S S S S F S S S F F S F S S S S F F C C C C C C C C C C C C C l k k k k k k k k w w l w 0 0 0 0 0 0 0 0 0 0 0 0 q q q q 0 0 5 0 5 5 5 5 5 5 5 5 5 5 5 5 5 5 5 2 2 2 2 2 2 2 2 4 1 1 6 4 4 3 4 4 3 4 3 : : : : : 3 3 6 6 6 6 8 8 c v K K ^ !  .o.*.{ ^.KXwX[ %.X.W Z C q 3 = = # o X           O ",
"O             X o o = 4 q l C D ' %.@.~.CX;X@.l.*.O.! / ^ L K l v h i 6 6 6 6 4 6 6 6 6 6 6 6 6 6 4 6 f f 6 6 5 h i i i i u 6 6 6 5 5 5 6 6 6 6 6 6 i i i 6 6 6 5 h 5 i h h q q q q q q h h h h h h h h q q h h h h h h q q q h h l l l e e e e l l l l l l l l l C C C C C C C C C C C C C C C C S S S F C S S F F S S G G G S G G G G G G P P P U U U U P P P U U U P P U U U U P P P U U U U P U U U U P P P P P P E E P P P P U E G E G S S S S S S S S S S S S S C S C C C F C C C C C C C C k C C C l l l k k k k k k k k w w l w 0 0 0 0 0 0 0 0 0 0 0 0 0 0 q q 0 0 0 0 5 5 5 5 5 5 5 5 5 5 5 5 5 5 2 2 2 2 2 2 2 2 2 3 1 1 2 4 4 6 6 i 6 6 6 i i i i 6 6 6 6 6 h h c c v v K ^ / /  .o.&.@.^.GXwX[ %.X.W Z z 0 7 = & # X             O ",
"O             X o # ; 2 5 k C D | ' [ 0XCX0X@.&.*.*...! +.! J H A A l z i i i i i i v v i a u u 4 6 6 6 6 6 6 6 5 6 6 6 6 6 6 6 6 6 6 6 6 6 6 6 6 6 6 6 6 6 6 6 5 5 5 5 5 5 5 5 q q q q 5 q q q q q q q q q q q q q q q q q q q h l l h l l l l l l l l l l l l l l l l l l k k C C C C C C C C C C C C C C C C F F F F F F F F F G G G G G G G G G E P P P E E E E E E E E E E E E E E E E E E P E E E E E E E E E E E E E E E G G G F S F S F G F F F F C S C C C C C C C C C C C C C C C C C C k C k k k l k k k k k k k k h k k k k k k h h h h h h h h i i h 0 i 0 i 0 i 0 0 5 5 5 5 5 i 5 5 5 5 5 5 5 5 5 2 2 2 2 2 2 2 3 - : : : 2 2 h j h z i i v 0 5 v h h h l l v v v K ^ / / +.+.| %.&.&.~.FXwX@.&.{ I Z k l w 5 & O               O ",
"O             X o # = 2 5 k C D ..X.@.0XVX0X%.l.*.*.+.+.9.+.! J W I Z Z z z z Z G Z k Z z i i p 6 6 6 6 6 6 6 6 6 6 6 6 6 6 6 6 6 6 6 6 6 6 6 6 6 6 6 6 6 6 6 6 5 5 5 5 5 5 6 5 q q q q q q q q q q q q 5 q q q q q q h q q q q h h h h l l l l l l l l l l l l l l l l l l l l l l C C l C l C C C C C C C C C F F F F F F F F F F G G G G G G G G S G E E E E E E E E E E E E E E E E E E E E P P E E E E E E E E E E E E E E S S F F F F F F F F F F F S C C C C C C C C C C C C C C C C C C k k k k k k l k k k k k k k k h k k k k k k h h h h h h h h i i i i i i i i i i 5 5 5 5 5 5 5 5 5 5 5 5 5 5 5 5 2 2 2 2 2 2 2 2 - : : 3 2 2 i l k C G Z Z Z Z k C C C C Z Z G Z ^ ! ..+.*.*.*.*.l.@.~.GXwX@.&.*.D k k k N r + O               o ",
"O             X o o = 2 5 h C S P X.%.0XCX0X&.v.l.*. . .o. .Q W T ' Y I P P P I ' ' Y Y R D C k 5 6 6 6 6 6 6 6 6 6 6 6 6 6 6 6 6 6 6 6 6 6 6 6 6 6 6 6 6 6 6 6 5 5 5 5 6 6 6 q q q q q q 5 5 5 q q q q 5 5 q q q q q q q q q q q q q q l l h h w 0 0 0 w 0 l l l l l l l l l l l l C C C C C C C C C C C C C C F F F F F F F F F F G F F F G G F F G G G S S G E E E E E E G G E E G G E G G E S S S S S S S S P S S S S S S S S F F F F F F S F F F F S S S S C C C C C C C C C C C C C C l l k k k k k l k l k k k k k k k k k k h h k k k k 0 0 0 0 0 0 0 0 0 0 0 0 0 0 0 0 5 0 5 5 5 5 5 5 5 5 5 5 5 5 2 2 2 2 2 2 2 2 2 2 5 5 5 2 2 5 0 k S N P P N P R S P P I I I I W Q Q  .o.o.&.&.v.l.x.#.~.GXwX@.&.{ D k h 0 r 7 o O               o ",
"O             X o o & 1 5 0 k S Y X.@.oXVX0X@.l.l.l.*.*.*.*. .Q X.{ ' ' ' ' ' ' B { [ ' ' R S w 5 6 6 6 6 6 6 6 6 6 6 6 6 6 6 4 6 6 6 6 6 6 6 6 6 6 6 6 6 6 6 6 5 5 5 5 5 5 5 5 5 5 q q 5 5 5 5 5 5 5 5 5 5 q q q q q q q q q q h q q q h h h h 0 0 0 0 w 0 l l l l l l l l l l l l l l l l l C C C C C C C C C C C C C S S F F S S S S S S S S F F S G S S S S E E E E E G G G S S S S S S S S G S S S S S S S S S S S S S S S S S S S S S S S S F F C F F S C C C C C C C C C C C C C C C l l k k k k k k k k k k k k k k k k h h h h h h h h 0 0 0 0 0 0 0 0 0 0 0 0 0 0 0 0 5 0 5 5 5 5 5 5 5 5 5 5 5 5 2 2 2 2 2 2 2 2 2 5 0 0 0 5 1 5 0 w / ] { { ' ' Y T ' | | | | | |  .o.o.%.&.l.v.v.v.k.#.~.GX0X*.*.' Z z i 0 0 1 . O               o ",
"O             X o o & 1 5 0 k S ' { @.0XCX0Xk.m.x.x.l.*.l.l.*.X.| ' ' ' ' ' { { *.*.{ } R P C 0 5 6 6 6 6 6 6 6 6 6 6 6 6 6 4 4 6 6 6 6 6 6 6 6 6 6 6 6 6 6 6 6 6 6 5 5 5 5 5 5 5 5 5 5 5 5 5 5 5 5 5 5 5 q q q q q q q q q q q h h h h h h l l l l l l w l l l h h l l l l l l l l l l k k C C C C C C C C C C C C C C C C C C S S C C S S S S S S S F S S S S G G S S S S S S S S S S S S S S G S S S S G S S S S S S S S S S S S S S S S S S S S C C C C C C C C C C C C C C C C C C k k k k k k k k k k k k k k k k 0 w 0 0 h h h 0 h h h h h h i i 0 0 0 0 i i i 0 0 0 0 0 5 5 5 5 5 5 5 5 5 5 5 5 5 5 2 2 2 2 2 2 2 2 2 5 w w 0 7 2 2 5 w N } [ @.#.{ ' O.X.X.X.X.X.X.X.X.%.%.&.&.l.v.v.v.x.*.~.FX0X%.&.' C i 5 5 r 1 o O               o ",
"O             X   o & = 2 5 k C I Y { 0XCX0X#.k.l.l.&.&.l.l.%.X.' R Y T T T ' ' ' B Y ..U w k 5 5 4 6 6 6 6 6 6 6 6 4 4 6 6 4 6 6 6 6 6 6 6 6 6 6 6 6 6 6 6 6 6 6 6 5 5 5 5 5 5 5 5 5 5 q 5 5 5 5 5 5 5 5 5 q q q q q q q q q q 0 0 0 0 h h 0 q q h k 0 0 0 0 0 h q l l l l l l l l l l k k C C C C C C C C C C C C C C C S C C S S S C S S S S S S F S S S S S G G G S S S S S S S S S S S S S S S S S S S S S S S S S S S S S F F S S S S S S S S C C C C C C C C C C C C C C C C C C k k k k k k k k k k k k k k k k w 0 0 0 h h h h h h h h 0 0 0 0 0 0 0 0 0 0 0 0 5 5 5 5 5 5 5 5 5 5 5 5 5 5 5 5 5 5 2 2 2 2 2 2 2 2 2 5 w 0 5 1 - - 2 0 N ..*.[ @.{ ' ' ' ' ' ' ' ' ' ' | X.X.%.&.&.l.l.#.[ /.CXwX[ ' T C i 5 5 2 = O                 o ",
"O             X   o & = 2 5 0 k G S T ~.VXwXG.G.G.G.G.G.G.G.G.f.f.f.f.f.G.G.G.G.F.f.W.f.h 1 i u 4 4 4 4 6 6 6 6 4 4 4 4 6 6 6 6 6 6 6 6 6 6 6 6 6 6 6 6 6 6 6 6 6 6 6 6 5 5 5 5 5 5 5 5 5 5 5 5 5 5 5 5 5 5 5 5 5 5 0 0 q q q q 0 0 0 0 h h q q 0 0 q q 0 q 0 0 0 0 w w l l l l l l l l l l l C C C C C C C C C C C C C C C C C C C C C C C C C S S S S S S S S F F S S S S S S S S S S S S S S S S S S F F F S F F S S S S F F S S C C S S S S C C C C C C C C C C C C C k k k C C k k l l k k k k k k w k w w k h h k 0 0 0 0 h h h h h h h 0 0 0 0 0 0 0 5 5 5 0 5 5 5 5 5 5 5 5 5 5 5 5 5 5 5 5 5 5 5 5 2 2 2 2 2 2 2 2 2 5 5 5 2 - > > - 2 7 w u./.G.G.G.G.F.f.f.f.f.f.f.f.f.f.f.F.F.F.F.G.G.G.wXZXwXY ' Y C i 5 7 2 = o   .             o ",
"O             X   o # = 1 5 0 h A C P !.FXZXZXVXVXVXVXVXVXVXCXVXCXCXCXCXCXCXCXCXCXGXFX;X5 # g * 4 4 4 4 4 4 4 4 4 4 4 4 6 4 4 4 6 5 6 6 6 6 6 6 6 6 6 6 6 6 6 6 6 6 6 6 6 5 5 5 5 5 5 5 5 5 5 5 5 5 5 5 5 5 5 5 5 5 0 0 q q q q 0 0 0 0 h h q q 0 q q q 0 h 0 0 0 0 w w w l l l e e e w k k l l l C C C C C C C C C C C C C C C C C C C C C C C S S S S S S S S S S S S S S S S S S S S S S S S S S S S F F S S F F S S S S F F S S C C C S S S C C C C C C C C C C C C k k k k C C k l l l k k k k k k k k k h h h h h 0 0 0 0 0 0 0 0 0 0 0 0 0 0 0 0 0 0 5 5 5 5 5 5 5 5 5 5 5 5 5 5 5 5 5 5 2 2 2 2 5 5 2 2 2 2 2 2 2 2 2 2 2 1 - - * * - - 1 7 ;XGXGXCXGXGXFXGXGXGXGXGXFXFXFXFXFXFXFXFXFXCXCXCXCXFXwXY O.P C 0 5 1 1 = o   .             o ",
"O                 o o & = 2 5 0 S R T G.eXfXrXfXfXfXfXfXfXfXfXfXfXfXfXfXfXfXfXfXsXxX;Xw 1 2 4 - 3 4 4 4 4 4 4 4 4 4 4 4 4 4 4 4 4 4 4 4 4 4 4 4 4 4 4 4 4 4 4 4 6 6 6 6 5 5 5 5 5 6 6 6 5 5 5 5 5 5 6 6 5 5 5 5 5 5 5 5 0 0 q q 0 q q q 0 0 0 0 0 0 0 q q q 0 0 0 0 0 0 0 0 w w 0 w w w e l l l l l k k k k C C C C C C C C C C C C C C C C C C C C C C S S S S S S S S S S S C C C C C S S S C S S C C S S S S S S S S S S S S S S S S S S C C C C C C C C C C C C C C k k k k k k k k k w w w k k k k w w h h k k h h h h h h 0 0 0 0 0 0 0 0 0 0 5 5 5 0 0 0 5 5 5 5 5 5 5 5 5 5 5 5 5 5 5 5 5 5 5 5 5 5 5 5 2 2 2 2 2 2 2 2 - - - > - - - - - # h ;XxXfXfXfXfXfXfXfXfXfXfXfXfXfXfXfXfXfXfXfXfXfXfXaXQ.} N U w 5 5 1 1 $ o                 O ",
"O                 o o & = 1 5 0 r P B Y ..T _ #.@.@.{ { #.#.@.{ @.@.@.@.@.@.[ [ ] +.N y 5 1 = - 3 4 4 4 4 4 4 4 4 4 4 4 4 4 4 4 4 4 4 4 4 4 4 4 4 4 4 4 4 4 4 4 6 6 6 6 6 6 5 5 6 6 5 5 5 5 5 5 5 5 6 6 5 5 5 5 5 5 5 5 0 0 q q 0 q q q 0 0 0 0 0 0 0 0 q q 0 0 0 0 0 0 0 0 w w 0 w w w e e l l l l k k k k C C C C C C C C C C C C C C C C C C C C C C S S S S S S S S S S S S C C C C S S S S S S S C S S S S S S S S S S S S S S S S S S C C C C C C C C C C C C C C k k k k k k k k k k w w k k k k k k h h k k h h h h h h 0 0 0 0 0 0 0 0 0 0 5 5 5 5 0 0 5 5 5 5 5 5 5 5 5 5 5 5 5 5 5 5 5 5 5 5 5 5 5 5 2 2 2 2 2 2 2 - > * - - 2 2 = = : & # 5 G U O._ $.$.$.$.$.$.@.$.@.#.$.$.#.#.#.@.@.} Y ] Y B N N 0 5 7 1 1 $ o                 O ",
"O                 X o # = 1 1 5 w S P Y U S Y *.{ { ' { @.@.{ { @.@.@.@.@.@.{ { Y N r 7 v 6 1 6 4 4 3 3 4 4 4 4 4 4 4 4 4 4 4 4 4 4 4 4 4 4 4 4 4 4 4 4 4 4 4 4 2 2 2 2 6 6 6 6 6 6 6 6 6 6 5 5 5 5 5 6 6 6 5 5 5 5 5 5 5 5 5 5 5 5 0 0 5 5 0 0 0 0 0 0 0 0 0 0 0 0 0 0 0 0 0 0 0 0 w w w w w w l k k k k k k k k k C C C C k k C C C C C C C C C C C C C C C C C C S S S S S S S S C S S S S S S S C C S S S S C C C C C C C C C C C C C C C C C C C C C C C C C k C C k k k k k k k k k k w w k k h h h k k k h h 0 0 0 0 0 0 0 0 0 0 0 0 0 0 5 5 5 5 5 0 5 5 5 5 5 5 5 5 5 5 5 5 5 5 5 5 5 5 5 5 5 5 5 5 2 5 2 2 2 2 2 2 2 2 > - - 2 5 7 5 1 - f - $ r P O._ @.@.{ { { { { { { { { @.{ { { { { Y B P P P S N r 2 1 1 = # o X               O ",
"O                   o o $ = 1 2 0 r N N S U Y } { } R ' { { ' ' ' { { @.@.{ ] R S w 0 1 1 = 1 1 3 3 3 3 2 2 2 2 3 3 2 2 2 2 3 3 4 4 4 4 4 4 4 4 1 2 2 4 4 4 4 4 2 2 2 2 2 2 2 4 5 5 5 5 5 5 5 5 6 6 6 6 6 5 5 5 6 6 5 5 5 5 5 5 5 5 5 5 5 5 0 0 0 0 0 0 0 0 0 0 0 0 q q 0 0 0 0 0 0 w w w w w w k k k k k k k k k k C C C C k k C C C C C C C C C C C C C C C C C C S S S S S S S S S S S S S S S S C C C C S S C C C C C C C C C C C C C C C C C C C C k k C C w w k k k k k k k k k k k w w w k k h h h h k k 0 0 0 0 0 0 0 0 0 0 0 0 5 5 0 0 5 5 5 5 5 5 5 5 5 5 5 5 5 5 5 5 5 5 2 2 2 2 5 5 2 2 2 5 5 5 2 2 2 2 2 2 2 2 2 2 - - 2 5 0 0 5 2 # & = 1 0 G ] { { | | | | | | | | | | | | | | | } ] R U N r r 7 7 1 1 $ # # X X               O ",
"O         X         X o # # = 1 0 w S P N N P Y Y Y P P ' ' Y P P P I I P P S C 7 2 i g = 4 f 6 3 3 3 3 3 3 3 3 3 1 2 2 3 3 3 3 1 1 3 3 3 3 3 3 1 1 4 3 3 3 2 2 2 2 2 2 2 2 4 4 5 5 5 6 6 6 5 5 5 5 5 5 6 6 5 5 5 5 5 5 5 5 5 5 5 5 5 5 0 0 0 0 0 0 0 0 0 0 0 0 0 0 0 0 0 0 0 0 0 0 w w w w k w k k k k k k k k k k k k k k C C C C C C C C C C C C C C C C C C C C C C C C C C C C C C C C C C C C C C C C C C C C C C C C C C C C C C C C C C C C C C C C C C w w w w k k k k k k k k w k 0 0 0 0 0 0 0 0 0 0 0 0 0 0 0 0 0 0 0 0 0 0 0 0 0 0 5 5 5 5 5 5 5 5 5 5 5 5 5 5 5 5 2 2 2 2 5 5 5 5 2 2 2 2 2 2 2 2 2 2 2 2 2 2 2 2 2 2 5 5 0 0 5 2 i - = 2 0 r N R I I P P I P I I I I I I I I I P S S S C w l l 2 1 = & # o o X                   ",
"O         X           X o # = = 1 2 w N 0 w S S P P S S I P S C C Z Z D S C k h 6 = # : & = $ = 3 3 3 3 3 3 3 3 1 1 2 2 3 3 3 3 1 1 1 1 2 1 1 1 1 1 4 4 3 3 2 2 2 2 2 2 2 2 4 4 5 5 5 5 5 6 5 5 5 5 5 5 6 6 5 5 5 5 5 5 5 5 5 5 5 5 5 5 5 5 0 0 0 0 0 0 0 0 0 0 0 0 0 0 0 0 0 0 0 0 0 w w 0 w w k k k k k k k k k k k k k k k k k k C C C C C C C C C C C C C C C C C C C C C C C C C C C C C C C C C C C C C C C C C C C C C C C C C C C C C C C C C C C C C C w w w w k k k k k k k k w w 0 0 w w 0 0 h 0 0 0 0 0 0 0 0 0 0 0 0 0 0 0 0 0 0 0 5 5 5 5 5 5 5 5 5 5 5 5 5 5 5 5 2 2 2 2 5 5 5 5 2 2 2 2 2 2 2 2 2 2 2 2 2 2 2 2 2 2 2 5 5 5 2 2 2 & = $ 1 7 r C D D Z Z Z Z D D D D Z D Z D D S S w w w 7 5 2 $ = # # o .                       ",
"O         X             o # $ = - - 2 5 2 u 0 0 k h i i k k i i i i z k k 0 5 2 i : o : : 6 7 t 2 2 2 2 3 2 3 3 3 3 2 2 3 3 3 3 1 1 1 1 2 2 2 1 1 4 4 4 3 2 3 2 2 2 4 2 2 2 2 4 2 2 2 2 5 5 5 5 2 2 5 5 5 5 5 5 5 5 5 5 5 5 5 5 5 5 5 5 5 5 5 5 0 5 0 0 0 0 0 0 0 0 0 0 0 0 0 0 0 0 0 0 0 0 w w 0 0 h h k k k k k k k k k k k k k k k C C C C k C C C C C C C C C C C C C C C C C C C C C C C C C C C C C C C C C C C C C C C C C C C C C C C C N N w w k k C C k k k k k k k k w w w w 0 0 0 0 w w k k h h 0 0 0 0 0 0 0 0 0 0 5 5 0 0 0 0 5 5 5 5 5 5 5 5 5 5 5 5 5 5 5 5 5 5 1 1 1 1 1 1 1 1 2 2 2 2 2 2 1 1 2 2 2 2 2 2 2 2 1 2 2 2 - = = - = & 4 = = 4 = 5 h k k l k k k k w w k w k 0 0 0 l w k h 1 = = = & o o                           ",
"O                       X o # & o * - = & & - i i u u u i i u u i i h h h i 5 2 # 4 : : $ 6 1 7 1 2 2 2 2 2 3 1 1 1 1 1 1 1 1 1 1 1 1 1 1 2 2 1 1 1 1 1 1 1 1 1 2 2 2 2 2 2 2 2 2 2 2 2 5 5 5 5 2 2 5 5 5 5 5 5 5 5 5 5 5 5 5 5 5 5 5 5 5 5 5 5 5 5 0 0 0 0 0 0 0 0 0 0 0 0 0 0 0 0 0 0 0 0 0 w w 0 h k k k k k k k k k k k k k k k k k C C k k C C C C C C C C C C C C C C C C C C C C C C C C C C C C C C C C C C C C C C C C C C C C C C C C N N w w k k k C k w w w w w w w w w w 0 0 0 0 0 k w k w h 0 0 0 0 0 0 0 0 0 0 0 5 5 5 5 0 0 5 5 5 5 5 5 5 5 5 5 5 5 5 5 5 5 5 5 1 1 1 1 1 1 1 1 1 1 2 1 2 1 1 1 2 1 2 1 1 1 2 1 1 1 = = = = = = = # 3 = = = o 2 5 5 5 5 q q q q 0 0 q q q q 6 6 h 1 2 5 2 = & o # o o                         O ",
"O                           X X & & & & = = = = : : : : 4 4 4 4 4 4 2 4 2 2 1 = = = : = 1 1 1 1 3 3 1 3 3 3 3 3 3 3 3 3 3 3 1 1 1 1 3 3 1 1 1 1 3 3 3 2 3 3 3 3 3 3 3 3 4 4 4 4 4 4 4 3 5 5 5 5 5 5 5 5 7 5 5 5 5 5 5 5 5 5 5 5 5 5 5 5 5 5 5 5 5 5 5 5 5 5 5 5 0 0 0 0 0 0 0 0 0 0 0 0 0 0 w w 0 0 0 0 0 0 w w w w w w w w e w k C k k k C C C C C C C C C C C C C C C C C C C C C C C C C C C N N N N N N N N N N N N N N C C C w N w N N N N w w w N N N N w w w w w w w w 0 0 0 0 0 0 0 0 0 0 0 0 0 0 0 0 0 0 0 0 0 5 7 5 0 5 5 0 0 5 5 5 5 5 5 5 5 5 5 5 5 7 7 7 7 7 7 7 7 1 1 1 1 1 1 1 1 1 1 1 1 1 1 1 1 1 1 1 1 1 1 1 1 = = 1 = = = = = = = = = = = = = 2 3 4 6 4 4 4 4 3 3 3 3 1 2 3 3 1 1 = = $ $ # # o o X                         O ",
"O                           O O o o # # & & & & = = = = ; : : : : : = = = = 3 = 1 1 1 1 1 1 1 1 1 3 1 3 3 3 3 3 3 3 3 3 3 3 1 1 1 1 3 3 2 1 1 1 3 3 3 2 3 3 3 3 3 3 3 2 4 4 4 4 4 4 2 3 5 5 5 5 6 6 5 5 5 5 5 5 5 5 5 5 5 5 5 5 5 5 5 5 5 5 5 5 5 5 5 5 5 5 0 5 0 0 0 0 0 0 0 0 0 0 0 0 0 0 w w 0 0 0 0 0 0 w w w w w w w w e e k k k k k k C C C k C C C C C C C C C C C C C C C C C C C C C C N N N N N N N N N N N N N N C C w w w w N N N N w w w w N N w w w w w w w w 0 0 0 0 0 0 0 0 0 0 0 0 0 0 0 0 0 0 0 0 0 0 5 5 5 5 5 5 0 0 5 5 5 5 7 7 5 5 5 5 7 7 7 7 7 7 7 7 7 7 1 1 1 1 1 1 1 1 1 1 1 1 1 1 1 1 1 1 1 1 1 1 1 1 = = 1 = 1 1 1 1 1 = = = = = = = = = = 3 = = ; ; 3 ; = = = = = = $ $ $ $ # # o o o o o o                         ",
"O                               o o o o o # # # # # # $ $ $ & & = = = = = = : 3 1 1 1 1 1 1 1 1 1 3 1 1 1 1 3 3 3 3 3 3 1 1 1 1 1 1 3 3 2 2 1 1 1 1 2 2 2 2 1 1 2 2 1 1 1 1 1 1 1 1 1 1 1 1 1 1 1 7 7 7 1 1 2 2 5 5 5 5 5 5 5 5 5 5 5 5 5 5 5 5 5 5 5 5 0 0 0 0 0 0 0 0 0 0 0 0 0 0 0 0 0 0 0 0 0 0 0 0 0 0 w w 0 0 w w w w e e k k w k k k C C C C k k C C C C C C C C C C C C C C C C C C C C N N N N C C N C N N N N N N N N w w w w w w N N w w w w w w w w w w w w w w 0 0 0 0 0 0 0 0 0 0 0 0 0 0 0 0 0 0 0 0 0 0 5 5 5 5 5 5 5 r 5 5 5 5 7 7 5 5 5 7 7 7 7 7 7 7 7 7 1 1 1 1 1 1 1 1 1 1 1 1 1 1 1 1 1 1 1 1 1 1 1 1 1 1 = = = = = = 1 1 = = = = = = = = = = = = = $ $ = $ $ $ = & & & & # # # # # o o X X                             O ",
"O                               X X X o o o o # o o # o # # # # # # = = = = = : 1 = = = 1 1 1 1 = 3 1 1 1 1 3 3 1 1 1 1 1 1 1 1 1 1 1 1 1 1 1 1 1 1 2 2 2 2 1 1 2 2 1 1 1 1 1 1 1 1 1 1 1 1 1 1 1 1 7 7 1 1 2 2 5 5 5 5 5 5 5 5 5 5 5 5 5 5 5 5 5 5 5 5 5 5 5 5 0 0 0 0 0 0 0 0 0 0 0 0 0 0 0 0 0 0 0 0 0 0 w w 0 w w w w w w w k k w w k k C C k k w w N N C C C C N N N N C C C C N N N N C C N N N N N N N N N N N N N N N w w w w w w w N N w w w w w w w w w w w w 0 0 0 0 0 0 0 0 0 0 0 0 0 0 0 0 0 0 0 0 0 0 0 r 5 5 7 7 5 5 r r 5 5 5 5 2 2 2 7 2 2 7 7 2 2 2 2 2 2 1 1 1 1 1 1 1 1 1 1 1 1 1 1 1 1 1 1 1 1 1 1 1 1 1 1 = = = = = = = = = = = = = = = = = = = = # # # $ # # # # # # # # # o # o o X X X                               O ",
"O                                           X X X X o X X o o o o # = = 3 = = = = = 1 1 1 1 = 1 1 1 1 1 1 1 1 1 3 1 1 1 1 1 1 1 1 1 1 1 1 1 1 1 1 1 1 2 1 1 1 1 1 1 1 2 1 1 1 1 1 1 1 1 1 1 1 1 7 7 7 7 7 7 5 5 5 5 5 5 5 5 5 5 5 5 5 5 5 5 5 5 5 5 5 5 5 5 5 5 0 0 0 0 0 0 0 0 0 0 0 0 0 0 0 0 0 0 0 0 0 0 0 0 0 0 w w w w w w w w k k k k C C k w w w C C C C k w w w C C C k k w w w k k k C N N N N w w w w w w w w w w w w w w w w w w w w w w w w w w w w w w w w w w 0 0 0 0 0 0 0 0 0 0 0 0 0 0 0 0 0 0 0 0 0 0 7 7 7 7 r r 5 5 5 5 5 5 7 7 7 7 2 2 7 7 2 2 7 7 7 7 1 1 1 1 1 1 1 1 1 1 1 1 1 1 1 1 1 1 1 1 1 1 1 1 1 1 = = = = = = = = = = = = = = = = = = = $ # # o o o o o o o o o o X X X X                                       O ",
"O                                                   X         X o # = 3 3 = = = = = = 1 1 1 1 1 1 1 1 1 1 1 1 1 3 3 1 1 1 1 1 1 1 1 1 1 1 1 1 1 1 1 1 1 1 1 1 1 1 1 1 1 1 1 1 1 1 1 1 1 1 1 1 1 1 1 1 1 1 1 5 2 5 5 5 5 5 5 5 5 5 5 5 5 5 5 5 5 5 5 5 5 5 5 5 5 0 5 0 0 0 0 0 0 0 0 0 0 0 0 0 0 0 0 0 0 0 0 0 0 0 0 w w w w w w w w w k k k k k w w w w C C C C w w w w C C C k w w w w C C k k w N N N w w w w w w w w w w w w w w w w w w w w w w w w w w w w w 0 w w w w 0 0 0 0 0 0 0 0 0 0 0 0 0 0 0 0 0 0 0 0 0 r 7 7 7 7 7 7 5 5 5 5 5 5 7 7 7 7 2 2 7 7 2 2 2 2 7 7 1 1 1 1 1 1 1 1 1 1 1 1 1 1 1 1 1 1 1 1 1 1 1 1 = = = = = = = = = = = 1 = = = = = 1 = = = = # o o X X X                                                           O ",
"O                                               X   X   X     X # = : 3 = = = = = = = 1 1 1 1 1 1 1 1 1 = 1 1 1 = = 1 1 1 1 = = = = 1 1 1 1 1 = 1 1 1 1 1 1 1 1 1 1 1 1 1 1 1 1 1 1 1 1 1 1 1 1 7 7 1 1 1 7 5 5 2 2 2 2 2 2 5 5 5 5 5 5 5 5 5 5 5 5 5 5 5 5 5 5 5 5 5 0 0 0 0 0 0 0 0 0 0 0 0 0 0 0 0 0 0 0 0 0 0 0 w w w w w w w w w w k k k k k k w w C C C C k k w w C C C C k k w w C k N w w w N N w w w w w w w w w w w w w w w w w w w w w w w w w w w w w 0 0 0 w w 0 0 0 0 0 0 0 0 0 0 0 0 0 0 0 0 0 0 0 0 0 0 7 7 7 7 7 7 5 5 5 5 5 5 2 7 2 2 2 2 7 7 2 2 2 7 2 7 1 1 1 1 1 1 1 1 1 1 1 1 1 1 1 1 1 1 1 = = 1 1 1 1 = = = = = = = = = 1 1 = = = = = = = = = = # # o X X                                                             o ",
"O O O O O O O O O O O O O O O O O O O O O O O O O O o o O O O o & = 3 : = = = : = = = = 1 1 = = = 1 1 = = 3 1 1 = = 1 1 1 1 = 1 = = = 1 = 1 1 = 1 1 1 1 1 1 1 1 1 1 1 1 1 1 1 1 1 1 1 1 1 1 1 1 7 7 1 1 1 7 5 5 2 2 2 2 2 2 5 5 5 5 5 5 5 5 5 5 5 5 5 5 5 5 5 5 5 5 5 5 5 5 5 5 0 0 0 0 0 0 0 0 0 0 0 0 0 0 0 0 0 0 w 0 w w w w w w w w k k k k w w w w w w w w w w w w w w w w w w w w w w w w w w w w w w w w w w w w w w w w w w w w w w w w w w w w w w w w w 0 0 0 w w 0 0 0 0 0 0 0 0 0 0 0 0 0 0 0 0 0 0 0 0 0 0 5 7 7 7 7 7 5 5 5 5 5 5 2 2 2 2 2 2 7 7 1 1 7 7 7 7 1 1 1 1 1 1 1 1 1 1 1 1 1 1 1 1 1 1 1 1 = = 1 1 1 1 = = = = = = = = 1 = = = = = = = = - 1 = = $ # o o o o O O . . O o O O O O O o o O O O O O O O O O     O O   O # "
};
