/* XPM */
static char *a1c9f163bf924c52cf2265a118594991cNCRA67RW6hQUgbb[] = {
/* columns rows colors chars-per-pixel */
"612 386 256 2 ",
"   c #000524",
".  c #01062B",
"X  c #01092E",
"o  c #010927",
"O  c #010731",
"+  c #010B33",
"@  c #000D3A",
"#  c #090E36",
"$  c #02103E",
"%  c #021037",
"&  c #00051F",
"*  c #010F42",
"=  c #060E49",
"-  c #011244",
";  c #01154B",
":  c #01184E",
">  c #09144A",
",  c #011752",
"<  c #011954",
"1  c #021759",
"2  c #011B5C",
"3  c #0A1A5A",
"4  c #081159",
"5  c #01215D",
"6  c #05235B",
"7  c #003559",
"8  c #011E63",
"9  c #011E6A",
"0  c #091A67",
"q  c #051D77",
"w  c #141B71",
"e  c #012165",
"r  c #01226B",
"t  c #012A6C",
"y  c #082669",
"u  c #012573",
"i  c #012975",
"p  c #01267B",
"a  c #012A7C",
"s  c #0A2779",
"d  c #13267A",
"f  c #00327C",
"g  c #023476",
"h  c #082E6C",
"j  c #252275",
"k  c #00437B",
"l  c #091D89",
"z  c #022583",
"x  c #012C83",
"c  c #0A2B84",
"v  c #02258B",
"b  c #012D8B",
"n  c #0A2C8C",
"m  c #0B2586",
"M  c #132888",
"N  c #013284",
"B  c #01318C",
"V  c #013A8C",
"C  c #083588",
"Z  c #022D93",
"A  c #022D9B",
"S  c #082895",
"D  c #152997",
"F  c #013394",
"G  c #013A94",
"H  c #01359B",
"J  c #01399D",
"K  c #0B3598",
"L  c #143498",
"P  c #14328C",
"I  c #042CA5",
"U  c #0136A2",
"Y  c #013AA4",
"T  c #0135AA",
"R  c #013CAB",
"E  c #0A37A7",
"W  c #1436A7",
"Q  c #013EB2",
"!  c #023DBB",
"~  c #0638B6",
"^  c #142FAF",
"/  c #242998",
"(  c #00439C",
")  c #034799",
"_  c #024991",
"`  c #0143A4",
"'  c #0141AD",
"]  c #014BAB",
"[  c #0549A6",
"{  c #0156A9",
"}  c #0141B4",
"|  c #014AB4",
" . c #0144BC",
".. c #014ABC",
"X. c #0A45B8",
"o. c #0357B8",
"O. c #144DB0",
"+. c #0267B8",
"@. c #0176B9",
"#. c #0667AF",
"$. c #2554B7",
"%. c #043CC5",
"&. c #0D3BD1",
"*. c #0F3CE5",
"=. c #0146C3",
"-. c #0149C5",
";. c #0246CA",
":. c #014ACB",
">. c #0A47C8",
",. c #0152CC",
"<. c #0257C7",
"1. c #0245D3",
"2. c #014CD3",
"3. c #014EDA",
"4. c #0948D8",
"5. c #1347D7",
"6. c #0152D4",
"7. c #0152DC",
"8. c #015BDC",
"9. c #0658D6",
"0. c #134DCC",
"q. c #0367C7",
"w. c #0378C7",
"e. c #0267D9",
"r. c #0277D9",
"t. c #136ECE",
"y. c #024DE3",
"u. c #074AE7",
"i. c #0153E3",
"p. c #015BE4",
"a. c #0155EB",
"s. c #015AED",
"d. c #0B57E8",
"f. c #084CF6",
"g. c #0156F3",
"h. c #015BF4",
"j. c #015DFB",
"k. c #0857FA",
"l. c #1458FB",
"z. c #154DEB",
"x. c #0163E3",
"c. c #0163EC",
"v. c #016BEC",
"b. c #0569E4",
"n. c #0277E8",
"m. c #0163F5",
"M. c #016CF4",
"N. c #0164FD",
"B. c #0A64FE",
"V. c #016BFE",
"C. c #0A6CFE",
"Z. c #0B68F3",
"A. c #0174F4",
"S. c #017CF5",
"D. c #0173FE",
"F. c #017BFD",
"G. c #0A77FC",
"H. c #146FF6",
"J. c #246BDD",
"K. c #0089BA",
"L. c #05A9BE",
"P. c #0288C8",
"I. c #0096CA",
"U. c #0388D8",
"Y. c #0498D7",
"T. c #158DD5",
"R. c #03A6D9",
"E. c #05B0D8",
"W. c #0183EC",
"Q. c #018CEC",
"!. c #0388E4",
"~. c #0398E9",
"^. c #0184F5",
"/. c #018CF5",
"(. c #0183FD",
"). c #0A84FE",
"_. c #018BFD",
"`. c #0A8BFE",
"'. c #0A87F4",
"]. c #0193F4",
"[. c #019BF4",
"{. c #0193FD",
"}. c #0A94FE",
"|. c #019CFD",
" X c #0A9CFE",
".X c #0B98F4",
"XX c #1597FD",
"oX c #148CF3",
"OX c #03A7E9",
"+X c #03B8E9",
"@X c #01A4F4",
"#X c #01ABF5",
"$X c #02A3FE",
"%X c #0AA3FF",
"&X c #02ABFD",
"*X c #0AABFF",
"=X c #0BA8F4",
"-X c #14A8FD",
";X c #01B4F5",
":X c #01BBF4",
">X c #02B3FD",
",X c #0AB3FE",
"<X c #02BBFD",
"1X c #0ABCFE",
"2X c #0BB7F5",
"3X c #15B9FB",
"4X c #15AFE9",
"5X c #26B5FB",
"6X c #2590F5",
"7X c #00F8DA",
"8X c #02C7EB",
"9X c #01D7EB",
"0X c #01C3F5",
"qX c #01CCF4",
"wX c #02C3FD",
"eX c #0AC4FE",
"rX c #02CBFD",
"tX c #0BCCFE",
"yX c #0CC8F4",
"uX c #15C7FC",
"iX c #01D3F4",
"pX c #01DBF4",
"aX c #02D3FD",
"sX c #0BD4FE",
"dX c #02DCFD",
"fX c #0BDBFE",
"gX c #0BD5F5",
"hX c #15D8FE",
"jX c #14C9EB",
"kX c #24D0FD",
"lX c #02E7EB",
"zX c #01FDED",
"xX c #02F9E9",
"cX c #01E4F4",
"vX c #01ECF4",
"bX c #02E4FE",
"nX c #0BE3FE",
"mX c #02ECFD",
"MX c #0BECFF",
"NX c #0BE7F4",
"BX c #13E4FF",
"VX c #13ECFF",
"CX c #1AE8FD",
"ZX c #01F4F4",
"AX c #01FDF4",
"SX c #02F4FE",
"DX c #0BF4FF",
"FX c #02FDFE",
"GX c #0BFEFF",
"HX c #0AFBF5",
"JX c #13F3FF",
"KX c #13FDFF",
"LX c #1AF9FE",
"PX c #13F5EC",
"IX c #24EFFF",
"UX c #04CEDA",
/* pixels */
"D.D.D.D.V.V.V.V.V.V.V.V.N.N.N.N.N.N.N.N.N.N.N.N.N.N.N.N.N.N.N.N.D.D.D.F.F.(.(.(._._._.{.{.{.|.|._._._._.(.(.(.(.{._.(.(.F.F.D.D.D.D.D.V.V.V.V.N.N.N.N.N.N.j.j.j.h.g.g.g.a.a.a.a.i.i.7.7.2.2.2.2.2.2.2.:.:.;.;.;.=.=.=. . . . . .} } } } Q Q R R R R R R R R Y Y U U H H H H H H R R Y Y Y Y Y Y Y Y Y Y U U U U Y Y Y Y Y Y U U R R R R R R R R R R R R R R R R Q Q Q } } } }  .] ] } } } } } } } } } } } } } }  . . . . . . . .R R R R R R R R R R R R Y Y Y Y B B B B B b x z a p u u r r r e e 2 2 2 2 2 2 2 < : ; ; ; ; ; ; - - - - - * * @ @ @ $ @ @ @ + + + + + X . . . . . . X + + + + + @ + @ @ @ @ @ @ + + + @ @ $ $ $ $ $ @ @ @ @ + + * * - - - - - - @ @ @ @ @ @ @ @ @ @ @ @ @ @ @ @ $ $ $ $ $ $ $ $ - - - ; ; ; , , ; , , , , 1 1 1 2 2 2 5 e e e e 8 8 8 e r r r r r u u u u a a a x x x x x b B B F F F F F F H H H H H H H H U U Y Y R R R R R Q R R R R R R R R Y Y Y Y Y Y Y Y R R ' ' ' ' ' ' ' ' R R R R R R R R R R Y Y Y Y F F F F F F F F H H H H H H H J H H H H H U Y Y R R R R R R R R R R R Q Q Q } } } } } }  . . . . . . . . . .=.=.=.=.=.=.;.;.;.:.:.:.2.2.2.2.3.7.7.7.7.i.a.s.s.h.j.j.j.j.j.N.N.N.N.N.V.V.V.V.V.D.D.D.D.D.D.F.F.F.).).).F.F.(.(._._._._.{.{.{.{.{.{.{.{._.(.F.F.F.F.D.D.D.V.V.V.N.N.N.N.N.N.N.N.N.N.j.N.N.j.j.N.N.N.N.N.N.",
"D.D.D.D.D.V.V.V.V.V.V.V.N.N.N.N.N.N.N.N.N.N.N.N.N.N.N.N.N.N.N.N.V.V.D.D.F.F.F.(._._._.{.{.{.|.|.{.{._._._.(.(.(._._.(.(.(.(.F.F.F.D.D.D.V.V.V.V.N.N.N.N.N.N.j.j.h.h.g.g.s.a.a.a.a.i.i.7.7.6.6.2.2.2.2.:.:.;.;.;.-.=.=.=. . . . .} } } } Q } Q R R R R R R R Y Y H H H H H F F F U U Y Y Y Y Y Y Y Y Y Y Y U U U Y U Y Y Y Y U U R R R R R R R R R R R R R R R R R Q Q } } } }  .} } } } }  . . . . . . . .} } }  . . . . . . . .} } } } } } } } } } } ' R R Y U G F F B b x x x a p u u r r r e 8 8 8 2 2 2 2 2 2 < < ; ; ; ; ; - - - - - - @ @ @ @ $ @ @ @ @ + + + + X . . . . . . X + + + + + @ @ @ @ @ @ @ @ @ @ @ @ @ @ @ @ @ @ @ @ @ + + + @ @ @ @ @ @ @ @ @ @ + + + + + + @ @ @ @ @ @ @ @ $ $ $ $ $ $ $ $ - - - ; ; ; , , , , , 1 1 1 1 1 2 2 2 5 e e e e e e e r r r r r r u u u u a a a x x x x b b B B F F F F F H H H H H H H H U U U Y Y R R R R R R R R R R R R R R R R R R R R R R R R R R ' ' ' ' ' ' R R R R R R R R Y Y Y Y J J H H H H F F F F H H H H H H H J H H H H H U Y Y R R R R R R R R R R R Q Q } } } } } } }  . . .X. . . . . .=.=.=.=.=.=.=.;.;.;.:.:.2.2.2.2.2.7.7.7.7.i.i.a.s.s.g.j.j.j.j.N.N.N.N.N.V.V.V.V.V.V.D.D.D.D.D.F.F.F.F.).).(.(.(.(.(._._._._.{.{.{.{.{.{._._._.(.F.F.F.D.D.D.V.V.V.N.N.N.N.N.N.N.N.N.N.N.N.N.N.N.N.N.N.N.N.V.V.",
"F.F.F.D.D.D.D.V.V.V.V.V.V.V.N.N.N.N.N.N.N.N.N.N.N.N.N.N.N.N.N.N.V.V.V.D.F.F.F.F.(.(._._.{.{.{.|.{.{.{.{._._._._.(.(.F.(.(.(.(.(.F.F.F.D.D.V.V.V.V.N.N.N.N.N.N.N.h.h.h.g.g.s.a.a.a.a.a.i.7.7.7.6.2.2.2.2.2.:.;.;.;.;.=.=.=. . . . . .} } } Q } Q R R R R R Y Y Y J J H H F F F F H H H Y Y Y R R Y R R Y Y Y Y Y Y Y Y Y R R R Y R R R R R R R R R R R R R R R R Q Q Q } } } }  .}  . . . . . . . . . . . . . . . . . . . .=.=.=.=.=.=.=. . . . . . .} } } ' R R J G F B b x a a a p u u r r r e e 8 8 8 2 2 2 2 2 1 < ; ; ; ; ; - - - - - $ $ $ @ @ @ @ @ @ @ @ + + + + X X . . X X + + + + + + + + + + + + + + @ @ @ @ + + + + + + + + + + + + + + + + + + + + + + + + + + + + @ @ @ @ @ @ @ @ $ $ $ $ $ $ $ $ - - - ; ; ; ; ; , , , < 1 1 2 1 1 2 2 2 8 e e e e e e r r r r r u u u u a a a a x x x x b B B B F F F F F H H H H H H H Y Y Y Y Y Y Y R R R R R R R R R R R R R R R R R R R R R R R R R R R ' R ' ' R R R R R R Y Y Y Y Y H J J H H H H H G H H J J H H H H H J J H H H U U Y Y R R R R R R R R R R ' Q } } } } } } }  . . .X.X. . . . .=.=.=.=.=.=.-.;.;.;.:.:.2.2.2.2.2.7.7.7.i.i.a.a.a.a.a.g.j.j.j.j.N.N.N.N.N.V.V.V.V.V.D.D.D.D.D.F.F.F.F.F.F.(.(.(.(.(._._.{.{.{.{.{.{.{.{._._._.(.F.F.F.D.D.V.V.V.N.N.N.N.N.N.N.N.N.N.N.N.N.N.N.N.N.N.N.N.V.V.V.V.",
"F.F.F.F.F.D.D.D.D.D.D.V.V.V.V.N.N.N.N.N.N.N.N.N.N.N.N.N.N.N.N.N.N.V.V.V.D.F.F.F.F.F.(.(._._.{.{.{.{.{.{.{.{._._.(.F.F.(.(.(.(.(.(.F.F.F.D.D.V.V.V.V.V.N.N.N.N.N.j.j.h.h.h.g.g.s.a.a.a.a.i.7.7.7.2.2.2.2.2.2.:.:.;.;.;.=.=.=. . . . . .} } } } Q R R R R R R Y Y J J H H F F B B F F F H U Y R R Y Y Y Y Y Y Y Y Y Y Y Y R R Y Y R R R R R R R R R R R R R R R R Q Q Q } } } }  . . . .=.=.=.=.=.=.=.=.=.=.=.=.=.=.=.=.=.=.=.=.=.;.;.;.=.=.=.=.=. .} } } } } } } Y Y H F b x a a a p u u r r r e r 8 8 8 8 2 2 2 1 1 < , ; ; ; : ; - - - - - $ $ @ @ $ $ @ @ @ @ + @ + + + + X . + + + + + + X X + + + + + + + + @ @ @ + + + + + O + + + + + + + + + + + + + + + X X X X X X X X @ @ @ @ @ @ @ @ $ $ $ $ $ $ $ $ - - - - ; - ; ; : ; , < < 1 1 1 1 1 2 2 2 e e e e e e r r r r r u u u u a a a a x x x x b B B B F F F F F H H H H H H J Y Y Y Y Y Y R R R R R R R R R R R R R R R R R R R R R R R R R R R R R R ' ' R R R R R R Y Y Y Y H J H G H H H H J J Y Y Y Y Y J H H H J J H H U U Y Y Y R R R R R R R R ' ' ' } } } } } } }  . . . . . . . . . .=.=.=.=.-.;.;.;.:.:.:.:.2.2.2.3.7.7.7.7.i.i.a.a.a.g.g.h.j.j.j.j.N.N.N.N.V.V.V.V.V.D.D.D.D.D.D.F.F.F.F.F.F.(.(.(.(._._._.{.{.|.{.{.{.{.]._._.(.(.F.D.D.V.V.V.V.V.N.N.N.N.N.N.N.N.N.N.N.N.N.N.N.N.V.V.V.V.V.V.D.D.",
"(.(.(.F.F.F.F.D.D.D.D.V.V.V.V.V.N.N.N.N.N.N.N.N.N.N.N.N.N.N.N.N.N.N.V.V.D.D.D.D.F.F.F.(.(._._.{.{.{.{.{.{.{.{.{.(.(.(.(.(.(.(.^.(.(.F.F.D.D.V.V.V.V.V.V.N.N.N.N.N.N.j.j.h.h.g.g.a.a.a.a.i.i.7.7.3.3.2.2.2.2.2.:.;.;.;.;.=.=.=. . . . . .} } } } R Q R R R R Y Y J J J H F F B B B F F H H U T T Y Y Y Y Y Y Y Y R Y Y Y Y Y Y Y R R R R R R R R R R R R R R ' ' Q Q Q } } } }  . . . .=.=.=.;.;.;.;.;.;.;.;.;.;.;.;.;.;.;.;.-.-.;.;.;.=.=.=. . .} Q } } } ' R R Y U H F B x x a a p u u r r r e 8 8 8 8 2 1 1 1 1 , , ; - - - - - - - - $ $ @ @ @ @ $ $ $ @ @ @ @ @ @ + + + + + + + + + + + X X + + + + + + + + + + + + + + + + + + + + + + + + X X X X X X X X X X X X X X X X @ @ @ @ @ @ @ @ $ $ $ $ $ $ $ $ - - - - - - ; ; ; ; ; ; ; < < < 1 1 1 2 2 8 e e e 8 8 r r r r r u u u i a a a a x x x x b B B B F F F F F H H H H H H Y Y Y Y Y Y Y Y R R R R R R R R R R R R R R R R R R R Q R R R R R R R R R R R R R R R R R Y Y Y Y Y J J J H H U Y Y Y Y Y Y Y Y U U U U U Y H U U Y Y Y R R R R R R R R R ' ' ' } } } } } }  . . . . . .=. . .=.=.=.=.=.=.;.;.;.;.:.2.:.2.2.2.3.7.7.7.7.i.i.i.a.a.g.h.j.j.j.j.j.j.N.N.N.N.V.V.V.V.D.D.D.D.D.F.F.F.F.F.F.(.(.(.(.(._._._.{.|.|.|.{.{.{././.(.(.F.F.D.V.V.V.V.V.V.V.N.N.N.N.N.N.N.N.N.N.N.N.V.V.V.V.V.V.V.V.D.D.D.D.",
"(.(.(.(.F.F.F.F.D.D.D.D.D.V.V.V.N.N.N.N.N.N.N.N.N.N.N.N.N.N.N.N.N.N.N.V.V.D.D.D.D.F.F.(.(._.`.`.{.{.{.{.|.{.{.{.`._.(.(.(.(.(.(.(.(.(.F.F.F.D.A.V.V.V.V.V.V.N.N.N.N.N.j.j.h.h.h.g.g.a.a.a.i.i.i.7.7.3.2.2.2.2.2.:.:.;.;.;.=.=.=. . . . . .} } } Q Q ' R R R Y Y Y Y Y H H H F F F F F H H H U U Y J J J Y Y Y Y R R Y Y Y Y Y Y R R R R R R R R R R R R R R ' ' Q Q Q } } } }  . . . .=.=.=.=.=.:.:.:.:.:.:.:.:.,.,.:.:.:.;.;.;.=.=. . . . .} } } } R R Y Y Y Y H H H F B B x x a p u u r r r e 8 8 2 2 1 1 , , ; ; - - - - - - - - $ $ @ @ @ @ @ @ $ $ $ @ @ @ @ @ @ @ + + + + + + + + + + X X + X X X + + + + . . . + + + + + X X + + + + + + + X X X X X X X + + + + + + + + @ @ @ @ @ @ @ @ $ $ $ $ $ $ $ $ - - - - - - ; ; ; ; ; ; ; ; , , 1 1 1 2 2 8 8 e 8 8 8 e r r r r u u u i a a a a x x x x b B B B F F F F H H H H H H H J Y Y Y Y Y Y Y R R R R R R R R R R R R R R R R R R R Q Q R R R R R R R R R R R R R R R R R R R Y Y Y Y Y U Y Y Y Y Y Y Y Y Y Y U U U U U Y Y U Y Y R R R R R R R R R R R ' ' ' } } } } }  . . . . . .=.=. .-.=.=.=.=.;.;.;.;.:.:.2.2.2.2.3.3.7.7.7.i.i.a.a.a.a.g.h.j.j.N.j.j.j.N.N.N.N.N.V.V.D.D.D.D.D.D.F.F.F.F.F.(.(.(.(.(._._._.{.{.{.|.{.{.{.{._._.(.(.F.F.D.V.V.V.N.V.V.V.N.N.N.N.N.N.N.N.N.V.V.V.V.V.V.V.V.V.V.V.V.D.D.D.D.",
"(.(.(.(.(.F.F.F.D.D.D.D.D.D.V.V.N.N.N.N.N.N.N.N.N.N.N.N.N.N.N.N.N.N.N.N.V.V.D.D.D.D.F.F.(.(.(._._.{.{.{. X|.|.|.{.{._._.(.(.(.(.(.(.(.(.F.F.F.F.D.V.V.V.V.V.N.N.N.N.N.N.j.j.j.h.h.h.g.s.a.a.a.a.7.7.7.7.2.2.2.2.2.:.:.;.;.;.=.=.=. . . . . .} } } } R R R R R Y Y Y Y U U H H H H H H H H H H H H H H H H J J Y Y Y Y Y Y Y Y Y Y R R R R Y R Y R R R R R R ' ' Q Q Q Q } } }  . . . . . .=.=.=.2.2.2.2.2.2.2.2.2.:.:.:.:.:.:.:. . .} } } Q R R R R Y Y H H H H F H H F F B b b a p u u r r r e 2 2 1 1 < , ; ; ; ; - - $ $ $ @ * @ @ @ @ @ + + @ @ $ $ $ $ @ @ @ @ @ @ @ + + + X + + + + + + X + + X X + + + + . . . . X X + + + + + + + + + + + + + + + + + + + + + + + + + + @ @ @ @ @ @ @ @ $ $ $ $ $ $ $ $ - - - - - - - - ; ; ; ; ; ; < < 1 1 1 2 2 8 8 8 e 8 e r r r r r u u u i a a a a x x x B B B B B F F F F H H H H H H H J Y Y Y Y Y Y Y R R R R R R R R R R R R R } } } } } } } } R R ' R ' ' ' ' R R R R R R R R ~ ~ R R R R R Y Y Y Y Y Y Y Y Y U U U U U U U Y Y Y Y Y Y R R R R R R R R R R R ' ' ' } } } } }  . . . . .=.=.=.=.=.=.-.=.;.;.;.:.:.:.2.2.2.2.2.3.7.7.7.i.i.a.a.s.s.g.h.j.j.j.N.N.N.N.N.V.V.V.V.D.D.D.D.D.D.F.F.F.F.(.(.(.(.(.(._._._._.{.{.{.{.{.{.{.{.`._.(.(.F.F.F.D.V.N.N.N.N.N.N.N.N.N.N.N.N.N.N.V.V.V.V.V.V.V.V.V.D.D.D.D.D.D.F.F.",
"_.(.(.(.(.F.F.F.D.D.D.D.D.D.D.V.N.N.N.N.N.N.N.N.N.N.N.N.N.N.N.N.j.N.N.N.V.V.V.V.V.V.D.F.F.F.(.(._._.{.{. X X|.|.|.{./._._.(.).).(.(.(.(.).F.F.F.D.D.V.V.V.V.V.V.N.N.N.N.j.j.j.h.j.h.h.g.s.s.a.a.7.7.7.7.3.2.2.2.2.2.:.;.;.;.=.=.=.=. . . . .} } } } R R R R R R R R U U U U U U U J J H H F F F H H H H H H J J Y Y Y Y Y Y Y Y Y Y Y Y Y Y Y Y R R R R R R ' ' Q Q Q Q } } }  .} }  . . . .=.=.2.2.2.2.2.2.2.2.:.:.:.2.2.2.:.:.} } } ' ' R R R Y U U H H J J J F F G G G F Z v a p u u r r r e 2 2 < < ; ; ; - ; ; ; $ $ $ $ $ @ @ @ @ @ + + + @ @ $ $ $ $ $ @ @ @ @ @ @ + + + X X X + + + + + + + X X X + + + X . . . . . . . + + + + X X X X + + + + + + + + @ @ @ @ @ @ @ @ @ @ @ @ @ @ @ $ $ $ $ $ $ $ $ $ - - - - - - - - ; ; ; : : < < < 1 1 1 2 2 8 8 8 e e e r r r r r u u u i a a a a x x x B B B B B F F F F H H H H H H H H Y Y Y Y Y Y Y R R R R R R R R R R R R R } } } } } } } } R R ' ' ' ' ' ' R R R R R R R R ~ ~ ~ ~ R R R R R R R R R Y Y Y U U U U U U U Y Y Y Y Y Y R R R R R R R R R R R ' ' } } } } } }  . . . .=.=.=.=.=.=.-.-.=.;.;.;.:.:.:.2.2.2.2.2.7.7.7.7.i.i.a.a.h.h.h.j.j.j.N.j.N.N.N.V.V.V.V.V.D.D.D.D.F.F.F.F.).).).(.(.(.(._._._._.{.{.{.{.{.{.{.{.`._.(.).).F.D.D.V.V.N.N.N.N.N.N.N.N.N.N.N.N.N.N.V.V.V.V.V.D.D.D.D.D.D.D.D.F.F.F.F.",
"/./._._._.(.(.(.F.F.F.F.F.D.D.D.V.V.V.N.N.N.N.N.N.N.N.N.N.N.N.N.j.j.N.N.N.N.N.N.V.V.V.D.D.D.V.V.D.F.(.(._.{.|.|.$X$X|.|.{.{._._._._._.(.(.(.(.(.F.F.D.D.D.V.V.V.V.V.N.N.N.N.N.N.j.j.j.j.h.g.a.a.7.7.7.7.6.2.2.2.2.2.2.:.;.;.;.=.;.=.=.=. . . .} } } R R R R Y Y R R R Y Y J H H J H H H F F H H H H H H H H H H Y Y Y Y U U U U Y Y Y Y R R R R R R R R R R R Q R ' } } } } } }  . . . . .=.-.-.;.:.;.2.2.2.2.3.6.2.:.:.;.;.:.:.6.6.2.2.;. .} ' Y U Y H H F F F F F F B B B B N a a u u r r r r 8 2 2 1 1 < ; ; ; ; - - - - - * @ @ @ @ @ + + + + + + + @ @ @ @ $ @ @ @ @ @ @ @ @ @ @ @ @ @ @ @ + + + + X X X X X X X X X X X . . . . . . . . . + + + + @ @ @ @ @ @ @ @ @ @ @ @ @ @ @ @ @ @ @ @ $ $ $ $ - * * * - - - - - - - - ; ; ; ; : , : < 1 1 1 2 2 2 5 2 8 e e e r r r r u u p a a x x x x x b B B B B F F F H H H H H H F H H H H H U U Y Y Y Y R R R R R R R R R R R R } Q Q } } } } Q Q Q Q Q Q Q Q Q Q Q Q Q Q Q Q Q R R R R R R R R R R R R R R R R U U U Y Y Y Y Y R R R R R R R R R R R R R R R R ' ' } } } } } }  . . . . .=.=.=.=.=.=.=.;.;.:.:.;.:.:.2.2.7.7.7.i.i.a.a.g.g.g.j.j.j.j.j.N.N.N.N.V.V.V.D.D.D.D.D.F.F.F.F.(.(.(.(.(.(.(.(.(.(.(._.{.{.{.{.|.|.{.{._._._.(.(.F.F.D.V.V.V.V.V.N.N.N.N.N.N.N.N.V.V.V.V.V.V.V.V.V.D.D.V.D.D.D.D.F.F.F.F.F.(.(.",
"{.{.{._._._.(.(.F.F.F.F.F.D.D.D.V.V.V.V.V.N.N.N.N.N.N.N.N.N.N.N.j.j.N.N.N.N.N.N.V.V.V.V.D.D.V.V.D.D.D.F.(._.{.{.|.|.|.|.|.|.{.{.{._._._._.(.(.(.F.F.F.F.D.D.V.V.V.V.V.N.N.N.N.N.j.j.j.j.h.g.g.a.i.i.7.7.7.6.2.2.2.2.2.:.:.;.;.;.;.;.=.=. . . . .Q } R R R R Y Y R Y Y Y Y Y J J J J H H H H H H H H H H H H H H U U U U U Y Y Y Y Y Y Y Y Y R R R R R R R R R R R ' ' } } } } }  . . . . .=.-.-.;.;.;.;.:.2.2.3.6.2.:.;.;.;.:.:.6.2.2.:.=. .} ' R Y Y U H H F F H F F F B B B N a a u u r r r r e e 8 2 2 < : : ; ; ; ; - - - - - $ $ @ @ @ + + + + + + @ @ @ @ @ @ @ @ @ @ @ @ @ @ @ @ @ @ @ @ + + + + + + X X X X X X . . X X . . . . . . . . + + + + @ @ @ @ @ @ @ @ @ @ @ @ + + + @ @ @ @ @ $ $ $ $ - - * * - - - - - - - - ; ; ; ; ; ; < < 1 1 1 2 2 2 5 2 e e e e r r r r u u p a a a x x x x b B B B B F F F H H H H H H H H H H H H Y Y Y Y Y Y R R R R R R R R R R R R } Q Q } } } } } Q Q Q Q Q R Q Q Q Q Q Q Q Q Q Q R R R R R R R R R R R R R R R R Y Y Y Y R R Y Y R R R R R R R R R R R R R R R R ' Q } } } } } }  . . . . .=.=.=.=.=.=.=.;.:.:.2.:.:.2.2.7.7.i.i.a.a.a.a.g.h.j.j.j.j.j.N.N.N.N.N.V.V.V.D.D.D.D.D.F.F.F.F.(.(.(.(.(.(.(.(.(._._._.{.{.{.{.{.{.{.{._._.(.(.F.F.D.D.V.V.V.V.V.N.N.N.N.N.N.N.N.V.V.V.V.V.V.V.V.D.D.D.D.D.D.D.F.F.F.F.(.(.(.(.",
"$X|.|.{.{._._._.(.(.(.F.F.D.D.D.D.D.V.V.V.V.V.V.N.N.N.N.N.N.N.N.N.N.N.N.N.N.N.N.V.V.V.V.D.D.V.V.V.V.V.D.F.F.(._.{.|.|.$X$X$X|.|.{.{.{._._._._.(.(.(.(.F.F.D.D.D.D.D.V.V.V.V.N.N.N.N.j.j.h.h.h.g.a.a.i.i.7.7.7.7.6.2.2.2.2.:.;.;.;.;.=.=. . . . .} } R R R R R Y Y Y Y Y Y Y Y Y J J H H H H H H J J J H H H H H H H H H J J J J U U Y Y Y Y Y Y R R R R R R R R R ' ' } } } } }  . . . . .=.-.-.=.=.=.=.;.:.2.2.2.2.:.:.;.;.;.:.:.:.:.;.=. .} ' R R Y Y J H H H H H F F B B x N a a u u r r r r e e e 2 2 2 < < < ; ; ; ; ; ; ; - - - - $ $ $ % + + @ @ @ $ $ $ @ @ @ @ @ @ @ @ $ $ $ @ @ @ @ @ + + + + + + + + X X X X X . . . . . . . . . . . + + + + @ @ @ @ @ @ @ @ @ @ @ @ + + @ @ @ @ @ @ $ $ $ $ - - * * - - - - - - - - - - - ; ; ; : : 1 1 2 2 2 5 5 e e e e r r r r r u u p a a a x x x x b B B B B F F F H H H H H H H H H H H Y Y Y Y Y Y R R R R R R R R R R R R R } } } } } } } } Q Q Q Q R R R R Q Q Q Q Q Q Q Q R R R R R R R R R R R R R R R R R R R R R R R R R R R R R R R R R R R R R R R R Q } } } } }  . . . . . .=.=.-.-.=.=.;.;.:.:.2.2.2.2.6.7.7.i.a.a.s.s.s.g.h.j.j.j.j.N.N.N.N.N.N.V.V.V.D.D.D.D.F.F.F.(.(.(.(.(.(.(.).).(.(._._.{.{.{.{.{.{.{.{._._.(.(.(.F.F.D.D.D.V.V.V.V.N.N.N.N.N.N.N.N.V.V.V.V.V.V.V.V.D.D.D.D.D.D.F.F.F.F.(.(.(.(.(.(.",
"&X&X$X|.|.{.{.{._._.(.(.(.F.F.F.F.D.D.D.D.D.V.V.N.N.N.N.N.N.N.N.N.N.N.N.N.N.N.N.N.N.V.V.V.V.V.V.V.V.V.V.D.F.F.(./.{.{.|.|.$X$X$X|.|.|.{.{.{._._._.(.(.(.(.F.F.D.D.D.D.V.V.V.V.V.N.N.N.N.j.j.h.h.s.s.a.a.i.i.i.7.7.7.7.2.2.2.2.:.:.:.;.=.=. . . .} } } Q R R R R U U Y Y Y Y Y Y Y Y J J J J Y Y Y Y Y Y J J H H H H H H H J J J U U U U Y Y Y Y R R R R R R R R R R ' } } } } }  . . . . .=.-.-. . . .=.-.-.:.:.2.:.:.;.=.=.=.=.-.=.=.=. .} } ' R R Y Y Y J J H H H F F B B x N x a p u u r r r r r e e 2 2 2 2 < < < ; ; ; ; ; ; ; - - $ $ $ $ @ @ @ @ @ @ @ @ @ @ @ @ @ @ @ @ $ $ $ @ @ @ @ @ + + + + + + + + + + + + + + + . + + X X X X X + + + + + @ @ @ @ @ @ @ @ @ @ @ @ @ @ @ @ @ @ @ @ $ @ @ $ - - * - @ @ @ @ $ $ $ @ @ - - - ; ; : : 1 1 2 2 2 5 e e e r r r r r u u u u p a a a x x x x b B B B B F F F H H H H H H H H J J Y Y Y Y Y Y R R R R R R R R R R R R R R } } } } } } } } Q } } } Q Q Q Q Q Q Q Q Q Q Q Q } } ' R R R R R R R R R R R R R R R R R R R R R R R R R R R R R R R Q Q Q Q } } } } } } }  . . . . . .=.=.=.-.-.;.;.:.:.2.2.2.2.6.3.7.7.i.a.s.s.s.g.g.h.j.j.j.j.N.N.N.N.N.V.V.V.D.D.D.D.D.F.F.F.(.(.(.(.(.(.(.(.).(.(._._.{.{.|.{.{.{.{.{._._._.F.F.F.D.D.V.V.V.V.V.V.N.N.N.N.N.N.N.V.V.V.V.V.V.V.V.D.D.D.D.D.D.F.F.F.F.(.(.(.(.(.(.(.(.",
"&X&X&X&X$X$X|.|.{.{._._._.(.(.(.(.F.F.F.D.D.D.D.V.V.V.V.V.V.V.V.N.N.N.N.N.N.N.N.N.N.N.V.V.V.V.V.V.V.V.V.V.D.F.F.(._._.{.{.|.$X&X$X$X|.|.|.{.{.{._._._._.(.(.F.F.F.D.D.D.V.V.V.V.V.V.N.N.N.j.j.j.g.s.s.a.a.a.a.a.7.7.7.7.3.2.2.2.:.:.:.;.=.=. . .} } } Q Q R R R U U U Y Y Y Y Y Y Y U U U Y Y Y Y Y Y Y Y Y Y Y J J J J H H H H U U U U Y Y Y Y R R R R R R R R R R R } } } } }  . . . . .=.-.-.=.=.=.=.=.-.-.;.:.:.;.;.=.=.=.=. . . . . .} } ' R R R Y Y Y J J H H F F B B b N x x p u u r r r r r r e 8 2 2 2 1 1 < , ; ; ; - ; - - - $ $ @ @ @ @ @ @ @ + + + @ @ @ $ $ $ @ @ @ @ @ @ @ @ @ @ @ @ @ @ + + + + + + + + + + O O + + + + + + + + + + + + @ @ @ @ @ @ @ @ @ @ @ @ @ @ @ @ @ @ @ @ @ @ @ @ - - - - @ @ @ @ @ @ @ @ * * - - ; : : , 1 1 2 2 8 e e e r r r r r u u u u u p a a x x x x x b B B F B F F F H H H H H H J J J Y Y Y Y Y R R R R R R Q Q Q Q Q Q Q Q Q Q } } } } } } } } Q Q Q Q Q Q Q Q Q Q Q Q Q Q Q Q } ' ' R R R R R R R R R R R R R R R R R R R R R R R R R R R R R Q Q Q Q Q Q Q Q } } } }  . . . .=.=.=.=.-.-.;.;.:.:.2.2.2.2.3.3.7.7.i.a.a.s.g.g.h.h.h.j.j.N.N.N.N.N.N.V.V.V.V.V.D.D.D.D.F.F.F.F.(.(.(.(.(.(.(._.(._._._.{.{.|.|.|.{.{.{._.(.(.(.F.D.D.D.V.V.V.N.N.N.N.V.V.V.N.N.V.V.V.V.V.V.V.V.D.D.D.D.D.F.F.F.F.F.F.(.(.(.(.(._._._._.",
"#X&X>X>X>X&X&X$X|.|.|.{.{.{._._._.(.(.(.F.D.D.D.D.D.V.V.V.V.V.V.N.N.N.N.N.N.N.N.N.N.N.N.N.V.V.V.V.V.V.V.V.V.D.D.).(.(.(._.{.$X$X$X$X$X$X|.|.|.|.{.{.{._._._.(.(.F.F.F.F.D.D.V.V.V.V.V.N.N.N.N.N.h.h.g.g.s.a.a.a.i.i.7.7.7.2.3.2.2.2.:.;.-.=.=. . .} } } Q Q R R Y U U Y Y J J J Y U U U U Y Y Y Y Y Y Y Y Y Y Y Y Y J J J J H H U U Y Y Y Y Y Y Y Y Y Y R R R R R R R Q } } } }  . . . . .=.-.-.>.-.=.=.=.=.-.-.:.;.;.;.=.=.=. .}  . . . .} ' ' R R R Y Y Y J J H H F F B B b N x x p p u u r u u r r r 8 8 2 2 1 1 1 1 , , ; ; - - - - - $ $ @ @ @ @ @ + + + + + @ @ $ $ $ $ @ @ @ @ @ @ @ @ @ @ @ @ @ @ @ @ @ + + + + + + + + + + + + + + + + + + + + @ @ @ @ @ @ @ @ @ @ @ @ @ @ @ @ @ @ @ @ @ @ @ @ - - - - * * * * * * * * - - - ; , < < < 2 2 2 2 8 e e r r r r r u u u u u u p a a x x x x x b B B B B F F F H H H H H H J J Y Y Y Y Y Y R R R R Q } } } } } } } } } } } } } } } } } } } Q Q Q Q Q Q Q Q Q Q Q Q Q Q Q Q R R R R R R R R R R R R R R R R Y Y Y Y Y Y Y Y R R R R R R R R Q Q Q Q Q Q Q } } } }  . . . . .=.=.-.-.;.;.:.:.2.2.2.2.3.3.7.7.i.i.a.a.s.g.h.h.h.h.j.j.N.N.N.N.V.V.V.V.V.D.D.D.D.D.D.F.F.F.F.F.(.(.(.(.(.(._._._.{.{.{.{.|.|.|.{.{.{._.(.(.F.F.D.D.V.V.V.N.N.N.N.N.N.N.V.V.V.V.V.V.V.V.V.V.D.D.D.D.D.D.F.F.F.F.F.(.(.(.(.(._._.{.{.{.{.",
"#X#X>X>X>X>X>X>X&X&X$X$X$X|.|.|.{._._.(.(.F.F.F.D.D.D.D.D.D.D.D.V.V.V.V.V.N.N.N.N.N.N.N.N.N.V.V.V.V.V.V.V.V.V.D.F.F.F.(._.{.|.|.$X$X$X$X$X$X|.|.|.|.|.{.{.{._._.(.F.F.F.F.D.D.D.V.V.V.V.N.N.N.N.j.j.h.h.g.g.g.s.a.a.i.i.7.7.3.3.2.2.2.;.;.-.=.=. . .} } Q Q Q R Y Y Y Y U H H H U U U U U U Y Y Y Y Y Y Y Y Y Y Y Y Y Y Y Y Y Y Y Y Y Y Y Y R R Y Y Y Y Y Y Y Y R R R Q Q } } }  . . . . .=.-.-.=.-.=.=.=.;.;.:.:.;.;.=.=.=. . .} }  . . .} ' ' R R R R Y Y J G H F F B B b B N x x p p u u u u u u u r r e 8 2 2 2 2 1 1 , , , - - - - - - $ $ @ @ @ @ + + + + + @ @ $ $ $ $ @ $ $ $ @ @ @ @ @ @ @ @ @ @ @ + + + + + + + + + + + + + + + + + + + + + + @ @ @ @ @ @ @ @ @ @ @ @ @ @ @ @ @ @ @ @ @ @ @ @ - - - - - - - - - - - - ; ; ; , 1 1 1 1 2 2 2 8 e e r r r r r u u u u u p p p a a x x x x x b B B B B F F F H H H H H H Y Y Y Y Y Y Y R R R Q } } } }  .} } } } } } } } } } } } } } } } } } } } } } } } Q Q Q Q Q Q Q Q R R R R R R R R R R R R R R R R J J J J J Y J J R R R R R R R R Q Q Q Q Q Q } } } }  . . . . .=.-.-.-.-.;.;.;.:.2.2.2.3.7.7.i.i.a.a.a.s.g.h.j.j.j.j.N.N.N.N.N.N.V.V.V.V.D.D.D.D.D.D.F.F.F.F.F.(.(.(.(.(._._._._.{.|.|.|. X{.{.{.{.{._._.(.F.F.D.V.V.V.V.V.N.N.N.N.N.N.V.V.V.V.V.V.V.V.V.V.D.D.D.D.D.D.F.F.F.F.F.(.(.(.(._._._._.{.{.{.{.",
"#X#X>X>X<X<X<X<X>X>X>X&X$X$X|.|.{.{._.(.(.F.F.A.D.D.D.D.D.D.D.D.V.V.V.V.V.N.N.N.V.N.N.N.N.N.V.V.V.V.V.V.V.V.V.V.D.F.F.(._._.{.{.@X@X$X$X$X$X$X|.$X$X|.|. X{.{.{.).).F.F.F.D.D.D.V.V.V.V.V.N.N.N.j.j.j.j.h.g.g.g.a.a.a.i.i.7.3.3.2.2.2.:.;.-.-.=. . .} } Q Q Q R Y Y Y Y U H H H U U U U U U Y Y R R Y Y Y Y Y Y Y Y Y Y Y Y R R Y Y R R R R R R Y Y Y Y Y Y Y Y R R R Q } Q } }  . . . . .=.-.-.=.=.=.=.;.:.:.2.;.;.-.=.=. . . .} } }  . .} } ' R R R Y Y Y J H F F F B B b B N x x p p u u u u a u u r r e e e e 8 2 2 1 1 1 , ; ; ; - - - - $ * @ @ @ @ + + + + @ @ $ $ $ $ $ $ $ $ $ $ $ $ $ @ @ @ @ @ + + + + + + + + + + + + + + + + + + + + + + + @ @ @ @ @ @ @ @ @ @ @ @ $ $ $ $ $ @ @ @ @ @ @ @ - - - - ; ; ; ; ; ; ; ; , 1 1 1 1 2 1 1 2 2 2 8 e e r r r r r u u u u a p p p a a x x x x x b B B B B F F F H H H H H H Y Y Y Y Y Y R R ' } } } } }  . .} } } } } } } } } } Q Q } } } } } } } } } } } } Q Q Q Q Q Q Q Q R R R R R R R R R R R R R R R R H H H H H J H H R R R R R R R R Q Q Q Q Q } } } } }  . . . .=.=.-.-.-.-.;.;.:.:.2.2.3.3.7.i.i.i.a.a.a.g.h.j.j.j.N.N.N.N.N.N.V.V.V.V.V.D.D.D.D.D.D.D.F.F.F.F.(.(.(.(.(._._._.{.{.|.|.|.|. X{.{.].{._._.(.(.F.D.D.N.N.N.N.N.N.N.N.N.N.V.V.V.V.V.V.V.V.V.V.V.D.D.D.D.D.D.F.F.F.F.F.(.(._._._.{.{.{.{.{.{.{.",
"1X>X;X<XwX<X<X>X0X0X0X:X:X>X>X,X*X$X{._.(.(.(.(.(.F.F.F.D.D.D.V.V.V.V.V.V.V.V.V.V.V.V.N.N.N.N.N.N.N.V.V.V.V.V.V.V.D.D.F.(.(.`.{.|.|.|.$X$X$X|.|.$X$X$X$X$X|.|.|./././._.(.F.F.D.D.D.V.V.V.V.N.N.N.N.N.N.j.j.j.j.j.h.g.a.a.i.7.7.6.6.2.:.;.;.-.-.=.=. . .Q R Y Y R R Y U H F F F H F F F F H H K R R R Y R R R R Y Y Y Y Y Y Y Y Y Y Y Y Y Y Y Y Y Y Y Y Y Y R R R R R R R R R R }  . . .=.=.=.=.=.=.=.=.=.-.-.-. .=.=.=.=.=. . .=.=.X. .Q Q R R U U U U U H F F F F F B b x x x x x x a a p p p u u u u u r r r 9 r 8 2 2 < : : - - - - - - - - - - - - - * * * @ @ @ @ @ @ @ # @ @ @ @ + @ @ @ @ @ @ @ @ @ @ @ + + @ @ @ + + + @ @ @ @ @ @ @ @ @ @ @ @ @ @ @ @ $ $ $ $ $ $ $ $ $ $ $ $ $ $ $ $ @ @ @ @ $ $ $ $ - - ; ; ; ; ; ; < < < < 1 2 2 2 e e e 8 8 8 e 8 r r r r u u i i p p a a x x x x x b b B B B F F F F F H H H J Y Y Y Y Y Y Y Y Y Q Q Q Q Q Q Q Q  . . .} } }  . . . .} } } } } } } } } } } } } } Q Q Q Q Q Q Q Q R R R R R R R R R R R R R R R R Y Y Y Y Y Y Y Y Y R R R R R R Q R R Q Q } } } }  . . . . . .=.=.=.;.;.:.:.2.2.2.2.2.3.7.7.i.a.a.g.g.h.h.j.j.j.j.N.N.N.N.N.N.V.V.V.V.V.V.D.D.D.F.F.F.F.F.(.(._._.`.`._._.{.{.|.|.|.|.|.|.{._._._.(.(.F.F.D.D.V.V.V.V.V.V.V.N.N.N.N.N.V.V.V.V.V.V.D.D.D.D.D.F.F.F.F.F.F.(.(.(.(.(._._._.{.{.{.{.{.[.{.{. X",
"bXrX:X=X=X>X<XrX<X<XwXwX<X<X>X>X$X$X|. X{._.(.(.(.(.F.F.F.D.D.D.D.D.D.V.V.V.V.V.V.V.V.N.N.N.N.N.N.N.V.V.V.V.V.V.V.V.D.F.F.(._._.|.|.|.$X$X$X$X|.$X$X$X$X$X|.|.|.{.{.{._.(.(.F.D.D.F.D.V.V.V.V.N.N.N.N.N.j.j.j.j.j.h.g.a.a.a.i.i.7.6.2.2.:.;.-.-.=.=. . .} R Y Y R R Y Y H H F F F F F F F F H H U U Y U Y Y Y Y Y Y Y Y Y Y Y Y Y Y Y Y Y Y Y Y Y Y Y Y R R R R R R R R R R R R }  . . .=.=.=.=.=.=.=.=.=.-.-.-.=.=.=.=.=.=.=.=.=. . .} } Q R R R R R R T U H H F F F B B x x x x x x a a p p p u u u r r r r r 8 8 2 1 1 < : ; - - - - - - - - - - - - - - - - * @ @ @ @ @ @ @ @ @ @ @ @ @ @ @ @ @ @ @ @ @ @ @ + + + @ @ + + + @ @ @ @ @ @ @ @ @ @ @ @ * * * * $ $ $ $ $ $ $ $ $ $ $ $ $ $ $ $ @ @ @ @ $ $ $ $ - - ; ; ; ; ; ; < < < < 1 2 2 2 2 5 8 8 8 8 e 8 r r r r u u i i p p a a x x x x b b b B B F F F F F H H H J Y Y Y Y Y Y Y Y Y R Q Q Q } Q Q Q Q  . .} } } }  . . . .} } } } } } } } } } } } } } Q Q Q Q Q Q Q Q R R R R R R R R R R R R R R R R Y Y Y Y Y Y Y Y Y Y R R R R R Q R Q } Q } } } }  . . . . .=.=.=.;.;.;.:.2.2.2.2.2.6.7.7.i.i.a.a.g.g.h.h.j.j.j.j.N.N.N.N.N.V.V.V.V.V.V.V.D.D.F.F.F.F.F.(.(._._._.{.{.{.{.{.|.|.|.|.|.|.{.{._._.(.F.F.F.D.D.V.V.V.N.N.N.N.V.V.N.N.N.V.V.V.V.V.D.D.D.D.D.D.F.F.F.F.F.F.(.(.(._._._.{.{.{.{.{.{.{.{.|.|.|.|.",
"GXSXfXyX2X;X>X<X>X>X<XwXeXwX<X>X$X$X$X$X X{.{._._._.(.(.F.F.F.D.D.D.D.D.D.V.V.V.V.V.N.N.N.N.N.N.N.N.N.V.N.V.V.V.V.V.D.D.F.(.(.(.{.{.|.|.$X$X$X$X$X$X$X$X$X|.|.{.|.|.{._._.(.F.F.F.F.F.D.D.V.V.V.V.N.N.N.N.j.j.j.j.h.g.g.a.a.a.a.7.7.6.2.:.;.;.=.=.=. . .} } R R R R R Y Y H H H H H H H H H H H H H H H H Y Y Y Y Y Y Y Y Y Y Y R R R R R R R R Y Y R R R R R Q R R R R R R R R } }  . . .=.=.=.=.=.=.=.=.-.-.-.;.;.;.;.;.;.;.;.-.-. . .} } } ' }  . . .Q Q Y Y H F F F b b x x x x x a a p u u r r r r e e 8 8 1 1 , 1 , , ; ; ; ; ; ; ; ; ; ; - - - - - - - - - - $ @ @ @ @ + @ @ @ @ @ @ @ @ @ @ @ @ @ @ @ @ + + @ @ + + + + @ @ @ @ @ @ @ @ @ @ @ @ @ @ @ @ @ @ @ @ @ @ @ @ $ $ $ $ $ $ $ $ @ @ @ $ $ $ $ $ - - ; ; ; ; : ; < < < < < 1 2 2 2 5 8 8 8 8 e e r r r r u u i a p a a a a x x x b b b B F F F F F H H H H J Y Y Y Y Y Y Y R R R Q } } } Q Q Q Q  . .} } } } } } } } } } } } } } } } } } } } } } Q Q Q Q Q Q Q Q R ' R R R R ' ' R R R R R R R R Y Y Y Y Y Y Y Y Y R R R R R Q Q Q } Q } } }  . . . . . .=.=.=.-.;.;.:.:.2.2.2.2.7.7.7.i.i.a.a.a.g.g.h.j.j.j.j.j.N.N.N.N.V.V.V.V.V.V.V.D.D.F.F.F.).).(._._._._.{.{.{.{.|.|.|.|.|.|.{.{.{._.(.(.F.F.D.D.D.V.V.N.N.N.N.N.V.V.N.N.N.V.V.V.V.V.D.D.D.D.D.D.F.F.F.F.(.(.(.(.(._._.{.{.|.|.|.$X$X|.$X|.$X$X$X$X",
"HXFXAXFXmXrX>X=X>X>X<XeXeXeXwX:X#X#X$X$X|.|. X X{._._._.(.(.F.F.D.D.D.D.D.D.D.D.V.V.V.V.N.N.N.N.N.N.N.N.N.N.V.V.V.V.V.D.F.F.F.(._.{.{.|.|.$X$X$X$X$X$X$X$X|.{.].|.{.{._._.(.(.(.F.F.F.D.D.D.V.V.V.V.N.N.N.N.j.j.j.j.j.h.g.s.a.a.i.i.7.3.2.:.;.-.=.=. . .} } } R R R R R Y Y U U H H H H H H H H H H H H H H H J Y Y Y Y Y Y Y Y R R R R R R R R R R R R R Q } } R R Q Q Q } } } } } }  . .=.=.=.=.=.=.=.=.-.-.-.2.2.:.:.:.:.2.2.2.2.:.;.-.-.=. . .=.=.=.=. .Q R H H F F B B b x x x x a a p u u e e e 8 8 2 2 2 < , , , , , , , ; ; ; ; ; ; ; ; - - - - - - - - ; - - $ @ @ @ @ @ @ @ @ @ @ @ @ @ @ @ @ @ @ @ @ @ @ @ @ @ @ @ @ @ @ @ @ @ @ @ @ @ @ @ @ @ @ @ @ @ @ @ @ @ @ @ @ $ $ $ $ $ $ $ $ @ @ * * - - - - - - ; ; ; ; : < < < , < < 1 2 2 2 2 8 8 8 e e e r r r r u u i a a a a x a x x x b b b B F F F F H H H H J Y Y Y R R R R R R R R } } } } } } } } } } } } } } } } } } } } } } }  .} } } Q Q } } } Q Q Q Q Q Q Q Q R R R R R R R R R R R R R R R R R R R R R R R R Y R R R R R Q Q Q } } } }  . . . . . .=.=.=.-.-.:.:.:.2.2.2.2.3.7.i.i.a.a.a.a.a.h.h.j.j.j.j.N.N.N.N.N.V.V.V.V.V.V.D.D.D.F.F.F.(.(.(.(._._._.{.{.{.|.|.|.$X|.|.|.{.{._._.(.F.F.F.D.V.V.V.V.N.N.N.N.N.N.V.V.V.V.V.V.V.V.D.D.D.D.D.D.F.F.F.F.(.(.(.(.(._._.{.{. X|.$X$X$X$X$X$X$X$X|.$X$X$X",
"zXzXAXFXFXSXsX1X<X>X>X<XwXeXwXwX<X>X>X&X&X$X$X|.{.{.{._._.(.(.(.F.F.D.D.D.D.D.D.V.V.V.V.N.N.N.N.N.N.N.N.N.V.V.V.V.V.V.V.D.D.F.F.(._._.{.{.|.|.|.$X&X&X$X$X|.[.].{.{._._._._.(.(.(.(.F.F.F.D.D.D.V.V.V.V.N.N.N.N.N.N.N.j.j.h.h.g.a.a.i.7.2.:.;.;.=.=.=. . .} } } Q Q R R R R R Y J J J H H H J J H H H H H H H H J Y Y Y Y Y Y Y R R R R R R R R Y Y R R R R R Q R R R Q } } } } R Q }  . . .=.=.=.=.=.=.=.-.-.-.6.2.2.2.2.2.6.7.y.i.y.7.3.2.2.;.=.-.;.-.-. .} R H H H F F B B b x x a a a p u u e e 8 8 2 2 1 1 < , , , ; ; ; ; - - ; ; ; ; ; ; - * * * * - - - ; ; - - @ @ @ @ @ @ @ + @ @ @ @ @ @ @ @ @ @ @ @ @ @ @ @ + + + + @ @ @ @ @ @ @ @ @ @ @ @ @ @ @ @ @ @ @ @ @ @ @ @ $ $ $ $ $ $ $ $ * * - - - - - - - - ; ; ; ; ; : < : < < < 1 2 2 2 2 2 8 e e e r r r r r u u i i a a a x x x x x b b b F F F F H H H H H Y Y Y Y R R R R R R R R } } } } } } } } } } } } } } } } } } } } } }  . .} Q } } } } } } Q Q Q Q Q R R Q R R R R R R R R R R R R R R R R R R R R R R R R R R R R Q Q Q Q } } } }  . . . . . .=.=.=.-.;.-.:.2.2.2.2.2.7.7.i.i.a.a.a.a.s.g.j.j.j.j.N.N.N.N.N.N.V.V.V.V.D.D.D.F.F.F.F.(.(.(.(.(.(._._._.{.{.|.|.|.|.$X|.|.|._._.(.(.F.D.D.D.V.V.V.V.N.N.N.N.V.V.V.V.V.V.V.V.D.D.D.D.D.F.F.F.F.F.F.(.(.(._._._._._.{.{.|.$X$X&X&X&X&X&X&X&X&X|.$X&X&X",
"GXGXGXAXGXGXFXSXrXqX0X:X<X<XwXwXwXeXeXeX1X&X$X[.|.|.{.{._._._.(.F.F.F.F.D.D.D.D.D.D.V.V.V.V.N.N.V.V.V.V.V.N.V.V.V.V.V.V.V.D.D.D.F.F.(._._.{.{.|.$X$X$X$X$X|.|.[.{.{._._._._._._._._.(.(.(.F.F.D.D.D.V.V.V.V.N.N.N.N.N.N.j.j.j.j.a.a.i.i.3.2.;.;.-.=.=. . . . .} } } } Q R R R R Y Y Y Y Y Y Y Y H H H H H H H H H H H H J J J J Y Y Y Y Y Y Y Y Y Y Y Y Y R R R R R R R R R R R R Q Q }  . . .=.=.=.=.=.-.-.-.-.2.2.2.2.2.6.6.6.y.y.i.3.3.2.2.;. .=.=.=. .} R Y H H H F F B B B x x a a a p u u e e e 8 2 2 1 1 1 1 , , ; ; ; ; - - - - ; ; ; ; - - * * * * - - - - - - - @ @ @ @ @ @ + @ @ @ @ @ @ @ @ @ @ @ @ @ @ @ @ @ @ @ @ @ @ @ @ @ @ @ @ @ @ @ @ @ @ @ @ @ @ @ @ @ @ @ @ $ $ $ $ $ $ $ $ * * - - - - - - - - ; ; ; ; ; ; : : ; : < 1 2 1 2 2 2 8 e e e r r r r r u u i i a a a x x x x x b b F F F F H H H H H Y Y Y Y Y R R R R R R R R } } } } } } } } } } } } } } } }  .} } } } }  . .Q Q } } } } } } Q Q Q Q Q Q R R R R R R R R R R R R R R R R R R R R R R R R R R R R R R Q Q Q Q } } }  . . . . . .=.=.=.=.-.;.;.2.2.2.2.2.7.7.7.i.a.a.a.s.g.h.j.j.N.N.N.N.N.V.V.V.V.V.V.V.D.D.D.F.F.F.(.(.(.(.(.(.(._._._.{.{.{.|.|.|.|.|.{.{.{.(.(.F.F.D.V.V.V.V.V.V.V.V.V.N.N.V.V.V.V.V.V.V.V.D.D.D.D.F.F.F.F.(.(.(.(.(._._._.{.{.{.{.|.$X$X$X&X&X&X&X&X&X&X&X$X&X<XwX",
"bXDXKXGXAXFXGXFXmXbXiXrX:X>X>X<XwXwXeXeX1X>X#X#X$X$X|.|.{.{._._.(.(.(.F.F.F.F.F.D.D.D.V.V.V.V.N.V.V.V.V.V.V.V.V.N.N.V.V.V.V.D.D.D.D.D.F.(._._._.{.|.$X$X$X$X$X|.|.{.{.{.{.{.{.{.{._._.(.(.(.F.F.D.D.D.D.V.V.V.V.N.N.N.N.N.j.j.j.g.g.a.i.3.2.;.;.-.-.=.=. . . . .} } } } } Q Q Q Y Y Y Y Y Y Y Y J Y J H H H H H H H H H H H H H J J J J J J J J H H H H H U Y Y Y Y Y Y U U U U R R } }  . . . .=.=.=.=.-.-.-.-.:.:.:.:.:.:.:.:.2.2.2.2.:.-.=. . . . .Q Q R Y Y H H H H F F b B x x x a a p u u r r e 8 8 2 2 1 1 1 , , ; ; - - - - - - - ; ; ; - - - * * * - - - - - - - - $ $ @ @ @ @ @ @ @ @ @ @ @ @ @ @ @ @ @ @ @ @ @ @ @ @ @ @ @ @ @ @ @ @ + + + + + + + + @ @ @ @ @ @ @ @ $ $ $ $ $ $ $ $ - - - - - - - - - - ; ; ; ; ; ; ; , ; : < 1 2 1 2 2 2 8 e e e r r r r r u u i i a a a x x x x B b b F F F H H H H H U Y Y Y Y R R R R R } Q } } } } } } } } } }  .}  . .} } } }  . . .} } } }  .} } } } } } } } Q Q Q Q Q Q Q Q R R R R R R R R R R R R R R R R R R R R R R R R R R R R Q Q Q Q } }  . . . . .=.=.=.=.=.=.;.;.;.2.2.2.2.7.7.7.7.i.a.a.a.g.k.j.j.N.N.N.N.V.V.V.V.V.V.V.V.D.D.D.D.F.F.F.(.(._._._.(._._._.{.{.|.|.|.|.|.{.{._._._.(.F.F.D.V.V.V.V.V.V.V.V.V.V.V.V.V.V.V.V.D.D.D.D.D.D.D.F.F.F.F.F.(.(.(._._._._._.{.{.|.|.$X$X$X$X&X&X&X&X&X&X&X&X:XrXdXmX",
"U.2XMXFXAXAXAXHXGXGXMXsXwX>X>X>X0X0X:X:X:X<X1X1X&X$X$X|.|.{.{.{.(.(.(.(.F.F.F.F.D.D.D.V.V.V.V.V.V.V.V.V.V.V.V.V.N.V.V.V.V.V.V.V.V.V.D.D.F.(.(._.].[.|.$X&X&X$X$X$X|.|.|.{.{.{.{.{.{._._.(.(.(.F.D.D.D.D.D.V.V.V.N.N.N.N.N.j.j.j.g.g.a.i.7.2.:.;.-.-.-.=.=. . . .} } } } } Q Q Q Y Y Y Y U H Y Y Y Y Y Y Y J H H H H H H H H H H F F F F F F F F F F F H H H H H H H H H H H H H R R Q }  . . . .=.=.=.=.-.-.-.-.=.=.;.;.:.;.;.;.-.-.-.....} } ' } Q Q R R U H H H H H H F F B B x x x a a p u u r r r e 8 8 2 2 1 1 , , ; - $ $ * * - - - ; ; ; ; ; - - * - - - - - - - - - - - @ @ @ @ @ @ @ @ @ @ @ @ @ @ @ @ @ @ @ @ @ @ @ @ @ @ @ @ @ @ @ @ + + + + + + + + @ @ @ @ @ @ @ @ $ $ $ $ $ $ $ $ - - - - - - - - - - ; ; ; ; ; ; , ; ; : < 1 1 1 2 2 2 8 e e e r r r r r u u i i a a a x x x N x b F F F H H H H H U U Y Y Y R R R R R R } } } } } } } } } } } }  . . . . .} } }  . . .} } }  . .} } } } } } } } Q Q Q Q Q Q Q Q ' R R R R ' ' ' R R R R R R R R R R R R R R R R R R R R Q Q Q Q } }  . . . .=.=.=.=.=.-.=.;.;.:.2.2.2.3.7.7.7.7.i.i.a.g.h.j.j.N.N.N.N.V.V.V.V.V.V.V.V.D.D.D.D.D.S.F.(.)._._._._._._.{.{.{.|.|.|.|. X X{._._.(.(.F.F.F.D.V.V.V.N.V.V.V.V.V.V.V.V.V.V.V.D.D.D.D.D.D.F.F.F.F.F.F.F.(.(.(._._._._._.{.{.|.|.$X$X$X@X&X&X&X&X&X&X&X>XdXmXGXGX",
"1.p.`.eXVXGXzX7XAXFXGXGXSXpX8X+X>X>X1X,X#X#X>X<X*X*X>X>X&X$X|.{.{.{._._.(.(.F.F.D.D.D.D.D.V.V.V.V.V.V.V.N.N.N.N.N.N.N.N.V.V.V.V.V.V.V.V.V.D.D.F.(.(._.{.|.$X#X#X$X$X$X$X|.{._._.{.{._.`._.(.(.^.F.F.F.F.D.D.V.V.V.V.V.N.N.N.j.j.j.j.j.g.a.i.3.2.2.:.;.=.=.=. . . . . .} } R R R R R R Y Y Y U H U U Y Y J J H H J H H H F F F F F F F B B B B B x x x b F F H H F H J J H H H Y Y Y R R }  . . .=.=.=. .=.=.=.=. . . . . .=. . . . . . . . . . .R R R R Y Y Y Y Y Y J H F B b b x x x a i u u r i u r r e 2 2 2 1 < 1 < ; ; ; ; - - - - ; , , , ; ; ; - ; ; ; ; 1 , , ; ; - * * - - - - @ @ @ @ @ @ @ @ @ @ @ $ @ @ @ @ @ @ @ @ $ @ @ @ @ @ @ @ @ @ @ @ @ @ @ @ @ @ @ @ @ @ @ @ $ $ @ @ @ @ $ $ - - - - - - - - ; ; - - - - ; ; ; ; ; < < 1 1 2 2 2 2 2 8 e e r r r r r u u i i a x x x x x b B B B B B F F H H H H H Y Y Y R R R R R R R R Q Q } } } } } } }  . . . . . . . . . . .}  . . . . .} }  . . . . . .} } Q Q Q R Q Q Q Q Q Q Q Q Q Q Q Q Q Q Q Q Q Q R R R R R R R R ' ' Q } Q } } Q Q }  . . . .=.=.=.=.-.;.;.:.:.:.2.6.3.7.7.i.i.i.a.g.g.h.j.j.j.j.N.N.N.N.V.V.V.V.D.D.D.D.D.F.F.F.F.F.(.(._._.{.{.{.|.|.$X$X$X$X|.$X|.{._.(.(.F.F.D.D.D.V.V.V.V.V.N.N.N.V.V.V.V.V.V.V.D.D.D.D.D.F.F.F.F.F.(.(.(.(.(.(._._.{.{.{.{.{.|.$X$X&X#X#X#X&X&X&X#X;X0XaXmXLXGXFXFX",
"l.d.v.W.@XrXDXKXGXAXAXFXGXDXnXsX<X:X>X<X1X1X>X#X#X#X#X#X#X$X|.|.|.{.{._._._.(.F.F.D.D.D.D.D.D.V.V.V.V.V.V.N.N.N.N.N.N.N.N.V.V.V.V.V.V.V.V.D.D.D.F.F.(._.{.|.$X&X$X$X$X$X|.|.{.{.{.{.{._._._.(.(.(.F.F.F.D.D.D.D.V.V.V.V.N.N.N.j.j.j.j.g.a.i.7.2.2.2.:.;.=.=. . . . . .} } R R R R R R Y Y Y Y Y Y Y Y Y Y J G H H H F F F F F F H H F F F F F F B b b B F F H H F F H H H H Y Y Y Y R Q }  . . .=.=.=.=.=.=.=.=. . .=.=.=. . . . . . . . . . . .Q R R R Y Y Y Y Y Y J G F F B B x x x a a u u r r r r 8 2 2 1 1 1 1 < , ; ; ; ; ; ; : , , < < 1 : ; ; ; ; ; ; , 1 , , ; - - * * - - - - @ @ @ @ @ @ @ @ @ @ @ @ @ @ @ @ @ @ @ @ @ @ @ @ @ @ @ @ @ @ @ @ @ @ @ @ $ $ $ $ $ $ $ $ - $ $ $ $ $ $ - - - - - - - - - ; ; - - - - ; ; - ; ; ; : < 1 1 2 2 2 2 8 e e r r r r r u u i i a x x x x x b B B B B B F F H H H H H Y Y Y R R R R R R R R Q Q } } } } } }  . . . . . . . . . . . . . . . . . .} }  .}  . .} } } } } Q Q R Q Q Q Q Q Q Q Q Q Q Q Q Q Q Q Q Q Q R R R R R R R R ' Q Q } Q } } } }  . . . . .=.=.=.-.;.;.:.:.:.2.2.2.7.7.i.i.i.i.a.g.g.h.j.j.j.N.N.N.N.N.V.V.V.V.D.D.D.D.F.F.F.F.(.(.(._._._.{.{.{.|.|.|.|.$X|.|.|.|.{._.(.F.F.D.D.D.D.V.V.V.V.V.N.N.V.V.V.V.V.V.V.D.D.D.D.D.F.F.F.F.F.(.(.(.(._._._.`._.{.{.{.{.{.|.|.$X$X$X&X>X>X#X#X;XrXnXDXGXZXAXFXFX",
"u.u.y.7.b./.,XuXGXGXAXAXAXFXKXLXbXiX0X;X:X<X<X>X>X>X>X;X#X$X$X$X$X$X|.{.{._._.(.(.F.F.F.D.D.D.D.D.D.V.V.V.V.V.N.V.V.N.N.N.N.N.N.V.V.V.V.V.V.V.D.D.F.F.(._.{. X%X$X$X$X$X$X|.|. X{.{.{.{.{._._._.(.(.F.F.D.D.D.D.D.V.V.V.N.N.N.j.j.j.j.j.g.a.7.7.2.2.:.;.=.=. . . . .} Q R R Y Y R R R R Y Y Y Y Y Y Y Y Y J H H F F F F B B F B H H H H F F F F B B B B F H H H Z F H H H Y Y Y R R R } } }  . .=.=.=.=.=.=.=.=.-.-.-.-.=.=.=. . . . . . . . . .} } } R R Y Y Y Y Y J G F F B B x x x a a u u r e 8 8 1 1 < , , , < , , ; ; : ; : ; , < < < 1 1 : : ; ; ; ; ; : , , ; ; - - - - - - - - @ @ @ @ @ @ @ @ @ @ @ @ @ @ @ @ @ @ @ @ @ @ @ @ @ @ @ @ @ @ @ @ @ @ @ @ $ $ $ $ $ $ $ $ - - - $ $ - - - - - - - - - - - - - ; ; ; ; ; - - ; ; ; : < < < 2 2 2 2 8 e e r r r r r u u i i a x x x x x b B B B B F F H H H H H U U Y Y R R R R R R R R Q Q } } } } }  . . . . . . . . . . . . . . . . . . .} } } } } } } } } } } } Q Q R Q Q Q Q Q Q Q Q Q Q Q Q Q Q Q Q Q R R R R R R R R Q } Q Q } }  . . . . . . .=.=.=.;.;.;.;.:.2.2.2.3.3.7.i.i.i.a.a.g.g.h.h.j.j.N.N.N.N.V.V.V.V.D.D.D.D.F.F.F.F.F.F.(.(.(._._._.{.{.|.|.|.|.|.|.|.|.{.{._.(.F.F.D.D.D.V.V.V.V.V.V.V.V.V.V.V.V.V.V.D.D.D.D.D.D.F.F.F.F.F.).(.(._._._.`.{.{.{.{.{.|.|.|.|.$X$X$X$X&X&X;X;X0XfXJXKXGXAXzXAXGXGX",
"! =.4.5.d.c.M.S.<XsXDXGXAXAXAXGXGXSXbXqX:X;X<XeXwXeXeXwX<X>X>X>X&X$X$X|.|.{._._.(.(.(.F.F.F.D.D.D.D.D.D.V.V.V.V.V.V.V.V.N.N.N.N.N.N.N.N.N.N.V.V.V.D.D.F.(._.}. X$X$X$X&X&X$X$X$X{.{.{.{.{.{.{.{._._.(.F.F.F.F.F.D.D.D.V.V.N.N.N.N.N.j.j.h.a.i.7.7.3.2.;.=.=. . .} } } R R Y Y Y R R R R Y Y Y Y Y Y Y J H H H H F F B B b b b b F B B B B b B B B b b B F H H H H H J Y Y Y Y E R ' ' } } }  . . . .=.=.=.=.=.=.-.-.>.>.=.=. . . . . . . .Q } }  . .} } R R Y Y J H H F F B b b x x x a a u u r 8 2 2 1 , , ; : , , , , , < < 1 , , < < , < 1 1 , < , ; ; ; ; ; ; ; ; - - - - - - - - - @ @ @ @ @ @ @ @ @ @ @ @ @ @ @ @ @ @ @ @ @ @ @ @ @ @ @ @ $ $ $ $ $ $ $ $ @ @ @ @ @ @ @ @ - - $ $ $ $ - - - - - - - - - - - - ; ; ; ; ; - ; ; ; ; < < < 1 2 2 2 2 8 e e r r r r r u u i i a x x x x x b B B B B F F H H H H U U Y Y Y R R Y R R R R R Q Q } } } } }  . . . . . . . . . . . . . . . . . . .} } } } } } } } } } } } } Q Q Q Q Q Q Q Q Q Q Q Q Q Q Q Q Q Q Q R Q Q Q R R R R } } Q } }  . . . . . . .=.=.-.-.;.:.:.2.2.2.6.6.7.7.i.i.a.a.a.a.h.h.h.j.j.N.N.N.N.V.V.V.V.D.D.D.D.F.F.(.(.(.(.(.(.(._._.{.{.{.{.|.|.|.|.|.|.|.{._._.(.(.F.D.D.D.V.V.V.V.V.V.V.V.V.V.V.V.D.D.D.D.D.D.D.D.F.F.F.F.(.(.(.(._._._._.{.{.{.{.|.|.|.|.|.$X&X&X&X&X#X&X8XaXVXKXGXAXzXzXGXFXbXsX",
"] ' Q %.4.3.i.p.c._.eXVXGXAXzXxXZXGXGXDXbXrX<X:XwXrXrXeXwX<X<X<X>X>X#X$X|.|.{.{._._.(.(.(.F.F.F.F.F.D.D.D.D.V.V.V.V.V.V.V.V.N.N.N.N.N.N.N.N.N.N.V.D.D.D.F.F.(.`.{.|.$X&X&X&X$X$X|.|.|.|.{.{.{.{.{.{._.(.(.F.F.F.D.D.D.D.V.V.V.N.N.N.N.j.h.g.a.a.7.7.2.:.=.=. . .} } Q R R Y Y Y Y Y Y Y Y Y Y Y H H H H H H F F F F B B b x x x c c a a a a a a b b b F H J Y Y Y Y Y Y Y Y Y Y R ' ' } }  . . . . . .=.=.=.=.;.-.-.-.-.-.=.=. . . . . . . . . . . . .} R Y Y Y J H H F F B B b x x x a a u u u e 8 2 1 1 < < : , , , , 1 1 1 1 1 1 1 1 1 1 < < , , ; ; ; ; ; ; ; ; ; - - - - - - - - - @ @ @ @ @ @ @ @ @ @ @ @ @ @ @ @ @ @ @ @ @ @ @ @ @ @ @ @ $ $ $ $ $ $ $ $ @ @ @ @ @ @ @ @ $ $ $ @ @ $ $ $ - - - - - - - - - - ; ; : : ; ; ; ; ; , < 1 2 2 2 2 2 8 8 e e r r r r r u u i i a x x x x x b B B B F F H H H U U U Y Y Y Y R R Y R R R R R Q Q } } } } }  .}  . . . . . . . . . . . . . . . . . .} } } } } }  .} } } } } } Q Q Q Q Q Q Q Q Q Q Q Q Q Q Q Q Q Q Q Q Q Q Q Q Q Q } } } }  . . . . . . .=.=.-.;.;.:.2.2.2.2.3.7.7.7.i.i.a.a.s.g.g.j.j.j.N.N.N.N.N.V.V.V.V.D.D.D.F.F.F.(.(.(.(.(.(.(._._.{.{.|.|.|.$X|.|.|.|.{.{.{.(.(.F.F.D.D.V.V.V.V.V.V.V.V.V.V.V.V.V.V.D.D.D.D.D.D.F.F.F.F.F.(.(.(.(.(._._._.{.{.{.{.|.|.$X$X$X&X&X&X#X>X:XwXrXmXGXFXAXZXZXAXGXnXtX@XQ.",
"[ ` R Q >.2.7.7.a.s.v.[.tXMXGXHXAXAXFXGXGXMXdXqX8X0X0XwX<X<X<X<X<X>X#X#X$X|.|.|.{.{._._.(.(.(.F.F.F.F.D.D.D.D.D.V.V.V.V.V.V.V.V.N.N.N.N.N.N.N.N.V.V.V.D.D.F.F.F.(._.{.$X&X&X&X$X$X$X|.|.|.|.|.|.|.{.{._._.(.(.(.F.F.F.D.D.V.V.V.N.N.N.N.j.h.s.a.i.3.2.:.=. . .} } } } R R Y Y Y Y Y H J H H H H F F F H H H F H F F F F b b x x c a a a a p s s B b B F H Y Y Y Y R R R Y Y Y Y R ' ' } }  . . . . .=.=.=.=.=.;.-.-.-.-.-.=.=.=. . . . . . . . . . . .} } R Y Y J J H H F F B B x x x a a u u u e e 8 2 2 2 2 2 1 1 1 1 1 2 2 2 2 1 1 1 1 1 < < , , ; ; - ; ; ; ; ; - - - - - - - - - - @ @ @ @ @ @ @ @ @ @ @ @ @ @ @ @ @ @ @ @ @ @ @ @ @ @ @ @ $ $ $ $ $ $ $ $ $ $ $ $ $ $ $ $ $ $ @ @ @ @ $ $ - - - - - - - - - - - ; : : : ; ; ; ; < 1 1 2 2 2 2 2 8 8 e e r r r r r u u i i a x x x x x b B B F F F H H U Y Y Y Y Y R R R R Y R R R R R Q Q } } } } }  .}  . . . . . . . . . . .}  . . . . . .} } } } }  . .} } } } } } } Q Q Q Q Q Q Q Q Q Q Q Q Q Q Q Q Q Q Q } } } } } } } } }  . . . . . . .=.-.-.;.;.;.2.2.2.2.3.7.7.7.i.i.a.s.s.h.j.j.j.N.N.N.N.V.V.V.V.V.V.D.F.D.F.F.(.(.(.(._._._._._._.{.{.|.|.|.$X$X$X|.{.{._._._.F.F.D.D.D.V.V.V.V.V.V.V.V.V.V.D.V.V.D.D.D.D.D.F.F.F.F.F.F.(.(.(.(.(._._._.{.{.{.{.|.|.$X$X&X&X&X>X>X;X;X0XiXnXJXGXFXAXFXGXGXMXbX%X_.A.m.",
"H J R  .-.:.:.:.d.3.3.i.A.$XtXBXGXAXZXAXFXGXSXmXiXqX0X:X<XwXwXwXeX<X>X#X&X$X$X$X|.|.{.{._._.(.(.F.F.F.F.D.D.D.D.D.D.D.D.V.V.V.V.N.N.N.N.V.V.V.V.V.V.V.D.D.D.D.D.F.F._.{.|.$X&X&X&X&X$X$X$X$X$X$X|.|. X X{._.(.(.(.F.F.F.D.D.D.V.V.V.N.N.N.j.g.s.i.3.2.:.=. .} } } } } R ' Y Y Y H H H F F F B B F F F F H H H H H H H H F F F B B B b b x x x x F F F F H Y Y Y R R R Y Y H J J Y Y R R }  . . . . . . .=.=.=.;.=.=.-.-.-.=.=.=. . . . . . . . . . . .} Q R R Y J H H H F F B B N x x a a u u u r r e e 2 2 2 2 1 1 2 2 2 8 8 8 2 2 2 1 1 1 < , 1 , , ; ; ; ; ; ; - ; - - - - - - - - - @ @ @ @ @ @ @ @ @ @ @ @ @ @ @ @ @ @ @ @ @ @ @ @ @ @ @ @ @ @ @ @ @ @ @ @ $ $ $ $ $ $ $ $ $ $ $ @ @ $ $ $ - - - - * - - - ; ; ; ; ; , , , ; ; ; , < 1 1 1 2 2 8 8 8 e e r r r r r u u i i a x x x x x b B F F F H H H Y Y Y R R R R R R R Y R R R R R Q Q } } } } }  .}  . . . . . . . . . . . . . . . . . . .} } } }  . .} } } } } } } } Q Q Q Q Q Q Q Q Q Q Q Q Q Q Q Q } } } } } } } } } }  . . . . .=.=.=.-.-.;.;.;.;.2.2.2.3.7.7.7.i.a.p.s.s.h.j.N.N.N.N.N.N.V.V.V.V.D.D.D.D.F.F.F.F.(.(.(.(._._._._.{.{.{.|.|.|.$X$X|. X{.{._.(.(.(.F.D.D.D.V.V.V.V.V.V.V.V.V.D.D.D.V.D.D.D.D.F.F.F.F.F.F.F.(.(.(.(.(._._._.{.{.{.{.|.|.$X$X&X&X&X>X>X<XwXaXpXmXGXGXAXAXFXGXDXhX,X{.D.V.m.j.",
"A E ~  . .=.=.>.| ,.z.f.u.p.n.~.vXAXGXGXFXAXAXFXVXfXrX<X<XwXwX0XeXwX:X>X&X&X&X$X$X$X|.{.{._.(.(.F.F.F.F.F.D.D.D.D.D.D.D.D.D.D.V.N.N.N.V.V.V.V.V.V.V.V.D.D.D.D.D.D.F.F.(.{.|.$X&X&X&X&X$X$X$X$X$X|.|.|.|.{.{._.(.(.).F.F.F.D.D.D.V.V.N.N.N.j.h.s.i.3.2.:.=. .} } } } } ' ' Y Y Y F F F F B B b b B B F F H J J H H H H J J K K H H H H H F F F B G F F H H Y U U Y R Y Y U H H J Y Y R R }  . . . . . . .=.=.=.;.=.;.;.;.:.:.:.=. . . . . . . . . . . .} } R R Y H H H F F B B b N x x a a u u u r r e e 8 2 2 2 2 2 2 2 8 8 8 8 e 8 2 2 2 < < , 2 1 < , ; ; ; - ; - - - - - $ $ - - - - @ @ @ @ @ @ @ @ @ @ @ @ @ @ @ @ @ @ @ @ @ @ @ @ @ @ @ @ @ @ @ @ @ @ @ @ @ @ @ @ @ @ @ @ - $ $ $ $ - - - - - - - - - - - ; ; ; ; ; ; , < - ; ; ; , , 1 1 2 2 8 8 8 e e r r r r r u u i a a x x x x x b B F F F H H Y Y Y R R R R R R R R Y R R R R R Q Q } } } } } } }  . . . . . . . . . . . . . . . . . . .} } } } }  .} } } } } } } } Q Q Q Q Q Q Q Q Q Q Q Q Q Q Q Q } } } } } } } } } }  . . . .=.=.=.=.-.-.;.;.;.:.2.2.3.3.7.7.i.i.s.s.s.h.h.N.N.N.N.N.N.V.V.V.D.D.D.D.D.F.F.F.).)._._._.(._._._.{. X X X|.|.|.|.|.|. X{._.(.(.F.F.D.D.D.V.V.V.V.V.V.V.V.V.V.D.D.D.V.D.D.D.D.D.F.F.F.F.(.(.(.(.(.(._._._.{.{.{.|.|.$X$X$X$X&X&X&X&X;XwXfXVXGXAXzXxXZXFXGXmXqX[.S.C.V.V.N.h.",
"F F H U U R R R R } =.2.3.7.7.6.n.,XVXGXFXZXAXFXAXFXSXdXrX<X<X1XwXwX<X>X>X#X>X<X>X>X&X$X|.{.{.{._.(.(.(.F.F.F.D.D.D.D.D.V.V.N.N.V.V.V.V.V.N.N.N.V.V.V.V.V.V.V.V.F.F.S.(./.{.|.|.&X&X&X&X$X$X$X|.|.|.|.|.$X|.{._._.(.(.F.F.D.D.D.D.D.V.V.N.j.j.j.i.2.;.=.=.=. . .Y Y U T R R R T U U U U H H H H Y Y Y Y Y J J H Y Y Y Y Y Y Y Y Y Y Y Y Y Y Y Y U U U U U U U U Y Y U U H H H H Y Y R R Q Q ! !  . . . . .=.=.-.;.;.;.;.-.-.-.-.=.=.=. . . . . . . .} } Q Q R R Y J J H F F B B b x x x a u u u u u r 0 8 2 2 2 1 1 1 1 1 1 1 1 2 2 2 2 2 1 1 1 1 < , , , : : ; ; ; - - - - - - - - - @ @ @ @ @ + + + + @ @ + @ @ @ @ + + + + + @ @ @ @ @ @ @ @ @ @ @ @ @ @ @ @ $ $ $ $ $ $ $ $ * * - - - - - - - - - - - ; ; ; - - ; ; ; ; ; ; ; ; ; , 1 1 1 1 2 2 2 8 e e e e r r u u u i a a a a x x b b B B F F F H H U Y Y Y Y R R R R Q Q ' ' ' ' } } } } } } } } } } } }  . . . . . . . . . . . . . . . . . . .} } }  . .} } } } } } } } } } } } } } } } Q Q Q Q Q Q Q Q ' ' Q } } } } }  . . . . . .=.=.=.=.;.;.:.2.2.2.2.2.7.7.i.p.s.s.h.h.j.j.j.N.N.N.N.N.V.V.D.D.D.F.D.F.F.F.(.(.(._.(.(._._._.{.{.|.$X$X$X$X$X|.|.|._._._.(.F.F.D.D.D.V.V.V.V.V.V.V.V.V.V.V.V.V.V.V.D.D.D.D.D.D.F.F.F.F.(.(.(.(._._.`._._._.{.{.|.$X$X&X,X,X&X>X:XwXbXSXGXGXFXAXAXFXKXMXwX|.(.G.C.C.N.j.a.i.",
"F F H H U R R R R Q  .;.2.2.6.6.7.e.!.:XVXLXGXZXAXFXGXGXbXaX0X:X<X<X<X<X<X>X>X>X>X#X#X$X|.{.{.{._._._.(.(.F.F.F.F.F.D.D.D.V.V.V.V.V.V.N.N.N.N.N.V.V.V.V.V.V.V.V.D.F.F.F.(.{.{.|.$X$X&X&X$X$X$X$X|.|.|.$X$X|.{.{._._.(.(.F.F.D.D.D.D.D.V.N.N.j.j.p.7.2.;.-.-.=.=.Q Q Q Q Q Q Q R R R R R R R R R R R Y Y Y Y J J R R R R R R R R Y Y Y Y Y Y Y Y Y Y Y Y Y Y Y Y Y Y Y Y Y Y Y U Y R R R Q !  . . . . . . .=.=.=.;.;.;.;.-.-.;.;.=.=.=.=. . . . . .} } Q Q R R R Y Y H H F F B b b x x x a u u u u r r 8 8 2 2 2 1 1 2 1 2 1 2 2 2 2 2 2 2 2 1 1 < , , ; : ; ; - ; ; ; - - - - - - - $ @ @ @ @ + + + + + + + + + @ @ @ + + + + + @ @ @ @ @ @ @ @ @ @ @ @ @ @ @ @ $ $ $ $ $ $ $ $ * * * - - - - - - - - - - - ; ; ; ; ; ; ; ; ; ; ; ; ; < 1 1 1 1 2 2 2 2 e e e e r r u u u i a a a a x x b b B B F F F H H U Y Y Y Y R R R R Q Q ' ' ' } } } } } } } } }  . . . . . . . . . . . . . . . . . . . . . .} } } }  . .} } } } } } } } } } } } } } } } Q Q Q Q Q Q Q Q ' Q } } } } } }  . . . . .=.=.=.=.-.;.:.2.2.2.2.2.2.7.i.a.s.s.s.h.h.j.j.j.N.N.N.N.V.V.V.D.D.D.F.F.F.F.F.(.(._._._._.{.{.{.|.|.$X$X$X$X|. X{.{.{._._.(.F.F.D.F.D.V.V.V.V.V.V.V.V.V.V.V.V.V.V.D.D.D.D.D.D.F.F.F.F.F.F.(.(.(._._._.{.{.{. X|.$X$X&X&X&X&X#X;XeXfXVXGXFXZXZXFXGXGXMX:X@X/.S.V.V.V.N.j.g.i.3.",
"Z Z H H U Y Y R R R  .=.;.;.;.:.*.3.7.r.~.tXDXGXGXFXAXAXGXFXbXiXeX2X;X>X<X<X<X>X>X>X&X&X$X$X|.|.|.{.{._.(.(.F.F.F.F.F.D.D.D.V.V.V.V.V.V.N.N.m.m.V.V.V.V.V.V.V.V.V.V.D.F.(.(._.{.|.$X$X&X&X&X&X&X$X$X$X$X$X|. X{.{.{._._.(.).F.F.F.D.D.V.V.N.N.N.h.a.3.2.2.:.:.;.>.>.=.=. . .} Q R Y R R R R ' Q R R R Y Y Y Y Y R R R R R R R R R R R R R R R R R Y Y Y Y Y Y Y R R R R R R R R R R Q Q }  . . . . . . . .=.=.=.;.;.;.;.;.;.;.;.;.=.=.=.=.=. . . .} Q Q R R R R Y Y J H F F F b b x x x a u u u u r r 9 8 2 2 1 2 2 2 2 1 1 1 1 2 2 2 2 2 2 1 1 : ; ; ; - - - - - - - - - - - - - $ @ @ @ @ + + + + + + + + + + @ @ + + + + + + @ @ @ @ @ @ @ @ @ @ @ @ @ @ @ @ @ @ @ @ @ @ @ @ * * - - - - - - - - - - - - ; ; ; ; ; ; ; ; ; ; ; ; , < 1 1 1 1 2 2 2 2 2 2 e e r r r u u i a a a a x x b b B B F F F H H U Y Y Y Y R R R R R R ' ' } } } } }  .} } } }  . . . . . . . . . . . . . . . . . . . . . .} } } } } } } } } } } } } } } } } } Q Q } } Q Q Q Q Q Q Q Q Q } Q } } }  . . . . . .=.=.=.-.-.;.;.:.2.2.2.3.3.7.7.i.a.s.s.h.j.j.j.j.N.N.N.N.V.V.V.D.D.D.F.F.F.F.(.(.(.(._._.{.|.|.|.$X$X$X$X&X$X|.|.{._.(.(.(.(.F.F.F.D.D.V.V.V.V.V.V.V.V.V.V.D.D.D.D.D.D.D.D.D.F.F.F.F.F.(.(.(.(.(._._._.{.[.@X$X$X$X&X&X>X,X&X;X:XqXnXKXKXFXAXZXFXKXCXtX;XA.M.N.j.N.N.N.N.s.i.2.;.",
"Z Z F H H J Y Y Y R R }  . .=.=.5.z.d.i.6.r.#XfXJXDXAXAXAXAXFXGXfXqX0X:X;X<X<X1X<X<X>X>X&X&X$X$X|.|.|.{._._.(.(.(.(.F.F.F.D.D.D.D.D.D.V.V.V.V.V.N.N.V.V.V.V.V.V.V.V.V.D.D.F.(.(.{.{.|.$X$X&X>X>X&X&X$X$X$X|.|.|.|.{.{._.`._.(.F.F.F.D.D.V.V.N.N.N.h.a.i.3.4.2.2.2.2.:.;.-...} ' Y Y Y R R R Q Q Q } Q R R R R R R R R R R R R R } } } } } } } } R R R R R R R R R R R R R ' } } } } } }  . . . . . . . . .=.=.=.;.;.;.;.;.;.;.;.;.;.;.-.-.=.-.-. .} } Q Q Q R R Y Y Y H H F F F b x x x a u u u r r r e 8 2 1 1 1 1 1 1 1 1 1 1 2 2 2 2 2 2 1 1 : : ; ; - - $ @ @ @ - - - - - - $ $ @ @ @ + + + + + + + + + + + @ + + + + X X X @ @ @ @ @ @ @ @ @ @ @ @ @ @ @ @ @ @ @ @ @ @ @ @ * * * - - - - - - - - - - - - - ; ; ; ; ; ; ; ; ; ; < < < 1 1 1 1 2 1 1 2 2 e e r r r u u i a a a a x x b b B B F F F H H U Y Y Y Y R R R R Q Q ' } } } } }  . . . . . . . . . . . . . . . . . . . . . . . . . .} } } } } } } } } } } } } } } } Q } } } } Q } } } } } } } } } } } } Q } }  . . . . . .=.=.=.-.-.;.;.;.2.2.2.3.3.7.i.i.a.s.s.h.h.j.j.j.N.N.N.N.N.V.V.V.D.D.F.F.F.).(.(.(._._._._.|.|.|.$X$X$X$X$X$X$X|._.(.(.F.F.F.F.F.D.D.V.V.V.V.V.V.V.V.V.V.V.D.D.D.D.D.D.D.D.F.F.F.F.F.(.(.(.(._._._.{.{.{.{.@X$X&X&X$X#X>X>X;X:XqXnXDXGXAXAXAXFXGXKXhX>X/.n.B.B.j.k.k.j.h.s.7.2.;.=.",
"Z Z F F F H H J U U Y R R R } } '  .2.y.u.s.v.^.:XfXKXGXAXzXAXGXSXmXbXqX0X:X,X3X:X:X>X>X#X#X$X$X$X$X|.|.{._._._.(.(.(.F.F.D.F.F.D.D.D.D.D.D.V.V.V.V.V.V.V.V.V.N.N.N.N.V.V.D.D.F.F.(._.{.|.$X&X&X&X&X&X&X&X$X$X$X$X|.|.|.{.{._.(.F.F.F.D.V.V.N.N.N.h.a.i.3.3.3.3.3.2.2.;.-. .} R Y R R ' } }  . .} } Q } Q R R R R R R R R R R R } } } } } } } } } } } } } } } } R R Q } } } } } } }  . . . . . . . . . . .=.=.=.-.-.;.;.;.;.;.;.;.;.;.;.-.-.-.-. . .} } } Q Q Q Y Y Y H H F F F b x x x a u u u r r e e 2 2 2 1 < < < < < < < < 2 1 2 2 1 1 1 1 : : ; ; - - @ @ @ @ @ @ @ $ $ $ @ @ @ @ + + + + @ @ + @ + + @ + + + + + + X X X + + + + + + + + @ @ @ @ @ @ @ @ @ @ @ @ @ @ @ @ @ @ @ @ $ $ - - $ - - - - - - - ; ; ; ; ; ; ; ; ; ; : < < 1 1 1 1 1 1 1 1 2 2 e r r u u u i a a a x x x b b B B F F F H H U Y Y Y Y Y R R R Q Q } } } }  . . . . . . . . . . . . . . . . . . . . . . . . . . . .} } } } } } } } } } } } } } } } Q } } } } } } } } } } } } } } } } } } }  . . . . . .=.=.=.-.;.-.;.:.:.2.2.3.7.7.i.i.a.a.s.h.j.j.j.j.N.N.N.N.V.V.V.V.D.D.F.F.F.F.(.(.(._._._._.{.|.$X$X$X$X$X$X$X|.|.{._.(.F.F.F.F.D.D.D.V.V.V.V.V.V.V.V.V.V.V.V.D.D.D.D.D.D.D.D.F.F.F.(.(.(.(.(._.{.{.{.|.|.|.$X$X$X$X$X$X&X>X<XqXdXSXGXGXGXAXAXGXDXbXwX[.S.M.C.V.V.N.k.g.a.7.2.:.;. . .",
"F F F F F F F F H H H H J Y R R [ ' ..2.4.u.a.s.r.Q.>XhXLXKXGXZXFXFXFXSXdX0X2X2X<X<X<X<X>X>X#X#X&X$X$X|.|.{.{.{._._.(.(.(.F.F.F.D.D.D.D.D.D.D.D.V.V.V.V.V.V.V.N.N.N.N.N.V.V.D.D.F.F.(._.{.|.$X$X&X>X>X>X>X&X&X&X&X&X$X$X|.|.{./.(.(.F.F.D.V.V.V.j.j.a.y.3.3.3.3.3.2.;.=.=. . .Q } } } } } }  . .} } } } } Q Q ' Q Q R R R Q Q R } } } } } } } } } } } } } } } } } } } } } } } }  . . . . . . . . . . . . .=.=.=.=.-.-.;.;.;.;.:.:.:.;.;.;.-.-.-. . . .} } } } Q R Y Y U H H F F b x x x a u u u r r e 8 2 2 1 1 < < < < < < < < < < < < < 1 1 , ; ; ; ; - - - * @ @ @ @ @ @ @ @ @ @ @ + + + + + @ @ @ + @ @ @ @ @ + + + + X X X + + + + + + + + @ @ @ @ @ @ @ @ @ @ @ @ @ @ @ @ @ @ @ @ @ $ $ $ $ $ - - - - - - - - ; ; ; ; ; ; ; ; ; : < < < < < < < 1 1 1 2 e r r u u u i a a a a x x b b B B F F F H H U Y Y Y Y Y R R R } Q } } } }  . . . . . . . . . . . . . . . . . . . . . . . . . . . .} } } } } } } } } } } } } } } } Q } } } } } } } } } } } } } } } } } }  . . . . . .=.=.=.=.-.;.;.:.:.2.2.3.7.7.i.a.a.a.s.h.j.j.N.N.N.N.N.N.V.V.V.V.D.D.D.F.F.F.(.(.(._._._.{.{.{.$X$X$X$X$X$X|.|.{._._.(.F.F.D.G.D.D.D.V.V.V.V.V.V.V.V.V.V.V.V.V.D.D.D.F.D.F.F.F.F.F.(.(.(._._._.{.{.|.|.$X$X$X&X*X%X$X&X>X<XrXaXSXGXGXGXFXFXFXGXfXwX@XQ.A.V.N.B.V.V.m.p.7.2.:.>.=.=. .} ",
"F F F F B B B B H H F F F H U U } | | |  .! 4.d.i.7.x._.3XCXDXZXAXFXGXGXSXbXiXqXwXwXwXwX<X<X<X>X>X&X&X$X$X|.{.{._._._._.(.(.(.F.D.D.D.D.D.D.D.D.V.V.V.V.V.V.V.V.N.N.N.V.V.V.D.D.D.F.F.(.(._.{.}.$X&X>X>X>X>X>X>X>X>X&X&X$X$X|.{.(.(.(.F.D.D.V.V.N.j.s.i.7.3.3.3.6.2.;.=.=. . . . .} } } } } } }  . . .} } } } } } } } } } } } } } } } } } } } } } } } } } } } } } } } } } } } } X.X. . . . . . . . . . . .=.=.=.=.=.-.;.;.;.:.:.:.:.:.;.;.;.-.-. . . .} } Q Q Q R R Y U H H F F b x x x p u u u r e e 2 2 2 1 < : : : : , , , ; < , < < < < , , ; ; ; - ; - - - @ @ @ @ @ @ @ @ @ @ + + + + + X + + + + + + + + @ @ + + + X + + + + + + + + + + @ @ + + @ @ @ @ @ @ @ @ @ @ @ @ @ @ @ @ @ @ $ $ $ $ $ - * - - - - - - - - ; ; ; ; : ; ; ; ; ; ; , ; , , 1 1 2 e r r u u u i a a a x x x b b B B F F F H H U Y Y Y Y R R R R } Q } } }  . . . . .=.=. . . . . . . . . . . . . . . . . . . . . . . .}  . .} } } } } } } } } } } } } } } } } } } } } } } } } } } } } }  . . . . .=.=.=.=.=.=.;.;.;.:.:.2.2.7.7.i.i.a.a.a.g.h.j.N.N.N.N.N.N.V.V.V.V.D.D.D.F.F.F.(.(.(.(._._.{.{.|.|.$X$X$X$X$X|.|.{.(.(.(.F.F.D.D.D.D.D.V.V.V.V.V.V.V.V.V.V.V.V.D.D.D.D.D.F.F.F.F.F.(.(.(.(._._._._.|.|.|.$X$X&X&X&X&X&X>X:XrXdXmXmXGXFXFXFXFXmXdXtX$X].^.D.V.C.j.j.c.p.8.6.:.;.>.>.=. .Q Q ",
"F F F B B B b b H F F B B F H H ~ ~ R ] ] ' Q  .f.l.k.h.v.~.iXKXFXAXAXFXFXFXSXmX<X<X<XwX<X<X<X:X<X>X>X&X$X|.|.{.{.{._._._.(.(.(.F.F.F.F.D.D.D.D.V.V.V.V.V.V.V.V.V.V.V.V.V.V.D.D.D.D.D.F.F.F.(.(.[.$X&X>X>X>X<X<X<X>X>X>X&X$X|.|._.(.(.F.F.D.D.V.V.N.m.p.i.7.7.i.6.,.;.=.=.=.X.X.=. . . .} } } }  . . .} } Q } } } } } } } } } } ' } } } } ' ' ' } } } } } } } }  . . . . . . . .X. . . . . . . . . . . . .=.=.=.=.=.-.;.;.;.:.:.:.:.:.;.;.;.-.-. . .} } } Q R R R R Y U H H H F b x x x p u u u r e e 2 2 2 1 < : : : : , , , ; < < < < < , ; ; , , ; ; ; - - - @ @ @ @ @ @ @ @ @ + + + + + + + + + + + + + + + @ @ + + + + + + + + + + + + + + @ @ + + @ @ @ @ @ @ @ @ @ @ @ @ @ @ @ @ $ $ $ $ $ $ @ - * * - - - - - - - - - - ; ; ; ; ; ; ; ; : ; ; , , 1 2 5 r r u u u i a a a x x x b b B B F F F H H U Y Y Y Y R R R R Q Q } }  . . . . .=.=.=.=. . . . . . . . . . . . . . . . . . . . . . . . . . .} } } } } } } } } } } } } } } } } } } } } } } } } } } } }  . . . .=.=.=.=.=.-.=.;.;.:.:.2.2.2.7.7.i.i.a.a.s.h.j.j.N.N.N.N.N.N.V.V.V.V.D.D.D.F.F.F.(.(.(.(._._.{.{.|.|.$X$X$X$X|.{.{._.).).F.F.F.D.D.F.V.V.V.V.V.V.V.V.D.D.V.V.V.D.D.D.F.F.F.F.F.F.F.F.(.(.(._.`.{.{.{.|.|.|.$X$X&X&X&X>X>X:XqXbXDXGXAXSXAXAXFXGXfX#XQ.(.F.D.V.N.j.j.h.3.3.2.:.;.=.;.>. . .Q Q ",
"F F F F F H H H H H H J J H H H Y Y Y R R R R R =.:.2.3.a.m.G.G.hXVXGXAXzXAXGXJXSXcX8X+X<XeXeXwXrXrXwXwXeX<X>X#X|.|.|.{._._._._.(.(.(.F.F.F.F.F.D.D.D.D.D.V.V.V.V.V.V.V.V.V.V.V.F.F.D.F.D.D.D.D._.{.$X&X>X>X>X>XwXwXwX<X<X>X#X#X@X[.]._.(.F.F.D.V.V.N.N.h.a.2.-. .} Q R U H F F J Y R R Y Y R R } } } } } } } Q } } } } } } } } } } } } } } } }  . . .=. . . . . . . . .=.=.=.%. . . . . . .} } } }  . . . .=.-.=.=.=.=.=.=.=.=.=.=.-.-.-.-.=.=.=. . . .Q Q R R Y Y Y J H F F F x x x a u u r r e e 8 2 2 1 1 1 2 < < < ; ; ; ; ; ; ; ; ; ; ; ; ; ; ; ; - $ @ @ @ @ @ @ $ $ $ @ @ @ @ + + + + + + + + + + + + + + + + + + + + + + + + + + + + + + + + + + + + + @ @ @ @ @ @ @ @ $ $ $ $ @ @ @ @ - * - - - - - - - - - - - - - - - ; ; ; ; ; ; ; ; ; ; , 1 2 8 8 e r r r u a a a a a x x b B F F F H H J Y Y R R R R R R Q Q } } } Q }  . . . . .=.=. . . . .=.=. . . . .=.=. . . . . .=.=.=.=.=. . . . . . . . .} } } } } } } } } }  . . . . . .} } } }  . . .}  . . . . . .=.=.=.=.-.;.;.:.:.:.7.7.7.7.i.i.a.a.a.s.g.h.j.N.N.N.N.N.V.V.V.V.D.D.F.F.F.(.(.(.(.(.).(._.{.{.|.$X$X$X$X$X|.|.{.{._.(.(.F.F.D.D.D.D.V.V.V.V.V.V.V.V.V.V.V.D.D.D.D.D.D.F.F.F.(.(.(.(.`.`._._.{.|.$X@X*X$X[.$X*X&X&X>X:XiXbXAXAXFXFXSXAXGXJXhX&X/.(._.D.D.V.s.7.2.;.=.%.=.;.:.:.:.-.=.X. . .} ",
"B F F F F F H H F F F F F F F F Y Y Y Y Y Y Y Y Q =.6.8.p.s.m.m.].#XaXSXGXGXAXZXGXDXbXaX0X:X:X<XeX<X:X;X>X>X#X@X$X$X$X|. X{.{._.(.(.(.F.F.F.F.D.D.D.D.D.D.V.V.V.V.V.V.V.V.V.V.V.D.D.D.D.F.D.D.D.(._.{.$X#X#X#X>X<X<X<X<X<X>X>X>X,X&X$X{._.F.D.V.V.V.N.N.j.a.7.2. .=. .! Q Y H F U Y R R Y Y R ' Q Q Q Q Q Q Q Q ' ' ' ' ' ' ' ' } } } } } } } }  . . . .} } } } } } }  . . . . .} } } } } } Q Q }  . . . . .=.-.=.=.=.=.=.=.=.=.=.-.-.-.;.-.-.=.=. . . .} Q R R Y Y Y J H F F F x x x a u u r r e e e 8 2 1 1 1 1 1 < < < : ; ; ; ; ; ; ; ; ; ; ; ; ; ; - $ @ @ @ @ @ @ $ $ @ @ @ @ @ + + + + + + + + + + + + + + + + + + + + + + + + + + + + + + + + + + + + + @ @ @ @ @ @ @ @ $ $ $ $ @ @ @ @ * * * - - - - - - - - - - - - - ; ; ; ; ; ; ; ; ; ; ; < 1 1 2 8 e r r r u u a a a x x x b B F F F H H J Y Y R R R R R Q } } } } } }  . . . . . .=.=. . . .=.=.=. . . . .=.=. . . . . . .=.=.=.=. . . . . . . . .} } } } } } } } } }  .}  . .} } } } } }  . . . . . . . . .=.=.=.=.-.;.;.:.:.:.2.3.7.7.i.i.a.a.a.g.g.h.j.j.N.N.N.N.V.V.V.V.D.D.D.F.F.F.F.F.(.(.(.(._.`.{.|.|.$X$X$X$X$X|.{.{._.(.(.(.F.F.D.D.V.V.V.V.V.V.V.V.V.V.D.D.D.D.D.D.F.F.F.F.F.F.(.(.(._.{._.{.{.|.$X$X$X[.$X&X>X&X#X:XrXfXMXGXGXZXZXFXGXDXpX:X@X{.`.).(.V.V.m.p.7.:.=.=.=.;.;.-.-.-.=. .Q Q Q Q ",
"B B B B F F F F B B b b b b B B H H H H H H H H Y } >.2.7.7.7.i.s.M.{.<XnXGXAXzXFXFXGXSXbXaXwX>X<X<X>X>X>X>X&X#X@X$X$X$X$X X{._._._.(.(.F.F.F.F.F.F.F.D.D.D.D.V.V.V.V.V.M.V.V.V.D.D.D.D.D.D.D.D.F.(.`.|.$X&X>X>X>X>X<X>X>X>X>X>X,X&X$X{._.(.F.F.F.D.V.N.N.h.a.a.2.2.2.2.>. .R Y T R R R Y Y J Y Y U Y R R R R R R R R R R R R R R R R R R R R R ' R R Y Y Y H H J J Y Y Y E E E Y Y R R Q Q Q Q }  . . . . .=.-.=.=.=.=.=.=.=.=.;.;.;.;.;.;.;.;.=.=. . .} } Q R Y Y Y J H F F F x x x a u u r r e e e 2 2 2 1 1 1 < < < < ; : : ; ; ; ; ; ; ; - - - ; - - $ @ @ @ @ @ @ $ @ @ @ @ @ @ + + + + + + + + + + + + + + + + + + + + + + + + + + + + + + + + + @ @ @ @ @ @ @ @ @ @ @ @ $ $ $ @ @ @ @ @ @ @ @ @ @ @ @ @ - - - - - - - - ; ; ; ; ; ; ; ; : < < 1 1 2 2 8 e r r r u u p p a x x x b B F F F H H J Y Y Y R R } } } } } }  .} }  . . . . . .=.=. . . . .=.=. . . . .=.=. . . . . . . . .=. . . . . . . . . .} } } } } } } } } } } } } } } } } } } }  . . . . . . . .=.=.=.=.;.;.;.;.:.2.2.2.7.7.7.i.i.a.a.a.h.h.j.j.N.N.N.N.V.V.V.V.D.D.D.D.F.F.F.F.F.(.(.(._._.{.{.|.$X$X$X$X|.|.{.{._.(.(.F.F.D.D.V.V.V.V.V.V.V.V.V.V.V.V.D.D.D.D.D.F.F.F.F.F.(.(.(._._._.|.|.|.|.$X$X&X&X%X*X>X>X;X8XpXDXDXGXFXFXGXGXSXmX<X@XQ.^.).).G.c.p.p.i.6.:.=.=. .=.=.=. . . . . .} Q Q Q ",
"B B B B B b b b b b b b b b b b Z Z F F F F F F F J R Q =.;.2.8.k.j.V.(.$XrXmXFXAXAXAXFXGXSXdX0X<X<X<X<X1X1X>X>X>X>X>X&X&X$X|.[.{._._.(.F.F.F.F.F.F.F.F.D.D.D.D.D.V.V.V.V.V.V.V.V.V.V.V.V.V.V.V.D.F.).}. X$X&X&X>X>X>X>X#X#X>X>X#X$X|.|.{._._.(.F.F.D.V.V.N.j.j.a.a.s.d.i.2.=. .~ ~ Q R Y H H F U U U U U Y Y Y Y Y Y Y Y Y Y Y Y Y U U U U U U F F F F b b b b x x b b b b Z Z H H U Y R }  . .}  . . . . .=.=.=.=.=.=.=.=.=.=.:.:.:.2.2.:.:.:.=.=. . .} } Q ' Y Y Y J H F F F x x x a p u u r e e e e 2 2 2 2 1 1 < 1 < < < : : ; ; ; ; ; - - - - - - - $ @ @ @ @ @ @ $ @ @ @ @ @ @ + + + + + + + + + + + + + + + + + + + + + + + + + + + + + + + + + @ @ @ @ @ @ @ @ @ @ @ @ $ $ @ @ @ @ @ @ + + @ @ @ @ @ @ - - - - - - - - ; ; ; ; ; ; ; ; < < 1 1 2 2 8 8 8 e r r u u u p a x x x b B F F F H H J Y Y Y R R } } } } }  . .} }  . . . . . .=.=. . . . .=.=. . . .=.=.=. . . . . . . . . . . . . . . . . . .} } } } } } } } } } } } } } } } } }  .}  . . . . . . .=.=.=.=.-.;.:.:.2.2.2.6.6.7.i.i.a.a.a.g.g.j.j.j.N.N.N.V.V.V.V.D.D.D.D.F.F.F.F.F.F.F.(._._.{.{.|.|.$X$X$X$X|.|.{.{._.(.F.F.F.D.D.V.V.V.V.V.V.V.V.V.D.D.D.D.D.D.D.D.F.F.F.F.F.(.(.(._._._.{.|.$X$X$X$X$X&X&X,X&X>X0XiXmXFXFXFXAXAXGXKXnX<X~.^.(.F.C.C.B.s.i.7.3.2.:.=.=. . . . . . .} } } } } } } } ",
"B B b b b b b b b b b B B b b b b b b b b b b b B F H T Q  .-.,.p.d.h.m.D.{.>XtXKXGXFXAXAXAXSXmXrXrXwX<X:X<X<X>XrXeXwX<X>X>X&X=X|.|.{._.(.(.F.F.F.F.F.F.D.D.D.D.D.D.D.D.V.V.V.V.V.V.V.V.V.V.V.V.M.A.F.(.(._.{.|.&X&X&X&X&X#X>X>X>X&X$X|.{._.(.^.(.F.F.D.V.N.N.N.N.N.j.h.a.i.2.2.>.>. . .R Y J H U U U U U H H H H H H H H H U U U H H H H H H H F b b b b b x x x x x b b b b b H H Y Y } }  . .}  . . . . .=.=.=.=.=.=.=.=.=.=.:.:.:.2.2.:.:.:.=.=. . .} } Q ' Y Y Y Y H F F F x x x a p u u u r r e e e 2 2 2 1 1 1 1 1 < < < ; ; ; ; ; - - - - - - - - - $ @ @ @ @ $ @ @ @ @ @ @ @ + + + + + + + + + + + + + + + + + + + + + + + + + + + + + + + @ @ @ + + + @ @ @ @ @ @ @ @ @ @ @ @ @ @ @ @ + + @ @ @ @ @ @ @ @ @ @ @ @ - - - - ; ; ; ; ; ; < < 1 1 2 8 e r 8 e r r u u u p a a x x b B F F F H H J Y Y R R R R ' } } } } } } }  . . . .=.=.=. . . . . . .=.=.=.=.=. . . . . . . . . . . . . . . . . . . . . .} } }  . . . . .} } } } } }  .} } }  . . . . . . .=.=.=.=.=.=.:.2.2.2.2.3.7.7.i.i.a.a.a.g.h.h.N.N.N.N.V.V.V.V.D.D.D.F.F.F.F.F.F.F.F.(.(._.{.{.|.|.$X$X$X$X$X$X X{.{._.(.F.F.D.D.V.V.V.V.V.V.V.V.V.V.D.D.D.D.D.D.D.F.F.F.F.F.(.(.(.(._._.{.{.{.|.$X%X%X$X$X#X#X#X:XrXbXDXGXAXzXzXHXGXBX>XQ.A.M.F.D.V.h.i.y.i.d.2.2.:.;.=.=..... . . .} } } } } R R R R ",
"B b b b B B Z Z b B F F F F B b F F F F F F F F B F H R R Q Q } } -.7.p.h.m.F.).:XaXDXGXFXAXAXGXDXmXiX0X:X:X<X<XrXrXwXwX<X:X:X:X&X$X|.|._._.(.(.F.F.F.F.F.D.D.D.D.D.D.D.V.V.V.D.V.V.V.V.V.V.V.V.M.A.D.F.F.S.^./.|.$X$X&X>X>X<X1X>X>X&X$X$X|.{./.(.(.F.F.D.V.N.N.N.N.j.j.a.i.7.6.2.:.;.-.>.X.} ' Y Y Y Y Y Y U U Y Y Y Y Y Y Y Y Y Y Y Y Y Y Y Y H H H F F F F K K K J J J J J H Y R R Q } } }  .}  . . . . .=. .=.=.=.=.=.=.=.=.;.;.;.;.;.;.;.;.=.=. . .} } Q R Y Y Y Y H F F F N x x a a u u u r r r e e e e 2 1 1 1 1 1 1 < < ; ; ; ; - - - - - - - - - - $ $ @ @ @ $ @ @ @ @ @ @ @ + + + + + + + + + + + + + X X X X X X X X + + + + + + + + @ + @ @ + + + + @ @ @ @ @ @ @ @ @ @ @ @ @ @ @ @ + + @ @ @ @ @ @ @ @ @ @ @ @ @ @ - - - ; ; ; ; < < < 1 2 2 e r y e r r r u u p p a a x x b B F F F H G J Y Y R R R R R } } } } } } }  . . . .=.=. . . . . . . . .=.=.=.=. .=. . . . . . . . . . . . . . . . . . . . . . . . . . . .} } } } }  . .} } }  . . . . . .=.=.=.=.=.;.;.2.2.2.2.3.7.7.7.a.a.a.s.h.j.j.j.N.N.V.V.V.D.D.D.F.F.F.F.(.(.(.(.).(.(._._.{.|.|.$X$X$X$X$X|.|.|.{.`._.(.F.D.D.D.V.V.V.V.V.V.V.V.D.D.D.D.D.D.D.D.F.F.F.F.F.(.(.(.(._._._.{.{.|.|.|.$X%X%X@X#X;X:XrXdXDXGXFXFXGXGXGXSXiXOXW.m.k.l.V.N.g.a.a.i.7.:.2.:.:.;.=.-.-.-. . . . . . . . .R R R R ",
"B B B F F F H H F F F F F F F F F F F F F F F F F H U R R R Y Y U R -.6.7.a.a.g.v.^.*XhXMXGXFXFXGXFXSXbXiXrXwX<XwXwXwXwXwXwX0X0X<X>X&X$X|.{.{._.(.).(.F.F.F.D.D.V.V.V.V.V.V.V.V.V.V.V.V.V.V.V.V.F.D.D.D.D.F.(._.{.|.$X&X&X>X<X<X>X#X&X&X&X$X|.|._._.(.F.F.D.V.V.N.N.j.j.a.i.7.2.7.6.2.:.:.-.=. .R R R R Y Y Y Y Y Y Y Y Y Y Y Y Y Y R R R R R R R Y Y U U U E E R R R } } } } Q } } } } } } } }  . . . . . .=.=.=.=.=.=.=.=.=.=.=.-.-.-.-.-.-.=.=. . . .} Q R R Y Y Y Y H F F F N x x a a u u u r r r e e e e 5 2 2 2 1 1 < < , ; ; ; ; - - - - - - - - - - - $ @ @ $ $ @ @ @ @ @ @ @ + + + + + + + + + + + + + X X X X X X X X + + + + + + + + + + + + + + + + @ @ @ @ @ @ @ @ @ @ @ @ @ @ @ @ + + + + + + + + @ @ @ @ @ @ @ $ - - ; ; ; ; < < 1 2 1 2 8 e r r e r r r u u a a a a x x b B F F F H H J Y Y R R R R R } } } } } } } }  . . .=.=. . . . . . . . . . .=. .=.=.=.=. . . . .=.=.=.=. . . . . . . . . . . . . . . . . . .} } } }  . .}  . . . . . . .=.=.=.-.=.;.;.;.2.2.2.3.7.7.i.i.s.s.s.h.j.N.N.N.V.V.V.D.D.D.F.F.F.F.(.(.(.(.(._._._._.{.|.|.$X$X$X$X$X$X|.|.{.{._.(.F.F.F.D.V.V.V.V.V.V.V.V.D.D.D.D.D.D.F.F.F.F.F.F.(.(.(.(.(._._._._.{.{.|.|.$X$X&X&X*X;X:XrXdXSXGXGXAXAXFXDXDXtX>XQ.n.M.C.B.B.s.a.a.s.d.9.;.! 2.2.:.;.;.=.-.-.=.=.=.-. . . .} } } ' ' ",
"F F F F H H H H H H F F F F H H F F F F F F F F H H U Y R R Y Y ^ ~ }  .:.7.a.k.k.j.x.!.0XMXGXFXzXAXFXGXMXfXwX:X:X0XwXrXrXrXrXrX<X<X<X>X$X|.{.{.`.`.(.).F.F.F.D.V.V.V.V.V.V.V.V.D.D.D.D.V.V.V.V.F.F.D.D.D.F.(._.{.{.|.$X&X&X>X>X>X>X#X&X&X$X|.|.{.{._.(.F.F.D.D.N.N.N.j.g.a.7.6.7.7.2.2.:.;.=.! R R R ' ' ' ' ' Y Y Y Y Y Y Y Y R Y R R R R R R R R T U U U U U R R Q Q Q ! ! ! ! }  . .} } } }  . . . . . . . .=.=.=.=.=.=.=.=.=.=.-.-.-.-.=.=.=. . . .Q Q R R Y Y Y Y H F F F N x x a a u u u r r r r e e e e 2 2 2 1 1 1 < , - - - - - ; ; ; - - - - - - - $ @ $ $ $ @ @ @ @ @ @ @ + + + + + + + + + + + + + X X X X X X X X + + + + + + + + + + + + + + + + @ @ @ + @ @ @ @ @ @ @ @ @ @ @ @ + + + + + + + + @ @ @ @ @ @ $ $ - - - ; ; ; < < 2 2 2 2 8 e r r e r r r u a a a a a x x b B F F F H H J Y Y R R R R R } } } } } } } }  . . .=.=. . . . . . . . . . . . .=.=.=.=. . . .=.=.=.=.=. . . . . . . . . . . . . . . . . . .} } } } }  . . . . . . . . .=.=.-.-.-.;.;.;.2.2.3.3.7.i.i.i.s.s.s.h.j.N.N.N.V.V.D.D.D.F.F.F.F.(.(.(.(._._._._._.{.|.|.$X&X#X$X$X$X|.{.{._./.(.S.F.A.D.V.V.V.D.V.V.D.D.D.D.D.D.D.D.D.F.F.F.F.(.(.(.(.(._._._.{.{.{.|.|.$X$X$X&X>X>X<XeXiXmXDXFXFXAXFXGXGXpX+X_.(.F.D.V.m.m.m.s.a.a.y.1.;.>.0.2.2.:.;.;.=.=.=.=.=.=.=. . .Q Q R R R R ",
"H H F b b b K W Y Y Y H H F F F F F F F H F F F H H J Y Y Y Y J R R Q Q  .=.>.>.-.7.j.N.D.|.eXIXFXFXHXAXHXGXSXbX+X0XwXeXeXrXrXaXwXwXrXwX<X>X&X$X X{././.(.(.F.S.D.D.D.D.D.D.D.V.D.D.D.V.V.V.V.V.D.D.D.D.D.D.D.F.).(._.{.|.$X&X&X>X>X>X>X>X&X$X$X$X|.|.{._.F.D.D.D.D.V.V.N.N.N.j.a.a.7.:.-.=.=.=.=. . . .! Q } } R U U U U Y Y H R R R Y Y Y Y Y Y Y Y Y Y Y Y Y Y Y R R Q Q } } } } }  . . . . . . . . .=.=.=.=. . . .=.=.=.=.=.-.-.-.=.=.=.=.=. . . .} Q R R R Y Y J H H F F B x x a a u u u r r r r e e e 5 5 8 2 2 1 1 < ; ; ; ; ; ; ; ; ; ; - - * - * * * * @ @ @ @ @ @ @ @ + + + + + O O + + + + + X X . . . . . o . . . . X X X X X X X X + + X + + + + + + + + + + + @ @ @ @ @ @ @ @ @ @ $ @ @ @ @ @ @ @ @ @ @ @ @ @ @ @ $ $ - ; ; < 1 1 < 1 2 2 e 8 e e e e r r u u i a x x x b B F F F H H J Y Y R R R R R Q } } }  . . . . . .=.=.=.=.=.=.=.=.=.=.=.=. . .=.=.=. . . . . . . .=.=. . . . . . . . . . . . . . . . . . . . . . . . . . .} }  . . . . .=.=.=.=.-.;.:.:.2.2.3.3.7.i.a.a.a.j.j.j.j.N.N.N.V.V.V.D.D.F.F.(.(.(.(.(.(._._._.{.[.|.|.$X$X$X$X$X$X$X|.{._._.(.(.D.D.D.D.V.V.V.V.V.V.V.V.D.D.D.F.F.F.F.F.(.(.(.(.).).(.(._._.{.{.[.|. X%X$X&X>X<X<X<X0X9XvXGXFXFXAXAXFXMXsX&X{.F.D.D.V.N.h.a.7.6.2.2.:.;.;.-.=.-.=.=.=.=.=. . . . .} Q Q R Q ' } } } } } ",
"J H F G G G F F Y Y H H H H H H F F H H H H F F H J Y Y Y Y Y Y J J Y Y R } } }  .2.d.k.m.A.Q.OXdXMXGXAXZXAXFXGXVXdX0X:XeXtXeXwXwXwXwXwX:X>X&X$X|.|.{._._._.(.(.F.F.F.D.D.D.D.D.D.D.D.D.D.D.V.V.D.D.D.D.D.D.D.D.(.(.(._.{.|.$X$X#X>X>X>X>X&X$X$X|.|.{.]._.(.F.D.D.D.V.V.N.N.j.j.a.a.7.6.:.;.;.:.=.=. . . . .} } R R Y Y Y Y Y Y R R R R Y Y Y Y R R R R R R R R Y Y R R Q } } } } }  . . . . .=. . . . . .=.=.=. . . .=.-.-.=.=.-.-.-.=.=.=.=.=.=. . .} Q R R R Y Y J H H F F B x x a a u u u u r r r e e e 5 5 2 2 2 1 1 < ; ; ; ; ; ; ; ; ; ; - - - - - - * * @ @ @ @ @ @ @ @ + + + + + O + + + + + + X X . . . . . o . . . . X X X X X X X X + + X + + + + + + + + + + + @ @ @ @ @ @ @ @ @ @ $ @ @ @ @ @ @ @ @ @ @ @ @ @ @ * $ - ; ; ; < 1 1 < 1 2 2 e e e e e e r r u i a a x x x b B F F F H H J Y Y R R R R Q Q } } }  . . . . . .=.=.=.=.=.=.=.=.=.=.=.=.=. .=.=.=. . . . . . . .=.=. . . . . . . . . . . . . . . . . . . . . . . . . . .}  . . . . .=.=.=.=.-.;.:.:.2.2.3.3.3.i.i.a.a.g.j.j.j.N.N.V.V.V.V.D.D.D.F.(.(.(.(.(._._._.{.{.{.$X$X$X$X$X$X$X$X|.{.{._.(.(.F.F.D.D.D.D.V.V.V.V.V.V.V.D.D.D.D.D.F.F.F.(.(.(._._._._._.{.{.|.|.|.|.$X%X*X*X&X>X;X<XaXnXDXGXAXFXFXGXDXbXwX@X_.F.D.V.N.N.h.a.7.2.:.:.:.;.;.;.-.-.-.;.=.=.=.=. . . . . .! Q Q Q } } Q Q Q Q ",
"F F B F G J J G H H J Y Y Y Y Y U H H J G G F F H H H J J J H H B F G G J J Y Y Q X.0.4.i.p.v.v.].>XhXMXGXFXFXFXGXDXbXaXwX<X<X1XeXwX<X<X<X<X>X&X$X$X|.|.{.{._._.(.(.F.F.F.F.D.D.D.D.D.D.D.D.D.D.D.D.D.D.D.D.D.D.F.).(.`.{.|.|.|.#X#X>X>X>X&X&X#X$X$X|.|.{._.(.F.F.D.D.V.N.N.j.j.h.g.a.i.7.2.2.2.:.-.>. . .} } } } Q R R R R R R Q R R R R R Y Y R R R R R R R R R R R R ' } } } } } } }  . . . .}  . . . . .=.=. . .=.-.-.-.-.;.-.-.=.=.=.=.=.=.=. . .} Q R R R Y Y J H H F F B x x x a a u u u r r r r e e e 5 2 2 2 2 1 1 < , ; ; ; ; ; ; ; ; - - - - - - - - @ @ @ @ @ @ @ @ + + + + + + + + + + + + X X . . . . . . . . . . X X X X X X X X + + + + + + + + + + + + + + @ @ @ @ @ @ @ @ @ @ @ @ @ @ @ @ @ $ @ $ $ $ - - - - ; ; ; ; ; , , , < 1 2 2 8 8 e r e r r r u i a a x x x b B F F F H H H Y Y Y R R Q Q Q } } }  . . . . . . . .=.=.=.=.=.=.=.=.=.=.=.=.=.=.=.=. . . . . . .=.=.=. . . . . . . . . . . . . . . . . . . . . . . . . . . . . . .=.=.=.-.-.;.;.2.2.2.2.3.3.i.i.a.s.g.h.j.N.N.N.V.V.V.D.D.D.F.F.(.(.(._._._._.{.{.|.|.|.&X&X&X$X$X$X|.|._._._.(.F.F.D.D.D.D.D.V.V.V.V.V.V.V.D.D.D.D.F.F.F.F.(.(.(._._._.{.{.|.|.$X$X&X&X&X&X&X&X>X2X0X0XhXVXDXFXAXAXFXGXhXeX#X].S.F.V.B.N.m.h.a.i.3.2.2.;.;.;.;.=.-.-.-.;.=.=.=.=. . . .X.X. . .! Q } }  .} } } ",
"K K Z Z F F J J H H H Y Y R R Q R Y Y Y J G F F H H H H H H H H B F B F F F H H R Q !  .:.i.k.B.m.A.{.<XnXGXGXAXZXFXGXSXdX0X<X<XeX<X<X<XwXwX<X>X>X&X$X$X|.|.{.{._.(.(.(.(.F.F.F.F.F.D.D.D.D.D.D.D.D.D.D.D.D.D.D.F.F.(._.{.{.{.{.@X#X&X>X>X>X>X#X*X&X&X$X|.{._.(.(.F.F.D.V.N.N.N.j.h.g.a.a.i.i.y.:.:.-. . .} } } } } R R R R R R Q Q R R R R R R R R R R R R R R R R R R R R R R ' } } } } } } }  . . . . . . .=. . . . .=.=.-.=.=.=.=.=.=.=.=.=.=. . .} Q R R R Y Y J H H F F B x x x a a i u u u r r r e e e 2 2 2 2 2 1 1 < < ; ; ; ; ; ; ; ; ; - - - - - - - @ @ @ @ @ @ @ @ # + + + + + + + + + + + X X . . . . . . . . . . X X X X X X X X + + + + + + + + + + + + + + @ @ @ @ @ @ @ @ @ @ @ @ @ @ @ @ $ $ $ - - - - - ; ; ; ; ; ; ; , , , < 1 2 2 8 8 r r r r r u u p a a x x x b B F F F H H H Y Y Y R R Q Q Q } } }  . . . . . . . .=.=.=.=.=.=.=.=.=.=.=.=.=.=.=.=.=. . . . .=.=.=. . . . . . . . . . . . . . . . . . . . . . . . . . . . . . .=.=.=.=.-.;.;.:.2.2.3.3.i.i.i.a.s.g.h.j.N.N.N.N.V.V.D.D.F.F.F.F.(.(._._._._.{.{. X|.$X$X&X&X&X$X$X|.|.{.(.(.(.F.F.D.D.D.V.V.V.V.V.V.V.V.D.D.D.D.F.F.F.F.(.(.(._._._.{.{.|.|.|.$X$X&X&X&X*X&X&X;X:XqXdXMXKXFXZXAXGXGXbXqX[.].W.A.D.C.B.j.h.s.a.a.i.3.2.4.;.;.;.=.=.=.-.-.;.=.=.=.=. . . .=.=.X. . . . . .} } } } ",
"E E E E H H J Y H H U Y R R Q } Q R R Y Y H F F H H H H H H H H H H H H U U U U ' ' Y R  .2.g.k.l.j.M.^.#XrXMXGXFXAXAXAXFXSXdX8XrXwXwXwXeXeXwX:X<X>X>X&X$X$X|.{.{.{._._.(.(.F.F.F.F.F.D.D.D.D.D.D.D.D.D.D.D.D.D.D.F.F.(.(._._._.$X$X$X&X&X>X>X>X&X&X#X#X$X|.{._.(.(.F.F.D.V.V.N.j.h.h.g.a.a.i.i.2.:.;. . .} } R } Q R R R R R R R R R R R R R R R R R R R R R R R R R R R Y Y Y ' ' ' ' } } } } Q }  . . . . . . . . . . . .=.=.=.=.=.=.=.=.=.=. . . .} Q R R R Y Y J H H F F B b x x x a a u u u u u r e e e 8 2 2 2 2 1 1 < , ; ; ; ; , ; , , ; - - - - - - - @ @ @ @ @ @ @ @ @ @ @ @ @ @ + + + + O O X X . . . . . . . . . . X X X X X X X X X X X + + + + + + + + + + + + + @ @ @ @ @ @ @ @ @ @ @ @ @ @ $ $ - - - - ; ; ; ; ; ; , , , , , , < 1 2 2 8 8 r r r r r u u p a a x x x B B F F F H H H U Y R R R R R Q } } } }  . . . . . . . .=.=.=.=.=.=.=.=.=.=.=.=.=.=.=.=.=.=.=.=.=. . .=.=. . . . . . . . . . . . . . . . . . . . . . . . . . .=.=.=.=.=.;.;.:.2.2.3.3.7.i.a.a.a.s.h.j.j.N.N.N.N.V.V.D.D.D.F.F.F.(.(._._._.{.{.{.|.|.$X$X$X#X&X&X$X|.|.{.{.).F.F.D.D.D.V.V.V.V.V.V.V.V.V.V.D.D.D.F.F.F.F.F.(.(._._._.{.{.{. X X|.$X$X$X$X$X%X*X1X0XpXvXFXGXAXAXFXFXDXsX#X!.(.F.D.V.V.N.j.g.a.i.7.3.2.4.2.2.:.:.;.;.=.=.=.=.=.=.=.=.=.=. . .=.=.X.X.X. . .! Q Q Q Q ",
"H Y R ~ ~ ~ R R Y Y R R R R R R Q R R R Y Y H H Y Y Y Y Y Y Y J T E T T Y Y Y Y Y Y ` ]  .;.3.y.l.l.C.D.^.].;XtXDXGXFXGXGXAXSXmXiXiXqXrXrXeX<X:X<X<X>X>X&X$X|.|.|.{.{._._.(.(.(.F.F.F.F.D.D.D.D.D.D.D.D.D.D.D.D.D.F.F.F.(.(.(.(.{.{. X|.$X&X>X<X#X>X>X>X>X&X$X|._._.(.F.D.D.V.V.N.N.j.j.h.s.a.i.7.2.:.=. . .} } } Q R R R R Y Y Y Y Y Y Y R R R R R R R R R R R R R R Y Y Y Y Y ' ' ' ' } } } } Q Q Q  . . . . .} } }  . . . . .=.=.=.=.=.=. . . . . .} Q R R R Y Y J H H F F B B b x x a a a u u u u r r e e 8 2 2 2 2 1 < < < ; ; ; ; ; ; , , - - - - - - - - @ @ @ @ @ @ @ @ @ @ @ @ @ @ @ @ + + O O X X . . . . . . O O . . X X X X X X X X X X X + + + + + + + + + + + + + + + + + + + + + @ @ @ @ @ @ $ $ - - - - ; ; ; : , , , , , , , , < 1 2 2 8 8 r r r r u u p p a x x x x B B F F H H H H U Y Y R R R R Q } } }  . . . . . . . .=.=.=.=.=.=.=.=.=.=.=.=.=.=.=.=.=.=.=.=.=.=. .=.=.=. . . . . . . . . . . . . . . . . . . . . . . . .-.-.-.-.-.;.;.;.:.:.2.2.3.7.i.a.a.s.s.h.j.N.N.N.N.V.V.V.D.D.D.D.F.(.(.(._._._._.{.{.|.|.$X$X$X$X$X$X$X|.{.{._._.F.D.D.D.V.V.V.V.V.V.V.V.V.D.D.D.F.F.F.F.F.F.(.(.(._._._.{.{.|.|. X|.$X$X$X#X=X#X#X:XsXmXSXFXFXFXGXFXmXaX;X[.'.).F.D.V.N.N.j.g.a.i.7.6.2.:.2.4.4.2.:.;.;.=.=.=.=.=.=.=.=.=.=. . . .! X. . . .} } Q Q Q Q ",
"q.<... .X.X.} } Q Q Q R R R R R R R R R R R Y Y Y Y Y Y Y Y J H E E U Y Y Y Y Y A U R } }  .-.>.2.i.B.C.D.A.W.].>XtXVXGXAXZXAXGXZXvXpXrXwXwX<X<X<X<X>X>X&X&X$X|.|.|.|.{.{._.(.(.(.F.F.F.F.D.D.D.D.D.D.D.D.D.D.D.D.D.D.F.F.F.(.(._._._._.|.$X>X>X>X>X<X<X<X>X&X&X|.|.{._.(.F.D.D.V.V.N.N.j.h.s.a.a.i.7.2.;.-. . .} R R Y Y Y Y Y H H H H U U Y Y Q Q Q Q Q Q Q Q R R R R Y Y Y H Y Y Y R R R R R Q Q } }  . . . .} }  . . . . . .=.=.=.=.=.=. . . . . .} Q R R R Y Y J H F F F B B b b x x a a a u u u r r r 8 8 2 2 1 1 1 < < < , , , , , , , , - - - - - - * * @ @ @ @ @ @ @ @ @ @ @ @ @ @ @ @ + + O O X X . . O O O O O O O O X X X X X X X X X X X + + + + + + + + + + + + + @ @ @ @ @ @ @ @ @ @ @ @ @ $ $ $ - - - - ; ; ; ; , , , , , , 1 < < 1 2 2 8 8 r e r r u u p a x x x x x B B F F H H H H U Y R R R R R Q } } }  . . . . . . .=.=.=.=.=.=.=.=.=.=.=.=.=. .=. . .=.=. . . . . . .=.=. . . . . . . . . . . . . . . . . . . . . . . . .-.-.-.-.;.;.;.;.:.2.2.3.7.i.i.i.s.s.g.h.j.N.N.N.V.V.V.D.D.D.F.F.(.(.(._._._.{.{.|.|.|.$X$X$X$X$X$X$X|.{._.(.(.F.D.D.D.V.V.V.V.V.V.V.V.V.D.D.D.D.F.F.F.F.(.(.(.(._._._.{.{.|.|.|.$X$X&X&X#X>X<X1XiXbXSXGXGXFXFXFXMXfX<X[.n.A.D.G.V.N.N.j.j.g.p.p.7.7.6.,.:.:.2.4.:.:.;.;.;.-.-.-.=.=.=.=.=. . . .! !  .} } } Q Q } } } } ",
"5XoXe.:.=.=. .R  . . .} Q R Y Y Y Y Y R R R Q Q H H J J H H H H H H H H H G G J E E E T T U R ' ,.:.3.h.B.V.V.A.(.{.<XbXGXGXFXZXFXGXmXiXwXwXwXwX:X>X>X>X>X&X$X$X$X$X|.|.{._._._.(.(.(.F.F.F.D.D.F.D.D.D.D.D.D.D.D.D.D.D.D.F.F.F.(.(.S.^./.|.&X>X>X<X<X<X:X>X&X&X&X&X|.{._.(.F.D.V.V.V.N.N.h.s.s.h.s.a.7.2.:.-...' R R Y Y Y Y Y F F F H J U E E } } } } } } } } } R R R Y Y J J J J Y Y Y Y Y R Q Q } }  . . . .} }  . . . . .=.=.=.=.=.=.=.=. . . . .} Q R R R Y Y J H F F F B B B b x x a a a p u u u r r 8 8 2 2 1 1 1 < < < , , , , , , , , - - * - * * * @ @ @ @ @ @ @ @ @ @ @ @ @ @ @ @ @ + + O O + X . . O O O O O O O O X X X X X X X X + X X + + + + + + + + + + + + + @ @ @ @ @ @ @ @ @ @ @ @ @ $ $ $ @ - - - ; ; ; ; , , , , , 1 < < < 1 2 2 8 8 r r r u u u p a x x x x x B B F F H H H H U Y R R R R R Q } } }  . . . . . . .=.=.=.=.=.=.=.=.=.=.=.=.=. . . . . . . . . . . . .=.=. . . . . . . . . . . . . . . . . . . . . . . . .-.-.-.-.;.;.;.:.2.2.2.3.i.a.i.d.s.g.h.j.N.N.N.N.V.V.D.D.D.F.F.F.(._._._._.{.{.{.|.|.$X$X$X&X&X&X$X$X|.{._.(.F.D.D.D.D.D.D.D.V.V.V.V.V.V.D.D.D.D.F.F.F.(.(.(.(.(._._._.{.{.|.|.|.&X&X&X>X<XwXtXtXFXFXFXGXAXAXSXDX<X#X].^.G.G.V.N.m.N.j.j.g.a.3.2.2.2.:.-.-.;.;.1.:.:.;.;.;.;.:.:.=.=.=.=.=. . . .Q } } } } } R R Q Q Q Q ",
"AXFXbXOXe.;.%.4.| | <... .Q ~ ^ ~ !  .} ' ' ' ' ~ Q Q T U U Y J U U U U Y Y Y U U H J J Y Y R R ~ ~  .;.7.c.C.G.).(._.|.<XbXDXGXAXAXAXAXZXpXwX>XwXwXeX1X&X#X=X2X&X&X$X$X|.|.{.{._._.(.(.(.F.F.F.F.F.F.F.D.D.D.D.D.D.D.V.V.V.D.D.G.F.F.F.(._.{.}.$X&X>X>X>X&X$X$X#X>X>X$X|._.(.F.G.D.V.N.N.N.j.j.g.a.i.7.2.;.-.=.=.=. . .' Y G F J Y Y G F F F G J Y Y Y Y U U U K F F F F H H H K G F F F F F F b F H Y R Q Q Q } } }  . . .=.-. .=. . .=. . . . . .} Q R Y Y J G J H H F F B N b x x x a p u u r r r r 8 8 8 8 < < < , , : ; ; ; ; ; : : : ; ; - - - - - @ @ @ @ @ @ @ + @ @ @ @ @ @ @ + + + + . . . . . . . . . . . . . . . . . . . . . . . . . . . . . . . . + + + + + + + + @ @ @ @ @ @ @ @ @ @ @ $ - - - - - ; ; ; ; < 1 1 1 1 < < 1 1 1 2 2 1 2 2 e r r r i u u a a x x x x x b B F F H H J J Y Y Y Y Y Y Q } } }  . . . .=.=.=.=.=.=.=.=.=.=.=.=.=.=.=.=.=.=.=.=.=.=.=.=. . . . . . . . . . . . . . . .=.=.=.=.=. . . . . . . . . .=.=.=.=.-.-.;.:.2.2.2.2.3.7.i.a.a.g.h.j.j.j.N.N.V.V.V.D.D.F.F.F.(.(.(.).(._._.{.|.|.$X$X$X$X$X$X$X$X$X{.{._.(.F.F.D.D.V.V.V.V.V.V.V.V.V.V.D.D.D.F.F.F.F.(.(.(._._._.{.].{.{. X|.&X>X>X>X>X>X<XwXdXDXKXFXFXAXAXGXhX,X.X(.(.F.D.V.V.N.N.a.a.d.i.7.2.2.2.2.2.2.2.:.:.:.:.;.;.;.;.;.;.;.;.=.=.:.-.=. .! ! %.~ ' [ [ [ ' } 2.=.Q R ",
"JXDXDXDXfX>Xn.<.:.=.%.>.0.,...' }  .| } R R R Q Q Q Q R R Y Y Y Y U Y Y Y Y R R E R Y J Y Y R Q R Q  .=.:.6.7.p.c.v.S._.$X<XsXbXKXGXZXAXGXDXbXaXqX0X<X<XtXeX;XOX&X&X&X$X$X|.|.|.{.{._.(.(.(.F.F.F.F.F.F.D.D.D.D.D.D.D.V.V.V.D.V.D.D.F.F.F.(.(._.|.$X&X>X>X>X>X&X>X<X<X>X$X{.`.(.G.D.D.V.N.N.N.j.j.g.a.i.7.2.:.-.:.;.=. .} R J F H Y J H F B B F J J G H H H H H F F F H H H H H H H H H F F F F b F F H Y R Q Q } } }  . . . . .=.=. . .=. . . . . .} } R Y Y Y G H H H F B B N x x x a p u u r 8 8 8 8 2 2 1 1 < , , ; ; - - - - - ; ; ; ; ; ; - - - - - @ @ @ @ @ @ @ @ @ @ @ @ @ @ @ + + + + . . . . . . . . . . . . . . . . . . . . . . . . . . . . . . . . + + + + + + + + @ @ @ @ @ @ @ @ @ @ @ $ - - - - - - - ; , , < 1 < 1 < < 1 1 1 1 1 1 2 2 e r r r u u u u a x x x x x b B F F H H J J Y Y Y Y Y Y Q } } }  . . . .=.=.=.=.=.=.=.-.=.=.=.=.=.=.=.=.=.=.=.=.=.=.=.=. . . . . . . . . . . . . . .=.=.=.=. . . . . . . . . . .=.=.=.-.-.-.;.;.2.2.2.2.3.7.i.a.a.s.h.h.j.j.N.N.V.V.V.D.F.F.F.F.(.(._._._.`._.{.|.|.$X$X$X$X$X$X$X$X|.|._._.(.(.F.F.D.V.V.V.V.V.V.V.V.D.D.D.D.D.F.F.(.(.(.(.(._._.{.{.{.|.|.|.|.$X&X&X>XeX<X<XaXMXGXFXZXFXFXGXmX0X@X/.(.F.F.D.V.V.N.j.h.i.i.y.3.2.2.2.:.2.2.2.2.:.;.:.:.=.=.=.=.=.=.=.=.-.-.-.=. . .X.X...} } } } X.=.%.&.0.>...",
"LXHXAXGXGXGXfX1X'.b.2.%.&.:.,.<.] ] } } Q ~ ~ ~ R R } } } R R R Y Y U U Y R ' ' X.' R Y Y R Q } } }  .-.-.;.;.;.1.i.m.M.S.Q.[.#XaXnXKXGXGXFXFXGXCXgX8X0XwXrXrXwX>X>X#X$X$X|.|.|. X{.{._._._.(.(.(.(.(.F.F.D.D.D.D.D.D.D.V.V.V.V.V.D.F.F.).(.(.(.{.|.$X&X>X>X<X<XwXrXtXeX<X&X$X{.(.F.F.D.V.V.N.N.j.j.h.s.a.7.2.2.2.2.;. .} R Y H R Y Y H F F F F H H H H F F F F F F H H J H H H H H H H H H J J F F H H U R Q } } } } }  . . . .=.=. . .=. . . . . .} Q R Y Y J G H H H F B N N x x a a u u r 9 1 1 1 1 1 1 1 < , ; ; - - - - - - - - ; ; ; ; ; - - - - - @ @ @ @ @ @ @ @ @ @ @ @ @ @ @ + + + + X X X X X X X X . . . . . . . . . . . . . . . . . . . . . . . . X X X X + + + + @ @ @ @ @ @ @ @ @ @ @ @ - - - - - - ; ; ; , , < < < 1 < < 1 1 1 1 1 2 2 8 r r r u i u u a x x x x x b B F F F H J J Y Y Y Y R R Q } } }  . . . .=.=.=.=.=.=.=.=.=.=.=.=.=.=.=.=.=.=.=.=.=.=.=.=. . . . . . . . .=.=. . . . . . . . . . . . .=.=. . . .=.=.=.;.;.-.;.;.:.2.2.3.3.i.i.a.a.s.g.h.j.j.N.N.N.V.V.D.D.F.F.F.(.(._._._.{.{.{.|.|.$X$X$X&X&X$X$X|.{.{.{.(.(.F.D.D.V.V.V.V.V.V.V.V.D.D.D.D.D.D.F.F.(.(.(.(._._._.{.{.|.|.$X$X$X$X$X*X=X2XeXgXbXGXGXGXGXFXKXMXqX;X|.(.D.V.C.V.m.m.s.s.a.a.3.3.3.3.2.2.2.:.2.2.:.:.;.;.>.-.=.=.=.=.=.=.=.=.=. . .!  .X.X.X.| | -.1.>.&.4.1.-.e.~.1X",
"FXFXAXxXxXAXGXKXdXrX@Xr.-.%.1.5. . . .! ~ ~ Q R ' R ' } } Q Q Q R Y U U U R R R X.} ' ' R Q  . .} } }  .=.>.>.>.1.y.d.h.m.v.S.(.~.>XhXDXFXAXAXGXKXDXcXiXqX0XrXtX<X<X<X>X&X&X$X$X$X|.{.{.{._._.(.(.(.(.(.F.F.D.D.F.D.D.D.V.V.D.V.D.D.D.F.).).).).(._.{.|.&X>X>X<XwXrXsXrXwX<X&X$X`._.(.F.D.D.V.V.N.N.N.h.s.a.i.i.7.2.;.=. .} R R } } R Y Y H H H H H H H F F F F F F H H H H H H H H H J J Y J Y J J Y Y R R } } Q Q } }  . . . .=.=. . .=. . . . . .} } R Y Y J F H F F F B x x x a a p u r r 8 1 1 1 1 < , < : ; ; ; - - - - * - - - - - - - ; - - - - - @ @ @ @ @ @ @ @ @ @ @ @ @ @ @ + + + + X + + X X X X X . . . . . . . . . . . . . . . . . . . . . . . . . . X X + + X + + @ @ @ @ @ @ @ @ @ @ @ * * * * - - - ; ; ; , , , , < 1 < < 1 1 1 1 2 2 8 8 r r r r u u a a x x x x b B F F F H J J Y Y Y Y R R Q } } }  . . . .=.=.=.=.=.=.=.=.=.=.=.=.=.=.=.=.=.=.=.=.=.=.=.=.=. . . . . . .=.=.=. . . . . . . . . . .=.=.=.=. . .=.=.=.;.;.;.;.;.:.2.2.3.7.7.a.a.a.g.g.h.N.N.N.N.V.V.D.D.D.F.(.(.(._._.{.{.{.|.|.|.$X$X$X&X&X&X$X$X|.{._.(.(.F.D.D.D.V.V.V.V.V.V.D.D.D.D.D.D.F.F.F.(.(.(._._._._._.{.{.|.|.|.$X$X$X&X>X1XyXyXdXmXAXHXAXAXFXSXgX:X[.(.F.G.V.N.m.h.a.a.i.i.3.3.3.3.3.2.2.2.2.:.:.;.;.-.=.=.=.=.=.=.=.=.=.=.=.=.} } Q !  .>.>.X.,.:.1.&.4.7.b.n.;XsXDXGX",
"dXmXDXGXAXzXZXAXGXGXFXdXOXr.2.&.4.4.>.%.! Q Y J ' ' R R R Q Q ! R R Y U U Y R R } } } } } }  . .} } R Q Q  .>.>.7.i.d.h.h.V.D.F.(./.~.:XbXGXFXAXZXAXFXSXbXqX:X;XrXwXwXwX1X<X>X&X$X$X|.|.{.{.{._._._.(.(.(.F.F.F.F.D.F.D.D.D.D.D.V.V.D.D.D.D.F.F.F.(._.{.|.$X#X>X:XwXrXrXwX<X>X@X|.{._.(.F.F.D.V.V.N.N.m.h.s.a.a.3.2.2.;.=. . .Q X. .} Q R R Y Y Y Y H H H F F F H H H H H H Y Y Y Y Y Y Y Y Y Y H Y Y R ' } Q R Q Q } }  . . . .=.=. . . . . . . .} } } R Y J H F F F F F b x a a a a i u r r 8 2 2 2 2 < < < < ; ; ; ; - - - - - - - - - - - - - - - - - @ @ @ @ @ @ + @ @ @ @ @ @ @ @ + + + + O O O O + + + + . . . . . . . . . . . . . . . . . . . . . . . . . . X X X X X + + + @ @ @ @ @ @ @ @ @ @ * * * * - - - - ; ; ; , : , , < < 1 1 1 1 1 2 2 8 8 r r r r u u u a a x x x B B F F H H J J Y Y Y Y R R Q Q } }  . . . .=.=.=.=.=.=.=.=.=.=.=.=.=.=.=.=.=.=.=.=.=.=.=.=.=.=. . . . .=.=.=.=. . . . . . . . . . . . .=.=. .=.=.=.;.;.;.;.:.2.2.2.7.7.i.i.g.g.g.h.h.N.N.N.V.V.V.D.D.F.F.F._.`.{.{.{. X|.$X$X$X$X$X&X&X$X$X$X|.|._.(.F.F.F.D.D.V.V.V.V.V.V.D.D.D.D.D.F.F.F.(.(.(.(._._._._.{.{.{.|.|.$X$X$X%X$X#X;X0XaXbXmXGXFXAXAXFXDXrX;XQ._.F.C.j.g.h.M.a.a.y.3.3.3.2.2.7.6.2.2.2.:.:.:.=.=.=.=.=. . . .=.=.=.=.=.=.=.=... . . .>.=.=.=.5.4.1.3.e.~.0XdXLXKXGXZX",
"t.U.2XnXGXGXGXFXzXzXAXGXGXsX=XW.6.6.;.;.=.} ] [ } } Q Q Q R Q Q } } R R R R R R R R } } } }  . .} } Q Q Q Q  .X.:.2.2.7.s.N.V.D.G.F.^.].#XrXnXDXGXFXFXFXDXMXsX0X0X0X0XwXeXwX<X<X>X&X$X$X|.|.|.{._._._.(.(.(.F.F.F.F.D.F.D.D.D.D.D.V.V.V.V.V.D.D.D.F.F.(._.{.$X&X;X:XwXwXrXwX<X#X$X|.{._._.(.F.D.V.V.V.N.m.h.g.g.7.3.2.2.:.>.=.X.=. . .Q Q R R R R R Y Y Y H H H H H H H H U Y Y Y Y Y Y Y Y Y Y U Y R ' ' R R R } } } }  . . . .=.=. . . . . . . .} } R Y Y H H F F F F b b x a a a i i y r e 8 2 2 2 2 1 1 , , : ; ; ; - - - - - - - - - - - ; - - - - - @ @ @ @ @ @ + @ @ @ @ @ @ @ @ + + + + O O O O + + + + . . . . . . . . . . . . . . . . . . . . . . . . X X X X X + + + + + @ @ @ @ @ @ $ @ @ @ * * * * - - - - ; ; ; ; ; : ; , < < 1 1 1 1 1 2 8 8 9 r r r r u u a a x x x B B F F F H J J Y Y Y Y R R Q Q } }  . . . .=.=.=.=.=.=.=.=.=.=.=.=.=.=.=.=.=.=.=.=.=.=.=.=.=.=. . . . .=.=.=.=. . . . .=.=. . .=.=. . .=. .=.=.=.;.;.;.:.:.2.2.2.7.7.i.a.a.h.h.j.j.N.N.N.N.V.V.D.D.F.F.(.(._._._.{.|.|.|.$X#X&X&X&X$X$X$X$X{.{._.(.F.F.V.V.V.V.V.V.V.V.V.V.D.D.D.D.F.F.F.F.(.(._._._.{.{.{.{.|.|.$X$X&X&X&X=X=X:XqXpXmXFXGXGXFXFXSXnXeX[.W.D.D.V.B.j.h.p.8.i.i.3.3.3.2.2.2.2.:.:.:.;.;.;.;.=.=.=. . . . . . . . . . .=. . . . .=.=.=.=.=.;.%.7.n. XwXbXFXGXZXzXzXAX",
"~ >.e./.>XdXDXKXHXZXzXAXGXGXDXmXOX!.r.8.2.2.:.:. . . .} } Q R R } } } } Q Q Q Q R R R ' ' } }  .>.X.X. .Q } } }  . .=.;.3.a.h.N.N.G.G.G.^.].&XeXDXSXFXFXFXGXDXMXaXqX0X0XwXwXwX<X1X>X&X&X$X$X|.|.{.{._._.(.(.F.F.F.F.F.F.D.D.D.D.D.D.V.V.V.V.V.V.V.D.D.D.F.(.{.|.$X&X<X<XwXeX<X>X&X&X$X|.{._.(.F.D.D.D.V.N.N.h.h.i.i.7.3.2.4.>.=.=.=.! !  .} Q R } Q R R Y Y J H H H H H U Y Y Y Y Y Y R R R R R Y Y R R R R R R } } }  . . . . .=.=. . . . . . .} } Q R Y H H F B F F F b x a a a i i u r e 8 2 2 2 2 1 1 1 1 < : ; ; ; ; - - - - - - - - - - - - - - - - @ @ @ @ @ @ @ @ @ @ @ @ @ @ @ + + + + + + + + + + + + . . . . . . . . . . . . . . . . . . . . . . . . + + + + + + + + @ @ @ @ @ @ @ @ $ $ $ $ - - * * @ - - - ; ; ; ; ; ; : ; < < 1 1 1 1 1 2 8 8 9 r r r r u i a a a N x B B F F H H J J Y Y Y Y Y R Q Q } }  . . . .=.=.=.=.=.=.=.=.=.=.=.=.=.=.=.=.=.=.=.=.=.=.=.=.=.=.=. . . .=.=.=. . . . .=.=.=. .=.=.=. . . . .=.=.;.;.;.:.:.2.2.2.7.7.i.a.a.s.j.j.j.N.N.N.V.V.D.D.D.F.F.(.(.(./././.{.[.|.|.$X&X&X&X&X$X$X|.|._._.(.F.D.D.V.V.V.V.V.V.V.V.D.D.D.D.D.F.F.F.F.(._._._._.{.{.{.|.|.|.$X$X&X>X>X>X<XwXiXmXSXFXFXFXSXSXnXtX$X_.F.F.G.V.h.h.B.C.p.3.i.7.3.3.3.3.3.2.:.:.;.:.;.;.;.;.=. . . . . . . . . . . . . . . . . .=.=.=.;.8.x.r.~.rXVXKXGXGXAXAXGXGXGX",
":.3.u.*.3.r.OXpXFXFXGXGXHXzXAXAXLXVX<X^.c.a.u.u.=.=.=. .} } R R R R R R Q Q R R R R Y Y Y R Q }  .X. . . . .} Q  . .>.:.2.3.a.s.N.N.C.C.G.F.(._.+XiXDXGXFXZXAXFXBXfXrX0XrXrXrXeX1X<X>X&X&X&X$X$X{.{._._.(.(.(.F.F.F.F.F.D.D.D.D.D.V.V.V.V.V.N.N.M.m.V.V.D.F._.{.[.$X#X;X:X<X>X#X>X>X&X$X X`.(.(.F.D.D.D.V.N.N.N.s.a.i.i.7.4.2.;.>.=.=. . . .} Q } } } R Y Y J J F H H Y Y Y Y Y Y Y R R R R ' ' ' ' R R R R Q ' } } }  . . .=.=.=.=. . . . . . .} Q R R Y H F F B B F F b x a a i u r r e e 2 2 2 1 1 1 , , , , ; ; ; ; - - $ $ - - - - - - - - - - - - - @ @ @ @ @ @ @ @ @ @ @ @ @ @ @ + + + + + + + + + + + + . . . . . . . . . . . . . . . . . . . . . . . . + + + + + + + + @ @ @ @ @ @ @ @ $ $ $ - - - - - @ @ - - - ; ; ; ; ; ; : , < < 1 1 1 1 2 8 8 9 9 r r r r i a a a N x B B F F H H J J Y Y Y Y R R Q Q } }  . . . .=.=.=.=.=.=.=.=.=.=.=.=.=.=.=.=.=.=.=.=.=.=.=.=.=.=. . . . .=.=.=. . . .=.=.=.=.=.=.=.=. . . . .=.=.;.;.;.:.2.2.2.2.7.7.i.a.s.s.j.j.j.N.N.V.V.V.D.D.D.F.(.(.(._.{.{.{.|.|.$X$X&X&X&X&X&X$X|.|.{.(.(.F.F.D.V.V.V.V.V.V.V.V.D.D.D.D.D.D.F.F.F.(.(._._._.{.{.{.|.|.$X$X$X&X>X>X<X<XaXbXSXGXGXGXAXZXDXiX#X].(.F.F.D.h.m.m.c.p.a.g.k.7.7.7.7.7.7.7.7.:.:.:.:.:.:.>.>.=.=.=. . . . . . . . . . . . . . .=.>.:.2.8.G.`.MXDXFXAXzXzXDXJXKXJXgXyX",
" . . .=.;.2.7.7.@XwXMXGXFXzXzXHXZXFXGXFXiX@Xb.y.z.3.1.3.:.! R E %.%.~ E E E I I R R R R R Q Q !  . . . .=.=.=.=.=.=.>.>.:.2.2.4.k.k.B.N.V.F.F.F._.|.,XhXJXKXGXzXGXGXmXdXrXqXqXiXwX<X<X>X>X>X>X>X$X$X|.{._._._.(.(.(.F.F.F.F.D.D.D.D.V.V.V.N.N.N.j.B.N.N.N.N.D.F._.{.$X#X>X>X:X>X<X>X>X>X&X$X{._.).F.F.D.V.V.V.V.N.h.g.a.a.i.7.2.2.2.:.;.;.-.=.=.} } } ' R Y Y Y F F F F B B B B H H H H J Y Y Y R R R Y Y Y R R Q Q Q }  . . . . . . . . . .} } R R R Y H H F F x x p p x x a p u u u r 8 8 2 2 r r e e 8 5 2 2 1 < , ; - ; - ; ; - - - - - - - - - - - - - - - - - - - @ @ @ @ @ @ @ @ @ @ @ @ + @ @ + + + + + + + + + + + + X X X X X X X X X . . . . . . . . @ @ @ @ @ @ @ @ + + @ @ $ $ $ @ - - - - - - - - - ; ; ; ; ; , , ; ; ; ; ; < , , 2 2 2 8 e e e e r r r u u p p a a x x N B B F F H H Y Y R R R R } } } } }  . . .=.=.=.=.=.=.=.=.=.=.=.=.-.-.=.=.=.=. . .=.=.=.=. . .=.=. . . . . . . . . . . . .=.=.=.=.=.=.=.=.-.-.;.:.:.2.2.3.7.7.7.i.a.s.g.h.j.j.N.N.V.V.D.D.F.F.(.(.(._._.{.{.{.{.|.$X$X$X#X&X$X$X|. X{._._.F.F.D.D.V.V.V.V.V.V.V.V.D.D.D.D.F.F.F.(.(.(._._._.{.{.|.|.|.|.|.$X$X*X*X,XwXdXcXGXGXAXAXFXSXmXbX[.{._.F.F.D.V.N.j.j.h.s.a.i.i.7.3.2.2.2.2.2.:.;.:.:.:.:.:.;.:.:.] | =.;.1.1.>.%.` ] }  .! ! -.<.y.3.2.e.!.0XmXGXFXAXAXAXAXFXGXGXkX-Xr.<.",
" . . . .=.;.:.6.:.<.!.1XJXGXFXZXFXAXZXGXLXVXrX;Xr.e.6.4.&.%.>.,.R R R ' R R R Q R R R R R Q Q } Q Q  . . .=.=.-. . . . .=.=.-.-.7.7.d.s.m.V.V.D.(._.|.>XwXbXSXGXzXAXFXDXmXdXrXwXrXeXwX<X1X<X>X>X$X$X|.{.{._._._._.(.(.(.F.F.F.F.D.D.D.V.V.N.N.N.j.N.N.N.m.m.V.G./.{. X$X&X>X>X>X<X<X>X>X>X&X|.{.`._.(.F.D.D.V.V.V.N.j.h.h.p.i.7.6.2.:.:.;.;.=.=. . .} } R R Y Y H H H H H F F F H H H H H H J J R R R Y Y Y Y R R R Q Q Q }  . . . . . . .} } } } R R Y Y H H H B x x x x x c x a a i u r e e e e e 8 2 2 2 1 2 1 < ; ; ; ; - ; - - - - - - - - - - - - ; ; ; ; - - - - - @ @ @ @ @ @ @ @ @ @ @ + + @ + + + + + + + + + + + X X X X X X X X X X . . . . . . . . + + + + + + + + + + @ $ $ $ $ @ ; ; ; ; ; ; ; ; - - - - - - ; ; ; ; ; ; ; ; , , 1 2 2 2 e e e e e r r u u p p a x x x B B F F F H H Y Y R R R R } } } } }  . . .=.=.=.=.=.=.-.=.=.=.=.=.-.=.=.=.=. . . .=.=.=.=. . . .=. . . . . . . . . . . . .=.=.=.=.=.=.=.=.-.;.;.:.2.2.2.3.7.i.i.a.a.g.h.j.N.N.N.V.V.V.D.D.F.(.(.(.(._._.{.{.{.|.$X$X&X&X#X$X$X|. X{._.(.(.D.D.D.V.V.V.V.V.V.V.V.D.D.F.F.F.F.F.(.(.(._._._.{.{.{.{.|.$X$X&X>X>X>X;X0XdXSXGXZXAXFXGXDXaX:XOX{./.F.D.D.V.N.j.h.g.s.a.a.i.7.3.3.3.2.2.2.:.:.:.:.;.;.;.;.=.=.=. . . . . . .| | | } ~ %.4.4.2.;.5.d.oXeXmXFXFXZXxXAXGXGXGXbX:X~.r.e.<.-.",
"Q Q Q Q  . .=.-.5.&.;.,.r.#XaXMXFXFXGXHXAXAXAXFXBX>Xr.9.3.4.;.%.| | ] ' Y R } ..R R Y R R R } } Q Q Q  . . .=.=.} } } } }  . . . ...:.6.i.g.j.N.F.(._.].[.;XsXVXAXFXFXFXFXmXnXfXrXrXwX<X<X>X>X&X&X$X$X|.|.{.{._._.(.(.(.F.F.D.D.D.D.D.V.V.V.N.N.h.j.N.m.h.s.m.Z.A.S._.{.|.$X&X&X>X>X:X<X<X>X&X$X X{._.(.F.D.V.V.V.V.N.j.j.h.d.i.7.3.2.2.:.:.;.=. . . .} } ' R R Y Y Y Y Y H H J H J J Y Y Y Y Y Y Y U Y U U Y Y R R Q Q Q Q }  . . . .} } } } } } R R R Y J J J B B b x x x c a a a i u r r e e 2 2 1 1 1 , < < < < , ; ; ; - - - - - - * * - - - ; ; ; ; ; ; ; - - - - - - - - $ $ $ @ @ @ @ @ + + + + + + + + + + + + + + + + X X X X X X X X X X . . X X X X + + + + + + + + + + @ @ $ $ $ @ - - - - - - - - $ $ - - - - - - ; ; ; ; ; ; , , 2 1 2 2 8 e e e e r r r u u p p x x x B B F F H H H Y Y Y R R R } } } } }  . . .=.=.=.=.=.-.=.=.=.=.=.=.-.-.=.=.=.=.-.-.=.-.=.=.=.=.-.-.=.=.=.=. . . . . . .=.=.=.=.=.=.=.=.;.;.;.:.:.2.2.3.3.7.a.a.a.a.g.j.j.N.N.N.V.V.D.D.F.F.(.(.(._._._.{.{.|.|.$X&X&X&X&X&X$X|.{._.(.F.D.V.V.V.V.V.V.V.N.V.D.D.D.D.D.F.F.F.(.(.(._._.{.{.{.{.{.{.|.$X&X&X>X>X<XqXcXvXAXGXGXGXFXmXdXwX=X].^.(.F.D.V.N.N.h.a.g.a.a.a.i.i.7.7.7.2.2.2.2.2.:.:.:.:.;.=.=.=.=.=.>.>.} ' ` ` ` ` ~ =.>.5.7.i.p.x.=XtXDXGXGXAXGXKXKXKXDXdX:X].b.7.-.-.=.=.",
"R R R R R Q } } ;.4.5.1.%.:.n.XXrXbXFXGXAXxXxXPXJXKXJXrXU.<.;.5.>.>.X. .} } } Q Y Y Y Y Y R R ' } } } } }  . . . . . . . . . . .} }  .=.;.3.y.a.V.D.G.F.(.].$X,XbXmXAXAXAXAXGXDXiXiX0X:X>X>X>X&X>X&X&X$X$X|.{.{._._.(.(.F.F.F.F.F.F.F.D.V.V.N.N.h.h.m.h.s.a.a.p.p.c.M.F.(.{.|.|.>X>X<X<X<X<X>X>X$X|.{._.(.F.D.D.V.V.N.N.j.h.a.a.a.i.3.2.2.2.:.;.=.=. . .} } } ' R R R R Y Y U U Y Y Y Y Y Y Y Y Y Y U U U U Y Y R R R Q Q } }  . . .} } } } Q Q R R R R Y Y J J F B B b x x a p u u u r r e 8 8 1 1 1 , , , ; ; < < , , ; ; - - - - - * * * * * - - - ; ; ; ; ; - - - - - $ $ @ $ $ $ $ $ @ @ @ + + + + + + + + + + + + + + + + X X X X X X X X + X . O X X X X X X X X X X X X + + + + @ @ @ @ - - - - - - - - @ @ @ $ * - - - ; - ; ; ; ; ; , 1 1 1 2 2 8 e e e e r r u u u p x x b b F F F H H J U Y R R R Q Q R } } }  . . .=.=.=.=.=.=.=.=.-.=.=.=.=.-.=.=.=.=.-.-.=.-.=.=.=.=.-.-.=.=.=.=.=.=.=.=.=.=.=.=.=.=.-.=.;.;.;.:.:.2.2.2.3.7.i.i.a.a.g.h.j.N.N.N.V.V.D.D.D.F.F.(.(._._.{.{.{.|.|.$X$X&X&X&X&X$X$X{.{._.(.F.V.V.N.V.V.V.N.V.V.V.V.D.D.D.F.F.F.(.(.(.(._._.{.{.{.|.{.{.|.$X&X>X>X>X:XiXvXAXHXFXFXFXDXbXqX#X]._.).G.D.V.V.N.N.h.h.a.a.a.i.i.i.7.7.7.7.3.2.2.2.:.:.;.:.:.;.-.=.=.=. .;.=. .' R R Q ~ 5.4.2.:.<.U.,XkXGXGXAXzXzXAXGXKXDXaXOXr.,.2.3.3.:.>.>.! ",
"R R R R R R R R  . .=.0.0.>.=.=.r.!.;XdXGXGXGXzXAXzXZXFXDXtX~.q.1.1.%.1.0.>.Q T R Y Y Y Y Y Y Y R R Q Q Q Q } } >.>.>.>.;.;.;.;.=.=.=.=.=.=.;.:.a.s.m.V.V.F.^./.|.>XaXSXFXAXAXAXDXbXdXqXwX<X<X,X<X>X>X&X&X$X$X|.}.{.{.`._.(.(.F.F.F.F.D.D.V.V.V.h.m.h.h.s.a.i.i.3.i.s.M.D.(.{.{.&X>X<X<X<X<X<X>X>X&X$X X{.`.).F.D.D.V.N.N.j.g.a.s.a.i.i.7.2.:.;.;.;.-.=. . .} } Q Q Q R R R R U H H H H H H H H Y U U U Y Y Y Y R R R R Q Q } } } } } } Q Q R R R R R Y Y J J J G F B B x x a p u u u r r e 8 8 2 1 1 1 , , ; < < < , , ; ; - - - - - * * * * * - - - - - - - ; - - - - * @ @ @ $ $ $ $ $ @ @ @ @ @ + + + + + + + + + + + X X + X X X X X X X X O O O O + + + + X X X X X X X X + + + + @ @ @ @ @ @ @ @ @ @ @ @ + @ @ @ $ @ @ - ; - ; ; ; ; , , 1 1 1 1 2 2 2 8 8 e r r r u u u x x x b b F F F H H H Y Y R R R R Q } } } }  . .=.=.=.=.=.=.=.=.-.=.=.=.=.=.=.=.-.-.-.-.-.-.-.-.-.-.-.-.-.-.-.-.=.=.=.=.=.=.=.=.=.=.;.;.;.:.:.2.2.2.2.7.7.i.a.a.h.h.h.j.N.N.V.V.V.D.D.F.F.F.(.(._._.{.{.|.|.$X$X&X&X&X&X$X|.{.{.(.(.F.F.V.V.N.N.V.V.V.V.V.V.D.D.F.F.F.F.F.(.(.(._._._.{.{.|.|.|.|.|.$X&X>X<XwXrXBXMXAXAXAXAXSXmX:X;X@X[.(.F.D.V.V.N.N.j.h.h.d.i.a.a.i.i.7.7.7.6.2.2.2.2.:.:.:.:.:.;.-.=. . . . . . . .X.~ &.&.*.3.7.e.Q.:XnXGXGXGXZXxXzXGXKXmXrXQ.n.8.>.&.1.:.2.-.=. .Q ",
"Y Y Y R R R R R | R T T ! >.-.-.;.:.9.n.=XaXSXGXzXAXGXKXKXVXnXdX`.A.8.=.! ! ! ~ } } R R Y Y Y Y R R R R R } }  .=.;.;.>.;.2.2.4.4.4.2.>.=. .....6.3.i.g.N.V.D.F.F._.$XwXdXSXAXHXKXGXSXbXdXaXwXwXwXwX<X<X>X&X#X$X|. X{.{._._.(.(.(.(.F.F.D.D.D.V.N.N.m.h.g.s.a.a.7.a.g.N.V.F._.{.$X$X>X<X<X:X<X<X#X&X$X|.{._.(.(.F.F.D.V.V.N.N.h.h.g.a.i.i.7.2.:.:.:.;.-.-. . . .} Q Q Q R R R R H H H H H H H H Y Y U U Y Y Y Y U U U R R R R R } } } Q R R R R R R R Y Y J J H J G F B B N x a u u u r r e e e e e 2 2 1 1 1 < < < < ; ; ; - - - - - - * * - - - - - - - - - - - - - - @ @ @ @ $ $ $ @ @ @ @ @ @ @ + + + + + + + + + + + X X X X X X X X X X X O O O O + + + + + + + + + + + + + + + + @ @ @ @ @ @ @ @ @ @ @ @ $ $ $ $ - - - - ; ; ; ; ; , , , < < < 1 1 2 2 2 8 8 e r r u u u a a x x b b F F F F H H Y Y R R R Q Q } } }  . .=.=.=.=.=.=.=.=.-.=.=.=.=.=.=.=.;.;.;.;.;.;.;.;.=.=.-.-.-.-.-.-.=.=.=.=.=.=.=.=.=.;.;.;.:.:.2.2.2.6.7.7.i.a.a.s.h.j.N.N.V.V.V.D.D.F.F.(.(.(._._.{.{.|.|.$X$X&X&X&X&X&X$X|.{.(.(.F.F.D.V.V.V.N.N.V.V.V.V.D.D.D.F.F.F.F.F.(.(.(.(._._.{.{.|.|.$X$X$X&X#X;X0XaXbXMXGXGXGXGXGXbXaXwX[.{._.).F.D.V.N.h.g.g.g.a.a.a.i.a.i.i.7.7.7.6.6.2.2.2.:.;.:.:.>.=.=. . . . .}  .}  .=.%.%.%.3.i.r.].eXIXLXGXzX7XGXGXGXGXbX:X!.r.1.1.1.:.;.-. .X. .} } } ",
"R R R R R R R R H Y ' X. . . . .%.>.0.>.-.e.@XrXKXDXvXvXGXKXGXFXVXsX#XU.q.-.;.:. .} } Q R R R R Y Y Y Y R Q } }  . .=.=.=.=.;.;.:.:.:.:.=. . . .:.2.3.a.h.N.V.D.F.F.)._.$XwXbXDXGXFXFXFXSXbXdXqXrXwXwXwX<X>X>X#X|.|.|.{.{._._._._.(.(.F.F.D.D.D.N.N.N.j.h.g.g.s.i.a.g.j.N.D.F.(.{.|.$X&X>X>X>X>X#X#X$X|.|.{././.(.(.F.D.D.V.V.N.j.j.g.a.i.7.6.2.2.2.:.;.-.=.=. . .} Q Q R R R R Y Y Y Y Y Y Y Y R R Y Y Y Y Y Y Y Y R R R Q } } } } Q Q R R R R R R R Y Y J H H Y H F B B N x a u u u r r r e e e e e 2 2 1 1 2 < < < < ; ; - - - - - - - - - - - - - - - ; ; ; - - - - * @ @ @ @ @ @ @ @ @ @ @ @ @ @ + + + + + + + + + + X X X X X X X X X X X + + + + + + + + + + + + + + + + + + + + @ @ @ @ @ @ @ @ @ @ @ @ $ $ $ $ - - - - ; ; ; ; , , , , , < < < 1 1 2 2 2 8 8 r r u u u i a a a x x b b Z Z H H U Y Y R R R Q } } }  . .=.=.=.=.=.=.-.=.=.=.=.=.=.=.=.=.;.;.;.;.;.;.;.;.=.=.-.-.-.-.-.-.=.=.=.=.=.=.=.=.;.;.;.;.:.2.2.2.7.7.7.i.a.s.s.g.N.N.N.N.V.V.D.D.F.(.(._._._.{.{.|.|.$X$X&X&X&X&X$X$X$X|._.(.F.D.D.V.V.V.V.V.V.V.D.D.D.D.F.F.F.F.(.(.(.(.(.(._._.{.{.{.|.$X$X$X&X>X>X<XrXdXmXGXGXAXFXSXMXfXeX@X].}._.F.V.N.N.V.V.s.a.a.a.a.i.i.i.i.i.7.7.2.2.2.:.2.2.:.:.;.;.=.=. . . .} } } }  .-.-.2.3.7.e.U.~.nXVXKXAXzXxXAXGXSXMXfX>Xn.,.>.&.5.>.=.=... .~ ~ } } } } ",
"R R R R R R R R ] ] ] } } X.>.>.....-.-.;.:.4.5.U.2XJXGXAXZXAXGXzXFXKXhX-Xn.8.2.>. . .} Q R R R R Y Y Y Y R R Q } } } }  . . . ...-.-.-.=.=.=.=. .-.2.y.a.g.c.v.n.A.D.D.F.|.;X0XZXAXFXGXGXGXmXcXrXrXrXwXwX<X>X>X$X$X$X|.|.{.{.{._._.(.).F.F.D.D.B.N.N.j.j.h.h.h.8.a.a.g.j.N.A.S.^./.|.&X#X>X>X<X>X&X&X&X$X$X|.|._.(.F.F.D.V.V.N.j.j.h.a.a.7.7.2.2.2.2.:.;.-.=.=. .} } } Q R R R J J J H H H H H R R Y Y Y Y Y Y R R R ' } } } } } } Q R R R R R R R R Y Y J H H H H F b b x a a u u u r r e e e e e e 8 2 2 2 2 ; < < < ; ; - - ; - - - - - - - - - ; ; ; ; ; ; - - - - - $ $ $ @ @ @ @ @ @ @ @ @ @ @ + + + + + + + + + + X X X X X X X X X X X + + + + + + + + @ @ @ @ @ @ @ @ + + @ @ @ @ $ @ @ @ @ @ @ @ @ @ $ $ - - - ; ; - ; ; ; ; , < , , ; , < 1 1 1 1 2 2 8 8 r r u u u u u i a a x x x Z Z F H H Y Y Y R R Q } } }  . .=.=.=.=.=.-.-.=.=.=.=.=.=.=.=.=.;.;.;.;.;.;.;.;.;.;.;.;.;.;.-.-.=.=.=.=.=.=.=.=.;.;.;.:.2.2.2.2.7.7.7.a.a.s.g.h.m.N.N.V.V.D.D.D.(.(._.`._.{.{. X$X$X$X&X&X&X&X#X$X|.|.{.(.F.D.C.V.V.V.N.m.V.V.V.D.D.D.F.F.F.S.F.(.(.(.(._._._.`.|.|.|.$X$X&X&X&X>X<XaXnXDXGXFXAXGXAXpXwX&X|.{.'.(.F.D.V.N.j.h.s.i.p.a.a.a.a.a.p.i.7.7.2.2.:.:.;.2.:.:.;.;.=.=.=.=. . .} } }  .X.>.2.y.s.S.#XnXLXAXAXzXAXFXGXDXMXiXOXe.1.*.5.2.-.| |  .X.X.>.=.=.' ' ' R ",
"Q Q Q Q Q Q Q Q } } } } } } } }  . . .=.=.;.1.1.:.9.b.XXkXJXGXAXKXAXZXAXGXJX3XU.9.:.;.;.:.>.=.! ~ ~ E E Y ' ..-. .X.=..... .} R Q } ..>.>.>. . . .-.-.2.7.i.s.h.h.h.N.N.C.G.)._.#XrXJXGXAXZXFXGXMXdXqXwX<XwX<X<X:X<X>X&X$X$X|.|.{.{._._.(.F.F.D.D.V.V.V.N.N.N.j.h.h.g.a.a.s.s.s.A.F._.}. X$X#X>X>X>X>X#X#X$X|.|.{._.(.F.F.D.D.V.V.N.N.j.j.g.g.g.7.7.2.2.:.=.=. . . .Q Q R R R R Y R U U U U U Y R R R R R R R R R R Q } }  .} Q Q R Q R R R Y Y U U J K K F B x b B B B x x x x a a i u r r e e 8 8 2 2 2 1 1 1 1 1 < , , ; ; ; - - - - - $ $ $ @ @ @ $ - - * * - - $ $ @ @ + + @ @ @ @ @ @ @ @ + + + + + + + + + + + X X . . . . . . . . . . . . . X X X X X X + + + + + @ @ @ + + + + + + + + $ $ $ $ $ $ @ @ @ $ $ - - ; ; ; ; ; ; ; ; ; - - ; ; : < < 1 1 2 2 2 8 e r r r r u u s p p p z x Z Z F J J U Y Y R R Q } } }  . . . . . . .=.=.=.=.=.=.=.=.-.-.-.;.;.;.;.;.;.;.;.;.;.;.;.;.;.;.;.=.=.=.=.;.;.;.:.;.:.:.2.2.3.3.3.i.i.a.a.s.h.h.m.N.N.V.D.F.F.F.(._._._._.{.{.|.|.$X$X$X&X&X&X&X$X|.{._.(.D.D.V.V.N.N.N.N.V.V.V.V.V.V.V.D.F.F.F.F.F.F.)._.`.{.[.[.@X@X@X#X>X>X;X:XpXmXAXAXFXGXGXSXtX<X&X|.}.`.).F.V.N.N.h.s.a.d.d.a.i.i.i.7.7.3.3.3.2.2.:.:.2.2.3.-.-.:.4.4.2.2.:.[ '  .2.y.y.y.u.k.v.~.8XZXFXKXLXPXxXAXGXGXdX=Xn.2.:.:.-.=.=. .=.=.=. . . . . .} } } } } ",
"Q Q Q Q Q Q Q Q } } } } } } } }  . .=.=.;.:.2.2.2.2.2.9.r.@XtXnXFXGXGXDXDXDXSXmXtX@Xe.-.%.%.=.-...} ' ' ' E E ^ !  . . . . . .} Q }  . .-.-.-.-. .=.=.:.2.3.7.i.a.a.g.h.N.V.F.F.(.|.<XdXDXGXGXAXvXSXDXbXrXwX<XeX<X<X<X>X&X$X$X|.|.{.{._.(.(.F.F.D.D.V.V.V.N.N.N.j.j.h.g.g.g.h.m.V.D.F.(._.|.$X&X>X>X>X>X#X$X$X|.{._._.(.F.F.D.D.V.V.N.N.h.h.g.g.i.i.7.2.:.;.=. . . . .} Q R R R R R R R Y Y Y Y R R R R R R R R R R Q } } } } Q R R R R R R Y Y U U H H F B x x x b B x x a a x u u u r r e e e e 5 2 2 1 1 1 1 1 < , , ; ; ; ; - - - - - $ $ $ @ @ @ $ - - * * - - $ $ @ @ + + @ @ @ @ @ @ @ @ + + + + + + + + + + + X X . . . . . . . . . . . . . X X X X X X + + + + + @ @ @ + + + + + + + + @ @ @ @ @ @ @ @ @ $ $ - ; ; ; ; ; ; ; ; ; ; ; ; - ; ; ; < 1 1 1 1 2 2 8 e e r r r u u u p a x x b Z F H J U Y Y R Q Q } } }  . . . . . . .=.=.=.=.=.=.=.=.-.-.-.;.;.;.;.;.;.;.;.;.;.;.;.;.;.;.;.=.=.=.=.;.;.;.:.:.2.2.2.3.3.3.i.i.a.a.s.h.h.N.N.V.V.D.D.F.F.(._._._._.{.{.|.|.$X#X&X&X&X&X&X$X$X{._.(.F.D.V.V.N.N.N.N.N.N.V.V.V.V.V.D.D.F.F.F.F.(.(._._.{.|.|.|.|.*X,X>X#X;XrXCXmXGXGXGXGXSXbXiX>X#X[._.(.F.D.D.N.m.h.g.a.a.d.d.i.i.7.3.3.3.2.2.2.2.:.:.;.:.2.2.6.6.2.2.:.-. .' <.:.5.5.4.3.e.n.$X1XCXLXKXAXZXZXGXGXSXrXOXr.e.9.:.;.;.=.=.=. . .=.=. . . . . .} } } } } ",
"Q Q Q Q Q Q Q Q } } } } } } } }  .=.=.=.-.;.:.:.3.3.3.2.2.8.n.oX0XfXGXGXFXAXAXAXGXMXsXOXr.<.;.;. .-.,.,. .T E W Q Q } }  . . . .} } }  . .-.-.:.=.=.=.;.:.:.:.2.7.7.i.a.s.m.m.M.G.D.S.[.<XbXGXAXGXFXAXZXvXdXtX1X<X<X<X<X>X#X#X@X$X$X|.{._._.(.(.F.F.D.D.V.V.V.N.N.j.j.j.h.h.j.N.V.V.V.D.F._.|.$X&X>X>X>X>X#X$X$X|.{._._.(.(.F.D.D.V.V.N.N.h.h.h.a.a.i.7.2.;.-.-.-.=. . .} } } } Q Q R R R R R R R R R ' } R R R R R R Q Q Q } Q R R R R R R R Y U U H H F b x x x x x a a p a a u u r r 8 e e e 5 2 2 2 1 1 1 1 < , , ; ; ; ; ; - - - - $ $ @ $ @ @ @ $ - - * * - - $ $ @ @ @ + @ @ @ @ @ @ @ @ + + + + + + + + + + X X X . . . . . . . . . . . . . X X X X X X + + + + + + @ @ @ @ @ @ + + + + @ @ @ @ @ @ @ @ @ $ - - ; ; ; ; ; ; ; ; ; ; ; ; ; ; ; ; , , 1 1 1 1 2 8 8 8 8 8 r r r u i a a a b B F F H H J Y Q Q Q } } }  . . . . . .=.=.=.-.=.=.=.=.=.-.-.-.;.;.;.;.;.;.;.;.;.;.;.;.;.;.;.;.=.=.=.;.;.;.:.:.2.2.2.3.7.i.i.i.a.g.g.h.N.N.N.N.V.D.F.F.(.(._.`._.{.{.|.$X$X&X&X>X&X&X&X$X|.|.{.(.(.F.D.V.N.N.N.N.N.N.N.V.V.V.V.D.D.D.F.F.F.(.(._._.{.{.|.|.$X$X*X*X&X>XrXdXMXGXGXGXGXSXbXaX:X#X|.{.(.F.D.V.V.N.N.h.g.s.a.a.a.d.a.i.i.7.7.3.3.3.2.:.;.;.;.:.:.2.7.2.;.=.=. .} ] 1.4.5.d.b.W.,XsXGXGXZXxXAXFXGXGXmXrX~.e.9.4.&.%.;.;.=.=.=.=. . .=. . . . . . .} } } } } ",
"} } } } } } } } } } } } } } } }  . . . .=.=.=.=.:.2.4.4.1.1.2.3.r.Q.;XdXSXFXFXZXAXFXGXFXdX#Xn.e.>.:.4.4.1.;...| } } Q Q Q  . . .}  .}  . . .-.-.:.:.:.:.:.;.:.:.2.2.3.y.i.s.h.m.N.C.V.D.^.[.0XnXKXGXZXzXAXSXdXrXwXwXwX<X:X:X:X>X&X&X$X|.{._._._.(.F.F.D.D.D.V.V.N.N.N.j.j.j.j.j.N.N.N.V.D.F._. X$X&X>X>X>X>X>X&X$X|.|.{._._.(.F.D.D.D.V.N.N.N.j.j.h.a.i.7.2.:.:.;.;.=. . . .} } } Q Q Q R R R R Q Q } } } } Q Q R R R Q } } }  .Q Q Q Q R R R R Y Y U H F b b x a a a a p p p a u u r r r e e e 2 2 2 1 1 1 1 < , , ; ; ; - - - - - - - $ @ @ $ @ @ @ $ - - * * - - $ $ @ @ + + @ @ @ @ + + @ + + + + + + + + + + + X X X . . . . . . . . . . . . . X X X X X X + + + + + @ @ @ @ @ @ @ @ @ @ @ $ $ $ - - $ @ @ $ - - ; ; ; ; ; ; ; ; ; , ; ; ; ; ; ; , 1 1 1 1 1 1 1 2 2 2 8 8 r r r u i a a x B B F F H J J J Q Q Q } } }  . . . . . .=.=.-.-.=.=.=.=.=.-.-.-.;.;.;.;.;.;.;.;.;.;.;.;.;.;.;.;.=.;.;.;.:.:.:.:.2.2.7.7.i.a.a.a.h.h.j.N.N.N.V.V.D.D.F.(.(._._.{.{.{.|.$X&X&X>X>X>X&X&X$X|.{./.^.F.D.D.V.N.N.N.N.N.N.N.V.V.V.V.V.D.D.F.F.(.(.(.(.{.{.{.|.|.$X$X&X>X>X:XiXSXGXFXZXGXFXmXiXwX>X$X{._.(.D.V.V.N.N.j.g.g.s.a.a.a.a.a.a.i.i.i.7.7.7.7.:.;.;.-.-.;.:.2.;.;.1.1.;.=.=. .*.3.e.].wXnXJXLXAXzXzXAXGXDXsX>XW.e.:.%.5.5.2.2.;.=.=.=.=.=.-.-.=.=. . . . . .} } } } } ",
"} } } } } } } } } } } } } } } } Q  . . . . . . . . . .=.=.2.2.7.i.7.8.n..XtXmXFXFXzXxXHXLXLXdX0XoXb.1.&.5.d.6.<. . .} Q Q !  . . . . . . . . .=.2.2.:.:.:.:.:.:.:.2.2.2.3.i.a.s.8.m.H.H.V.D._.|.eXfXGXGXAXAXSXSXaXaXrXwXwXwXwXwX>X>X&X$X|.{.{._._.(.F.F.D.D.V.V.N.N.N.N.j.j.j.j.j.j.N.N.V.D.(._.{.|.&X>X>X>X>X>X>X&X$X|.{.{._.(.F.F.D.D.V.V.N.N.j.j.h.a.a.7.6.6.2.:.;.=.=. . . . . .} Q } } } ' } } } } } } } } Q } Q } }  . . .} } } } } Q R R R R Y H F F B b x x a a a a a s u r r r e e e e 2 2 1 1 1 < < , ; ; ; ; - - - - - - - - @ @ @ @ @ @ $ $ - - * * - - $ $ @ @ @ @ @ @ @ @ + @ @ @ + + + + + + + + + + + X X . . . . . . . . . . . . . X X X X X X + + + + + @ @ @ $ $ $ $ $ $ $ $ - - - - - - - * * - - - ; ; ; ; < : < < < < < < , , , 1 1 1 2 2 2 2 2 2 2 8 8 8 r r r u a a x x B B F G J J Y Y R R Q } } }  . . . . . .=.=.=.=.=.=.=.=.=.-.-.-.;.;.;.;.;.;.;.;.;.;.;.;.;.;.;.;.;.;.:.;.:.2.2.2.2.7.7.i.a.a.a.a.j.j.j.N.N.V.V.V.D.D.F.(.(._._.{.|.|.$X&X&X>X>X>X&X&X$X|._.(.F.S.V.V.N.N.N.N.N.N.N.V.V.V.V.D.D.D.F.F.F.(.(.(._._.}.{. X|.$X$X&X&X+XiXMXGXGXAXAXAXmXpXqX;X$X{._.).D.D.V.N.N.j.j.j.a.a.a.a.i.a.a.a.i.i.7.3.3.3.2.2.:.;.;.-.-.;.:.2.=.:.5.d.7.3.2.6.n.].<XbXFXGXAXxXAXGXGXGXrX[.r.6.%.4.5.2.;.=.:.6.;.;.;.-.-.-.-.-. . . . . . .} } } } } } ",
"} } } } } } } } } } } } } } } }  . . . . . . . .} } } } ..-.:.:.&.&.4.3.8.r.[.3XMXJXGXGXAXAXFXFXbXrX[.b.2.;.1.2.;.;.=. .!  .!  .}  . . . . . . .;.;.;.;.;.:.:.:.;.;.;.;.:.3.i.i.8.p.h.B.B.C.V.D.].=XtXVXGXGXGXFXmXmXbXiXrXwXwXwX<X<X>X&X$X|.|.|._._.(.F.F.D.D.V.V.V.V.N.N.j.j.j.j.j.j.N.V.D.F.(._.{.|.&X>X>X>X<X>X>X&X$X$X|.{._.(.(.F.F.D.V.V.V.N.j.j.h.s.a.i.i.2.2.:.;.=.=.=. .X. . .} } } } } } } } } } } } } } } } } } }  . . . . .} } Q Q Q R R Y Y H F F F x x x x c a a u r r 9 8 8 2 2 2 1 1 1 1 1 , : ; ; - ; - - - - - * * - * @ @ @ @ @ @ $ $ - - * * - - $ $ @ @ @ @ + @ @ + + + + + + + + + + + + + + + + X X . . . . . . . . . . . . . X X X X X X + + + + + @ @ @ - - $ $ $ $ - - - - - - - - - * - - - - ; ; ; ; < < < < 1 1 1 1 1 1 1 1 2 2 8 8 8 8 8 8 e r r r u u u a a x x x F F H J Y Y Y Y R R Q } } }  . . . . . .=.=.-.-.=.=.=.=.=.-.-.-.;.;.;.;.;.;.;.;.;.;.;.;.;.;.;.;.;.:.:.:.2.2.2.2.7.7.i.i.a.a.s.g.j.N.N.N.V.V.D.D.F.F.(.(._._.{.{.$X$X&X&X&X>X>X>X&X$X|.{.(.F.D.V.V.N.N.N.j.N.N.N.V.V.V.D.D.D.F.F.F.F.(.(._._.{.{.{. X|.$X#X>XwXwXmXSXGXGXGXFXSXmXwX>X#X|.{.).D.V.V.N.N.j.j.h.g.s.a.a.a.i.i.a.i.a.i.i.i.7.7.3.2.2.2.:.;.;.:.:.2.2.4.4.2.2.6.b.^. XaXMXKXKXAXAXGXGXGXnX>X!.e.7.3.3.4.2.6.6.:.-.>.>.;.;.;.;.;.-.-.-. . . . . .} } } } } } } ",
"} } } } } } } } } } } } } } } }  . . .} } } } }  . ...o..... .~ &.>.2.7.6.:.2.d.oX5XhXFXZXzXAXKXFXGXDXqX~.r.8.d.3.2.2.;.=. . . .}  . . . . . . .=.=.=.-.-.=.;.;.;.;.=.=.;.2.7.i.p.a.a.a.h.N.C.C.).(.[.>XhXJXGXZXFXFXSXmXdXaXrXwXwX<X<X>X&X&X$X$X{.{._.(.(.F.D.D.D.D.V.V.N.N.N.j.j.j.j.N.N.V.D.F.(._.{.$X#X&X>X>X<X>X>X&X&X$X|.{._.(.(.F.F.D.D.D.N.N.N.j.h.g.a.a.7.7.2.2.:.;.-.=.=. . . . . .}  .} } } } } } } } } } Q } } }  . . . . . .} } Q Q R R Y U H F F F B B x x x c a p r r r e 8 2 2 2 2 1 1 1 < : ; ; ; - - - - - - @ * * * * @ @ @ @ @ @ @ $ - - * * - - $ $ @ @ + @ + + + + @ + + + + + + + + + + + + + + X X . . . . . . . . . . . . . X X X X X X X X + + + @ @ $ - - - - - - - - - - - - - - - - - - - ; ; ; ; ; < < < < 1 2 1 2 1 1 1 2 2 8 8 e r r r r r u i i a a a a x x b b H H J Y Y R R R R R Q } } }  . . ... .=.=.-.-.-.=.=.=.=.=.-.-.-.;.;.;.;.;.;.;.;.;.;.;.;.;.;.;.;.:.:.:.2.2.2.2.2.7.i.i.a.s.s.g.h.N.N.V.V.D.D.D.D.F.(.(._._.{.|.|.#X&X&X&X&X&X&X$X|.{.{.(.F.D.V.N.N.N.N.j.N.N.V.V.D.D.D.D.F.F.F.F.F.(.(._._.{.|.|.$X$X&X>XwXaXbXmXGXGXAXSXmXfX1X&X%X{.(.).F.D.N.m.N.j.j.k.g.a.a.p.a.a.a.a.a.i.i.i.i.a.i.i.7.7.7.7.2.2.2.:.:.6.7.7.d.7.8.e.!.+XdXDXFXGXGXHXZXMXMXnX$XQ.e.3.z.z.7.2.p.7.:.;.6.9.>.! =.;.;.-.-.-.=. . . . . . .} } } } } } } ",
"} } } } } } } } } } } } } } } }  . .} } } } } } =. .} ' ' } ! ~ o.|  .5.5.4.2.7.y.p.r.OXBXKXGXAXHXxXxXAXGXhX Xc.y.3.3.2.:.-.-...} } }  . . .=.-.-.-.-.-.=.=.;.;.2.:.;.-.;.:.7.7.u.f.k.m.c.c.m.V.F.F.(.{.@X8XcXGXAXFXFXSXmXdXrXwXwXwX<X<X>X&X&X$X|.{._._.(.F.F.D.F.D.D.V.V.N.N.j.j.j.j.j.N.N.D.F.).).{.|.$X#X&X>X:X>X>X>X&X&X$X|._._.(.F.F.D.D.D.N.N.N.j.j.j.g.g.i.7.7.2.2.;.;.;.>.=.=.=. . . ...} } } } } } } } } } Q R Q }  . . . .} } } } Q R R R Y Y H F F F F B x x x x p p i u y r e e 5 5 2 1 1 < < : ; ; - - - - - - @ @ * * * * @ @ @ @ @ @ @ $ - - * * - - $ $ @ @ + + + + + @ @ @ + + + + + + + + + + + + + X X . . . . . . . . . . . . . X X X X X X X + + + + @ @ $ - - - - - - - - - - - - - - - - - - - ; ; ; ; ; < < < < 2 2 2 2 1 1 1 2 2 2 8 8 r r r r u i a a a a x x x b b b J J Y Y R R Q Q R R Q } } }  . ....... .=.-.-.-.=.=.=.=.=.-.-.-.;.;.;.;.;.;.;.;.;.;.;.;.;.;.;.;.:.:.:.2.2.2.6.6.i.a.a.s.h.h.j.j.N.V.V.V.D.D.F.F.(.(._._.{.{.|.$X#X#X&X&X&X&X$X$X{._.(.F.D.N.N.j.N.N.N.N.N.N.V.D.D.D.D.F.F.(.(.(.(.(._._.{.|.|.$X&X&X<XrXdXSXFXGXSXFXGXmX0X@X_.).`.F.M.N.N.N.N.N.j.j.k.k.g.a.p.p.a.a.a.a.i.i.i.i.i.i.7.7.3.3.2.2.3.2.2.2.2.6.7.7.g.m.).,XCXKXHXxXHXAXAXAXFXfX[.e.9.9.a.a.i.7.6.6.1.3.4.5.;.=.:.,.=.=.;.-.-.=. . . . . . . .} } } } } } } ",
" . . . . . . . .} } } } } } } } } } } } }  . . .} } } } } } } }  . . . . . . . .=.;.4.9.e.Q.eXBXAXAXAXAXGXGXSXmX&XW.x.u.z.u.3.8.-.-.-.-. .! ! %. . .=.-.-.=.;.;.-.-.-.-.;.:.,.,.2.6.6.7.8.7.p.p.c.V.D.(._.$X;X0XGXAXAXAXAXSXMXfXwX<X;X#X&X&X$X$X{.{._._.).G.G.D.D.V.V.V.V.N.N.N.j.j.j.j.j.N.V.V.F.(._.{.|.|.@X#X>X>X>X>X>X&X|.{._._.(.(.).F.D.D.V.V.V.N.N.j.j.k.a.a.a.7.7.6.:.:.;.;.=.=. . . .}  . . . .} } } } } } } } } } } } } } } } } ' R R R Y Y H F B b x N N N C N N N f a u r r 8 2 < < < < : ; ; ; ; ; ; ; - - - - - - - - - - $ @ @ $ @ @ @ @ $ $ $ $ - - - - * * * * + + + + + + + + + + + + + + + + + + + + + + + + . . . . . . . . X X X + + + @ @ @ @ @ @ @ @ $ $ - - - - - - - - - - - - - - - - - - - - ; ; ; ; ; ; ; , < 1 1 1 < < 2 2 2 e e r 8 8 8 8 8 e r e p a x x B B F F Y Y Y Y R R R R } } } } }  . . .=.-.-.-.-.-.-...=.=.=.=.=.;.;.;.-.;.;.;.;.;.;.;.;.4.2.2.2.2.2.2.:.2.2.6.7.7.7.7.a.g.g.h.m.m.m.N.V.V.D.D.F.(._.{._.{.|.|.$X$X$X&X>X&X&X$X|.{.(.G.D.V.V.N.N.j.j.j.j.j.N.N.V.V.D.D.F.F.F.F.(._.].].|.|.|.|.%X$X&X&X:XqXcXZXAXAXFXGXDXbXwX&X{._.F.A.C.C.N.N.g.s.a.a.i.i.i.i.7.7.7.7.7.7.7.7.7.i.i.d.i.i.3.3.2.4.5.5. .:.d.d.y.1.a.C.[.eXJXGXzXxXzXAXFXFXnX,X).m.g.f.i.i.7.7.3.2.2.2.2.2.:.:.;.;.;.;.-.:.-.=.=.=.=.=. . .}  .} } } }  . . . .",
" . . . . . . . .} } } } } } } } } } } }  . . . .} } } Q } } } Q  . . . . . . . .:.;.:.;.-.<.r.U.2XsXDXFXFXZXAXKXFXbX<XQ.8.1.4.z.7.7.7.2.:.>.>.>.>.:.2.6.6.6.3.3.:.:.:.;.;.;.;.:.2.2.2.7.7.i.i.i.s.m.V.D.(.{.$X,XqXpXmXGXGXFXSXmXdXrXwX>X&X$X$X|.|.{.{._.(.(.F.D.V.V.V.V.N.N.N.N.j.j.j.j.j.N.N.N.F.F.(._.{.|.$X&X>X>X>X>X&X&X|.{.{._._.(.(.F.F.D.V.V.V.N.N.j.j.j.s.s.a.i.7.2.2.:.:.;.;.=.=. . . . . . . . .} } } } } } } } } } } }  .} } } } R R R Y U H F F B b x x b B B x x x a u r r 8 1 1 < : ; ; ; ; ; - ; ; ; ; - - - - - - - - - $ $ $ $ @ @ @ @ @ $ $ $ $ $ $ $ @ @ @ @ + + + + + + + + + + + + + + + + + + + + + + + + X + + + + + + + + + + + + @ @ @ @ @ @ @ @ @ @ $ - - - - - - - - - - - - - - - - - - - ; ; ; , , ; ; ; < 1 1 2 2 < 1 2 2 2 8 e r y r r r r r r r u p a x b B F F H H U Y Y Y R R } }  . . . .=.=.=.=.;.;.;.-.=.=.=.=.-.=.-.-.-.-.-.-.-.;.;.;.;.;.:.;.:.:.2.2.2.2.2.6.6.7.7.i.a.a.g.g.h.h.m.N.V.V.D.D.F.(.(._.{.|.|.|.|.$X$X&X&X&X&X$X$X|.{._.F.D.V.V.N.N.j.j.j.j.j.N.N.V.V.V.D.D.F.F.F.)._.`.{.{.$X|.$X$X&X<XwXrXdXbXSXGXGXFXSXmXrX<X#X{._.(.D.V.N.N.j.h.a.a.i.i.i.7.7.7.7.7.7.7.6.6.2.2.2.3.3.3.%.;.9.9.8.3.3.3.e.7.y.f.k.S.OXqXSXSXFXHXKXKXGXSXrX;XQ.b.7.y.a.p.7.7.7.3.2.2.2.2.2.:.:.;.;.;.-.-.>.>.=.=. . . . . . . . . . . . . . . . .",
" . . . .=.=.=.=. . . . . . . . .} } }  . . . . . . . . .}  . . .} } } } }  . . ... .=.=.! !  ...9.n.=XfXGXGXAXAXAXGXKXVXuX-Xn.7.y.y.y.u.d.9.,.-.4.3.8.7.7.7.7.i.3.2.2.2.2.2.2.2.3.3.i.i.i.i.i.a.a.g.k.B.V.F._.}.@X>XtXBXDXGXGXFXGXmXdXrX<X&X$X X|.|.{.{._._.^.S.D.D.V.V.V.N.N.N.j.j.j.j.j.j.N.N.V.D.F.(._.{. X$X&X&X>X>X>X>X&X$X|.{.{._._.(.F.F.D.D.V.V.N.N.j.j.h.h.s.a.i.7.6.2.2.2.:.;.-.-. . .=. . . . . . . .} } } } } } } }  . . .} } } } } R Y Y J G F F F b v b v b x x x u u y y 2 1 , ; ; ; ; - - - - - ; ; ; ; - - - - - - - - $ $ $ $ @ @ @ @ @ @ @ @ @ @ @ @ @ @ @ @ + + + + + + + + + + + + + + + + + + + + + + + + + + + + + + + + + + + + + @ @ @ @ @ @ @ @ @ @ @ $ $ $ $ $ $ $ $ $ $ - - - - - - - - - - ; ; , ; ; ; : < 1 1 2 2 1 < 2 2 2 8 r r y y i i u u u u u u a x x B B B F F H H J Y Y Y Q Q Q Q  . . . .=.=.=.=.>.>.=.=. . . . . .=.=.=.=.=.=.=.=.=.-.-.;.;.;.:.:.2.2.2.6.7.7.i.a.s.g.h.N.N.N.N.V.V.D.D.F.(._._.{.|.$X$X&X&X&X>X>X>X>X&X$X|.[.]._.(.D.V.N.N.N.j.j.j.j.j.N.N.V.V.V.D.D.F.F.F.F.F.)._.{.{. X X$X#X<XrXdXbXGXGXGXGXFXbXaX0X@X[./.(.F.G.V.N.N.j.h.g.a.a.i.i.3.3.3.3.3.3.2.2.2.2.2.2.2.2.:.:.q.<.! %.1.y.a.g.*.3.x.~.wXbXDXKXHXHXAXFXGXBX1X|.A.c.i.y.y.i.7.6.3.3.3.2.2.2.2.:.:.:.;.;.;.-.-.-.=.=. . . . . . . . . . . . . . . . . . .",
"=.=.=.=.=.;.-.-.>.>.=.=.=. . . . . . . . . . . . . . . . . . . .} Q } } } } }  .Q Q }  .=.>.&.&.7.2.:.e.~.yXSXGXKXGXAXzXAXSXaX;XZ.p.3.1.3.7.p.p.3.i.i.a.i.i.i.a.i.i.i.i.i.i.i.i.a.a.a.a.a.a.a.a.a.g.k.k.j.N.D.F.{.{.$X,XrXbXFXGXGXGXFXmXaX<X>X&X$X|.{.{._._.(.(.F.D.D.V.V.N.N.N.j.j.j.j.j.j.j.j.N.N.V.D.F.F.(._.$X&X>X>X>X>X>X>X&X$X|.{.{._.(.(.F.F.D.D.V.V.N.N.N.m.h.s.a.i.7.7.2.2.2.:.;.-.-.-.=.=.=.=. . . . . . . . . . . . . . . . . .} } } R R R Y J G F F b b x c x a p u r r y e 2 1 , ; : ; ; ; ; ; - ; ; ; ; ; - $ $ $ * * - * @ @ @ @ @ @ @ @ @ @ @ @ + + + + + + + + + + + + + + + + + + + + + + + + + + + + + + + + + + X X + + + + + + + + + @ @ @ @ @ @ @ @ @ @ @ @ @ @ @ @ @ $ $ @ @ $ * * - - - - - - - - - ; ; ; ; ; < 1 1 1 1 2 2 2 2 8 r r r r u u u u u u u u p a x x x B B b b F F H H J J Y Y Y Y Y R R R R R ~ Q Q Q ! ! Q Q Q Q  . . . . . . .=.=.=.=.=.-.-.;.:.:.2.2.2.7.i.a.a.g.j.j.j.V.V.V.D.D.D.F.F._._.{.|.|.$X&X&X>X>X>X>X>X>X>X>X|.{.{._.).F.V.V.j.j.j.j.j.j.j.j.N.N.V.V.V.D.D.F.^.(.(.).(.`.{. X X|.#X:XiXcXSXAXFXFXFXSXpXwX;X@X_.(.F.F.G.V.N.h.j.h.h.g.s.a.a.a.i.7.7.7.3.3.3.3.2.2.2.2.:.:.:.:.<.6.7.4.z.z.y.y.B.`.0XZXzXzXZXSXFXFXFXbX0X].v.i.y.y.u.z.z.d.6.-.2.2.2.2.:.:.;.;.;.;.;.=.-.-.-.-. . . . .} } } }  . . . . . . . . . . . .",
";.;.;.;.;.:.:.:.:.:.-.-.-.=.=.=.=.=.=. . . . . . . . . . . . . .} } } } }  . . .~ ! }  . .=.%.%.;.:.>.%. .e.[.<XbXFXGXAXxXzXDXCXuX,X!.e.2.1.u.k.3.i.a.a.i.a.s.s.a.a.a.a.a.a.a.a.a.a.a.a.a.a.a.a.a.a.a.g.j.N.V.D.(.(.(./.~.;XqXbXZXAXGXFXSXpXqX0X&X$X|.{._._.(.(.(.F.F.D.V.V.N.N.N.N.j.j.j.j.h.h.j.j.N.N.V.V.D.F.{.|.$X#X>X>X>X>X>X&X$X|.|.{._._.(.(.F.F.D.V.V.V.N.N.N.h.s.a.a.a.7.7.3.2.2.:.;.;.;.;.=.=.=.=.=.=. . . . . . . . . . . . . . . . .} } R R Y H H F N x a i u r e e 8 8 8 e 2 2 1 1 < , ; ; - ; ; ; ; ; ; ; ; - @ @ * * @ @ @ @ @ @ @ @ @ @ @ @ @ @ + + + + + + X X + + + + + + + + + + + + + + + + + + + + + + + + X X X X X X X X X X X + + + + + @ @ @ @ @ @ @ @ @ @ @ @ @ @ @ @ $ $ $ - - - - - - - ; ; ; ; ; ; - ; ; ; , , 1 1 2 2 2 e y r y u 9 r u p a a a a x x x x x x x x b b b B F F F H B B B B F F F G H H H H J Y Y Y R Q Q Q  . . . . . . .=.=.=.=.=.-.-.;.:.2.3.7.7.a.a.a.g.j.N.N.N.V.V.V.D.F.F.(.(.{.|.|.$X$X&X&X>X#X;X;X>X>X#X#X$X}.{.(.F.D.V.N.N.j.j.j.j.j.j.N.N.N.V.V.V.D.F.F.F.(._._._._.{.$X$X$X&XwXdXmXFXFXFXFXSXbXaX<X&X X_.).F.D.V.V.N.N.h.a.a.a.a.a.a.a.a.a.i.i.i.7.7.7.7.2.2.2.2.2.2.2.2.y.a.l.d.7.8.n.}.NXMXDXGXFXAXAXHXbXtX=X!.e.:.3.a.6.2.2.1.1.2.:.:.:.:.;.;.;.-.-.-.-.-.-.-.-. . . . . . . . . .} }  . . . . . . . .=.=.=.=.",
"2.2.2.2.2.2.2.2.:.:.;.;.;.;.;.;.;.=.=.=.=.=. . . . . . . . . . .} } }  .}  . . .~ ! } } }  .=.=.T ! >.,.6.2.2.3.!.@XsXGXGXGXAXxXFXFXdX2X'.b.4.&.3.3.3.3.y.i.p.p.s.s.s.s.a.a.a.a.i.i.i.i.7.7.3.3.7.7.i.a.s.m.V.V.D.D.F.F.(./.[.=XpXbXSXGXGXGXSXcX<X>X&X$X|.{._.(._.(.(.F.D.V.V.N.N.N.N.N.N.j.j.j.j.j.j.j.N.V.D.D.(._.|.$X&X&X>X>X>X&X&X$X|.{.{._.(.(.(.F.D.V.V.V.V.N.N.N.h.h.s.s.i.i.7.7.2.2.:.:.:.:.;.;.;.=.=.=.-.-.-.-.-.-.-.-.=.=.=.=.=. . . . . .} R Y Y J H N x a i r e 8 2 8 8 8 8 e e 8 2 , 1 , , ; ; ; ; ; ; : : ; - - - * * * @ @ @ @ @ @ @ @ @ @ @ @ @ + + + + + + + + X X X X X X X X + + + + + + + + + + + + + + + + . . . . . . . . X X X + + + + + @ @ @ @ @ @ @ @ @ @ @ @ @ $ @ @ $ $ - - - ; ; ; : : : : : : , , - - ; ; ; , < 1 2 2 2 e r r y u u u p a x x b b B B B B b b b x b B B B F F F F a a x N N N B B B B B F F G J Y Q Q }  . .=.=.-.=.=.=.=.=.=.=.=.-.-.;.2.2.7.i.i.a.g.g.j.N.N.V.V.V.V.D.F.F.(._._.[.|.$X&X&X&X>X>X;X>X>X>X&X$X|. X_.).D.V.N.N.j.j.j.j.j.j.N.N.N.N.V.V.V.D.F.F.F.F._._.{.{.|.@X#X:XeXaXbXSXGXGXDXDXbXaX0X#X|.}.(.F.D.D.V.N.j.h.h.c.a.a.s.s.s.s.a.a.i.i.i.i.7.7.7.7.:.:.2.2.2.3.3.7.z.u.3.8.r.#XdXDXAXAXAXFXGXLXBXtX).v.8.2.2.;.2.4....... . .%.;.1.=.=.=.=.=.=.-.-.=.=.=. . . . . . . . . . . . . . . . . . . . . .=.=.=.=.",
"2.2.2.2.2.2.2.2.2.2.2.2.2.2.2.2.:.:.;.;.=.=. . . . . . .=.=.=. . . . . . . . . . . .} } }  ...-.0. .Q } -.2.5.&.5.9.e..XtXmXFXGXAXAXGXGXhX2XU.q.8.7.2.1.2.3.7.7.a.a.a.a.a.a.a.a.7.3.2.2.2.:.;.;.6.2.2.2.7.i.p.s.h.N.C.G.D.D.F.).$X&XeXbXGXGXGXFXbXdXrX<X>X$X|.{.{.{._.(.F.D.D.V.V.V.V.N.N.N.N.j.j.j.j.j.N.N.V.D.F.(.{.|.$X&X>X>X>X>X#X$X$X|.{.{._._.(.F.F.D.V.V.V.V.V.N.N.j.h.h.a.a.i.7.7.2.2.2.:.:.:.;.;.;.-.-.-.-.-.-.-.-.-.-.=.=.=.=.=. . . . . .} } R Y Y J F B b x a u u u u r r r r r r r 8 2 2 1 1 1 1 1 1 1 2 < < ; ; - - - - - $ @ @ $ @ @ @ @ @ @ @ @ + + + + + + + + X X X X X X X X + + + + + + + + + + + + + + + + X X X X X X X X X X X + + + + @ @ @ @ @ @ @ + + + + + + + + + + $ $ $ - - - ; ; ; ; ; ; ; ; , , - ; ; ; , , 1 1 2 2 2 8 8 r r u a a a x x b B F F F F F B B B B F F F F F F F F x x x b b B B B F F F H H Y R '  . . . .=.-.-.;.-.=.=.;.;.;.;.;.;.:.2.2.7.i.a.d.j.j.j.N.N.V.V.D.D.F.F.(._.{.{.|.|.$X$X&X&X&X&X>X>X>X>X&X$X X{._.F.D.N.j.j.j.h.h.j.j.N.N.N.N.V.V.V.D.D.D.F.F.(.(._._.{.|.$X;XwXaXmXSXGXGXGXmXdXtX<X#X[./.F.D.V.N.m.m.h.g.a.a.a.p.a.s.s.s.h.s.s.s.a.i.i.7.7.3.3.3.:.:.2.2.3.i.i.i.8.e.!.;XbXGXGXAXGXGXGXZXcX2XG.a.4.;.;.2.6.:.=.%. . .-.-.-. . .=.=.=.=.=. . . . . . . . . .} } }  . . . . . . . .=.=.=.=.=. .=.=.;.;.;.;.",
"3.3.3.3.2.2.2.2.:.2.2.2.2.2.2.2.2.2.:.;.;.=.=.-. . . . .=.=.=. . . . . . . . . . ... .X.~ Q Q ! } ..-.>.=.=.=.:.6.2.2.7.e.U.0XCXLXHXZXFXGXGXSXcXH.b.7.2.4.4.2.1.i.a.a.s.g.g.g.s.6.2.2.:.;.;.>.>.:.:.=.=.;.;.2.2.3.d.h.j.j.N.V.G.V.S.].:XpXSXAXFXGXFXmXpXwX:X#X@X|.|.{._.(.F.F.D.V.V.V.V.V.N.N.N.k.j.j.j.j.j.N.N.D.F._.{.|.$X&X>X>X>X&X&X$X|. X{._.`._.(.F.D.D.D.V.V.V.N.N.N.j.j.a.a.a.i.7.2.2.2.2.2.:.:.;.;.;.;.-.-.-.-.-.-.-.-.;.;.;.-.=.=. . . . .} } ' R Y Y Y U H F b b x C a i u u r r u t r r e e e 8 e e 2 2 2 2 2 < ; ; - - - - - $ $ $ @ @ @ @ @ @ @ @ @ @ @ + + + + + X X X X X X X X + + + + + + + + + + + + + + + + + + + + + + + + + + + + + @ @ @ @ @ @ + @ @ @ + + + + + + + + + @ @ @ @ * * - - ; ; - - - - ; ; ; ; ; ; < < 1 1 1 1 2 8 8 9 r r a a a x x b b F F F F F F F F F G G G G G G J J b Z Z A A K K K U U U U R Q  . . . . .=.=.=.;.;.;.;.;.;.;.;.;.;.:.:.2.3.i.a.a.a.j.j.j.N.V.D.D.D.F.F.)._.{. X$X$X$X$X&X&X&X&X&X>X=X=X$X$X{._.F.A.D.V.N.j.j.k.h.h.j.N.N.N.V.V.V.V.D.D.F.F.F.F.(._.{. X%X&X<XrXdXMXFXFXAXAXZXpX:X#X&X|._.F.G.V.N.g.a.a.a.g.u.y.3.7.i.i.a.a.a.a.a.i.i.i.7.3.3.3.2.2.:.,.2.7.i.a.g.g.Y.0XVXGXFXZXAXHXAXGXsX|.v.p.7.6.9.,.:.5.&.! ..<.&.%.=.=. . . . .=. . . . . . . . . . . . .} } } =.=.=.=.=.=.=.=. . .=.=.=.=.=.=.:.:.:.:.",
",.6.6.6.6.:.:.:.:.:.:.:.2.2.2.2.2.2.2.2.2.:.:.:.-.-.-.-.-.-.=.=.=.=.=.=. . . . . . . . . . . . .=.=.=. . . .=.=.=.-.:.:.6.7.p.Z.qXdXSXFXFXAXzXHXGXbX@Xv.a.y.2.=.0.;.-.6.x.p.a.g.h.a.3.4.4.:.:.:.1.2.2.2.2.6.6.6.7.7.7.7.p.s.m.B.A.D.G.)._.&XsXCXzXAXFXSXmXaX0X+X+XOX@X|.{.{.(.(.F.F.F.F.F.D.V.V.N.N.j.j.j.j.j.j.N.V.D.F._.{.|.$X#X#X;X:X>X>X&X&X$X|.|.{._.(.F.F.D.V.V.V.N.m.m.h.j.j.g.a.i.3.2.2.:.:.:.;.;.-.=.=.=.=.=. . . . . .=.=.=.=.=. . . .} } Q R R Y Y U H F F B N x a a c a a i s u t t p i u r r e 8 2 2 2 2 2 2 1 1 1 < < ; ; - - - * - - $ $ @ @ + + @ @ @ + + + + + + + X X X X . . X X X X X X X X + + + + + + + + . . . . . . . . + + + + + + + + X X X X X X X X + + + + + @ @ @ + + + + @ @ @ @ @ @ @ @ $ $ @ @ @ @ $ - - - - - - - - ; < 2 e y p p p a a c c x i a a x b Z H H F F F F H H H J C C N x x x b B b F H Y R }  . .-.;.;.;.:.;.:.:.:.:.:.:.:.:.:.:.2.2.2.2.7.7.7.7.h.j.j.N.N.V.V.D.S.(._.{. X|.|.|.$X$X#X#X>X>X>X>X>X#X$X{._.F.D.M.N.N.j.j.j.j.j.N.N.N.V.V.V.V.D.F.D.D.F.^./.].{.{.{.$X:XqXvXZXAXAXAXAXmXaX<X&X$X|.F.D.D.V.m.h.h.h.i.a.a.a.a.a.a.i.y.i.i.i.3.3.3.3.z.z.7.7.7.7.i.a.h.a.a.a.p.n.OXuXGXFXAXAXAXFXDXMX-X'.x.3.3.y.3.:.:.;.;.=. . . .}  . . . . . . . . . . . . . . . .} } }  . . . . . .=.=.=.=.-.;.;.2.2.2.7.7.7.7.i.7.i.i.i.",
"7.7.7.7.3.3.2.2.2.2.2.2.:.:.:.:.2.2.2.:.:.;.;.:.-.-.-.-.=.-.=.=.=.=.=.=.=.=. . . . . . . . . . .=.=. . . . .=.=. .=.-.-.;.:.6.8.<.r.=XsXDXGXFXAXBXGXFXvX+Xr.8.a.;.;.1.1.;.;.3.p.s.p.a.i.7.2.:.;.2.2.2.2.:.;.;.;.2.2.2.2.2.7.a.s.c.m.M.M.v.n.].@XbXSXGXGXGXSXpXqX1X>X&X|.{.{./.^.(.(.F.F.F.D.D.D.V.N.N.N.N.j.j.j.j.N.V.F.(.{.|.$X$X&X>X<X:X>X>X>X&X$X$X X{._.(.F.D.D.V.V.N.N.N.N.j.j.h.a.i.7.2.2.:.:.:.:.;.;.=.=.=.=. . . . . . .=.=.=. . . . . .} Q R R R Y Y U H F F B x a a p u u r r 8 8 8 8 r r r r e 8 2 2 2 2 2 2 1 1 1 1 < , ; ; - - - - - - $ $ @ @ + + @ @ @ + + + + + + + X + X X . . X X X X X X X X X X X X + + X + . . . . . . . . + + + + + + + + X X X X X X X X + + + + + + + + + + + + @ @ @ @ @ @ @ @ $ $ @ @ $ $ - - - - - - ; - - - ; < 1 2 8 8 9 r u p a a y u u a x b F F F F F F F F F F x x x x x b F F J Y R }  . .-.-.-.;.;.;.:.:.:.:.:.2.:.:.:.:.:.:.2.3.3.7.i.a.a.a.j.N.N.N.V.V.V.D.S.S.(._.{.{.|.|.|.$X#X>X>X>X>X>X>X&X|.{.(.D.V.m.j.j.j.j.j.j.N.N.N.N.V.V.V.D.D.F.F.(._.`.{.{. X|.>XwXaXmXFXGXFXAXmXcXqX>X$X|._.(.D.D.V.N.h.g.g.a.a.a.a.a.a.a.a.a.i.i.a.a.a.p.p.p.7.7.7.i.a.a.k.l.h.s.d.H.-XfXFXGXZXAXGXGXJXsX+X~.e.e.6.2.3.4.2.;.=.=.=.=.=. . . . . . . . . . . . . . .-.=.-.=.=.=.=.=.=.=.;.;.;.;.;.:.:.2.2.2.2.3.3.3.3.i.i.i.i.7.i.i.a.",
"s.p.a.a.i.i.i.i.3.3.3.2.2.:.;.;.2.:.:.:.;.;.-.-.-.-.-.-.-.=.=.=.-.-.-.=.=.=.=.=. . . . . . . . .=.=. . . . . . . . . . .=.=.;.:.*.*.3.e.U.+XbXKXKXFXHXDXDXbX:XY.<.,.2.u.z.5.;.=.2.3.7.p.7.7.2.4.3.2.2.2.:.;.=.=.;.;.-.-.=.;.2.2.p.s.h.j.m.V.S.^.$X<XfXHXHXHXFXSXsXtX1X*X$X|.|.|._._.(.(.F.F.D.D.D.V.V.V.N.N.N.N.j.j.N.V.F.).`.`. X|.$X>X>X<X<X<X&X&X&X$X X`.(.).D.D.D.V.V.N.N.N.N.j.h.s.a.i.7.3.2.2.2.:.:.;.=.=.=.=.=. . . . . . . . . .} } } } Q R R R Y Y Y U H F F b x p u u 8 8 8 2 1 , 1 < e 2 8 2 2 2 2 2 1 1 1 1 1 1 1 , < , ; ; - - - - - - $ $ @ @ + + @ + @ + + + + + + + + + X X . . X X X X X X X X . . X X X X . . . . . . . . . . + + + + X + + + X X X X X X X X X X X X X X X X + + + + + + + + @ @ @ @ $ $ @ @ $ - - - - - - - - - - - - - ; ; , 1 1 2 8 e r y 8 r r i a x B B F F F F F F H H F F F H H U Y R } }  . .-.:.:.:.-.;.;.;.:.:.:.:.2.2.2.2.2.2.2.6.7.7.i.a.a.s.g.h.N.N.N.V.V.D.D.D.S.^.(._.{.{.{.|.|.$X#X>X:X<X>X>X&X$X{.(.D.C.m.j.j.j.j.j.j.N.N.N.N.V.V.V.D.D.F.F.Q.].{.{.{.|.&X>X9XvXSXGXGXGXSXbXrX<X@X{.`.).F.V.V.N.N.h.s.a.a.a.a.a.i.i.i.i.i.i.p.p.i.i.i.i.a.i.8.p.h.k.k.k.g.a.x.^.<XbXFXGXAXZXGXDXfXeX%XW.e.:.-.:.2.2.:.=. ... . .=.=.=.=.=.=.=.=.=.=. .=.=. .-.-.-.-.-.-.-.-.;.;.;.2.2.4.4.4.2.2.2.2.7.7.7.7.7.7.y.i.i.i.d.d.a.a.s.s.",
"h.h.h.h.g.g.a.a.i.i.3.3.2.:.;.;.6.:.:.:.;.-.-.-.;.;.;.;.;.;.=.=.-.-.=.=.=.=.=.=. . . . . . . . .=.=. . . . . . . . . . . . .=.-.y.4.1.;.6.e.!..XlXSXFXGXDXSXZXAXuX~.e.2.1.4.5.>.1.2.3.7.7.7.7.4.2.2.2.2.:.:.:.:.;.-.-. . .=.=.;.=.;.2.3.d.d.s.c.V.(.@X8XcXSXGXGXSXmXdXrX1X>X&X&X|.|.{._.(.(.F.F.F.D.D.V.V.N.N.N.N.j.j.m.m.M.M.D.(._.{.$X&X>X:X<X>X>X>X#X$X{._.(.F.F.D.D.V.V.V.N.N.N.m.h.s.a.i.i.3.3.2.2.:.;.;.;.=.=.=.=. . . . .} } } } Q } R R R R R R Y Y U U F F F b x a p u 8 8 2 1 1 < < < < < 1 1 1 1 1 1 < < < < < < ; ; , , ; ; - - - - - - $ $ @ @ + + + + @ + + + + + + + X + X X . . . . . . . . . . . . . . . . . . . . . . . . . . X X X X . . . . X X X X X X X X . . . X X X X X + + + + + + + + @ @ @ @ $ $ @ @ $ $ - - - - - - $ $ $ $ $ - - ; , , , 1 1 1 2 2 1 2 e r i a x x B B F F K J Y E ' ' R R R } }  . . .=.=.;.:.2.2.-.-.;.;.:.:.:.:.2.2.2.2.2.6.7.7.i.i.a.s.g.j.j.j.N.N.V.V.D.F.F.F._._._.{.{.|.|.|.$X&X>X>X<X>X>X&X|.{.(.D.N.m.k.k.j.j.j.j.j.N.N.N.V.V.D.D.F.F.(.(.].[.{.{.$X;XrXdXxXAXFXFXSXbXaXwX*X$X{.(.G.G.V.N.j.h.g.a.a.i.7.7.7.7.7.3.3.7.7.7.7.7.7.7.7.7.7.2.p.s.g.k.h.M.W.~.aXmXGXAXzXAXGXKXBXeX].b.7.1.1.1.:.2.>.>.X. .} .. . . .=.=.=.;.;.=.=.=.=.=.=. . .-.-.-.-.-.-.-.-.;.;.:.:.:.2.2.4.:.:.:.2.2.2.2.3.2.2.2.3.7.7.i.i.g.g.h.h.",
"N.N.N.N.j.j.j.h.a.a.a.i.3.2.2.:.6.6.2.:.:.;.;.-.;.;.;.;.;.;.;.;.=.=.=.=.=.=.=.=. . . . . . . . . . . . . . . . . . . . . .=.=.-. . .-.0.5.4.2.7.D.|.iXAXzXAXFXFXGXDXrX[.b.7.1.1.5.5.5.3.3.3.2.2.:.:.:.:.:.:.:.,.>.>.>...}  . .=.} } Q ! %.;.;.;.3.a.M.(.$XrXSXGXAXAXZXvXiXwX>X>X&X&X$X|.{._.(.(.(.F.F.D.V.V.N.N.N.N.j.h.h.g.h.h.V.F.(.{.$X&X>X:X>X<X>X>X&X|.{._.(.(.(.F.D.D.V.V.V.V.N.m.h.s.a.a.i.i.7.3.2.2.:.;.=.=.=.=.=. . . .} } } Q Q R R R R R Y Y Y Y U H F F F b x a a a e e 2 2 2 1 2 2 : < < < , , , , ; ; ; ; ; ; ; ; , , ; ; - - - - - - $ $ @ @ + + + + + + + + + + + + + + X + . . . . . . . . . . . . . . . . . . . . . . . . . . X X X X . . . . . . . . . . . . . X X X X X X X + + + + + + + + @ @ @ @ $ $ $ $ @ $ $ - - - - - $ $ $ $ $ - - ; : : : ; ; ; ; ; < 1 2 r i a a a x B B F F K Y Y R R R Q }  . . .=.=.=.=.;.;.2.2.-.-.-.;.;.:.:.:.2.2.2.2.7.7.7.i.a.a.a.g.h.N.N.N.N.V.V.F.F.(.(._.{.{.{.|.|.$X$X&X&X>X>X>X>X&X$X|.(.F.V.m.h.j.k.j.j.j.j.j.N.N.V.V.D.D.F.F.(.(._.{._.{.$X&XwXpXSXFXHXAXSXbXaXwX>X$X{._.).F.M.m.h.h.a.a.a.i.7.7.6.6.2.2.2.2.2.2.2.2.2.2.4.4.4.7.3.6.f.f.a.c.W.#XdXSXGXGXHXAXFXDXdX;Xn.b.p.3.4.4.1.>.;.=.%.! Q } } |  . . .=.=.=.;.;.=.=.=.=.=.=.=.=.=.=.-.-.;.=.=.=.....-.-.-.-.-.;.=.=.>.=.>.:.:.:.;.;.;.:.2.2.6.6.g.g.g.h.",
"V.V.N.N.N.N.N.N.h.h.s.s.a.i.i.7.7.6.6.6.2.:.:.;.;.;.;.;.;.;.;.;.;.;.=.=.=.=.=.=.=.=.=.=.=.=.=.=. . . . .=. . . . . . . . .=. . .X.X.Q ~ ! ;.7.p.a.i.e.!.qXSXGXJXzXGXKXLXhX*Xn.9. .=.;.4.3.3.2.:.:.:.;.;.=.=.=.=.-.>...} } Q }  .' ' R R Q ! X.X.X.1.u.N.F.|.;XqXFXGXFXFXSXbXrXwXwX<X>X&X$X|.{.{._.(.(.S.F.D.V.V.N.N.N.N.j.j.j.j.N.V.D.F.`.|.&X>X,X1X<X<X>X&X$X|.{.{._.(.F.F.D.D.V.V.V.N.m.h.g.g.a.a.i.i.7.2.2.:.;.;.=.=.=.=. . . . .} } Q Q R R R Y Y Y Y U H H F F F B x x a a r r e 8 2 2 2 2 1 < < < , , ; , ; ; ; ; ; ; - - , , ; ; - - - - - - $ $ @ @ + @ + + + + + + + + + + + + + + . . X X X X X . . X X X X X X X X . . . . . . . . . . . . . . . . . . . . . . . . . X X X X X X + + + + + + + + + + @ @ @ @ $ $ @ $ @ @ $ - - - - - * * - - - ; ; ; - ; ; ; ; ; ; ; < 1 2 e r i a a x x x B B F H H Y Y R Q }  . .=.-.=.=.=.;.;.:.:.-.-.-.;.;.:.:.:.2.2.2.3.7.i.i.i.s.s.h.h.N.N.N.V.V.V.D.F.(._.{.{.|.|.|.$X$X&X&X>X,X,X>X&X$X{._.(.D.V.m.g.h.j.j.j.j.j.j.N.N.V.V.D.D.F.F.(._./.{.|.{.$X<XfXDXGXGXFXDXMXsX<X&X|.}.'.A.M.v.x.7.7.i.a.3.2.2.2.2.:.;.:.;.;.;.;.;.;.;.;.2.2.4.4.;.:.2.6.i.c.'.*XsXSXGXGXHXAXFXSXaX@Xr.;.3.3.u.5.5.>. .| =.%. . . ... .Q  . . .=.=.=.=.=.=.=.=.=.=.=.=.=.;.;.;.;.;.;.;.;.......-.-.-.-.-.=.>.>.>.:.:.:.:.6.6.6.7.7.7.8.8.g.h.h.h.",
"V.V.V.V.V.V.V.N.N.N.N.m.h.h.g.g.7.7.7.7.3.2.2.2.:.:.:.:.:.:.:.;.;.;.;.;.;.;.;.;.=.=.=.=.=.=.=.=. . .=.=.=.=. . .=. . . .=.=. . .~ ~ =.-.-.-.-.-.} :.i.u.u.b.2XGXDXSXFXFXGXKXfX<XU.r.<.2.4.4.2.:.:.;.;.=.=.=. . .=.=. .} R R Q } U U U H H U Y R R Q =.2.8.x.n.^.>XtXMXGXGXFXmXbXaXaXwX<X#X$X$X|.{.{._.(.F.D.D.D.V.V.V.N.N.N.N.N.N.N.N.V.F._.|.$X&X>X<X<X<X<X>X&X$X$X|.{._.(.F.F.D.D.D.V.N.N.j.j.g.g.a.a.i.6.2.2.;.;.;.;.=.=.=. . . . .} } Q Q R Y Y Y Y Y H H H H F F B x x a a u u r r e e e 8 2 2 2 1 < : : : ; ; ; ; ; ; ; ; ; ; ; ; - - - - - - $ $ @ @ @ @ @ @ + + + + + + + + + + X X . . X X X X X X X X X X + + + + + + . . . . . . . . . . . . . . . . X X X X X X X X + + + + + + + + @ @ @ @ + + + + @ @ @ @ $ $ @ @ $ $ $ - - - - - * * - - - - ; ; - - - ; ; < < 1 < 1 2 8 r u a a a a x b b F H H Y Y R ' }  . . .=.=. .=.=.=.-.-.=.-.-.;.;.:.:.:.2.2.2.7.i.i.a.a.h.h.h.m.N.V.V.V.D.D.F.(._.{.|.|.$X$X&X&X>X>X<X<X>X>X&X|._.F.V.N.N.j.h.g.h.j.N.N.j.N.N.V.V.D.D.D.F.(._.{.{.|.$X&X<XrXbXFXGXGXMXdX<X>X$X{.(.D.Z.c.i.7.2.;.-.;.:.:.-.-.-.-.=.=.=.=.=.=.=.-.-.=.=.=.2.2.2.;.;.,.e.v.~.;XfXKXKXGXAXZXGXmX1X'.9.4.3.d.d.u.4.-. . . . .:.-.-..... . .! =.=.=.=.=.=.=.=.=.=.=.=.=.=.=.=.:.:.:.:.:.:.:.:.-.-.;.;.;.:.:.:.2.3.3.3.7.7.i.i.s.s.s.h.h.m.m.m.m.m.m.m.",
"D.D.V.V.V.V.V.V.V.V.V.N.N.N.j.k.a.i.i.7.3.3.2.2.:.:.:.:.:.:.:.:.:.:.;.;.;.;.;.;.=.=.=.=.=.=.=.=. .=.=.=.=.=. . .-.=.=.=.-.-.=. .;.;.;.=.=. .X.X.:.>.>.:.6.e.e.x.;XdXGXAXzXzXFXDXnX<XW.8.4.4.:.-.:.;.;.;.-.=.=.=.=.=. .} R R Q } ! } } ' Y Y U Y Y J G H R ;.a.k.h.(.>XbXFXAXAXZXbXdXaXwX<X&X&X$X X{.{._.(.F.F.D.D.D.V.V.V.N.N.N.j.j.j.N.V.F._.].@X#X>X<X<X<X>X>X&X&X$X|.{._.(.(.F.D.D.V.V.N.N.N.h.g.a.i.i.7.2.6.:.:.;.;.=.=.=.=. . . . .} } Q Q Y Y Y Y Y H H H H F F B x a p u p p u u r r r r 8 8 2 2 1 : : : ; ; ; ; ; ; ; - ; ; ; ; - - - - - - $ $ @ @ @ @ @ @ @ + + + + + + + + + X X . . X X X X X X X X + + + + + + + + . . . . . . . . . . . . . . X X + + + + + + + + @ @ @ @ @ @ @ @ @ @ @ @ + + + + @ @ @ @ $ $ @ @ $ - - - - - - - * * * - - - - - ; < , < 1 2 2 2 3 1 2 8 r u p a u a x B F H J Y Y Y ' ' ' } Q Q  . . . . . . .=.=.-.-.;.;.:.:.2.2.2.3.7.i.a.a.a.j.j.N.N.V.V.D.F.D.F.F.(._.{.|.|.&X&X>X>X<X<XwXwX#X#X@X].(.V.j.k.h.h.g.g.j.N.N.N.N.N.V.V.D.F.F.F._.`.{. X$X&X>X1XVXSXAXzXAXSXrX>X]./.F.M.m.s.y.1.1.;.! ~  .X.>. . . . . . . . . .=.=.-.-.-.-.=.=.;.:.2.2.6.v.}.-XDXGXAXzXxXzXDXVXoXn.8.a.g.y.2.6.4.:.-.| | ..;.4.=.=. .} }  .=.;.=.=.=.=.=. . . .=.=.=.=.;.;.;.;.2.2.2.2.2.2.2.2.2.2.2.2.3.3.3.3.a.a.a.s.g.g.h.h.j.j.j.j.j.j.N.N.s.s.h.h.",
"F.D.D.D.D.D.D.D.V.V.V.V.V.N.N.N.j.j.j.h.s.s.a.a.7.7.7.7.6.6.6.6.6.6.2.2.2.2.2.2.2.2.:.:.;.;.;.=.;.;.-.=.=.=. . .=.=.=.=.-.-.-.-.=.=.=. . . . . .=.;.;.:.2.4.4.4.6.e.oX3XCXKXFXZXAXFXDXuX~.b.a.f.9.2.=.;.,.6.-. .=.=.=... . .! ! R Y Y Y Y H J J F F F H H U Y Y y.i.m.).,XhXGXHXzXAXmXaX:X>X>X>X#X&X$X{._.(.^.S.D.D.V.N.N.N.N.N.m.N.N.N.h.N.V.G.(._.}.%X*X<X<X<X>X#X#X@X[.{._.).F.F.D.V.V.V.V.V.m.h.g.a.a.i.7.2.3.2.2.:.-.=. . . . . .} Q R R R R R R R Y Y Y Y Y Y H F F B b b c p u r r 9 8 8 2 1 , , , 1 , , , ; ; ; - - - - - - - - - - - - - - $ $ @ $ $ $ + + @ + + + + + + + + + + + + + X X X X X X X X X X X X X X X X + + + O O O + + O O O O O O O O + + + + + + + + + + @ @ @ @ + + @ @ @ @ @ @ @ @ + @ @ @ $ $ - - - - - - - - - - * * * - - - - - ; ; , , 1 1 2 8 r r r r r u u p F F H H U U U Y Y Y Y R ' ' ' '  . . . . .=.=.=.-.-.-.;.:.2.2.2.7.7.i.a.a.g.h.h.N.N.V.V.A.S.F.(.(.(._.{.|.$X>X>X>X>X;X:X:X>X&X&X|.{.).D.Z.h.h.j.h.h.j.N.N.V.V.V.S.F.F.F.F.(._.{.&X#X#X#X<XaXmXFXHXHXAXvXqX$X(.D.V.m.8.-.} R R R Y Y R R }  .=.=. .-.,.,.=.=.;.4. .....-.,.,.2.2.k.g.8.r.OXgXFXAXzXHXGXGXBX3X'.c.s.d.a.7.7.2.:.:.;.;.;.;.-.-.=.=.-. .=.=.=.=.=.=.;.=.=.=.=.=.=.;.=.=.-.=.-.;.;.;.=.=.;.;.:.:.2.2.6.6.7.7.i.a.a.i.j.h.h.g.a.a.a.a.N.N.N.N.N.N.V.V.B.B.N.N.",
"F.F.F.D.D.D.D.D.D.D.V.V.V.N.N.N.N.N.N.h.h.h.g.s.s.s.a.i.7.7.7.2.7.7.7.6.6.2.2.2.2.2.2.2.:.;.;.;.;.;.;.;.-.-.=.=.=.=.=.=.-.-.=.=.=.=.=.=. . . . .=.=.=.;.:.:.2.2.3.7.9.e.U.+XfXJXJXGXFXGXFXsX.Xb.2.3.7.5.&.%.2.6.-.-.....<.X.} T R R Y Y Y H H H Z Z F F H H H U =.;.2.p.n.$XrXbXGXGXZXmXbXBXtX:X:X<X>X$X|.|. X}._.(.(.F.F.D.D.V.N.N.N.N.j.N.N.V.D.F.(.`. X&X>X<X>X>X>X>X#X|.{._.(.F.F.F.D.V.V.m.V.m.h.g.g.a.i.7.7.3.2.:.;.-.=. . . . .} } R R R R R R Y Y J J J H H F F B B B x z p u r e e 8 8 2 2 1 , , , , ; ; ; ; ; - - - - - - - - - - - - - - $ $ @ $ $ @ + + @ + + + + + + + + + + + + + X X X X X X X X X X X X X X X X + + + + O O + + O O O O O O O O + + + + + + + + + + + + + + + + @ @ @ @ @ @ @ @ + @ @ @ $ $ - - - - - - - - - - - - - - - - - - ; ; ; , < 1 1 1 8 8 e e r u p c F F H H H Y Y Y Y Y Y R R ' ' '  . . . .=.=.=.-.-.-.;.;.2.2.2.2.7.i.i.a.s.g.h.N.V.V.D.D.F.(._.`.{.{.{.|.$X&X>X<X<X<X:X:X>X&X|.{.(.F.A.m.h.j.j.N.j.N.N.N.N.V.V.V.S.F.F.).(._.|.|.$X&X<XrXbXSXGXGXSXmXdXrX#X/.A.m.a.7.:. .Q R R R Q }  .=.;.:.2.2.3.3.2.:.:.;.:.:.2.9.3.y.y.i.i.i.6.W.1XmXFXGXGXKXKXDXaX;X[.S.c.a.i.7.7.2.2.:.;.;.;.;.;.;.-.-.=.=.-.-.-.=.=.=.=.=.-.=.=.=.=.=.-.-.-.-.-.-.;.;.;.;.:.:.:.2.2.2.2.2.2.2.7.7.i.a.a.a.g.g.g.g.g.s.s.s.j.j.j.j.N.N.N.N.V.V.M.m.",
"F.F.F.F.F.F.D.D.D.D.D.V.V.V.V.V.N.N.N.N.N.N.N.j.h.h.g.s.s.a.i.i.i.i.i.i.i.7.7.i.3.3.2.2.2.2.:.:.2.:.:.:.:.;.:.:.=.=.=.=.-.=.=.=.=.=.=.=.=. . . . .=.=.=.-.;.;.;.4.1.;.=.,.e.Q.%XVXMXGXAXAXAXSXmX*X_.8.1.5.z.y.1.6.:.=. . .} } ' ' ' R Y Y H H F F Z F F F F H H Y Q =.1.3.c._.%XpXmXGXGXFXSXbXaXaXaXrXwX>X,X*X$X|.{.{._._.(.F.F.V.V.V.N.N.j.N.N.m.m.m.M.S._.|.$X>X>X<X:X:X;X#X#X{.{._._.).F.D.C.V.V.N.N.j.g.s.a.i.7.7.2.:.;.-.=.=. . . .} } R R R R Y Y H H F F F B B B N N x x p u r e e e e 8 e 2 1 1 , , ; ; ; ; ; ; - - - - - - - - - - - - - - $ @ @ @ @ @ + + + + + + + + + + + + + + + + X X X X X X X X . . . . . . . . X X X X . . . X . . . . . . . . + + + + + + + + + + + + + + + + @ @ + + + + + + + + @ @ $ $ - - - - - - - - ; ; - - - - - - - - - ; ; ; ; , 1 1 2 2 e e y i c c F F F H H U Y Y Y Y Y R R } } }  . . .=.=.=.;.;.-.;.;.:.2.2.7.7.i.i.i.a.s.h.N.N.N.V.D.D.F.(._.{. X X|.$X&X>X<X<X<X<X>X>X$X{.(.F.M.m.h.g.g.j.j.N.N.N.V.V.V.D.D.F.F.).(._.{.|.$X&X>XwXdXDXGXGXFXAXsXeX>X|.(.M.p.i.;.=. .Q Q Q !  .;.;.2.2.2.7.7.7.d.4.1.2.:.:.,.,.4.4.4.&.4.a.A.'.fXnXDXFXFXFXFXSXuX*XW.e.7.7.i.a.2.2.2.2.:.:.;.;.-.-.;.;.-.-.-.-.-.-.-.-.;.;.;.;.-.-.-.-.-.-.-.-.-.-.;.;.;.:.:.2.2.2.2.2.2.2.2.2.7.i.i.s.s.s.g.h.i.a.s.g.g.h.h.h.j.j.j.N.N.N.N.N.D.D.F.F.",
"(.(.(.(.(.(.F.F.F.D.D.D.D.V.V.V.V.N.N.N.N.N.N.N.j.j.j.j.j.h.k.k.a.a.a.a.a.a.a.a.i.i.i.7.7.2.2.2.2.2.2.2.:.:.:.:.;.;.;.;.;.;.;.;.;.;.=.=.=.=.-.-. . . .=.=.-.-.-.%.>.1.4.2.2.2.6.r.~.rXSXFXAXAXFXDXfX1X!.e.6.3.y.1.2.4.;.%.!  .X.} } ' ' Y J H F F F F F F F F H F Y X.>.;.3.p.Z.Q.#XfXSXFXZXFXSXcXbXpXiXrXeX>X#X$X|.|.{._._.(.(.D.D.D.C.N.N.N.N.j.j.g.s.m.A.F.(.$X&X>X<XeXrXrXrX1X>X#X[.].(.F.F.D.D.V.N.N.N.g.s.a.i.i.7.2.:.;.=.=.=.=. .} } } R R Y Y Y H H F F B B x x x a a a u r e e e e e 8 8 2 1 1 , , , ; ; ; ; ; - - - - - - - - - - - - - - @ @ @ @ @ @ + + + + + + + + + + + + + + + + X X X X X X X X . . . . . . . . X X X X . . . . . . . . . . . . O O O O O O O O + + + + + + + + @ + + + + + + + + + @ @ $ $ - - - - - - - - ; - - - - - - - - - - - ; ; ; , < < 2 2 2 e r s p c F F F F H H H H Y Y Y R Q } } }  . .=.=.=.;.;.;.;.;.:.2.2.7.7.7.i.i.a.s.h.m.N.V.V.V.D.F.(.(._.{.%X$X$X#X>X<X<X<X>X#X$X|.{.(.F.V.j.j.k.k.k.j.N.N.V.V.V.D.D.F.F.(.(._.{.|.$X#X:XwXnXmXGXGXGXSXdXrX-X}.(.D.m.d.2.>.X. .} } }  .X.>.4.4.4.2.2.2.2.2.6.2.4.1.4.4.2.2.3.3.i.p.n.[.tXBXxXzXAXFXFXbX<X@XA.v.p.y.u.z.d.i.:.:.:.:.:.:.:.2.-.-.;.;.-.-.-.-.-.-.;.;.;.:.:.:.-.-.-.-.-.-.-.-.;.;.;.:.:.2.2.2.2.2.2.2.3.3.3.7.s.s.h.h.g.h.g.g.i.a.s.s.g.h.h.h.h.h.j.N.V.V.V.V.D.D.F.F.",
"{._._._._._.(._.F.F.F.F.D.D.D.D.V.V.V.V.V.V.V.V.N.N.N.j.j.j.j.j.j.j.h.h.h.h.h.h.a.a.a.a.i.i.7.7.3.3.2.2.2.2.2.2.:.:.:.:.:.:.;.;.;.;.;.;.-.-.-.-. . . . . . . ..... . .=.>.0.4.4.1.7.r.~.eXnXGXFXzXAXAXvX8X~.r.7.%.1.u.z.z.4.:.-... .} ' R Y J G F F F F B B B F B F J Y R Q  ...k.V./.:XbXFXGXGXmXmXvXcXpXdXrXeX>X&X$X|.{._._.(.(.F.F.D.V.V.N.N.N.j.j.k.j.N.C.G.{. X$X,XeXtXdXdXaXrXwX<X#X|._.(.F.F.D.V.N.N.h.h.a.a.a.7.2.2.:.;.-.=.=. . .} } } R R Y Y Y H H F B B b x x a a u u r e 8 5 e 8 8 2 1 1 1 1 1 < , ; ; ; - - - - - - - - - - - - - - - $ @ @ @ + + @ @ @ + + + + + + + + + + + + + X X X X X X X X . . . . . . . . . . . . . . . . . . . . . . . . . . . . . . . . + + + + + + + + + + + + + + + + + + @ @ $ $ - - - - ; ; ; - - - - - - - - - - - - - ; ; , < 1 1 2 2 2 8 e u p p b b b F F H H H Y Y R R Q }  . . .=.=.=.;.;.;.;.:.2.2.2.7.7.i.i.a.a.a.g.m.N.V.V.D.F.F.(.(._.{.|.$X#X#X;X:X<X<X>X$X|.{.(.F.V.N.j.k.k.k.k.j.N.N.V.D.D.D.F.F.(.(._.{.|.$X#X;XwXaXbXGXGXFXFXbXrX*X}.r.e.8.3.4.>.X.Y Y Y R Q } X.X.>.>.>.>.>.;.;.;.;.<.,.6.4.4.&.4.u.,.e.Q.,XsXSXAXzXAXFXDXhX,XQ.b.8.i.i.d.z.z.5.2.;.-.:.:.:.:.:.1.1.-.-.-.-.-.-.-.-.;.;.;.:.2.2.2.2.;.;.;.;.;.;.;.;.;.;.;.:.2.2.2.2.2.2.3.7.i.i.a.a.h.h.h.h.h.h.h.g.s.c.m.m.m.h.h.j.m.m.m.V.V.V.V.V.V.V.D.D.",
" X{.{.{._._._._.(.(.(.(.(.F.F.F.D.D.D.V.V.V.V.V.V.V.N.N.N.N.j.j.N.N.j.j.j.j.j.j.g.g.s.s.a.a.a.a.7.7.3.3.3.2.2.2.2.2.2.2.2.2.2.2.:.:.;.;.;.-.-.-.=.=.=.=.-... . ...| } Q =.>.:.:.s.y.&.&.0.n.<XbXHXzXzXGXGXJX3X.Xn.e.2.1.y.d.y.2.;.=.=. .} R Y Y F F b b b x b x F b b b B F G J *.u.p.n.OX0XbXKXKXKXDXvXcXbXdXdXtXeX<X&X$X|.|.{._.(.S.A.D.V.V.N.h.h.h.h.h.m.m.N.F.F.(.{.$X>XwXrXdXdXnXfXaX<X$X{.(.).F.D.V.V.N.m.g.g.a.a.7.3.2.2.;.;.=.=. . .} } Q Q R R Y Y Y H H F F b b x x a p u 9 8 8 8 8 8 2 1 1 1 1 < < < ; ; - - - - - - - - - - * * - - * - $ @ @ @ + + @ @ @ + + + + + + + + + + + + + X X X X X X X X . . . . . . . . . . . . . . . . . . . . . . . . . . . . . . . . + + + + + + + + + + + + + + + + + + @ @ $ $ - - - - ; ; - - - - - - - - - - ; ; ; ; < 1 1 2 8 e r r r r r u u p p x x b F K H J Y Y R R Q  . . .=.=.=.;.;.;.:.:.2.2.2.7.7.i.a.a.a.s.g.m.N.V.V.D.F.F.(.(._.{.|.|.&X>X>X<X<X<X>X&X|._.F.V.N.j.j.j.j.j.j.N.V.D.D.F.F.(.(._.{.|.|.$X&X>X<XrXdXbXDXGXGXSXcX0X#X/.v.s.| } Q T T E H F b F H R Q Q  .~ ! ~ X. .=.-.;.;.| <.6.3.3.3.8.x.~.#XgXDXGXHXAXxXGXdX~.e.5.4.3.p.i.i.3.2.2.:.:.,.;.;.;.;.;.=.=.=.-.-.-.-.-.-.-.-.:.:.:.:.2.2.2.3.:.:.2.2.2.:.:.:.;.;.2.2.2.2.3.7.3.i.i.i.s.s.h.h.h.j.m.N.N.V.V.V.C.C.C.V.V.V.V.V.D.D.V.V.V.D.D.D.D.D.D.D.",
"|.|.|.{.{.{.{.{._._._._.(.(.(.(.F.F.D.D.D.D.D.V.D.V.V.V.N.N.N.N.N.N.N.N.N.N.N.N.j.j.j.h.g.g.s.s.i.i.i.i.7.7.3.3.7.7.3.2.2.2.2.2.2.:.:.;.;.;.-.-.;.;.-.-.-.-.-.-... .=.=.=.=.=. .%.>.9.7.2.:.8.b.=XtXVXGXAXZXDXLXsX;XU.e.7.i.i.7.2.:.;.=. .} ' R F B b b x x x x n b x a a B F K T ~ >.2.,.e.~.3XnXJXKXGXZXcXbXdXbXdXsXrXeX<X>X#X|.{./.S.F.F.D.V.m.m.h.g.g.h.h.h.N.N.m.A.^.[.#X:XaXdXnXnXfXeX&X$X}./.(.F.D.D.V.N.j.h.g.s.a.7.3.2.;.;.-.=. . .} } Q Q Q R R Y Y Y U U J H F F b b z p u r e e 8 8 5 2 1 1 1 < < , ; ; - - - - - - - - - - * * * - * @ @ @ @ @ + + @ @ + + + + + + + + + + + + + + X X X X X X X X . . . . . . . . . . . . . . . . . . . . o . . . X . . X X X X X + + + + + + + + @ @ @ @ @ @ @ @ @ @ @ @ $ $ - - - - - ; - - - - ; ; ; ; , , , , 2 2 2 e r r r u p p u u i i a a a x x b B F H H Y Y R Q } X. .=.=.=.;.;.;.:.:.2.2.2.3.7.i.a.d.a.h.h.h.N.N.V.D.D.F.F.(.(._.{.|.$X>X>X<XwX<X>X$X|.(.F.V.N.j.j.j.j.N.V.V.D.F.(.(.(.`.{.{. X$X&X>X>X<XrXdXmXSXFXFXGXnXrX#X].A.p.2.%.Q R H Z b F H H B F J R R Q Q Q  . . .-.:.2.6.7.2.3.i.p.v.W.@X;XCXKXGXGXGXDXdXeX).v.8.p.c.h.z.z.3.3.2.2.2.2.2.3.2.2.2.;.;.=.=.=.=.=.-.-.-.-.;.;.:.2.2.2.2.3.3.3.2.2.3.7.7.3.2.2.2.2.2.3.3.7.i.i.d.d.p.s.h.g.h.h.N.N.N.V.V.V.V.V.V.V.V.V.V.D.F.F.(.F.F.F.F.F.(.(.`.`._._.",
"$X|.|.{.{.{.{.{.{.{._._._._._.(.F.F.F.F.D.D.D.D.M.M.V.V.V.V.V.V.N.N.N.N.N.N.N.N.N.N.j.j.h.h.g.g.a.a.a.a.i.i.7.7.7.7.7.3.2.2.2.2.2.2.:.;.;.;.-.-.:.:.;.;.-.-.-.-.=.;.>.=.=.=.-.,...| } =.2.4.4.%.a.v.].0XMXAXAXxXGXGXhX*XS.p.4.5.3.2.:.;. .} } ' F F B B x x x x s s s a a v Z A k N U %.&.4.6.e.+XiXDXGXGXSXbXdXlXvXvXbXnXsXrXwX&X$X{._.(.F.D.D.D.M.M.m.m.m.m.N.k.j.j.N.F.{.*X1XwX0X8X8X8X:X&X%X.X`.(.F.F.D.V.V.N.N.h.g.s.i.7.7.;.;.-.=. . . .} Q Q Q Q R R R Y Y Y Y U J J H H c p u r r r 9 9 e 2 1 1 1 1 , ; ; ; - - - - - - - - - - * * - - @ @ @ @ @ @ + + + + + + + + + + + + + + + + + + X X X X X X X X . . . . . . . . . . . . . . . . . . . . . . . . X X X X X X X X + + + + + + + + @ @ @ @ @ @ @ @ @ @ @ @ $ $ - - - - - - - - - - , , , < < < < < e e r r u a a a x c a a a a f f N N B b b B Z F Y Y R Q Q X.=.=.=.=.;.;.;.:.2.2.2.2.3.7.i.a.a.a.j.j.j.N.V.V.D.D.F.(._._.{.|.$X*X>X<X<XwX:X#X{./.D.M.N.j.j.N.N.V.D.F.F.(._._._._._.{.{.|.&X>X<X<XaXdXMXDXFXAXZXZX>X$X_.G.B.d.6.-.! R H B b F Y E G J ` } } } R R -.-.:.6.6.7.i.i.l.f.h.V.{.rXSXGXGXAXAXzXvX<X(.j.f.k.l.B.h.7.6.6.4.y.p.p.p.i.3.4.3.3.2.2.:.;.-.-.=.=.-.-.-.-.;.;.2.2.2.2.3.3.3.3.7.7.7.i.i.7.7.3.2.2.3.7.7.i.i.i.d.d.s.s.s.g.g.g.h.h.m.m.m.m.m.m.N.N.N.V.V.D.F.)._.(.(.(._.`.}. X$X|.|.|.",
"rXwXwX:X;X#X#X$X@X[.[.{._.(.(.(.^.^.(.(.(.F.F.D.D.D.V.V.V.V.V.V.V.V.V.V.V.V.V.V.N.N.N.N.h.g.s.s.a.d.a.i.i.7.7.7.7.7.7.7.7.7.7.7.7.6.2.2.2.:.:.:.-.-.-.-.-.=.=.=.=.=.=.=.=.=.=.=.-.-.-.-.-.-.;.;.>.>.2.8.n.@XhXLXFXFXAXAXAX0X!.7.g.y.1.;.:.X.X.W E Y J G F n m M c c x a a a p a a c C F U  .6.d.N._.1XMXGXGXAXzXbXmXnXfXsXiXiX8X=X@X[.{._.(.(.F.D.V.V.N.N.N.N.N.m.N.D.).{.$X>X<XwXwXwX0XwX>X%X}.{._.^.S.F.D.D.D.N.N.N.h.g.s.i.8.7.2.:.-.=. .} } } Q R R Y H H F F B B x x a i i i i y r e 5 2 2 1 1 1 1 < < < : ; ; ; ; ; ; , ; ; ; ; - - - - - $ $ $ $ @ @ @ @ @ @ @ + + + + + + + + + + + + + X X X X X X X X . . . . . . . . . . . . . . . . . . . . . . . . X X + + X X X X + + + + + + + + @ + @ @ @ @ @ @ $ $ $ @ $ $ - - - - ; ; ; ; ; , : < < < 2 2 2 2 e r r r r r i i a a a x x B B B A F H H H H J J R R R Q }  . . .=.;.;.:.2.2.3.3.2.6.7.i.a.a.h.j.j.j.N.V.V.D.F.F.(.(./.[.&X1X<X<X1X>X|.`.).G.G.V.N.N.N.N.N.V.V.D.V.D.D.F.F.S.^./.~.].{.}.|.&X0XiXFXFXFXHXMXsX>X$X{.(.D.M.p.7.6.:.} } R R R R R R ^ ~ ......-.=.&.X.>.9.8.i.a.g.k.j.(.:XvXzXzXAXSXKXVXeX[.A.h.g.g.g.s.s.a.i.7.7.7.7.7.3.2.2.2.2.2.2.2.2.2.:.;.;.>.=.;.;.:.:.:.:.:.:.:.;.:.2.7.7.7.a.a.a.a.a.s.s.p.N.j.h.h.g.s.a.a.j.j.N.N.N.N.N.m.B.B.C.C.V.D.F.D.F.F.).).(.(.(.F././.{.{.|.|.|.|.@X@X@X@X",
"bXbXdXsXrXeX<X<X>X#X#X|.{._._.(._.(.(.(.F.F.F.F.F.D.D.D.D.D.D.D.D.D.D.D.D.V.V.V.N.N.N.m.h.s.s.s.s.s.a.a.a.i.i.i.7.7.7.7.7.7.7.7.7.7.6.2.2.:.:.:.:.:.:.-.;.;.-.=.=.=.=.=.=.=.=.=.-.-.-.-.-.-.-.-.:.2.4.2.6.e.U.~.CXVXSXFXFXGXVXhXU.r.x.d.4.%. ...R R R E J F B B x x x a a a a a p x x b A T  .;.p.A..X>XaXmXDXGXFXFXvXcXbXnXnXsXrXwX>X$X].^.).).F.D.V.N.N.N.N.N.N.N.N.D.(.{.$X&X<XwXwXwXwX>X$X|.{.{._.(.F.F.D.V.V.V.N.N.h.s.s.p.7.7.6.:.;.-. .} Q Q R R Y H H F b b x x a u u r r r r e 2 2 2 1 1 1 1 < < < : : ; ; ; ; ; ; ; ; ; ; ; - - - - - $ $ $ $ @ @ @ @ @ @ @ + + + + + + + + + + + + + X X X X X X X X . . . . . . . . . . . . . . . . . . . . . . . . X + + + + X X X + + + + + + + + @ @ @ @ @ @ @ @ @ $ $ @ $ $ - - - - ; ; ; ; ; ; , < < 1 1 2 2 2 e r r r r u u u i a a a x x B B A F F H H H J J R R R Q }  . . .=.=.;.:.2.2.2.3.3.7.i.a.a.s.h.N.N.N.V.V.D.F.(._.{.|.|.#X>X<X>X&X[.].^.A.D.V.N.N.N.N.N.N.N.V.D.D.F.F.D.F.(._.{.{. X X%X&X<XaXmXFXGXFXSXbXrX>X{.(.D.M.p.7.:.=. .! Q R R R R R R R ' } } X.X.=.=.-.7.3.y.u.f.Z.n.n.tXhXKXGXAXSXJXLX#X[.W.v.s.a.i.i.a.a.a.i.7.7.6.6.2.2.2.2.2.2.2.2.2.2.:.:.:.:.:.:.;.;.;.:.:.:.-.-.,.-.:.:.2.3.3.3.s.s.s.h.h.m.m.m.N.N.N.j.h.g.g.g.h.j.N.N.N.N.m.m.N.N.V.V.M.A.A.F.^.(.(._._._._._.{.{.{.{.|.|.|.|.*X*X*X*X",
"GXGXSXDXMXbXfXsXsXsXeX<X>X$X|. X X X{.{.`._._.(.).(.F.F.F.F.F.F.F.F.F.D.D.D.D.D.V.V.N.N.m.m.m.s.h.h.s.s.a.a.a.a.i.i.i.7.i.i.i.i.7.7.7.6.6.2.:.:.:.;.;.;.:.;.;.;.-.-.-.-.-.-.-.-.=.=.-.-.=.=.=.=.;.;.1.1.%.;.:.,.<.!.3XCXGXFXAXAXLX8XU.e.i.u.1.! =. . .' Y G G G x x x x a a a a p p x x x b H Y  .-.9.e.W.@XeXhXFXFXAXZXSXMXBXhXmXbXsX<X@X].'.'.(.(.F.D.V.V.V.N.N.N.N.N.M.F._.{.&X>XeXeX<X>X&X&X{.{.{.`._.).D.D.D.D.V.N.N.h.h.s.a.i.7.6.:.-.=. .Q Q R R Y H H F b b x x p u u r r 8 8 2 2 2 1 1 < < < < , ; ; ; ; ; ; ; ; ; ; ; ; ; - - - - - - $ $ $ @ @ @ @ @ @ @ @ + + + + + + + + + + + + + X X X X X X X X . . . . . . . . . . . . . . . . . . . . . . . . X X + + + + X X + + + + + + + + + @ @ @ @ @ @ @ @ @ @ @ @ $ - - - - - ; ; ; ; ; , 1 1 1 2 2 2 2 8 8 9 r r r u u u i i a a x b x Z F F F H H J J R R R Q }  . . .=.=.;.;.2.2.2.3.i.i.d.s.s.h.N.N.V.V.D.F.(._.{. X$X&X>X<XwX>X#X[.^.S.M.N.N.N.N.N.V.V.V.V.V.D.F.F.(.(.(._.{.{. X|. X*X<XaXmXAXGXGXDXMXaX<X|._.F.V.7.2.=.! ~ T U H Y U U U U Y Y R ] ] Q ~ ~ >.2.7.y.g.k.k.c.!.0XJXAXAXFXGXLXhX$Xn.m.g.g.g.u.3.6.,.3.3.3.2.2.2.:.:.2.2.2.2.:.:.:.:.:.:.:.:.:.:.:.:.:.:.:.;.>. . . .}  . .;.2.i.d.p.h.h.h.m.m.N.N.N.N.N.N.N.N.N.m.m.N.N.V.V.V.D.D.D.D.D.D.F.F.F.(._./././.].{.{.{.{.-X-X%X|.|.%X%X*X$X&X&X&X",
"AXAXAXAXSXSXmXbXbXdXaXrX<X;X#X@X$X|.|.{.{.{.{.{.{._._._.(.(.).(.(.(.F.F.F.F.F.F.D.D.D.V.V.V.V.M.N.m.m.h.h.g.g.g.a.a.a.i.i.i.i.i.7.7.7.7.2.2.2.:.:.:.:.:.:.;.;.;.;.;.;.;.;.;.;.;.=.=.=.-.=.=.=.=.=.=.;.4.4.4.:.2.9.:.,.U.<XMXFXxXAXGXGXBX@Xe.,.>.%.! Q } ' ` J K B B x x x a a a p x a a a x x b F U ~ %.3.x.S.{.rXbXGXGXAXZXmXbXmXmXbXsXtX1X*X[.{._.(.F.D.D.D.V.V.N.N.j.N.V.D.F.].|.&X>X<X<X>X>X|.|.{.{.`._.).F.D.D.D.V.N.N.N.h.a.a.i.7.2.;.=. .} Q Q R Y H H H F B B x a a u u r r e e 5 2 2 2 , , , ; ; ; ; ; ; ; ; ; - ; ; ; - - - - - - - - $ $ @ @ @ @ @ @ @ @ @ + + + + + + + + + + + + + X X X X X X X X . . . . . . . . . . . . . . . . . . . . . . . . X X + + + + X X + + + + + + + + + + @ @ @ @ @ @ @ @ @ @ @ @ - - - - - - ; ; ; ; , , 1 1 2 2 2 2 8 8 8 8 r r r r r u u i a a x x b b F F H H H J R R R Q }  . . .=.=.-.:.2.2.3.3.a.a.h.g.h.N.N.V.D.D.F.(._.{.|.%X>X<XwXrXwX>X$X].G.G.V.N.N.N.N.N.D.V.D.D.G.).(._.].{. X%X$X$X$X$X>XwXbXFXGXAXAXSXwX<X$X_.D.m.d.7.! ~ T E U H F F H H H U U Y Y R } }  .=.=.;.4.5.u.a.n.$XhXGXGXAXAXFXDXrX[.n.c.m.g.k.f.f.u.7.6.,.2.2.2.:.:.;.;.;.:.:.:.:.;.;.;.:.-.-.-.-.-.-.-.;.3.3.2.;. . .R R Q Q ! =.3.d.d.h.h.h.h.N.N.N.N.N.V.V.N.N.N.N.V.V.V.V.D.D.F.G.F.F.F.(.(._._._._.{._._.{.{.{.{.{.{.|.[.[.].].[.@X@X;X;X:X<X",
"AXAXAXAXAXAXSXSXmXmXbXdXsXrXrX0X>X>X&X&X$X$X|.|.|.|.|.{.{.`.`._.(.(.(.(.(.F.F.F.F.F.D.D.D.D.D.V.V.V.V.N.N.N.m.m.s.s.s.s.a.a.a.i.i.7.7.7.3.3.2.2.2.2.2.2.:.:.;.;.;.;.;.;.;.;.;.;.-.-.-.-.-.-.-.-...>.>.-.=.=.-.-.%.4.d.8.,.q.=XkXGXFXAXzXHXBX=Xr.<...Q R W W E A F F B B x x a a x x a a i a a a N F E %.&.3.c.v.^.&XsXMXFXAXAXZXlX9X9XdXfXsXrX<X|.{._.(.F.D.D.D.V.V.N.N.j.N.N.V.S.^.{.$X>X<X<X<X&X$X$X|.{._._.(.F.D.D.V.N.N.N.N.g.s.a.i.3.2.;.=. .} Q R Y U H H F F B N x a i u r e e 8 2 2 2 2 ; ; , ; ; ; ; ; - - - - - - - - - - - - - - - - @ @ @ @ @ @ @ @ @ @ @ + + + + + + + + + + + + + X X X X X X X X . . . . . . . . . . . . . . . . . . . . . . . . X X X + + + + X + + + + + + + + + @ @ @ @ @ @ @ + + @ @ @ @ * * - - - - - ; ; ; , , 1 < 1 2 2 2 2 2 8 8 e r r r r r r u a a a a b b B F F H H Y R R R Q }  . . .=.-.;.:.2.7.i.i.g.h.h.m.N.V.V.D.F.(.(._.{.|.&X>X<XwXwXwX<X&X{.'.C.C.N.j.j.j.N.N.D.D.D.F.)._.{.{.[.$X*X>X;X;X:XeXdXmXAXGXGXSXaXwX|._.F.V.s.2.} Y Y U U H F G G V H H H U U Y R R ~ >.>.:.2.2.3.3.n.=XnXAXxXzXFXKXCXwXU.e.p.k.d.y.6.7.7.3.7.3.3.9.:.:.:.;.;.;.;.;.:.:.:.:.:.:.:.:.-.-.-.;.:.:.2.2.a.i.7.2.;.=. .Q >.>.:.2.7.i.a.a.N.N.N.N.N.V.V.V.V.V.V.V.V.V.V.D.M.V.D.F.F.F.F.F.^.(._._._._._._.`._._._._._.{.{.@X@X@X#X;X;X:X:XpXdXbXbX",
"DXGXFXFXFXFXFXSXGXSXmXmXMXnXfXfXtXtXwX<X>X>X#X&X@X@X[.[.{.{._._._._._._.(.(.(.(.F.F.F.F.F.D.D.D.D.D.D.V.V.V.V.N.m.m.m.h.h.g.a.a.a.a.a.i.i.i.7.3.3.3.3.2.2.:.:.;.;.;.;.;.;.;.;.;.-.-.-.-.-.-.-.-.>.>.-.-.-...-.-.=.%.%.&.5.d.7.:.`.3XVXzXxXzXFXKX0XY.+.E ^ E R ] Y H H F B b x x x z p p p a a a a x K T ! ;.8.c.h.M./.>XbXGXGXAXDXvX9XpXiXaXrXwX$X[.].^.F.F.F.F.D.V.V.N.N.j.j.h.V.D.S.{.*X1XeXwXeX<X&X$X|.|.{._.(.F.D.D.V.N.N.N.j.j.g.a.i.3.2.2. . .} R R Y H H F F B x a a u u 8 8 8 2 1 1 < < ; ; ; ; ; ; - - - - - - - - - - - - $ $ - - @ @ @ @ @ @ @ @ @ @ @ @ @ + + + + + + + + + + + + + X X X X X X X X . . . . . . . . . . . . . . . . . . . . . . . . X X + + + + + + + + + + + + + + + + @ @ @ @ @ @ + + @ @ @ @ * * $ - - - - - ; ; ; ; , , 1 1 1 1 1 1 2 2 2 8 e e e r r r u u p a x x B B F H H Y R R Q Q }  . . .-.;.:.2.7.a.s.s.h.N.N.V.V.D.D.F.(._.{.|.$X#X>X<XwXwX<X>X$X{.).D.N.N.j.j.j.N.V.V.D.D.F.F.(._.{.|.#X&X<X:X:XqXdXMXGXFXAXSXbXtX,X%X).G.C.d.4.} F N H F F F F G G G J J U Y Y R Q Q =.=.! ! ,.r.].&XKXFXxX7XzXVX3XXXe.b.Z.d.y.&.1.4.<.<.,.-.;.:.2.4.:.:.:.:.;.;.;.;.2.2.2.2.2.2.2.2.2.2.6.7.7.7.i.i.a.a.d.i.i.7.7.6.9.6.7.7.p.s.s.s.V.V.V.V.V.V.D.D.D.D.D.D.D.D.D.F.A.A.A.F.F.F.F.S.(._._.{.{._._._._._._.{.{.|.|.$XwXrXsXfXnXMXMXMXFXFXGXGX",
"nXMXSXFXFXFXFXGXSXvXvXcXbXbXpXiXqXqXqX0X:X:X;X;X>X>X#X$X|.{.{.{.{.{.{._._._._.(.(.(.(.(.F.F.F.F.F.F.F.D.D.V.V.V.V.V.V.N.m.m.h.h.h.g.g.s.a.a.a.a.i.i.i.7.2.2.:.:.:.:.:.:.:.:.:.:.;.;.;.;.;.;.;.;.:.;.;.;.:.:.:.:.6.2.>.>.>.1.1.4.;.9.!.3XBXKXFXlXGXMX+XU.q.o...-.R R Y H F F B B b b x p a a a x p a x B F R =.0.3.p.v.^.&XsXMXSXGXGXSXbXaXwX<X:X&X$X|._._.(.F.F.S.F.D.V.N.N.N.m.N.N.V.F.{.$X>X<XeXwX:X>X#X&X$X|._._.(.F.D.V.N.N.N.j.h.s.a.i.3.2.=. . .} R Y U H F F B x a u u r 8 8 2 2 1 , ; ; ; ; - - - - - - - - - - * - - - - $ $ $ - $ @ @ @ @ @ @ @ @ @ @ @ @ @ + + + + + + + + + + + + + X X X X X X X X . . . . . . . . . . . . . . . . . . . . . . . . + + + + + + + + + + + + + + + + + + + + + @ @ @ + + @ @ @ @ @ * $ $ - - - - - - - - ; ; ; , < < ; : : < < 2 2 2 8 8 r r r u u u x x N B F H H Y R R Q Q  . . .=.;.:.2.7.a.g.j.N.N.V.V.D.F.F.(.(._.{.|.&X&X>XwXwXwX<X&X X).D.V.V.m.N.N.N.N.V.D.D.D.F.F.(._.{.|.$X>X>X<XrXiXmXFXGXGXGXmXiXwX&X X`.H.b.9.-.} J B N F B B F F H H H U Y Y R Q } } } =.-.<.q.Y.+XmXGXZXFXKXLXuXQ.b.3.d.3.1.1.d.d.9.2.,.,.:.-.-.=.=.;.:.:.:.:.:.:.:.:.2.2.2.2.7.7.7.7.7.7.i.a.d.a.h.g.h.h.j.h.h.h.h.h.s.s.s.s.m.V.V.V.V.V.D.D.D.D.D.D.D.F.D.F.F.F.F.(.F.(.(.(.(.(._._._._.`._._.(._._.{.{.|.$X>X:XwXrXdXdXbXmXSXFXAXAXFXFXFXFX",
"wXrXdXmXSXFXFXGXGXDXSXSXDXSXmXbXdXdXdXfXfXsXsXsXtXtX1X,X&X$X|.|.{.{.{.{._._._._._._.(.(.(.(.(.).).F.F.F.D.D.D.D.D.D.V.V.N.N.m.m.j.h.h.h.g.g.s.s.s.d.i.i.7.2.:.:.:.:.:.:.:.:.:.:.:.:.:.:.:.:.:.:.3.3.3.2.2.2.4.1.1.:.-.....-.:.6...,.3.3.v.@XNXKXzXGXGXGXdX~.9.&.Q R R U H F F n F n b c c x x B p a f f N B U ~  .9.H.G.F.|.wXnXZXFXGXMXfXeX1X3X>X&X$X|.{.`.`.(.^.S.D.V.V.N.N.N.k.N.V.D.^.].#X>X0X0XwX<X<X,X>X&X X}._.F.D.V.N.N.j.j.j.g.a.3.3.2.>.-. .} R Y Y H F F B x a a u u e 8 8 1 1 < ; ; ; - - - - - - - - - - - - - - - - $ $ $ - @ @ @ @ @ @ @ @ @ @ @ @ @ @ + + + + + + + + + + + + + X X X X X X X X . . . . . . . . . . . . . . . . . . . . . . . . + + + + + + + + + + + + + + + + + + + + + + @ @ + + @ @ @ @ @ @ $ $ $ - - - - - - - - ; ; ; : : ; ; ; ; : : < < 8 8 8 r r u u u a x N B F H H Y R R Q Q  . . .=.:.2.2.i.s.h.N.N.V.V.D.F.F.(.(.`.{.|.%X,X<XwXwXrXwX>X[.'.C.N.N.N.m.m.N.V.V.V.D.F.F.F.)._.{.|.$X&X>X<XwXdXMXFXFXAXbXdXrX<X&X X^.n.<...' H Z B B F B B B F K J U U Y Y R R }  . . .~ <.~.sXGXGXAXAXGXnX#XA.g.a.i.7.1.2.2.6.:.;.;.:.&.&.;.;.-.-.-.:.:.:.:.:.:.:.:.2.3.7.7.7.7.7.7.7.7.i.i.a.a.h.j.j.j.j.j.N.N.N.N.N.V.V.V.V.V.V.V.V.V.D.D.D.D.D.D.D.F.F.F.F.F.(.(.(.(.(.(.(._._._.`._.(.(.S.S.S.F.(.|.$X&X<XrXdXbXmXmXmXSXAXAXAXAXAXGXGXFXFX",
"#X+X+X8X8XqXsXhXmXSXSXFXFXAXAXAXDXSXSXGXDXZXvXvXGXSXSXbXdXaXrXwX:X;XOX@X[.{.`.`._./.^.^._._._._.).).F.(.(.(.(.S.D.D.D.D.V.V.V.V.V.V.V.N.j.j.j.j.s.s.a.a.i.7.7.7.2.2.2.2.:.:.;.>.-.-.-.;.;.;.;.;.;.;.;.;.;.-.>.>.;.;.;.;.=.>.>.=.>.:.:.>.;.6.e.H.iXmXFXFXGXKXnXE.q.| ~ ! ~ E H G K C m l m B B N x x x x x x b b f F ~ 4.h.V.F._.2XtXDXGXGXAXbXdXtX:X;X>X,X#X[.].{._.(.F.F.D.V.V.V.N.N.N.V.D.G.G. X$X<XwXrXwX:X>X&X&X|.{._.(.F.A.A.M.N.j.h.a.7.6.6.:.=. .} ' Y J H F B b x a u u 8 8 2 1 , ; ; ; ; ; ; - - - - - - - - - - - - - $ $ $ $ @ @ @ @ @ @ @ @ + + @ @ + + + + + + + + + + + + + + X X . . . . . . . . . . . . . . . . . . . . . . . . . . . . . . . . X X X X X X X X + + + + + + + + + + + + + + + + @ @ @ @ @ @ @ @ $ @ @ $ - - - - - - - - ; ; ; - ; ; ; ; ; ; , , 2 2 2 8 r r u a a c b B F H U Y Q Q } } } ..;.2.2.7.a.g.h.j.N.N.F.F.(.(._.{.|.$X>X>X<XwXrXrXwX<X$X X).C.h.j.j.j.k.j.C.D.F.F.F.).).`.|.$X&X#X=X=XrXdXSXAXAXGXmXdXrX<X&X{.G.Z.-.R G F B b B B b b H H S S n K V N ` Y Y E Q  .6.Z.+XhXKXAXAXGXSXdXG.Z.p.2.:.:.;.;.=.=.=.=.=.-.-.-.=.-.=.-.;.:.:.:.-.-.:.:.:.:.,.6.2.2.2.6.7.7.7.7.g.g.g.h.j.N.N.N.m.m.N.N.N.N.V.V.V.D.D.D.D.M.M.A.D.D.D.F.F.F.F.F.D.D.F.F.F.(._._.`.).).(.(.(.(._._._.{.|.|.$X&X>X:X0XiXbXDXDXGXGXAXAXZXZXAXFXFXFXFXAXAXAX",
",X3XeXtX<X+X+X8XcXvXSXSXAXAXFXFXFXFXFXFXFXFXFXFXZXZXmXmXbXnXfXfXfXtXwX>X&X|.{.{.{.{._._.(.(.(.F.(.(.(.(.(.(.(.(.F.F.F.D.D.D.V.V.V.V.V.N.N.j.j.j.a.a.a.a.a.a.i.i.7.3.3.2.2.2.2.:.:.;.;.;.;.;.;.;.;.:.;.;.;.-.-.-.;.;.-.=.=.=.=.=.=.=.=. .!  .-.,.o.U.uXBXmXFXFXFXDX+Xw.| R R U A b F G K F b z m x x x x x x x b x F U %.2.p.M.F._.[.:XpXSXGXGXDXfXaXwX<X>X&X$X$X|.{._.(.F.D.D.D.C.V.N.N.N.V.M.M.^.{.&X<XwXwXwXwX>X>X&X|.{.(.F.F.D.D.V.N.j.g.a.7.3.2.;.=. .} R Y J H F B x x u u r 8 2 1 < ; ; ; ; ; ; - - - - - - - - - - - - - $ $ $ $ @ @ @ @ @ @ @ @ + + @ @ + + + + + + + + X X + + + + X X . . . . . . . . . . . . . . . . . . . . . . . . . . . . . . . . X X X X X X X X + + + + + + + + + + + + + + + + + + @ @ @ @ @ @ $ @ @ $ - - - - - - - - - ; ; - ; ; ; ; ; ; , , 1 1 2 8 e r u u a x B F F H Y R Q } } | ..-.:.2.7.i.s.h.j.N.V.V.D.F.F.(._.|.$X&X<X<XwXeXwX<X&X$X_.(.D.m.h.g.j.j.j.N.V.D.F.F.(.(._._.{.{.[.#X<XrXmXSXGXAXSXbXrX<X$X|.W.b.9...Y Z B b b b b B b x v n F J J Y U U H R ! %.:.r.8XKXZXFXGXDXgX2X!.e.8.6.;.=.=.=.=.=.=.=.=.=.=.-.-.-.-.-.-.:.:.:.:.2.2.2.2.2.2.3.3.3.i.i.i.a.d.s.s.s.g.g.h.j.j.N.N.N.N.N.N.N.N.V.V.V.V.D.D.D.V.V.V.D.D.D.D.F.F.F.F.F.).).(.(._._._._.^./././._.{.{.{.$X$X&X>X>X<XwXwXaXdXmXSXFXFXFXAXGXDXSXGXGXGXFXFXFXFXFXFX",
"W.{.%X*X,XwXtXsXlXNXNXSXSXFXFXFXGXFXFXFXFXFXFXFXZXSXSXSXmXmXbXbXfXfXrXwX<X>X$X[.|.{.{._._._.(.)._._.(.(._._._.(.(.).F.F.F.D.D.D.D.D.V.V.V.N.N.N.h.h.h.h.h.s.s.s.a.a.a.i.i.7.7.7.2.2.2.:.:.:.:.;.:.;.;.;.-.-.-.-.-.-.-.-.=.=. . . . . . . .Q Q } ^ ~ | w.E.cXFXFXSXGXGXgXT.o.' R E U H G F z n / B B b b b b x x b b Z H Q ;.8.c.D.D._.$XwXdXDXGXDXmXdXrXwX>X&X*X$X|.{._.).G.F.F.D.V.V.N.N.N.m.c.M.S.{.&X<XwXeXrX<X<X&X$X{.(.F.D.F.D.V.N.N.j.s.a.a.y.3.;.=. .! Q Y H F F b x a u r e 8 1 1 < ; ; ; ; ; - - - - - - - - - - - * * $ $ $ @ @ @ @ @ @ @ @ @ + @ @ @ + + + + + + + + X X X X + + X X . . . . . . . . . . . . . . . . . . . . . . . . . . . . . . . . X X X X X X X X + + + + + + + + + + + + + @ @ @ + + @ @ @ @ @ @ $ @ @ $ - - - - - - - - ; ; ; - ; ; ; ; ; ; , , < 1 1 8 e r u u a x B F F H Y R R }  ...-.2.7.i.a.a.h.N.N.V.D.F.F.F._.{.[.@X#X>XwXwXwX<X>X$X_.(.D.V.N.j.j.g.j.j.N.V.D.F.(.(._._.|.|.{..X=XrXbXFXHXFXFXmXdXwX&X].H.x.:.' H B x p b x x b b B b x C N B G H I ~ &.}  .9.oXsXGXHX7XGXSXiXOXU.<.%.%.=.=.=.=.=.=.=. .=.=.=.=.=.-.-.-.-.;.:.;.:.:.2.2.3.3.i.i.i.a.a.d.a.a.a.g.g.h.h.h.j.j.j.j.j.j.j.h.N.N.N.N.N.N.V.V.V.V.V.V.V.V.V.D.D.D.D.D.F.F.F.F.(._._._.{.{.{.{.{.{.|.|.$X$X$X$X>X1X1XeXrXrXaXaXaXdXbXSXFXFXAXAXbXbXbXmXSXZXZXzXGXGXFXGX",
"' <.x.A.F._.[.#XrXaXdXbXmXSXFXFXHXHXDXHXDXFXFXGXAXAXSXSXSXmXcXbXpXpXiXqXrXwXwX<X>X>X#X&X$X$X X X{.{.{.{.{.{.{._._._.(.(.).F.F.F.F.D.D.D.D.V.V.V.V.V.N.N.m.h.h.h.h.h.h.g.s.s.s.a.7.7.7.7.2.2.2.2.:.:.:.;.;.-.-.-.-.-.-.-.=. . . . . .} } } X.R Y ! ~ R ` [ #.Y.uXSXDXDXAXFXbXY.o.' U A Y [ J Z b B B b b b b x x Z b x x F R =.2.h.C.G.).].#X9XZXAXFXFXmXdXwX<X>X&X$X|.{.`._.).F.D.D.V.V.V.V.N.m.N.V.F.{.$X>X<XwXwX<X>X#X[._.(.F.F.D.D.V.N.j.h.g.s.a.3.2.;.=. .Q Y Y H F B x a u r e 8 1 < , ; ; ; ; ; - - - - - - - - - - * * * $ $ @ @ @ @ @ @ @ @ @ @ + @ @ @ + + + + + + + + X X X X + + X X . . . . . . . . . . . . . . . . . . . . . . . . . . . . . . . . X X X X X X X X + + + + + + + + + + + + + @ @ @ + + @ @ @ @ @ @ $ @ @ $ - - - - - - ; - ; ; ; - ; ; ; ; ; ; , , 1 1 2 8 e r u u a x B F H J Y ' } } ..;.2.7.a.s.h.j.N.V.D.F.F.(.`.}. X=X>X:X:XwXwXwX>X$X{.(.D.V.N.j.j.j.j.N.N.V.D.D.F.(.(._.{.{.@X@X>XeXfXMXGXGXSXbXaX<X&X{.n.e.1.! U b x x x v x x b B B B B b N B G [ R T ~ 0.d.=XmXzXxXzXDXSX4XY.q.<.=.! %.:.!  .X. .=.=. . .=.=.=.=.=.-.-.-.-.;.:.:.:.2.2.2.3.7.i.i.i.d.d.d.a.a.a.a.a.g.g.g.N.N.N.j.j.h.h.h.j.j.j.N.N.N.N.N.V.V.V.V.V.V.V.D.D.D.D.D.D.F.F.F.^.(._._.{.{.{.{.|.%X%X*X*X>X>X&X;X:XwXrXrXrXaXiX0XqXgXpXvXvXvXmXSXSXSXGXGXGXGXAXHXZXvXvX",
"C [ 0.d.d.Z.G.`.|.$X>XwXaXdXmXSXZXFXGXFXFXFXAXAXSXSXSXSXSXSXSXSXcXcXpXpXbXbXnXfXnXfXsXrXwX<X>X>X$X$X|.|.|.|.|.{.{.{.{.`._.(.(.(.F.F.F.F.F.D.D.D.D.V.V.V.N.N.N.N.N.N.j.j.h.h.g.g.s.s.a.a.i.7.7.7.6.6.6.2.:.:.:.;.-.-.-.-.-.-..... . .Q R R E E E [ ` Y E A A R 0.t.4XSXGXFXDXMXbX~.w.] J K A H Y b b b b b x x x Z b x a N F T ~  .9.H.H.F.{.<XdXxXAXGXGXSXbXpXiXwX:X#X$X|.{._._.F.F.D.D.D.V.V.N.j.N.V.F.^.[.#X<XrXrXwX<X>X$X{.`._.(.F.D.V.N.j.h.p.i.6.:.-. .} R R R U H B x a u r 8 2 1 , ; ; ; ; ; ; - - - - - - - - - * * * * @ @ @ @ @ @ @ @ + + + + @ @ + + + + + + + + + + + + + X X X X X . . . . . . . . . . . . . . . . . . . . . . . . . . . . . . . . X X X X X X X X + + + + + + + + + + + + + @ @ + @ @ @ @ @ @ @ @ $ @ @ @ * * * * - - - ; - ; ; - ; ; ; ; , ; , , 1 2 2 8 r r u a x x F F J Y R '  .-.:.6.i.a.h.m.N.V.V.D.F.(._.{.$X&X>XwXwXrXrXrX<X&X|._.F.V.N.j.j.j.N.N.N.V.D.D.D.F.F.(._.{.|.$X+X0XpXSXFXFXSXcX<X&X{.F.v.9. .R I Z b f f N Z A x b b B B B F F Y H A U ` o.P.OXmXDXHXxXAXSX*XH.<. .~ %.%.! } o.! ~  . . . .} } =.=.=.=.=.-.-.-.;.;.;.;.:.2.2.2.2.2.2.2.7.7.7.7.i.i.i.a.a.a.s.s.N.N.N.j.h.h.h.h.j.j.j.j.j.N.N.N.V.V.V.V.V.V.D.D.F.F.F.F.F.F.(.(.(.(.(._.`.{.{.{.{.|.|.$X&X&X&X#X;X<XwXrXrXaXaXaXfXbXbXcXvXmXmXSXAXAXAXFXFXSXmXbXaXrXwX<X",
", 8 q Z I ! :.9.x.v.W.].@X2XeXtXmXSXFXFXFXGXGXFXDXGXGXGXGXGXGXFXSXSXmXmXmXmXmXmXSXmXbXpXdXaXqXqX>X;X#X#X#X#X$X$X$X|.|.|.{.{.{._.(.(.(.F.F.F.F.F.V.V.V.V.V.N.N.N.N.N.N.j.j.h.g.g.h.h.g.s.s.a.i.i.7.7.7.7.3.2.2.2.;.;.;.;.-.-.-.-.>. .} Q R R U H ( N z S W W I I ] | +.T.BXGXGXFXGXbXOX@.( Z K E F F F b b x x x x x a a a x Z Z G J } ,.b.S.{.|.+XiXbXDXDXGXSXSXaXrX0X;X#X$X|.{._.(.(.F.D.V.V.m.N.N.N.V.A.(.|.$X<XwXeXrXwX>X&X$X|.{._.(.F.D.V.N.p.p.6.:.-. .} R Q R Y H F B a i 8 8 2 1 , ; ; ; ; ; ; - - - - - - - - * * * * * @ @ @ @ @ @ @ @ + @ + + @ + + + + + + + + + + + + + + X X X X X . . . . . . . . . . . . . . . . . . . . . . . . . . . . . . . . X X X X X X X X + + + + + + + + + + + + + @ + + @ @ @ @ @ @ @ @ $ @ @ $ * * - - - - - - - ; ; - ; ; ; ; ; ; , , 1 2 2 8 r u u a b B F J Y R }  .=.:.7.a.s.h.N.V.D.D.F.(._.{.|.$X>X<XwXrXrXrXwX<X|.{.(.D.V.N.N.N.N.N.V.V.D.D.F.F.F.(._.].[.@X;X<XhXMXGXGXFXbX:XOX`.F.c.8.>.~ A b x x N N N B Z A b b b Z Z Z H H ^ ^ E o.w.+XSXKX7XHXGXhXoXt.<...! ~ ~ ~ ~ Y J J ! ! } }  . . . .=.=.=.=.=.-.-.-.;.;.:.:.2.2.2.2.2.2.2.6.7.7.7.7.p.p.p.p.p.p.s.s.N.N.j.j.j.j.N.N.N.N.N.N.N.V.V.V.V.V.D.D.D.D.F.F.(.(.(.(._._._._.`.`.}.{.{.{.{.{.[.[.$X#X>X>X<X<XrXrXsXdXdXbXbXbXFXFXFXFXFXFXFXFXZXZXvXbXiXwX:X;X$X{._.(.",
"y y y u p z v Z R } ..<.q.r.n.!.&X>X<XwXaXbXmXmXDXDXDXGXGXFXFXAXGXGXSXSXSXSXmXvXcXcXpXpXpXpXdXdXrXwXwX<X<X<X>X>X&X&X$X$X$X|.|.|._._._.(.(.F.F.F.D.D.D.V.V.V.V.V.N.N.N.N.N.N.j.h.j.j.j.g.s.s.a.p.a.a.a.i.i.3.7.3.2.2.2.:.;.;.;.;.-.=. .} } R Y K z C L P x z H O.Z H Y ] o.P.yXGXZXGXKXCX2XU.o.G J G F F b b x x a x x x x x x x x x b U  .,.8.p.S./.$X<XaXmXGXGXmXbXiXwX:X>X&X$X|.{._.(.F.D.V.V.V.N.N.N.m.D.F._.$X#X<XrXrXwX<X>X&X$X|.{._.(.D.V.m.h.p.7.2.:.=.X.! Q R U F B a i r 8 2 1 , ; ; ; ; ; ; - - - - - - - * * * * * * @ @ @ @ @ @ @ @ @ @ @ @ @ @ @ @ + + + + + + + + + + + + X X + + . . . . . . . . . . . . . . . . . . . . . . . . . . . . . . . . X X X X X X X X + + + + + + + + + + + + + + + + @ @ @ @ @ @ @ @ $ @ @ $ - - - - - - - - - ; ; - ; ; ; ; , , , , 1 1 2 8 r r u a F H Y Y R Q  .=.2.3.a.s.h.N.V.D.F.F.(._.{.|.&X>X<XwXrXrXwX>X$X|.).F.V.N.N.N.N.V.V.V.D.D.F.F.(.(._.{.|.#X;XqXpXmXKXGXSXbXrX&X_.F.b.9.>.X.E b x N x x x x x x x b b Z F F H U R ' J +.R.uXJXKXGXZXGX8Xw.,.=.Q Y G } ' Y G F H U R Q Q  . . .=.>.>.=.=.=.=.=.-.-.-.;.:.:.2.2.2.2.2.i.i.i.i.i.p.s.s.h.h.h.h.m.N.N.N.j.j.j.j.N.N.V.V.V.V.V.V.V.D.D.D.D.D.F.F.F.F.(._._.{.{.{.|.|.|.|.|.|.$X$X$X$X&X&X>X>X:XwXrXaXdXbXmXmXmXSXSXSXSXGXAXFXFXFXFXSXmXbXhXtXeX,X=XQ.!.n.b.9.:.X.",
"1 1 , < 6 e r 9 q p v A U ~ ! %.s.Z.A.S.Q.=X,X2XpXpXcXmXSXFXFXFXGXGXGXGXGXGXFXSXnXnXbXbXbXbXbXdXfXdXsXrXrXeXwX<X>X>X&X&X$X$X$X|.}.}.{.`._.(.(.).F.F.F.D.D.V.V.V.V.V.V.V.N.N.m.m.j.j.j.h.s.s.p.i.a.a.a.a.i.i.i.i.2.2.2.2.2.:.:.;.!  . . .} R Y U J F B N C C a u C b A T Q ' o.w.9XZXFXFXFXDXeXY.` Y J F B b x x f x x x x x a f m c P n Z T %.5.f.k.A.Q.#XiXmXGXGXSXbXaXeX<X>X&X$X|.{._.(.F.D.D.D.V.B.k.j.N.V.D.[.@X>XrXaXrXwXwX>X&X$X|.{.(.F.F.V.N.j.s.d.4.0.1.! Q R U H B a a r e 8 1 1 < : : ; ; ; - - - - - - - * * * * * * @ @ @ @ @ @ @ @ @ @ @ @ @ @ @ @ + + + + + + + + + + + + X X + + . . . . . . . . . . . . . . . . . . . . . . . . . . . . . . . . X X X X X X X X + + + + + + + + + + + + + + + + @ @ @ @ @ @ @ @ $ @ @ $ - - - - - - - - - ; ; - ; ; ; ; , , , , 1 1 1 8 e r u u H U Y R Q  .=.:.2.i.a.h.N.V.D.D.^.(._.{.|.$X>X<XeXeXtXeX>X[./.F.G.C.N.j.j.N.V.V.A.F.F.F.(.(._.`.|.$X&X<XaXbXFXGXFXmX8XOXQ.D.N.j. .R H B x u i N x b x z z c s g F F H H Y R X.>.+XfXFXFXFXGXBX+Xb.,.} R E K F G Z B V V V J Q ! R Q  . . . .=.>.=.=.=.=.=.-.-.-.:.:.:.2.2.2.7.7.a.a.a.a.g.g.g.g.j.j.j.N.N.N.N.N.j.j.N.N.N.V.V.D.V.V.D.D.D.D.F.F.F.F.F.(.(.(._.{.|.|.|.$X$X$X$X$X@X@X#X#X>X<XwXeXrXaXsXdXbXmXSXGXFXFXFXAXAXAXAXFXNXNXNXNXgXqX:X#X{._.^.n.e.,. .! f a 9 8 ",
"3 3 8 8 8 8 e r 9 r r u i a a a U E X.9.e.A.).}.%X$X$X@X#X:XwXtXSXSXFXFXFXFXAXZXGXGXSXZXvXnXdXaXiXdXdXaXaXsXsXaXwXwXwXwX<X>X#X#X$X$X$X$X X{.{._.`._._.(.(.(.(.F.D.D.F.F.D.V.M.m.N.N.m.h.g.a.a.a.g.g.a.a.a.a.a.a.a.i.7.7.6.:.:.-.=.=.=.=. .} Y H F F B x x x x x x x B B F F H H W t.4XmXGXGXAXzXfX@X+.R W K B B z x N f a x x v x a x x x x F ) } ,.Z.D.(.|.:XiXHXGXFXSXbXaXwX#X<X&X|.{._.(.).G.F.D.V.V.N.N.N.N.C.G.{.&X<XrXqX8X<X<X>X$X|.{.(.A.D.V.N.N.j.a.7.6.;.%.Q R Y F b z u r 8 2 < < < < ; ; ; ; ; ; ; ; - - - - - $ $ $ @ @ @ $ @ @ @ @ @ @ @ @ @ @ @ @ + + + + + + + + + + + + + + + + . . . . . . . . . . . . . . . . . . . . . . . . X X X X X X X X + + + + + + + + + + + + + + + + + + + + + @ @ @ @ @ @ @ @ @ @ @ $ @ @ $ - - - - - - ; ; ; ; ; ; ; ; ; ; ; , , , 1 2 8 9 9 u a a F F J Y }  .:.6.9.d.h.j.N.V.D.F.(._.`. X=X>X<XwXiXrXwX&X{.(.D.V.B.h.h.j.N.V.D.D.G.S.S._.{.$X$X&X&X<XiXlXzXGXJXBX*X XF.s.3.>.' G V B x z m n c x b m M M M N N f B K T ~  .w.0XJXHXGXGXFXdX~.<.^ R R Y H H F Z n B B B B B F J Y R Q X.=.=.=.-.-.-.-.-.;.2.2.3.3.3.3.i.a.a.g.j.j.h.h.h.h.N.j.N.j.N.N.N.N.N.N.N.m.V.V.V.D.D.F.F.F.F.F.).).(.(.(.(.(.(.(.(.(._._.{.@X$X$X$X$X$X$X&X@X#X;X:X0XaXdXdXSXmXSXSXDXGXGXGXHXFXAXFXFXFXSXcXaXrX>X|._.F.D.C.0.X.' H b a u 0 2 2 2 2 ",
", , 2 8 8 8 2 1 e 9 r r r u u u z b F Y ' | <.e.M.A.F.)._.{.{.{.oXoX=X2XtXnXGXGXFXFXAXZXZXSXSXmXbXbXbXpXpXdXiXiXsXaXaXrXeX<X:X>X>X>X&X&X$X|.|.{.{.{._._._._.(.(.F.F.F.F.F.D.D.D.V.V.V.N.N.m.m.m.h.h.h.g.a.a.a.a.i.i.7.7.2.2.:.;.-.=.=.=. .} Y H F F b x x x x x a x x x B F F F H Y ] +.I.+XDXKXzXZXNXE.w.' I ^ H Z v b b c s p x x x B B x x x B Y -.i.c.S. X*XaXbXGXGXGXDXdXwX:X>X&X$X|.{._.(.F.F.D.D.V.V.N.N.V.D.F.{.&X<XrXaXwXwX<X#X$X|._.^.F.D.V.N.j.a.i.7.;.=. .Q Y J b z r r 2 1 < , < < ; ; ; ; ; ; ; ; - - - - - @ $ @ @ @ $ $ @ @ @ @ @ @ @ @ @ @ @ @ + + + + + + + + + + + + + + + + . . . . . . . . . . . . . . . . . . . . . . . . X X X X X X X X + + + + + + + + + + + + + + + + + + + + + @ @ @ @ @ @ @ @ @ @ @ $ @ @ $ - - - - - - ; ; ; ; ; ; ; ; ; ; ; ; , , 1 2 8 9 9 u a x F H Y R  .;.2.8.3.i.a.j.N.D.F.S._.{.|.$X#X:XwXrXrXwX>X|._.D.V.N.h.g.g.j.N.V.V.D.F.F.(._.|.$X&X>X0XdXDXGXGXMXwX@Xn.r.6.=.! T F b x x x x x N N x N N V V B F K W I T o.T.gXDXAXZXGXbX+XP.+.| } } Y Y J F F B b b B x x x B F H Y R } X.=.>.-.-.-.-.-.;.:.2.7.i.i.i.i.a.a.g.h.j.j.h.h.h.h.j.j.j.j.N.N.N.N.N.N.V.V.V.V.D.D.D.F.F.F.F.F.).).(.(.(.(.(.(._._._.{.{. X[.[.|.$X$X#X&X>X1X1XtXsXaXpXbXmXAXAXAXFXFXFXFXAXFXFXSXSXmXdXrX<X&X[./.n.e.9.,.,.H H b z u 9 9 8 r 9 8 8 ",
"< 2 e r y y y 0 r r r r r r r r 9 r s p p x B G =.;.9.d.b.b.b.b._.{.|.$X#X:XqXiXnXMXDXDXHXHXHXGXFXFXGXGXGXDXDXSXmXbXbXdXsXaXrXrXaXrXrXwX:X>X#X#X$X|.|.{.{.`._.(.(.(.(.(.F.F.F.F.D.D.D.D.D.V.V.V.N.N.j.h.h.h.h.s.a.i.i.i.7.3.2.4.:.;.;.;.=.} Y H F F b x a a x x a a a x x N B B F Z v l L +.Y.;XxXzXGXFXbX2Xr. .Y H A S L L N t c p p c x x a a r a H R =.7.Z.G.$X<XfXHXHXHXSXbXqXqXwX:X>X$X|.{.(.(.F.D.D.V.V.N.N.m.V.F.(.|.>XeXwXrXwX<X>X$X|.{.(.(.F.V.N.h.a.a.3.2.=. .} Y F b r 8 2 1 , < , ; ; ; ; ; ; ; ; ; - - - * - $ $ @ @ @ $ $ $ $ $ $ @ @ @ @ @ @ + + + + + + + + + + + + + + + + X X . . . . . . . . . . . . . . . . . . . . . . . . X X X X X X X X X X + + + + X X + + + + + + + + + + + + + @ @ @ @ @ @ @ @ @ @ @ $ @ @ $ * * * * - - - - ; ; ; ; ; ; ; ; ; ; ; ; 1 1 8 8 9 u a N H Y R  .;.3.a.s.a.s.N.V.D.F.(._.[.@X#X:XwXwXeXwX>X&X{.(.D.V.N.j.h.h.j.N.V.D.F.F.)._.{.|.$X>XtXhXHXHXGXmXdX<X{.n.,.-.R I S b v z p z x x N a a N f N V B Z A T E e.Y.9XzXAXHXDXFXOXU.o.W D D U Y F F B B B x x x x x x x b F H Y R R  . .=.=.-.-.;.:.2.7.7.a.a.a.p.s.s.s.g.h.j.j.h.h.h.j.j.j.j.j.N.N.N.N.V.V.V.V.D.D.D.D.F.F.F.F.(.(.(.(.(.(.(.(.(.(._.{.{.|.|.$X$X$X*X,X<XwXrXtXrXaXfXbXcXvXZXZXFXAXAXAXFXFXFXSXmXbXdXrX1X%X'.S.e.9.,.} Y F x a p p 9 9 r r r 8 r 9 8 8 ",
"2 2 2 8 8 8 8 8 r r r r r r r r r y y r r r u s p a x N B G G G 7.x.v.S.W.Q..X=X:XwXqXpXcXcXvXvXZXAXFXFXFXAXAXAXZXZXZXmXmXmXmXmXmXmXbXdXsXrXrXwX<X>X&X$X$X|.{.{.{.{._._._.(.(.F.F.F.F.D.D.V.V.V.V.V.N.N.m.h.h.h.g.g.a.a.a.i.i.i.2.2.2.:.-. .R U Z b b x a a a x i i a a a a a x b n S S S H Y ` @.OXnXGXFXFXlX9X@.#.` I I H V f b x p z p p x N u a c n H ~ 4.d.F.{.>XqXcXZXFXFXDXmXpXqX:X>X&X$X{._.(.F.F.D.V.V.V.V.N.N.M.F.{.&X:XrXrXrXwX<X&X$X{.{.(.F.V.N.h.g.i.7.2.-. .R F b r 8 2 1 < , ; ; ; ; ; ; ; ; ; ; - - - * - $ @ @ @ @ @ @ $ $ $ @ @ @ @ @ @ @ + + + + + + + + + + + + + + X X X X . . . . . . . . . . . . . . . . . . . . . . . . X X X X X X X X X + + + + + X X + + + + + + + + + + + + + @ @ @ @ @ @ @ @ @ @ @ $ @ @ $ - - - * - - - - ; ; ; ; ; ; ; ; ; ; ; ; 1 1 2 8 9 u x B Y R  .;.3.a.g.j.B.V.D.F.(.{.|.$X#X:XwXrXaXwX<X>X{._.F.V.N.N.N.N.V.V.V.D.G.).)._.`.{.$X#X8XpXDXGXFXSXpXwX$X_.M.d.>.~ K b a s c z c c x N N N B C F K D D E o.w.Y.ZXZXKXKXGXiX!.,.` Y H D D L n v B N N x a a a a a a a x b F H Y Y R }  . .=.=.-.2.3.7.i.a.s.s.s.s.s.s.g.g.h.h.h.j.j.j.j.j.N.N.N.N.V.V.V.V.D.D.D.D.F.F.F.(.(.(.(.(._._._._._._._._._.{.|.$X&X>X>X<XwXrXrXaXpXbXmXmXmXmXSXSXFXGXGXGXFXSXmXbXdXaXaX:X#X~.!.r.9.-.! T A Z v p u r e u r r y y y r e e 8 8 8 ",
"0 w w w u r r r u u u u u u u u u u u r r r r r 5 e 5 e e r i i R | q.r.Q.@X>XwXwXrXfXbXmXSXGXGXFXFXFXFXFXFXAXAXFXFXFXAXFXFXFXFXAXAXFXSXmXbXdXdXaXrXwX<X>X&X$X$X$X$X|. X{.{._.(.F.F.F.D.D.V.V.V.V.V.V.V.N.N.N.j.h.h.h.g.a.a.a.a.7.7.3.2.;. .R U Z b x x a a p p u u u i a a a a s i f N N b S D %.! o.I.gXLXKXxXZX9XI.+.' U A A F B B n x p x N b b x x x F U ! 8.x.S.{.>XaXmXFXGXFXSXbXiXwX>X*X&X$X|.{._.).F.D.D.V.B.j.j.V.F._.@X<XrXrXrXwX<X>X$X$X{._.F.V.N.N.p.a.3.2.=.R H b u r 8 1 < < , , ; ; ; ; ; ; - - - - - * - $ $ $ @ @ $ $ $ $ @ @ @ @ @ @ @ @ @ + + + + + + + + + X X + + + + X X . . . . . . . . . . . . . . . . . . . . . . . . X X X X X X X X X X + + + + X X + + + + + + + + + + + + + @ @ @ @ @ @ @ @ @ @ @ $ @ @ $ - - - - - - - - - ; ; ; ; ; ; ; ; ; ; ; 1 1 1 2 e u x F R Q =.3.a.g.N.N.V.D.F.F._.|.#X>X0XrXaXaXrX<X$X[.F.D.m.j.N.N.V.V.D.D.D.F.(._.{.|.[.@X:XiXcXFXFXZXbXaX<X$X).b.2.%.E U b a i i a x x x x B B K D M I I E | w.+XmXGXzXGXGXeXr.Q T Y D S F B N a a s a a a a i i i u a a a c B F Y R R }  .=.;.;.:.:.i.i.a.a.s.s.g.g.h.h.h.h.h.h.h.h.N.N.N.N.N.N.V.V.V.V.D.D.D.D.D.D.F.F.(.(._._._._.{.{.{.{.{.|.|.|.|.$X&X>X<XwXrXaXpXbXbXvXmXZXZXZXFXFXFXFXFXSXSXmXdXaXwX>X=X.XoX'.e.q.o.] J F b z p p p u s s s s y y y y r r r r y y 8 2 ",
"8 9 u c c x a a p p p p u u u s p p p p p u u p i a a a c c z z d M M m S U E X.r.r.!.~.~.~.OXOXyXyXsXfXnXMXDXGXFXFXFXFXFXFXFXFXFXAXFXFXSXSXmXmXbXdXaXaXrXeXwX<X>X#X@X|.|.{./.^.(.(.F.F.F.D.D.D.D.D.D.D.D.V.V.N.N.N.m.h.g.g.a.a.a.a.i.3.:.=.Q U Z b x a a u p p s u u u u u u u t t t i a x B C v H [ [ { P.:XBXGXGXGXgX~.t.~ I G B B F n x x x Z b x a a a B F J } 7.C.(.$XwXgXSXFXGXGXMXfXtX1X<X>X#X|.{.`.(.F.F.D.V.N.N.N.V.D._.|.>XwXrXrXrXwX>X&X$X{.(.D.V.V.h.s.i.3.:.} H b i r 8 1 < < < , ; ; ; ; ; ; - - - - - - - $ $ $ @ @ $ $ @ @ @ @ @ @ @ @ @ @ @ @ + + + + + + + + X X + + + + X X . . . . . . . . . . . . . . . . . . . . . . . . X X X X X X X X X X + + + + X X + + + + + + + + + + + + + @ @ @ @ @ @ @ @ @ @ @ $ @ @ $ - - - - - - - - - - ; ; - - - ; ; ; ; ; , , 1 1 8 u B H Q =.2.i.g.N.V.D.F.F.S./.[.#X<XrXtXtXtXeX>X|._.F.V.V.N.N.N.V.V.D.A.F.F.(._.[.@X#X+XqXnXDXKXGXmXpX>X|.^.b.9.X.U Z Z b x a i a f N x x B B F Z v v ' o.U.0XSXFXGXFXBX~...T T ` C h B B N a u r i i u u u u u u u u a a a a B F Y R } ..:.2.3.7.i.i.a.a.s.s.g.h.h.h.m.m.m.m.N.N.N.N.V.V.V.V.V.D.D.D.D.D.D.F.F.F.F.F.^./._.{.|.|.|.|.|.$X$X$X#X#X>X:XwXrXaXsXdXbXmXmXFXFXFXFXFXGXGXGXGXDXbXdXrXwX>X#X~.!.r.q.<...Q ~ U A v z p u t t t r r y u p z z u u s u u u u u r r r e ",
"_ _ G F Z v b x x x x x a p p p a p p a a a a p u p p p p q q q i i u 9 q q M M E ' X.>.-.X.o.<.+.+.r.!.[.#XwXsXbXbXmXSXFXFXFXAXFXFXFXFXFXAXZXZXmXmXbXbXbXdXdXaXwX>X@X[.[.|.{.{.{.{._._.(.(.F.F.F.F.F.F.F.D.D.D.V.V.V.N.N.h.h.g.s.a.a.i.2.=.Q U Z b x a u u u u s s s u u u u u i i a a a p p u _ N p z Z ' <.r.+XiXKXKXKXjXY.w.o.[ F Z F B b b x x x x x a x N x Z T >.8.b.Q.=XrXdXmXDXDXSXmXbXrXwX;X#X$X X_.(.F.F.D.V.V.N.N.N.V.F.{.&XwXrXrXrX<X>X#X|._.(.D.D.N.N.s.i.2. .Y B i r 8 1 < < , , ; ; ; ; - ; - - - - - - - $ $ $ @ @ @ $ @ @ @ @ @ @ @ @ @ @ @ @ + + + + + + + + X X X X + + + X . . . . . . . . . . . . . . . . . . . . . . . . X X X X X X X X X X X + + + X X + + + + + + + + + + + + + @ @ @ @ @ @ @ @ @ @ @ $ @ @ $ - - - - - - - - - - - - - - - - ; ; ; ; , , < 1 8 u B H  .;.7.h.N.V.D.F.(._.{.$X>XwXrXaXrXwX>X$X{.F.V.N.V.V.V.V.V.D.F.F.S.(._.{.|.#X<XwXbXDXDXMXnXtX,X|.n.e.-.R H v x x x x x x x x B B B B K F F ( o.q.R.8XDXKXGXmX+XI.| | ' H S M f g i i p p s p u u r r u u u u u u u u u a B F Y R -.:.7.i.d.a.h.h.h.h.h.h.j.N.N.N.N.m.N.N.N.N.V.V.D.D.D.D.F.F.F.F.F.F.(.(.(.(._._.[.|.|.$X$X&X&X#X#X#X>X:X0XrXaXsXbXmXmXSXSXSXFXGXGXDXSXMXnXfXsXtX2X=X[.Q.n.r.e.<.| ' J F v z q q p u q 9 u u i i u u r r u p z z z x x x x x x B a x x N ",
"uX4XU.+.] Y E W F F B b x x x a p p p p a p p u i i t r r r y h m p p i i i t t z b H U T T U Y I T ! 6.b.W.[.$XwXrXaXbXmXSXAXAXFXFXFXFXFXFXAXAXSXmXmXmXmXmXmXbXsXeX;X@X%X*X*X*X$X$X|.|.{._.(.(.F.F.F.).).F.F.F.F.D.D.D.V.N.N.N.g.g.a.i.2.=.Q T b b x a u u u u p p p s u u u u m s p p a c c m a p m P D b b G W +.R.lXAXGXFXFX6Xt.] H H K F b f f x c x z x a c s p b H  .8.D.@X:XaXmXSXFXFXFXdXaXwX>X&X$X X{.).F.F.D.V.V.j.k.k.V.(.[.:XrXsXrXwX<X>X@X{.(.F.D.V.N.h.a.3.=.Y F i r 8 1 < < ; ; ; ; ; ; - ; - - - - - - - $ $ $ @ @ $ $ @ @ @ @ @ @ @ @ @ @ @ @ + + + + + + + + X X X X + + + X . . . . . . . . . . . . . . . . . . . . . . . . X X X X X X X X X X X + + + X X + + + + + + + + + + + + + @ @ @ @ @ @ @ @ @ @ @ $ @ @ $ - - - - - - - - - - - - $ $ - - ; ; ; ; , , , 1 8 u B J =.2.i.h.N.D.F.(._.{.$X*X<XwXrXrXwX<X@X/.A.V.N.j.N.N.V.V.D.F.(._.`.`.}.%X&XwXaXbXFXGXSXqXOX].G.B.,.} H K P a a f i a x b b b b x B F K H ` q.=XkXAXFXGXNX+Xw.] I G G f g g x v S s u u p p m q q r r r r u u u u r r u a x F Y R ;.2.7.a.g.h.j.j.h.h.j.j.N.N.V.V.B.B.N.N.V.V.V.V.D.D.F.F.F.(.).(.(.(._.`.{.{.}. X$X$X&X&X&X>X#X#X>X:XwXwXrXdXbXMXSXFXFXFXFXAXAXFXMXpXqX:X#X[.Q.W.v.x.i.3.;.%.~ I m m q u u t h t e t t i s p p z b x a a a a x x v Z b b b b B F H J ` [ ",
"FXFXFXGXVXjXE.K.o.o.' E E K F F G B x c c d d s c a p u u i i i u u u u p p p a u u a a x x F K >.>.>.2.i.s.m.V.~.=XeXfXbXvXZXHXzXAXHXHXHXAXAXAXAXAXZXSXmXbXaXaXwXwXeXeXwXwXwXwX:X<X>X&X$X[.[.|.(.(._._._._.(.^.F.F.F.F.A.D.D.D.V.V.B.h.h.i.=.H F b x u u u u u r r r r r r r r u u u u u u u u u u a a a x x x L K H ] U.3XVXGXAXAX8XP.{ Y T ~ _ N N N a a a C p p a c n F ` | v.(.$XwXdXmXAXFXDXSXdXrX<X>X#X#X].{._.(.D.N.k.l.N.N.N.V.(.|.>XeXrXrXrXwX>X$X{.(.G.C.N.N.N.a.} C i r 2 1 ; ; ; ; - - - - - - - - - - - - - * * * $ $ $ $ @ @ @ $ @ @ @ @ @ @ @ @ + + + + + + + + + + X X + + + + . . . . . . . . . . . . . . . . . . . . . . . . X X X X X X X X + + X X + + + + + + + + + + + + + + + + + + + + @ @ @ @ @ @ @ @ @ @ @ @ @ @ - - - - - - - - - - - - - - - ; ; ; : , 1 8 y s H } 2.7.h.C.G.F._.{.].$X<XwXrXaXrXwX|.{.S.M.N.N.N.N.H.N.V.D.F.^.Q.].$X$X#X:XdXSXAXAXMXrX|.F.s.;.R J K n x a u p s m B a p P c a f _ ^ ~ o.w.+XVXGXGXLXhXT.o.E K K B a a a a a i i u r r r r r r r r e e e r r r r r u r r i a F R X.2.3.i.s.g.g.g.h.j.N.N.N.N.N.V.V.V.M.M.M.A.A.F.F.(.(._._._._._.{.#X@X$X$X&X&X>X;X>X<XwXrXrXrXrXaXdXdXbXmXSXSXSXSXFXFXGXSXMXsXwX:X$X{.G.Z.b.9.,.-.L L S v c p u 9 f a a a a p p s i a a a p p m m p a c c x x B V E T T T R X.t.J.+X8XmXGX",
"DXFXAXFXGXGXFXZXGXMX8XY.w.o.[ Y Y G Z b B G G G p x N V V N f i s s s s s s u u p a a p u p p p Z Z U R  .,.9.b.c.A._.|.&X>X<X<XdXnXnXMXDXSXFXFXAXAXAXAXZXSXmXmXMXnXfXrXeXeXeXeX;X;X>X>X&X&X$X$X{.{.{.{.{.`._._._._.(.F.F.D.F.D.V.V.N.N.j.a.=.Y F b a u u r u r r r r r r r r r u u u u u u u u u u u p a a a c p b K J ) #.P.R.nXJXKXSXqXI.#.G H Z Z F F x p q N N N x x b F J ;.6.n./.#XwXbXSXFXFXSXbXaXwX>X#X X{.{._.(.D.V.V.N.N.j.m.A.^.|.$XeXeXtXrX<X>X@X[.^.n.M.N.N.s. .K i r 2 , ; ; ; ; - - - - - - - - - - - - - * * * $ $ $ @ @ @ @ $ @ @ @ @ @ @ @ + + + + + + + + + + X X X + + + + . . . . . . . . . . . . . . . . . . . . . . . . X X X X X X X X + + + X X + + + + + + + + + + + + + + + + + + + @ @ @ @ @ @ @ @ @ @ @ @ @ @ - - - - - - - - - - - - - - - ; ; ; ; , 1 8 y p H  .p.p.m.V.D.(.{.%X>X1XtXrXrXeX>X$X(.S.A.m.N.N.V.V.A.A.F.(.`.{. X%X&X<XaXmXGXHXDXVX2X~.n.8.;.R F N b x a f N N x p e t f x Z E E I { I.iXFXGXGXgXjXP.@.[ F v b b B a a a a i u u u r r r r r r r r e e e r r r r r u r i i x F R  .2.3.i.a.s.g.h.h.N.N.V.V.V.V.D.D.D.F.F.F.F.(.(.(.(._._._._.{.{. X$X$X$X$X,X1XwXwXwXrXdXbXmXmXSXGXDXDXFXFXFXFXFXFXzXvXpXrX<X$X_.F.r.e.<. .R Y H H b x x a a a a i w w s s a a a a q p z x x N B B J J H F H J E O.` o.w.OX8XmXSXFXKXGXGXGX",
"FXFXFXFXFXFXGXGXzXAXGXGXKXBXtX:XU.w.+.| ' E ^ D [ K b z p x b B p p u u u i i g u s s u u u u u s p p x b H J Y u.d.Z.G.)._.}.XX|.$X$X>XeXsXbXmXDXSXFXAXAXAXAXAXZXvXcXiXrXeXeXeXwXwXwX<X<X>X&X$X$X$X$X$X|.{.{.{.{._._.(.(.(.F.F.D.D.D.V.V.m.2.R F b a u u r r r r r r r r r r r r r u r r r r r u u u u u p a a f x x z z B ( ) w.OXdXGXKXGXUXL.0.X.I S A F B V b x x x a x x b I I ~ ,.e.Q.&XwXvXSXFXFXFXbXrX:X&X$X{._._.(.(.S.V.N.N.N.N.D.S.^.[.|.&X1XeXwX:X:X>X@X/.(.D.m.:.Y u r 1 , ; ; ; - - - - - - - - - - - - - - * * * @ @ @ @ @ @ $ $ @ @ @ @ @ @ + + + + + + + + + + + + X X + X + + . . . . . . . . . . . . . . . . . . . . . . . . X X X X X X X X + + X X X X + + + + + + + + + + + + + + + + + + @ @ @ @ @ @ @ @ @ @ @ @ @ @ - - - - - - - - - - - - - - - ; ; ; : , 1 2 y p U >.M.V.F.F._.[.*X3XrXrXrXrX<X&X{.S.V.V.N.N.N.V.D.D.S.S.'.}. X$X*X1XaXbXFXGXZXiX,XXXb.9.-.Q U v a i a x N a a a B F P p z G J Y q.6XNXZXAXFXSX8Xw.[ G B b z x x x a a i u u u u r r r r r r r r e r e e e r r r r r u i i a N H R  .3.i.s.h.h.m.N.N.V.V.D.D.D.D.F.F.(.(.(.(._._._.{._._._._._.{.|.|.$X$X*X,X<XwXrXsXdXbXSXFXFXAXAXFXAXAXAXFXFXFXSXSXdXrX>X[.'.Z.d.u.` J F b z p p u a a a u i u u p i a a a a p p p F F F F Z Z A K A I T | o.w.T.R.bXmXSXGXGXAXAXAXSXAXZXZX",
"nXMXDXDXGXFXGXGXKXHXAXAXFXFXFXFXGXSXbXrXOXU.q.o.J J J J K D S l K F B x a a i i u u i i a a a a h h i u p p p p z b F G J ` ] | 6.6.9.e.!.~.#X;XwXrXaXdXmXSXSXAXFXFXFXDXDXMXbXdXbXnXdXiXaXrXwX:X:X:X>X#X&X$X|.|.|.|.{.{._._._.(.(.(.F.F.D.V.7. .F b p u r r r r r r r r r r r r r r r r r r r r r r r r u u u u f i u p c n n b A ` +.I.8XSXGXGXsX+Xw.[ F Z F J m v x x x a a a v n S I ! ,.n._.>XrXbXFXFXFXmXbXrX<X#X[.].{._.(.F.D.V.V.V.V.V.V.M.A.^.|.*XwXrXaXaXwX&X X`.A.6.R u r 2 , ; ; ; ; - - - - - - - - - - - - - * * * @ @ @ @ @ @ $ $ @ @ @ @ @ @ + + + + + + + + + + + + X X X X + + . . . . . . . . . . . . . . . . . . . . . . . . X X X X X X X X + + X X X X + + + + + + + + + + + + + + + + + + + @ @ @ @ @ @ @ @ @ @ @ @ @ - - - - - - - - - - - - - - - ; ; ; , , 1 2 8 p Y :.V.G.`.|.&X;X0XqXaXaXrX<X$X_.A.m.N.N.N.N.V.V.D.F._.`.{.[.@X:XaXbXxXzXAXbX:X/.m.g.=.T H Z c a a a a a x x z z v Z I ~ ' ( #.E.DXAXGXKXhXI.{ B Z I D M m x x a i r u u u r r r r r e e e e e e e e e e e r r r r r u u i a B H Q  .a.s.Z.V.V.V.D.G.D.D.F.F.F.F.(.).(.(.(.(._._.{.{.{.{.{.{.[.[.$X&X>X>X<XwXrXaXdXbXMXMXDXGXFXAXZXZXAXFXSXmXfXtX:X;X}.`.S.e.<.} E K N x a u s s s u i i a a a a a x p p x x B B G J b b Z Z F Y O.O.U.Y.OX0XdXSXFXGXKXGXGXZXZXzXAXHXGXGXFXFX",
"V ) @.Y.+XhXCXLXSXSXSXFXAXFXGXKXAXFXFXFXFXSXmXcX3XOXP.#.[ ( Y E Z Z Z K K K n v N x a a a a p u u i u u p p p p y y i i a a N C S Z A Y | <.e.e.^.^.{.$X>XwXrXrXmXSXSXGXFXAXZXzXGXAXZXZXSXmXmXnXaXaXaXrXwX<X<X<X>X#X&X$X|.{.{.`._._._.(.(.D.p.=.F b a u u r r r r r r r r r r r 8 9 9 9 8 9 9 9 r r r r r u u u 8 r s s p p x K K S n K { I.8XbXGXGXmX+XP.o.K l M n n v x x a i g f a m S T  .,.M.^.#XaXmXSXFXGXSXbXqX:X&X%X{._._.(.F.D.V.V.V.N.N.N.N.A.].&XwXrXrX0X+X#X|.(.8.Q i r 2 1 , ; ; ; - - - - - - - - - - - - - * * * @ @ @ @ @ @ @ $ @ @ @ @ @ @ @ @ + + + + + + + + + + + + X X X + . . . . . . . . . . . . . . . . . . . . . . . . X X X X X X X X + + + X X X X + + + + + + + + + + + + + + + + + + + @ @ @ @ @ @ @ @ @ @ @ @ $ - - - - - - - - - - - - - - ; ; ; , , 1 2 8 p R 7.m.G.}.&X>XwXaXiXaXrX1X*X/.A.N.j.j.j.N.V.D.F.^.^._.|.$X:XqXcXSXFXzXvX<X{.C.i.;.! K v x a a x b Z N a p m L L n z | ` @.yXLXGXZXzX+XP.[ D / / n z m p p a i u 9 0 r r r r r r e e 8 8 8 8 8 8 8 8 8 8 e e 9 r r r u u i a B Y  .=.s.m.V.D.D.D.F.G.G.).).).F.F.F.(.F.(.(.(._.{.|.|.$X$X$X&X#X>X<XeXqXiXdXbXcXvXSXFXxXzXAXFXFXGXSXSXmXbXsX,X.X!.e.<.-. .R F b a i r a p p p u u p a u i a c c c n B G G F Z Z S I W K J { @.P.R.:XrXSXSXDXGXGXGXAXAXxXZXFXGXGXGXFXFXVXgX+XR.",
"m n F ( ) { { #.OX2XhXVXDXAXzXxXZXZXAXAXGXGXGXKXFXFXGXVXhXOXP.@.o.] Y H A A S D B B x x x x x x a a a a a x x x u u u q q q z z s s s z Z U R Q 7.p.b.A.(.`..X X>X<XwXqXpXZXFXGXGXGXFXFXFXFXGXFXSXSXSXmXMXnXdXdXrXrXwX:X#X@X[.].|.[.].{._.F.p.=.F b a u u u u r r r 9 9 9 9 r r 8 8 8 8 8 8 8 8 e e r r r r r r r r r t i a a a C c x v Z H | <.L.UXGXKXGXyXU.o.G F b v z x x N g t i i z v A U %.2.b.Q.#XrXbXSXGXDXmXbXsXeX*X$X[.].^.F.F.D.V.V.j.j.a.i.b.'.$X>XwXrXqXwX<X%Xb.! i r 2 1 , ; ; ; - - - - - - - - - - - - * * * * @ @ @ @ @ @ $ $ @ @ @ @ @ @ @ @ + + + + + + + + + + X + X X X X . . . . . . . . . . . . . . . . . . . . . . . . X X X X X X X X + + X X X X + + + + + + + + + + + + + + + + + + + + @ @ @ @ @ @ @ @ @ @ @ @ $ $ - - - - - - - - - - - - - ; ; ; , , 1 2 8 p } p.G.`.$X>X:XrXrXrX3X*X.X'.v.c.h.j.N.N.V.F.(./.[.[.|.&XrXbXSXGXSXmXaX&XD.u.&.^ C g x a a a N x v A x N B b z B ) { K.jXKXGXFXnXOX+.' Y J S m p a V p u i t r r 0 0 r r e e 8 e 8 8 8 8 8 8 8 8 8 8 8 8 8 e 9 r 9 9 u u a a B Y  .2.s.m.V.D.F.F.F.(.G.).).(.S.S.S.S.'./._.{. X$X&X&X&X>X<X<XwXqXaXdXcXmXSXAXAXFXFXGXGXGXFXFXSXbXdXaX>X[.U.q.| Q T I i t r u u a a x p a a p p z x x p x x x z z v B A H Y E [ O.o.t.R.+XyXnXDXFXGXGXAXAXZXAXAXHXHXHXGXGXFXnXtX4X~.U.O.[ K c ",
"r r u p z n L L F G [ #.P.R.iXnXDXGXGXFXFXZXzXxXFXFXFXFXGXKXKXKXkXuXR.P.+.{ ] ` ` J F F F F F F b b b x x a p p x x x z m m m m i i i p p z b b E ~ >.,.9.e.e.e.n.'.'..X@X1XhXIXMXDXGXFXFXFXAXFXFXFXGXGXGXFXFXSXmXbXbXiXrX:X;X#X&X$X@X$X|._.x.=.F B x a u u u u r r 9 9 r r r r 8 8 8 8 9 9 9 8 y e e e r r r r d r 8 e t t u 9 r u a x x z m D P O.T.yXSXGXmX9XI.@.{ J Z v b B x x a a a x x v Z U ~ :.e.W.$X<XfXnXDXGXSXbXaXwX,X#X[.{._.(.F.A.m.i.%.%.;.e.'.{.,XeXsXdXaX,Xn.} u r 2 , , ; ; ; - - - - - - - - - - - - * * * * $ $ @ @ @ @ @ @ @ @ @ @ @ @ @ @ + + + + + + + + X X X X X X + + . . . . . . . . . . . . . . . . . . . . . . . . X X X X X X X X X X X X X X X X + + + + + + + + + + + + + + + + @ @ @ @ @ @ @ @ @ @ @ @ @ @ $ $ - - - - - - - - - - - - - ; ; ; , , 1 2 2 x  .s.{.*X<XwXwXeX,X X!.r.e.8.p.h.N.V.S.F.(._.{.$X#X1XwXaXmXFXDXnXeX@XG.b.=.T S x i t a p a x x x x B x K J ( ) @.R.uXLXLXJXgXI.{ U ^ L b p a f f r e a i i t e r 0 9 8 8 8 8 8 8 8 e 8 2 2 8 8 8 8 8 8 8 8 8 9 8 9 9 u u u a F R -.7.m.V.D.F.F.(.(.'._._._._././././. X[.$X$X&X>X<X<X<XwXrXaXdXbXbXmXSXFXFXFXGXSXmXbXMXdXrX<X#X~.P.w.o.| Y Z v z z v t t t i x x n b a a N x x x b B F F F Z Z H ` { W O.$.T.R.8XmXSXFXFXGXGXGXFXAXSXGXFXFXFXFXFXFXSX4XY.P.+.{ ( F Z z p a a ",
"3 0 0 r u a x x F K K D S I R } o.w.Y.2XfXDXGXGXFXFXAXFXFXFXFXFXFXFXFXDXVXhX2XOXq.o.] Y J H F F x b x x x x x a a a a i i i t r i i i u u r i i a x F Y Q  . . .2.8.d.x.x.b.n.(.+XqXbXSXFXGXGXGXAXFXAXAXAXAXAXAXFXFXFXSXmXdXsXrX,X,X>X&X$X{.v.:.F B x a s i u u r r 9 9 r r r r r r r r r r r r e e e e e r r r 9 r i t 2 1 0 d u r u i i i f N T T Y { K.UXZXFXKXsX~.+.E S b b D S v x f f x x t a S ~ %.7.v._.#XwXbXFXGXAXvXcXtXeX>X$X|.{./.^.G.e.=.~ ~ -.e.n./.@X+XiXaX<Xn.} u r 2 , ; ; ; ; - - - - - - - - - - - - * * * * $ $ $ @ @ @ @ @ @ @ @ @ @ @ @ @ + + + + + + + + X X X X X X X + . . . . . . . . . . . . . . . . . . . . . . . . X X X X X X X X X X X X X X X X + + + + + + + + + + + + + + + + @ @ @ @ @ @ @ @ @ @ @ @ @ @ $ $ - - - - - - - - - - - - - ; ; ; , , 1 2 2 x  .m.#X<XrXrXwX,X'.x.<. .! 1.d.C.D.F._.{. X$X&X>XeXtXVXDXAXZXbX1X'.p.~ U N g g N S S x z x b x a a g L F J q.4XCXGXFXSXqXw.J S L K b u u s s i r r h 9 8 e e 8 9 r u 8 8 8 8 8 8 8 8 8 8 8 8 8 8 2 8 8 8 8 8 9 8 9 9 u u u a Z R :.9.D.D.F.(._.`.`.}.|.|.|.$X$X$X&X&X&X&X&X>X<XwXwXrXaXaXbXmXSXSXGXGXFXFXFXFXSXbXaX0X{./.n.e.-.Y S l v v z s s t t t v v b x x a u r a f N N N x B F Y Y Y Y ] o.t.T.bXmXSXFXFXFXGXGXGXGXGXFXZXHXHXGXGXmXpX2X~.t.o.Y } R H F B b c s M s u e ",
"2 2 2 e e r r r p p a x x x B B G G J Y ] +.r.T.qXdXMXDXGXFXFXGXFXFXFXFXAXZXHXHXGXmX9X+XY.q.| R ~ ~ I I A F F B v v b N f t t t p p p p a a i i h h i u p b J [ 0.0.0.0.:.:.2.7.Z.Z.b.n.~.=X1XtXSXSXFXFXFXFXGXGXFXFXFXFXFXFXSXSXHXcXiXrX0X;XW.%.F B x a a a a p u u u u u u u u r r 9 r e e e 8 8 8 8 8 8 8 8 8 e e e e e e e e r r r r u s s s a N B b F [ t.6XZXFXKXVXE.@.[ K C N N B M l b G p x x x b U ..9.C._.&XpXZXFXHXHXvXbXsXeX&X|.{._.G.b.=.A z s P D %.9.oX>XaXwX!. .u r 2 < ; ; - - - - - - - - - - - - - - - $ $ $ $ $ @ @ @ @ @ @ @ @ @ @ @ @ + + + + + + + + + + X X X X X X + + X X X X X X X X . . . . . . . . X X X X X X X X X X X X X X X X X + + X X X X X + + + + + + + + @ @ @ @ @ @ @ @ @ + @ @ @ @ @ @ @ @ @ - - - - - $ $ $ - - - - - - - - - - - - - ; 1 1 < e a } A.8X0XeX1X&X(.x.4.J G K ~ l.D.(.{.~.$X,X<XwXdXSXFXHXFXdX,XXXH.-.Y P P B x a a a a t r p P K Z A Y _ P.gXFXFXFXfXOXO.` H B N x a a r r r r r r r r r r 9 9 8 8 8 8 8 8 8 8 8 8 2 2 5 5 2 2 2 8 8 8 9 9 8 8 r r r r u i a a F Q 6.c.F.F.F.F.^._./.Q.>X<X<X>X&X&X&X&X<X<XwXrXiXcXlXZXZXZXAXAXGXFXHXAXMXdXrX#X{.S.c.a.| ' G B x a a a w q q q p z x n h i u p x b b b G G J J U T Q  .| q.~.yXbXSXFXFXAXAXAXAXFXFXFXFXFXFXFXDXBXuX2XOXt.<.| ` F F B P x x a a a i u u e e 8 2 ",
"2 2 2 2 e e r r u u u p a a x x B B Z Z F G [ { ( ] +.w.I.+XgXBXmXSXGXGXGXFXFXFXGXGXFXFXFXSXmXdXR.I.+.] G H G G J H B b m M M / V B a u u p s d 9 r s s p p q q v Z H H Y } >.9.2.7.x.v.^.{.$X$XeXtXfXMXSXDXDXMXAXAXZXZXAXFXGXGXGXSXmXhXsXwX/.4.J F B x a a a a i u u u u u u u r r r r e e 8 e 8 8 8 8 8 8 8 8 e e e e e e e e r r r r u u u u a a c x b F J ] #.P.qXFXGXSX+XP.} U Z b V N i w N a i a x B F A -.<.W.&XrXbXSXAXAXSXbXaX<X$X{.`.S.v.6.R C a a z  .9.n.$XrXeX'.=.y e 2 < ; ; - ; - - - - - - - - - - - - - $ $ $ $ $ @ @ @ @ @ @ @ @ @ @ @ @ + @ + + + + + + + + X + X X X X + + X X X X X X X X . . . . . . . . X X X X X X X X X X X X X X X X + + + + X X X X + + + + + + + + @ @ @ @ @ @ + + @ @ @ @ @ @ @ @ @ @ @ - - - - - $ $ $ - - - - - - - - - - - - - ; 1 < < 2 i ] H.<X>X&X[.n.<.} T b F ' :.V.D.S.Q.|.&X<XrXcXDXGXGXVXqX~.q.| R F B f a p p m m c x _ V B v z G #.T.pXMXKXVXyXT.{ b J F b x a a u u r r r e e e e e y e e e 8 8 8 8 8 8 8 8 2 2 2 2 2 2 2 2 8 8 8 8 8 8 8 8 r r r r u i a x Z Q 7.c.D.F.(.(._. X|.|.&X,X,X>X<XeXtXsXnXnXMXSXGXFXFXFXGXGXDXMXfXtX<X&XS.b.q...' G b z q q p p s s s u g g f N x p p q V V B F H J E E F K K O.#.T.2XsXFXFXFXSXZXZXJXIXFXFXGXGXGXGXMXbXkX3XY.@.#.{ ` J ` Y G F b x x a a a a u u u r r 2 2 2 1 ",
"< < 1 2 2 2 8 e e r r r u u u i p p z z z z x B S S A H J [ o.o.I.R.+XtXnXDXGXGXZXAXAXGXGXGXFXZXZXZXSXcX8XY.t.$.K K A F F F Z v a a a x c c s s a a a p p s s d u u u a a B Y O.d.Z.Z.Z.A.A.A.v.].@X:XaXnXNXNXNXSXHXGXGXAXAXxXxXDXFXGXJXnXdX|.y.R U F B x a a p i i u u u u u u r r r r r e 8 8 8 8 8 8 8 8 8 8 e e e e e e e e e r r r r r u u u u u s m v x x D H o.I.iXSXFXFXwX~.+.F x a s d a i r u i a N N x U :.v._.>XaXmXFXFXAXmXaX<X%X}._.A.6.T v p i a H R ,.S.&X,X^.=.r e 1 < ; : ; ; - - - - - - - - - - - - - $ $ $ $ $ @ @ @ @ @ @ @ @ @ @ @ @ @ @ + + + + + + + + + + + + X + + + X X X X X X X X . . . . . . . . X X X X X X X X X X X X X X X X + + + + + + X X + + + + + + + + @ @ @ @ @ @ + + @ @ @ @ @ @ @ @ @ @ @ - $ $ - - $ $ $ - - - - - ; ; ; ; ; ; ; ; : 2 , , 2 r ` t.$X{.S.9.} H v m z K ' 6.A._.[.5XwXrXdXNXHXMXfXrXQ.r.o.J B x a i P a p c x z z b D S b ) @.E.NXDXLXVXOX@.( B b B b x p u i i r r e e e e e 8 e e e e 8 8 8 8 8 8 2 2 2 2 2 2 2 2 2 2 2 2 2 8 8 8 8 8 8 8 r r r r u i a b H ! 7.V.F.(.}. X$X&X>X>X,X3XeX0XqXpXcXvXxXAXHXGXGXGXFXFXBXsXeX@XQ.r.e.6.&.~ I S m d y y d d s s p p a a q p x N N N V V / / D I U Y ' { oX4XgXmXFXFXAXZXHXHXAXGXGXGXGXGXDXMXfX0X+XY.K.@.] [ H Z Z S S S b x x x a a u u r r r r e e 8 8 1 1 , , ",
"; : ; < 1 1 2 2 2 8 8 e e e r r r u u s s s a x B B F Z Z Z S S F G [ o.w.U.~.4XmXSXSXFXFXAXAXZXGXGXGXFXFXFXSXmXkX4XI.@.{ ] ' Y L K K K K B x z B b x p u i i f s s i i i a x n A A T -.9.H.6X6X X$X>XwXrXaXiXqX0XrXdXMXDXGXGXGXFXGXGXzXlXmX&Xi. .Q U F b x p p a u u u u u r r r r r r r e 8 8 8 8 8 8 8 8 8 8 e e e e e e e e e e e e r r r r r r 9 9 s s c x Z S m m ( @.+XnXGXGXNXY.o.W U A x n P c p r r u a m I ~ :.r.[.,XbXmXFXFXSXbXwX>X$X(.7.~ S s i i u z H -.n.`.e.Q r 8 1 : ; ; ; - - - - - - - - - - - - - - $ $ $ $ $ @ @ @ @ @ @ @ @ @ @ @ @ @ @ + + + + + + + + + + + + + + + + X X X X X X X X . . . . . . . . X X X X X X X X X X X X X X X X + + + + + + + X + + + + + + + + @ @ @ @ @ + + + @ @ @ @ @ @ @ @ @ @ @ - $ $ $ $ $ $ $ - - - - - ; ; ; ; ; ; ; ; ; 2 1 , 1 e B o.n.e...U v p p s v K T 6._.>XrXNXZXZXZXZXsX>X(.V.} R H B c s s s d q p V V b n D / O.w.+XmXGXFXcXP.#.( B z z N _ a u u u t t e e e 8 8 8 8 8 8 8 8 8 8 8 8 8 8 8 2 2 2 2 2 2 2 2 2 2 2 2 8 8 8 8 8 8 8 8 r r u s i a x Z E %.p.D. X*X,X<X0XwXrXaXnXnXMXSXSXFXFXFXSXSXmXbXfXrX<X>X`.S.e.| ` H b b a a a p p a a x u i i a a x B G n S n b v b F K H ' +.P.OXqXMXKXmXSXFXFXFXFXAXAXGXGXGXGXDXpX8X+XU.w.+.{ [ J K S v v b F K K n x p a a a i t r r e e e 5 2 2 2 2 < , ; ; ",
"; ; ; : ; < 1 1 1 2 2 2 2 2 e e t r r r r r r r 9 r a a N N V V S S S v Z F Y [ | o.w.Y.+XnXGXKXFXFXFXGXGXGXFXAXZXFXFXKXCXuXY.@.o.{ ( G H H Y E b Z n B N a i u s p i i a p z z C N b b F Y ] | n.n.Q.[.$X&X>X>X$X$X@X@X#X<XaXnXmXSXAXzXzXGX<X8.:. .R Y F b x z a a p u u u u r r r r r r e e e 8 8 8 8 8 8 8 8 8 8 8 8 e e e e 2 8 8 e e e r r t t r r 9 r u u 9 a c n b F [ O.L.UXFXGXnX=Xr.] v v S n m c a u x x s a B ' 9.Z.$X<XdXSXFXFXZXcX<X{.e.! W P p u 6 y p A | <.] F 0 2 1 , : : ; ; ; ; ; ; ; ; ; ; - - - - - $ $ $ $ $ @ @ @ @ @ @ @ @ @ @ @ @ @ @ + + + + + + + + X + + + + + X + X X X X X X X X . . . . . . . . X X X X X X X X X X X X X X X X + + + + + + + + + + + + + + + + @ @ @ @ @ @ @ @ + @ @ @ @ @ @ @ @ @ @ $ $ $ $ $ $ $ $ - - - - - ; ; ; ; ; ; ; ; - < 1 1 2 2 u F G B z q q u a f b A ~ 9.-XfXmXZXxXAXbXwX{.v.1.%.K b a u u u z z a a x B B b K O.K.8XKXKXMX2XP.o.V x x P P m q q r r r y y y e 2 8 2 2 2 2 2 2 2 8 8 8 8 8 8 8 8 2 2 2 2 2 2 2 2 2 2 2 8 8 8 e e 8 8 8 9 u u p p a x B H T =.c.(.<XtXfXpXcXvXSXSXxXAXFXFXGXGXSXmXaXeX>X~.!.r.q.o.} R H v p u i h 6 t t t a x b v x b F F Z Z Z A Z H J [ { +.w.T.iXpXbXSXSXSXAXAXAXAXFXFXFXFXSXSXnXaX+XY.w.q.| E Y H Z v S S D D C B x a i i t t u y r r e e 5 2 5 2 2 2 2 1 < < ; ; ; ; ",
"$ - - ; ; ; ; , < < 1 1 2 2 2 2 e e 5 2 e e e r y y r r r r r u B B B B b b b F ^ ^ W E R ] o.+.OX2XsXmXFXFXDXNXGXGXFXFXFXFXGXGXCXhX2XY.w.{ J Z K F n b n n n n z z x c c x z z r r r u u p a x A H ' | <.b.H.H.`.`.'.S.n.n./.{.8XiXbXJXKXDX,X9.2.:. .' Y H F Z x x x a p u u u r r r r r e e e 8 8 8 8 8 8 8 8 8 8 8 8 8 8 8 8 2 2 2 2 2 8 8 8 e e t t r r r r e t t f N B Z S ( o.U.qXFXGXmX8Xt.{ F z b F B B z a t h t x E ~ 9.r.~.eXmXFXFXAXfX>Xr...H b c c y y u q p c a r 8 1 , , : , ; ; ; ; ; ; ; ; ; ; - - - - - $ $ $ $ $ @ @ @ @ @ @ @ @ @ @ @ @ @ @ + + + + + + + + X X + + + + + + X X X X X X X X . . . . . . . . X X X X X X X X X X X X X X X X + + + X + + + + + + + + + + + + @ @ @ @ @ @ @ @ @ @ @ @ @ @ @ @ @ @ @ $ $ $ $ $ $ $ $ - - - - - ; ; ; ; ; ; ; ; - 1 1 1 2 1 8 u 8 0 0 y y a N B F A T q.3XJXFXFXJXfX>X^.8.Q K P a a a u p z v Z n n M m G +.R.iXGXFXbXE.@.] S l L c p u u 9 q d r e e e e e 2 2 8 2 2 2 2 2 2 2 8 2 2 2 8 8 8 8 2 8 2 2 2 2 2 2 2 5 8 e e r r r r r r u u p x x B F H E ~ ;.v.{.iXcXSXZXAXGXGXGXGXFXFXSXnXsX<XOXW.n.e.<.} E A S y y y i a c z z m c c c x x x N K K A Z Z A Y O.o.+.U.OX0XdXSXFXZXZXGXGXGXGXDXHXGXGXFXFXpX+XY.w.o.| ' U A A A A F F B B b x a p y r r e e e t e r e 8 2 2 2 2 5 2 2 2 1 , < : : ; ; ; - ",
"$ $ $ - ; ; : ; , , < 1 1 1 1 1 2 1 1 2 e y y y 5 5 5 8 0 w w j 8 8 r i a a a N N N B B F H E O.J E O.O.w.R.iXmXmXmXSXFXGXGXDXDXFXFXGXKXIXkXkX5XP.@.#.{ ` Y U I H K F B N x x x a a a a s a a a c c c x v v A I ..<.t.J.b.H.H.H.!.[.>XuXtXwXQ.>.:.>. .} R R U U b b b x x a a u r r r r r e e e 8 8 8 8 8 8 8 8 2 2 2 2 2 2 2 2 2 2 2 2 2 2 2 8 2 8 e y y y y y t t 8 8 u a N N H v S [ K.E.NXLXIXyXI.#.) F x z z z a i i a z z U ' <.r.@XrXbXSXDXbX#Xr.] B b D p a u 8 8 1 2 1 2 1 < , : , , , ; ; ; ; ; ; ; ; - - - - - - $ $ $ $ @ @ @ @ @ @ @ @ @ @ @ @ @ @ + + + + + + + + X X X X + + X + X X X X X X X X . . . . . . . . X X X X X X X X X X X X X X X X + + X X X X + X + + + + + + + + @ @ + @ + + @ @ + + @ @ @ @ @ @ @ @ @ $ $ $ - - $ $ $ - - - - - ; ; ; ; ; ; ; ; @ < 2 1 2 3 1 e 0 0 y i a N B F G ] q.Y.iXMXdXsX-X}.b.-.Y n a h r u x B B B b b l K [ +.R.dXGXGXuXY.#.V b x b B d q s s i t e e 8 8 e 8 8 2 5 5 5 2 2 2 2 2 2 2 2 2 2 2 2 2 2 e 8 8 8 8 2 2 2 2 5 e e e r r r r u u p a x b b Z G H Y ~ X.:.n.$XbXmXFXFXFXGXMXbXCXhX3X=X~.T.t.q.Y H Z v v v m p y y t a c v z z l v v v b x B B A H ` { #.P.R.4XmXmXFXGXGXGXGXGXGXGXGXGXGXmXbXdXE.Y.@.[ L D D K Z Z A n n m c c u u u i a i i t y y y y y 8 2 1 e e 2 2 2 2 2 3 1 1 < < < ; ; ; ; ; ; - ",
"$ $ $ - ; ; ; ; ; , , , , 1 , 1 3 1 1 2 8 8 2 1 8 8 8 r r e e e 0 y y y r r u i i s s s p p x x B B F H I I ~ ~ +.w.R.8XcXFXFXFXAXAXAXAXFXFXFXAXGXDXfXeX.Xr.<.Q Y H F B N N N N F b b z z p a a u i i i i i a a p x F J R Q =.:.e.v.(.`./.!.e.&.=. .Q R R R R T H F F b b x a a r r r r r e e e 8 8 8 8 8 8 8 8 2 2 2 2 2 2 2 2 2 2 2 2 2 2 2 2 0 0 8 8 8 8 8 0 9 9 d d y r y y w u a x b G q.~.ZXFXJXuXT.o.G C P n v v v x i t p v I =.e.].1XsXxXGXJXuXU.{ F S Z b a r 0 3 5 5 2 1 , , : , , , ; ; ; ; ; ; ; ; - - - - - - $ $ $ $ @ @ @ @ @ @ @ @ @ @ @ @ @ @ + + + + + + + + X X X X X + + + X X X X X X X X . . . . . . . . X X X X X X X X X X X X X X X X + + X X X X X X + + + + + + + + @ @ + + + @ @ @ + @ @ @ @ @ @ @ @ @ @ $ $ $ - - $ $ $ - - - - - ; ; ; ; ; ; ; ; $ < 2 1 2 3 < y 9 u u i a x Z A G t.=XbXGXcXR.n.<.] F x c c x v s c v v v x N C Y w.0XSXGXKX+X@.E A S S n u r i i i u 9 8 e e 5 8 e e e e e e e 2 2 2 2 2 2 2 2 2 2 2 2 2 2 2 e 8 8 8 8 8 8 2 2 e e e e r r r r a a a x b F K K Y Y R X.=.,.W.&XmXSXGXGXSXbXrX;Xn.e.<.R U H v l M d q u a a i i A Z v z p a g g N B B F H R } X.w.T.3XkXVXSXFXFXGXGXGXFXAXAXAXAXFXSXiX+XY.w...} ~ ~ I A A F B b b b x a r e t t s u r 8 8 8 2 2 e r e e 8 8 8 r 2 2 2 1 1 , , , , , , ; ; : ; ; - - - $ ",
"$ $ $ $ - - - - ; ; ; ; ; ; : : < < < < < < < < 1 1 2 2 2 2 2 2 8 8 8 8 e e e e r r r u u u u u a x x x x b B B H J J Y ] o.t.T.qXdXMXGXGXFXFXGXFXFXFXGXGXGXvXlX4XY.w.{ ' R T T I I S S v x a f i i i i i i a a a u u u p a C P ' } ..<.9.9.-.~ J J J G G G G G J J G G F B x x p p u u u u u r r r r r e e e e e 8 8 e 2 2 2 2 2 2 2 2 2 1 1 1 8 8 2 2 8 8 8 8 r r r r r r r e r y s a c x B B ] U.aXFXGXVXY.) W H Z b m q r g a p x n H } e.H.{.}.-XfXSXdXK.C N B C u 9 0 y e 2 2 1 1 , , , , ; : : : : : : ; ; ; ; ; - - - - - - * * @ @ @ @ $ @ @ @ @ @ @ @ @ @ @ + + + + + + + + + X X X . + + + + + + + + . . . . . . . . X X X X X X X X + + + + X X X X X X X X X X X X + + + + + + + + + + + + + + + + + + + + % % % % @ @ @ * - * - - - - - - - - - ; ; ; ; ; ; ; ; ; * ; : : : 1 8 0 0 u f N x B ( ] UXNXhX3XXX).H.i.] H z z c a i t x N B b m K { @.cXSXJXhXOX@.` A a a a i i r r r e e e e e e e e 8 8 8 8 2 2 2 2 2 2 2 2 2 2 2 2 2 2 2 5 e y e e 8 8 y y r y y y y r y s a x x x F F H J Y R R Q R Q }  . .:.x.H.>X>X$X{.n.,. .T x a p p p z m m f a p a s s i u i f N n n F H J T } o.@.P.E.9XDXAXAXAXAXFXGXGXGXFXFXFXDXBXuXOXY.O.X.[ J F F F B x x c c c a a a u u u u r r r r 8 8 e e 5 2 2 2 2 1 1 1 1 1 1 1 < < < < < < < : - ; ; - - - - - $ $ $ $ ",
"$ $ $ $ - - - - ; ; ; ; ; ; ; ; < < < < < < < < 1 1 2 2 2 2 2 2 8 8 8 8 e e e e r r r r u u u u p p a a a x x x b Z Z Z Z F ` ] L O.o.w.I.+XpXSXKXGXFXSXSXFXGXGXSXSXDXCXkX4Xw.{ [ [ ( ) [ ` J F D n m x x a f f p s c C C f i r v v Z A E I A v J J J J U U Y Y J J G F F B x x a a a p u u u u r r r r r e e e e e e e 2 2 2 2 2 2 2 2 2 2 2 2 8 8 8 2 8 8 8 8 r r r r r r r e r r u u a x x x l K [ @.R.hXKXGXR.@.) n V V N x a s d M m v G ] n.<.Y o.4XCXhX8XO.B a N V u 8 w 2 2 2 1 , 1 , , < < < < < < < , < ; ; ; ; - - - - - - * $ @ @ @ $ $ @ @ @ @ @ @ @ @ @ @ + + + + + + + + + X X X . . . . . . . . X X X X X X X X . . . . . . . . + + + + + + + + X X . . X X X + + + + + + + + + @ @ @ @ @ @ @ @ + + @ @ $ $ $ $ $ $ - - - - - - - - - - - ; ; ; : : ; ; ; ; : : , , : : < 2 r r c r u P L ] Y.MXkX3XY.q.o.| R H p p x N x x c P b M M K { R.bXLXLXgXI.{ V B b b p a p u r r r r e e e e e e e e 2 8 8 8 2 2 2 2 2 2 2 2 2 2 2 2 1 1 2 2 2 8 e e 8 8 8 r r r r r r r u u p p x x B F F H U Y R R Y R R R R Q  .-.o.o...| Y Z v z c c c a a p u u d s p z x B G G T T U H Y | q.t.OX3XhXIXLXGXGXAXGXGXGXGXGXGXSXmXjX4XI.@.#.{ ` ( J G F b b x x x a a a a a i i i r r r r r r r e 8 e 8 8 2 2 2 2 1 1 1 1 1 1 1 1 < < < < < < : : - - ; - - - - - $ $ $ $ ",
"$ $ $ $ - - - - - ; ; ; ; ; ; ; ; ; ; , ; < < < 1 1 1 1 2 2 2 2 2 2 2 8 8 e e e 8 e e 9 r r r r r r u u u u i a p p m m z z b B F F H H H E O.$.@.Y.uXIXLXDXSXSXGXGXGXFXFXAXAXZXSX9XI.@.{ R E I R U A v n M M d N a u 9 9 r u s w w q p m c c P K K K U U U U T H H H H F B b x x a a a a a a a u u u r r r r r r r e e 8 e e 5 8 8 8 8 2 2 2 2 8 8 8 8 8 8 8 8 e e r e r r r r r r r u u p a a B b m m ( @.R.iXGXSX8XK.) F S D V i 9 9 d P c p b H W L J @.+XDXmXY.) p N _ a 4 e 8 8 2 1 1 1 1 1 1 1 1 1 1 1 , 1 < , ; ; - - - - - - - - - $ $ $ @ @ @ @ @ @ @ @ @ @ @ @ + + + + + + + + + + X . . . . . . . . X X X X X X X X . . . . . . . . X X + + + + + + @ @ + + @ @ @ @ @ @ @ @ @ @ @ @ @ @ @ @ @ @ @ @ $ @ @ $ $ - - - - - - ; - ; - - - ; - ; ; , , , < 1 < < < < < < e 1 1 1 8 r u u f c d x @.hXVXaXr.o.G F H G C c g i u s m m S A L ) #.R.MXGXMX8X@.{ V x c M z q u u u r r r e e e e e e e e e e 8 8 8 8 8 8 8 8 8 8 8 8 8 8 8 8 2 8 2 8 8 e e e 8 9 r r r r u u p a a x x x b b F F F H H U Y U U Y Y H F Z Z Z S S v z p u y y q 9 9 9 u x C K f N B F K I I E I } t.T.2XfXDXGXFXFXFXFXAXAXAXAXFXSXdX8XR.P.+.{ ] J F Z v S D D x x x a a a a a u u u u r r r r r r 8 e 8 8 8 8 8 8 2 2 2 2 2 2 1 1 1 1 1 1 , , : : : : : ; ; ; - ; - - - - - - @ @ @ @ ",
"$ $ $ $ - - - - - - - - ; ; ; ; ; ; ; ; ; ; ; ; 1 1 1 1 1 1 2 2 2 2 2 2 2 2 2 2 2 2 8 8 8 9 e r e e e e r r r r 9 u s s s s c x b b F Z Z Z Z A J ( ( ) { @.OXkXmXmXSXFXFXFXFXGXJXGXGXGXJXhX4XT.0.O.' ` J K F b S n n n n c p q y u i i i i i i x x b Z H H H U H H H F F F b b x x x x a a a a a a u u u u u r r r r r e e e e e e e e e 8 8 8 8 8 8 8 8 8 8 8 e r e e r r r r 8 r r r u u u u f a x n m b F [ R.9XFXFXyXT.O.F v B N f u 9 d M p B G F v Z ] @.qXVXhXY.G p m x r e e 8 2 2 2 2 8 8 8 8 8 8 8 8 2 1 1 < , ; ; ; - - - - - - - - - - - - * * @ @ * @ @ @ @ @ + + # + + + + + + + + + + + + + + + + + + + + + + + . X X X . . . . . + + + + + # # @ @ @ @ @ @ @ @ @ @ * * - - - - - - - - - - - - - - - - - - - - ; ; ; ; ; ; ; ; ; ; , , , 1 1 1 2 2 2 2 2 2 2 2 8 8 8 y y r u p u V @.jXSXbXI.[ Y H Z K n s s h i f N B B B F G P.+XSXKXCXT.#._ n b x x a u w w u u r r r e e e e e e e e e e e 8 8 8 8 8 8 8 8 e e e e e e e e y r e r r r r r u u u u i a a a x x b b B B F F H H H H J H H H H H F b b z p u p p p p u u t h a x C K L n m l C b b B ) @.Y.-XvXvXZXZXzXzXzXHXZXAXGXKXLXBX8X+Xw.w.+.{ ( H Z Z v v Z F K n z q a a a a u u u r r r r e e e e e 8 8 8 8 2 2 2 2 2 2 2 2 2 2 2 2 < < < < < < ; ; : ; ; ; ; ; ; ; - - - - - - - $ @ @ @ @ ",
"@ @ @ @ - - - - - - - - - - ; ; ; ; ; ; ; ; ; ; < < < < < < < < 1 1 1 1 1 1 1 1 2 2 2 2 8 8 8 8 2 5 5 e e e e e r r r r r r u u 0 q p a N N V _ l m n S F F G G ( { w.Y.+XdXSXGXFXFXDXDXDXAXFXGXGXmX8XR.P.#.` Z D S S S Z F b x N N N x x p u u u u u a x B F F F F F F F F F F b x x x x x a a a a a a a i u u u u u r r r r r r r r r r r e e e e e e e e e e e e r r r r e r r r r r r u u u q 9 9 x N x b K v [ T.8XSXFXpXE.O.` B x x N x a / a a N Z D D Z [ P.aXJXyX@.G m r r r e 8 8 8 8 8 r r r r r r 8 2 2 2 2 1 < < , ; ; ; ; ; - - - - - - - - - - - * * @ @ @ @ @ + + + + + + + + + + + + + + + + + + + + + + + + + + + + + + + + + + + + + + @ @ % @ @ @ @ @ @ @ @ * * - - - - - - - - - - - - - - - - - ; ; ; ; ; ; ; ; ; < , , , 1 1 1 1 2 2 2 2 2 2 2 2 2 2 2 2 8 8 r y r u x K #.E.mXmXR.{ F F B K L c p p x x b Z n b V #.R.9XFXSXsXY.O.c c N M n B a u r r d r r r r r r r e e e e e e e e e e e e e e e e e r r r r r r r r r r r r u u u u p p a a a x x x x x b b b F F F F F F F F F F F F b b x p s y y t i a c x z v n b b b F F J ] | +.P.4XkXCXDXSXZXHXHXFXFXGXFXFXFXIXuXR.@.#.] ` Y S S v v S S K D C N a a i t t t r r r r r e 8 8 e e e e e 5 5 5 2 2 2 2 2 2 2 2 1 1 1 1 1 < < < < < < < ; ; ; ; ; ; ; ; ; ; ; ; - - - - - $ $ $ @ @ @ @ ",
"@ @ @ @ @ - * * - - - - - - - - - - ; ; ; ; ; ; , , , , , < < < < 1 1 1 1 1 1 1 2 2 2 2 2 2 2 2 2 2 2 2 5 5 e e e e e e e r r r t t t r r 0 w w B B B C B B b b ` ` ` J Y ] $.t.+XqXbXFXFXAXHXPXFXAXFXFXFXSXbXdXY.P.+.{ ( H K D b v S S S m m m u u u a a x N B F F B B B B B B B B B b x x x x x x x x a a a a p u u u u u u u r r r r r r r r r r e r r r r r e e r r r r e e r r r r r r r r d y q s p p a B D S v _ @.E.vXGXbX+X@.( n L S v w z B B m m F ( F b ( Y.bXmXP.z r r r r e 8 e 8 r r r r r r r r 5 5 2 2 2 2 1 1 , , , , ; ; ; ; - - - - - - - - - - - $ $ @ $ $ @ @ @ @ @ @ @ @ @ @ @ @ @ @ @ @ + + + + + + + + + + + + + + + + + + @ @ @ @ @ @ @ @ @ @ @ @ @ @ @ @ - - - - - - - - - - - - - - - - - ; ; ; ; ; ; ; ; , < 1 , , 1 2 2 2 8 8 8 8 8 8 8 8 8 8 8 8 r r 0 r 9 u G $.hXhX+X{ p D L ( a N x p x F H A D D ` +.R.gXDXFX3XT.) x x N N a u u u d d s t t r r r r r r r r e e e e e e e e r r r r r r r r r r r r r r r r r r u u u u u u a a x x x b b b B B B F F F F F B b b x x x a a N x a u u u u u i s c m S Z A A H J [ { @.Y.0XhXmXSXSXSXFXAXAXFXFXSXMXhXuXXXt.q.( ( ` [ O.^ ^ D G B B B b x z q r 9 8 8 e e t t 8 8 e e e e 8 8 8 8 8 2 2 2 2 2 2 2 2 2 1 < < < 1 1 1 < : : : : : : ; ; ; ; ; ; ; ; ; ; ; ; - - - - - - $ $ @ $ @ @ @ @ ",
"@ @ @ @ * @ * * * * @ - - - - - - - - - ; - ; ; ; ; ; ; ; ; ; ; , < < < < < < < < < < 1 1 1 1 1 2 2 2 2 2 2 2 2 2 2 2 e e r y y e 2 8 8 0 0 y y r r u u a a x x q z v n F F F H G J [ { @.R.iXMXmXSXFXGXGXGXGXSXGXFXmXgX4XT.#.[ ] ` H Z Z S m z x x x x b b b b x x x x b b B B B B B B B B x x b b x x x x a a a a a a a i i i r r r r r r r r r r r r r r r r e r r r e e e e r r r r e r r r t r r u s s p a x B V B n K #.I.bXJXIX4X+.G Z W n b v n D F B x n L F B { T.w.) u u r r r e e 8 e e e r r e e e e e e 5 2 2 2 2 , , , , , , ; ; ; ; - - - - - - - - - - $ $ $ $ @ @ @ @ @ @ @ @ @ @ @ @ @ @ @ @ @ @ + + + + + + @ @ @ @ @ @ @ @ @ @ @ @ @ @ @ @ @ @ @ + + + + + $ $ $ $ $ - - - - - - - - - - - - - - - ; ; ; ; , ; , , , 1 1 1 2 2 8 8 8 e e r r e r e e e e e r e 8 r r u V O.+X#.x D W K x b B B B B B F H Y W +.R.mXGXVXT.#.z m P B N f a s N a 9 0 0 8 e e e e e r r r r r e e e e e e e e r r r r r r r r r r r r r r r r u u u u a a a a x x b b B B F F F F F F F B B B x x x a u u r r i i u p p p a x z b Z H ` { #.@.I.4XkXIXLXGXFXFXKXKXGXDXDXMXbXpX6XT.q.o.' Y Y U K Z z q q q q m q q q u a g t t y y y y y 0 1 1 e e 8 e e e e e 8 8 2 2 2 2 1 1 1 1 1 < < : : : 1 < < < : : ; ; ; ; : ; ; ; ; ; ; ; ; ; - - - - - - - $ $ @ $ $ @ @ @ @ ",
"@ @ @ @ * @ * * @ @ @ - - - - - - - - - - - ; ; ; ; ; ; ; ; ; ; : : ; < < < < < : ; , , , 1 , , < < 1 1 1 2 2 2 2 2 2 8 8 8 8 1 8 e r r r e e 2 y y y s q q u u s h i i a a x N S S A U T R Q ~ +.w.Y.8XcXZXAXAXHXHXZXAXFXFXSXSX5X4Xr.+.] ` G V H H H F F Z Z v x x x x x x x x F F F B B B B B b b b x x x x x x x a a a a a a u u u u u r r r r r r r r r r r r r r r e e e e e e e e e e e e 0 0 r r e r r y t r w M n v Z E _ K.8XFXGXaXU.] J G F F B B n P b B B B B b m l u u r r r e e e e e e e e e e e e e e e 2 2 2 2 1 , , , , , , ; ; ; - - - - - - - - - - - $ $ $ $ $ $ $ @ @ @ @ @ @ @ @ @ @ @ @ @ @ + + + + + + + + + + + + + + @ $ $ $ @ @ @ @ $ $ $ $ % % $ $ $ $ $ $ $ $ $ $ - - - - - - $ $ - - - - - ; ; ; ; ; , , 1 1 1 1 8 8 8 8 r r r r r r r r r r r r r 8 e s i u a G n n n b b b B n U Z Z G B B [ J.9XFXLXuXP.{ H A K B a p q d s i 0 9 i i r 8 0 w e e e e r r 9 9 e e e e e e e e r r r r r r r r r r r r r r r r i a a a x x x N B B B F F F F F F F B b b x x z c x p u u r 8 8 8 r u a x x b F R } o.w.Y.+XnXKXFXFXFXFXZXZXAXHXHXlXUXE.P.+.X.E ` G F v m c f f z c a a i i t t i u r 8 0 0 0 0 r r r r 9 r r r e 8 2 8 2 8 2 8 8 2 2 2 1 1 1 1 < < < ; ; ; ; ; < < < : ; ; ; ; ; ; ; ; ; ; ; - ; ; ; ; - - - - - - - $ $ @ $ $ @ @ @ @ ",
"@ @ @ @ @ @ @ $ $ $ $ $ $ $ $ $ - - - - - - - - - ; ; ; ; ; ; ; : : ; ; ; ; ; ; < < < < < < : : < < < < < < < < 1 1 1 1 1 < 1 1 2 2 2 2 2 2 2 2 8 8 8 8 e e e e r r r r r r r r a a a c x x x x B F G J [ o.t.T.qXdXDXGXGXFXFXFXzXFXGXZXlX8XU.0. . .Q T T U K K H H H Z Z b b b b b b B F F F F B B B b b x x x x x x x x x a a a a a u u u u r u u r r r r r r e e e e e e e e 8 8 8 8 8 8 8 8 r r r r r r r r r u u u u p p p n x G +.4XCXSXSXU.@.[ Z Z F G _ N x a a a a s u r r r e 8 8 8 8 8 8 5 5 5 5 8 8 2 2 2 2 1 < < < 1 < < < ; ; ; ; - - - - - - - - $ $ @ @ @ @ $ + + + + + + + + + + + + + + + + + @ # + X X + # @ @ @ @ @ @ @ @ @ @ @ @ @ @ @ @ @ @ @ @ @ @ @ @ @ @ @ @ @ $ $ $ $ - - - - - - - - - - - - - - - - ; ; ; ; : < < < 2 2 8 e e e e 8 8 8 8 2 2 2 8 8 e e e r r u u u x x x x x x N N _ Y ^ ^ +.E.vXFXhX4X@.( B c x N i i u u r r r r e e e e e e e e 8 8 8 8 8 8 8 8 8 8 8 8 8 8 8 8 e e r r r u u u r r u a a x x x a x x x x x N N H H H F B x x c x a p u u r r r r r 9 9 9 u u a z z A T I Y +.U.jXgXVXGXGXAXAXAXGXFXGXMXhXjXR.I.X.X.` J F B B B c c c a a a i u r r r r r e e e e e e e e e 8 8 2 2 2 2 1 1 2 1 1 1 1 1 1 1 1 1 < < < < < < < < < : : : < < < < ; ; ; ; ; ; ; ; - - - - - - - - - - - - - - - - $ $ $ $ @ @ @ @ + + + + ",
"@ @ @ @ @ @ @ @ $ $ $ $ $ $ $ $ - - - - - - - - - - ; ; ; ; ; ; ; ; ; ; ; ; ; ; < < < < : : : : < < < < < < < < 1 1 1 1 1 1 < 1 2 2 2 2 2 2 2 2 8 8 8 8 e e e e r r r r r r r r u u i a a a a x x b n b b F ( { L O.#.P.Y.+XpXmXGXGXGXGXGXFXrX{.Z.Z.d.6.;.! R U Y Y H H F F F B F F B B F B B B x x x b b b b b x x x x a a a a a a a p u u u u u u u u r r r r e e e e e e e e 8 8 8 8 8 8 8 8 r r r r r r r r r r u u u u p p c C B N V #.R.kXnX<Xr.-.~ ^ D D B x x a a i u r r r r 8 8 8 8 8 8 8 8 2 2 8 8 8 e 8 2 2 2 2 1 1 1 1 < < , ; ; ; ; - - - - - - - - $ @ @ @ @ $ $ + + + + + + + + + + + + + + + + @ + X X X X + @ @ @ @ @ @ @ @ @ @ @ @ @ @ @ @ @ @ @ @ @ @ @ @ @ @ @ @ @ @ @ $ $ - - - - - - - - - - - - - - - ; ; ; ; ; < < < < 1 1 2 2 8 8 8 8 8 8 8 2 2 2 8 2 e e e r r u u u a a a x x x b B F I ! b.3XIXkXT.#.{ G x a p a u u u u r r r r r e e e e e e e e 8 8 8 8 8 8 8 8 8 8 8 8 8 8 8 8 e e r r r u u u r u i a a x x x x x x x x b B B F F F F b x x x p p p u u u u u r r p c n H Y R ....6.p.d.b.oX3XSXSXFXFXFXDXVXVX4XR.K.#.) ) F B J G F B b x x a a p p u u u r r r r r r e e e e e e e 8 8 8 8 8 2 2 2 2 2 2 2 2 1 1 1 1 1 1 1 1 < < < < < < < < : : : < < < < : ; ; ; ; ; ; ; ; - - - - - - - - - - - * - - - - $ $ $ $ @ @ @ @ + + + + ",
"@ @ @ @ @ @ @ @ @ @ $ @ @ @ @ @ - - - - - - - - ; ; ; ; ; ; ; ; ; ; ; ; ; ; ; ; ; ; ; ; ; ; ; ; < < : : < < < < 1 1 1 < < < < < 1 1 1 1 1 1 1 1 2 2 2 8 8 e e e r r r r r r r r r r r r r u u i u p s s p p x x Z F F F H E O.$.K.Y.4XhXJXVX>XF.G.C.V.m.a.2.=. .R Y Y J H F F F F F B B B B B b x x x x x x x x a a a a a a a a a a p p u u u u u u u u r r r r e e e e e e e e 8 8 8 8 8 8 8 8 r r r e r r r r 9 r r r u u u u 8 u c n x b ( [ =XQ.S.c.d.>.R H F b x x a i r r u r r r 8 8 8 8 r r r r r r r r r e 8 8 2 2 2 2 2 2 1 < , ; ; ; ; ; ; - - - - - - - - @ @ @ @ @ @ @ @ @ @ + + + + + + + + + + + + + . . . . O O + + + + + + + + @ @ @ @ @ @ @ @ @ @ @ @ @ @ @ @ @ @ @ @ @ $ $ $ - - - - - - ; ; - - - ; ; ; ; ; ; : : ; < < 1 1 1 1 2 2 8 8 8 8 8 8 8 8 8 8 8 e e e r r r u u u u u a a x b b Z E ~ 2.n.].U.o.S p p p p a i u r u u r r r r r e e e e e e e e e 8 8 8 8 8 8 8 8 8 8 8 8 8 8 8 8 e r r r u u u u u u a a x x x b x x x b b b B B b F F B B b b b P P P K K K H J x B K E >.6.p.c.M.M.D.G.G.G.XX3XLXVXfX:XY.w.{ ) [ J F Z S D D D x x x p p u u u r r r r r r e e r r r e e e e e 2 2 2 2 2 2 2 2 2 2 2 2 1 1 1 1 < < < < 1 1 1 1 , , , , , , , , ; ; ; ; ; ; ; ; ; ; ; ; ; ; ; ; - - - - - - - - - - * * - - - - $ $ $ @ @ @ @ @ + + + + ",
"@ @ @ @ @ @ @ @ @ @ @ @ @ @ @ @ - - - - - - - - - - - - - - - - ; ; ; ; ; ; ; ; ; ; ; ; ; ; ; ; ; : ; ; ; ; ; ; < < < < : : < < , , 1 1 1 1 1 1 2 2 2 2 2 2 2 2 8 8 8 8 e e e e e e e e e r r r 9 r s s s p a a x x b b b v v Z n K Y ] +.r.H.l.N.N.j.s.a.2.;. .R Y Y H H F F F b b b B B B B B B b x x x x x x a a a a p p p a a a p p u u s u u u u r r r r r e e e e e e e e 8 8 8 8 8 8 8 8 e e e e e e e e 8 r r r 9 r u u i r 9 q M M m q v T 1.d.p.8.| ) J H Z x x i i t u u r r r r r r u u a a a a u u r r r r 8 8 8 8 2 2 1 1 < , ; ; ; ; ; - - - - - - - - $ $ $ @ @ @ @ @ @ @ @ @ @ + + + + + + + + + O . . . . O O X X X X X X X X @ @ @ @ @ @ @ @ @ @ @ @ @ @ @ @ @ @ @ @ $ $ - - - - - - - ; ; ; - - ; ; ; ; ; ; ; < : < < 1 1 1 2 2 8 e e 8 8 8 8 8 8 8 8 8 8 8 e e r r r u u u i i a x x b A K `  .:.;.} J F D M m s a i r r r r r r r r e e e e e e e e e e e 8 8 8 8 8 8 8 8 8 8 8 8 8 8 8 8 e e r r u u u u p a a x x b b b b b b b b F F F B B B F F F G K H H Y R Q  .=.=.-.:.6.p.m.V.V.D.D.D.V.V.N.c.v.n.o.o.] ` E E S S v v v n n n z q u u u u r r r r r e e e e e 5 5 8 8 e 8 e 2 2 2 1 1 1 1 1 1 1 1 1 1 1 1 1 1 1 1 < : < < < < < < ; ; ; ; , , , ; ; ; ; ; ; ; ; ; ; ; ; ; ; ; ; ; - - - - - - - - - - * * - - - - $ $ @ @ @ @ @ @ + + + + ",
"@ @ @ @ @ @ @ @ @ @ @ @ @ @ @ @ $ $ $ $ $ $ $ $ - - - - - - - - - - - - - - - - ; ; ; ; ; ; ; ; ; ; ; ; ; ; ; ; , , , , : : : : , , , , , , , 1 1 1 1 1 1 2 1 1 2 2 2 2 8 8 8 8 2 5 2 e e e e e r r r r r r r r 0 0 s a f N N V n S A Z F Y  .4.7.7.7.2.:.=.Q R R Y U H H F F F b b B B B B N N B x x x x x x x a a u u u u p p a a p p u u s u r r r r r r r r e e e e e e e e 8 8 8 8 8 8 8 8 8 8 8 8 8 8 8 8 8 8 8 e 9 9 r r t r r 9 9 q z n a B R ! %.Q U K U U H B x a a i a a i i u r r r u u a x x a u u r r r r r e 8 8 2 2 2 1 1 < , ; ; ; ; ; ; ; ; ; - - - - $ $ $ $ @ @ @ @ @ @ @ @ + + + + + + + + + O . . . . O + + + + + + + + + @ @ @ @ @ @ @ @ $ $ $ $ $ $ $ $ * * * - - - - - - - - - ; ; ; ; ; ; ; ; ; ; ; ; , < < 1 1 2 2 2 2 2 8 8 e 8 8 9 8 8 8 8 8 8 8 8 e e e r r u u u i i a x b B F K ) Y T ^ W F B b u u u r e 8 0 w r r 8 e e 8 8 8 e e e e 8 8 8 8 8 8 8 8 8 8 8 8 8 8 8 8 8 8 8 8 r r r u u p p p x x x x b b b b b b n b n F F F B B B F J Y Y Y Q  .=.2.7.a.s.s.V.V.V.V.N.N.V.V.B.c.p.7.2. .Q ' K F b x x x p p x a u r r r e e y y r r r e 8 8 8 8 8 2 2 2 2 2 8 2 2 2 2 2 2 2 1 1 1 1 , , , , < < < < < < < < : : , , , , , , ; ; ; ; ; ; ; ; ; ; ; ; ; ; ; ; - - - - - - - - - - - - - - - - $ $ @ @ $ $ $ $ @ @ @ @ @ @ @ @ + + + + ",
"+ @ @ @ @ @ @ @ @ @ @ @ @ @ @ @ $ $ $ $ $ $ $ $ $ $ $ $ $ $ $ $ - - - - - - - - - - - - - - - - ; ; ; ; ; ; ; ; ; ; ; ; ; ; ; ; , , , , , , , < < 1 1 1 1 1 1 1 1 1 2 2 2 2 2 2 2 2 2 2 2 8 8 8 e e e e e e r r t t t r 9 0 w w p b H J F B A T } }  .X.X.~ E Y R R Y U H H F F F F B B x x x a x x x x x x x x a i u u u u u p a a a u u u u u u u r r r r r r e e e e e e e e 8 8 8 8 8 8 8 8 8 8 8 8 8 8 8 8 e e e 8 9 9 9 9 1 8 i i i r u u g N F H A S D D U Y J F B x x x a a a a i i i i i a x b b x a i r r r r e e 8 8 2 2 2 2 1 1 < < , , ; ; ; ; ; ; - - - - - $ $ $ $ $ @ @ @ @ @ @ + + + + + + + + + + X . X X + + + + + + + + + + @ @ @ @ @ @ @ @ $ $ $ $ $ $ $ $ * * - - - - - - - - - ; ; ; ; ; ; ; ; ; ; ; ; ; < < 1 1 2 2 2 2 1 1 2 2 8 8 8 8 8 8 8 8 8 8 e e e e e r r u u u a a a x B B F F C F A F N i r 9 u r r r e 8 8 0 9 8 8 8 e e e e 8 8 8 8 8 8 8 8 8 8 8 8 8 8 8 8 8 8 8 8 8 8 8 8 r u u i a a x x B b B B b b b b x x x b b b B B C B F H Y R Q Q 7.7.i.p.Z.B.B.B.D.V.N.s.i.7.2.:.>.=. .} E K n b f a i i a s s s r 0 9 e e y y t y y e 8 8 8 2 2 2 2 2 2 2 2 2 2 2 1 1 1 1 1 < < 1 1 < < < , , , < < < < , , , ; ; ; ; ; ; ; ; ; ; ; ; ; ; ; ; ; - - - - - - - - - - - - - - - - $ $ $ $ $ $ $ - @ @ @ @ @ @ @ @ @ @ @ @ @ @ @ @ + + + + ",
"+ + @ @ @ @ @ @ @ @ @ @ @ @ @ @ $ $ @ $ $ $ $ $ $ $ $ $ $ $ $ $ - - - - - - - - - - - - - - - - ; ; ; ; ; ; ; ; ; ; ; ; ; ; ; ; , , , , , , < < , < < < < < < 1 1 1 1 1 1 1 1 1 1 1 1 2 2 2 2 2 1 2 2 8 e r r y 8 8 8 8 9 0 s d u p z q 9 q n W F F U Y Y E E ` R R Y U H H H H F F B B x x a a p p a a x x x x a a u u u u u a a a a a u u u r u u u u r r r r e e e e e e e e 8 8 8 8 8 8 8 8 8 8 8 8 2 2 8 8 e e e e 8 8 9 8 d 9 8 2 e t i i 0 q s x B F F G H H J J F b b b x x a a a i i i i a x B B x a i r r e e e e 8 2 2 2 2 2 1 1 < < , , ; ; ; ; ; ; - - - - - - $ $ - - - - - - * * + + + + + + + + + + X . . X + + @ @ @ @ @ @ @ @ @ @ @ @ @ @ @ @ $ $ $ $ $ $ $ $ * * * - - - - - - - ; ; ; ; ; ; ; , , , : : < < < < 1 1 2 2 2 2 1 1 2 2 8 8 8 8 9 9 9 9 9 9 9 9 e e e r r u u u a a x x B B B B m v F B a r s P i i u r y r e e 9 8 8 8 e e e e 2 2 2 2 2 2 2 2 8 8 8 8 8 8 8 8 8 8 8 8 8 8 8 8 r r u i a a x x B B F B B b b b x x x x x B B B B B F H R  .=.=.2.2.2.3.3.6.2.2.<.-. .Q R R R R T U J F b c a i i i s q 0 0 0 0 8 0 y y 0 1 1 , 2 2 2 2 2 2 2 2 2 2 2 1 1 2 2 2 1 1 1 1 < < < < < < < < < , , , : : : ; ; ; ; ; ; ; ; ; ; ; ; ; - - - - - - - - - - - - - - - - - - - - - - - - $ $ $ $ $ $ $ $ @ @ @ @ $ @ @ @ @ @ @ @ @ @ @ @ + + + + ",
"+ + + @ @ @ @ @ @ @ @ @ @ @ @ @ $ $ @ $ $ $ $ $ $ $ $ $ $ $ $ $ - - - - - - - - - - - - - - - - - - - - - - - - ; ; ; ; ; ; ; ; , , , , , < < < : : ; < < < < < , , , , 1 1 1 1 1 1 1 1 1 2 2 2 1 1 2 8 8 8 8 8 r r r u u u r r e r p a h t i x b b F H H U H H R Y U U H H H F F B B B N x a a a a a p p p p u a a u u u u p p x a a a u u u r u u u u u r u u e e e e e e e e 8 8 8 8 8 8 8 8 8 8 8 8 2 2 8 8 e e e e e e e 8 q 9 0 8 y y 0 q s s u u a x F H F H J J H Z b v x a a a i i u u r u x b b x u r r e e e e 5 2 2 2 2 2 2 1 1 < , , , ; ; ; ; ; ; - - - - - - - $ - - - - - - - * + + + + + + + + O O . . . . O O $ $ $ $ $ $ $ $ @ @ @ @ @ @ @ @ @ @ @ @ @ @ @ @ * * * - - - - - ; ; ; ; ; ; ; ; , , , , : : < < < 1 1 1 2 2 2 2 2 2 8 8 e 8 8 8 9 9 9 9 9 9 9 9 e e e r r u u u x x x x x N x x N b Z v q 0 8 9 u 9 9 0 0 r t t 9 8 8 e e e e e 2 2 2 2 2 2 2 2 8 8 8 8 8 8 8 8 8 8 8 8 8 8 8 8 r r u u p p a x F F F F B b b b a x x x x x N N n b Z U  .>.9.4.4.4.2.:.:.=. .Q s s p p z b F K A H G N a i u r 9 q q q 9 9 r t 8 8 8 8 8 8 8 0 2 2 2 2 2 2 8 8 1 1 1 1 1 1 1 1 , , 1 < , , ; ; < < < < < ; , , : : : ; ; ; ; ; ; ; ; ; ; ; ; ; - - - - - - - - - - - - - - - - - - - - - - - - $ $ $ $ $ $ - $ $ $ $ $ $ $ $ $ @ @ @ @ @ @ @ @ + + + + ",
"+ + + + + + + + @ @ @ @ @ @ @ @ @ @ @ @ @ @ $ $ $ $ $ $ $ $ $ $ $ $ - - - - - - - - - - - - - - - - - - - - - - - ; - - - - - - ; ; ; ; ; ; , , , , , , , , , , < < < < < < < < 1 1 1 1 1 1 < < 1 2 2 2 2 2 2 2 8 8 8 8 8 8 8 8 0 8 0 0 y y r r p p c x b b B F B B F F F F B B x x x x x x x x x x x c a a a a a a a a a a a a u u u r r r r r r u u u u u r r e e e e e 8 8 e e e e 2 2 2 2 2 e e e e e e e e 8 8 8 8 8 8 8 8 8 8 8 8 8 8 8 8 e e e r r u u u a a x x x x a a i u u u u u u i p p p a a a a a p u u u r e e e 8 8 8 2 1 1 , , < < , ; ; ; ; ; - - - - - - - - $ $ $ $ $ $ $ $ @ @ @ + + + + + + + X X X . o o @ @ $ $ - - * - $ $ $ @ @ @ $ $ $ @ @ $ - - - - - - - - - - - - - - - - - ; ; ; ; ; ; , < 1 1 1 1 1 1 2 2 2 2 2 e 8 e e e e r r r r r r r r r r r r r u u u u u a x x x x a a a a i u u r r r r 8 8 8 8 8 8 8 8 8 2 2 2 2 2 2 8 8 8 8 8 8 8 8 8 8 8 8 8 e e r r 8 8 8 8 8 8 8 8 u u p p x b b b K K H F F b x s c c x C B F F F H H Y R }  .=.>.R R R R R Y K K u u u u p c c x x x x a s u 9 8 8 8 8 8 8 8 8 8 2 2 2 2 2 2 2 2 1 1 1 1 1 1 < < < < < < < < < < < < < < < < < < , , , ; ; ; , , - - - ; - - - - - - - - - - - - - - - - - - - - - $ $ $ - - - - $ - - - - - - $ $ $ $ $ $ $ $ $ @ @ @ @ @ @ @ @ @ @ @ @ @ @ @ @ + + + + ",
"+ + + + + + + + @ @ @ @ @ @ @ @ @ @ @ @ @ @ $ $ $ $ $ $ $ $ $ $ $ $ - $ - - - - - - - - - - - - - - - - - - - - ; ; ; ; ; ; ; ; ; ; ; ; ; ; , , , , , , , , , , < < < < < < < < 1 1 1 1 < 1 < < < 1 2 2 1 1 2 2 8 8 8 8 8 8 8 8 8 8 8 8 8 8 8 0 u u u a x x x b B B B B B B B B x x x x x x x x x x a a a a a a p p p p p p p p u u u u r r r r r u u u u u r r e e e e e e e e e e e e e 8 8 8 e e e e e e e e 8 8 8 8 8 8 8 8 8 8 8 8 8 8 8 8 e e e r r r u u u a a a a a a u u u u u u u u u u u p p a a a a u u u r r e e e 8 8 8 2 1 1 1 , < < , ; ; ; ; ; - - - - - - - - $ $ $ $ $ $ $ $ @ @ @ + + + + + + + X X X . o o + @ @ @ $ $ * * $ $ $ $ @ @ @ @ $ @ @ $ - - - - - - - - - - - - - - - - - ; ; ; ; ; ; , < 1 1 1 1 1 1 2 2 2 2 2 e e r r e r r r r r r r r r r r r r r u u u u u a a a a a a p p i u u r r r r r 8 8 8 8 8 8 8 8 8 2 2 2 2 2 2 2 8 8 8 8 8 8 8 8 8 8 8 8 e e r r e e e e e e e r i a a x b B F G K H H H F Z b x x x x b b b B b F F H U Y R R R K G G H F b x p r r r u u s p p a a a u u r 8 8 2 2 2 2 2 2 2 2 2 2 2 2 2 2 2 2 1 1 1 1 < 1 < < < < < < < < < < < < < < < < < < , , , , ; ; ; ; ; ; ; ; ; ; ; ; - - - - - - - - - - - - - - - - - $ $ $ - - - - - - - - - - - $ $ $ $ $ $ $ $ $ @ @ @ @ @ @ @ @ @ @ @ @ @ @ @ @ + + + + ",
"+ + + + + + + + @ @ @ @ @ @ @ @ @ @ @ @ @ @ $ $ $ $ $ $ $ $ $ $ $ $ $ $ $ $ $ $ - - - - - - - - - - - - - - - - ; ; ; ; ; ; ; ; ; ; ; ; ; ; ; ; ; ; ; ; ; ; ; ; , , , , ; ; , , , , , , , < < < < < 1 1 1 1 1 2 8 8 2 2 2 2 2 8 2 2 2 1 2 2 2 2 r r r u u a a x x x x x x x x x a a a a p p p p a a a p p u u u u u u u u u u u u u u u u u r r u u u u u u u r r r r r r r r r r r r r r r r e e e e e e e e e y e e 8 8 8 8 8 8 8 8 8 8 8 8 8 2 2 e e r r r u u u u i i u u u u u r r r r r u u u u u u u u u u u u r r e e e 8 8 2 2 2 1 1 1 < < < < ; ; ; ; - - - - - - - - $ $ $ $ $ $ $ $ @ @ @ @ + + + + + + + X X . . . + + @ @ @ @ @ @ @ $ @ @ @ @ @ @ $ @ @ $ - - - - - - - - - - - - - - - - - ; ; ; ; ; ; , , < 1 1 2 2 2 8 8 8 8 8 r r r r r r r r r r r r r r r r r r r r u u u u u u u u u u u u u u r r r 8 8 8 8 8 8 8 8 8 8 8 8 8 2 2 2 2 2 2 8 8 8 8 8 8 8 8 8 8 8 8 e e r r r r r r r r r r u u a a x B F K F K Y Y R Y Y H x b b b b b b b F F F F F F b b a f a a i r 8 1 e 8 8 8 8 9 9 9 u u r r e 8 2 2 1 1 1 1 2 2 2 2 1 1 1 1 1 1 1 1 , , , , , < < < ; ; ; , , , , , ; ; ; ; ; ; ; ; ; ; ; ; ; ; ; ; ; ; ; ; ; ; ; ; - - - - - - - - - - - - - - - - $ $ $ $ $ $ $ $ $ $ $ $ - - - - @ @ @ @ @ @ @ @ @ @ @ @ @ @ @ @ @ @ @ @ @ @ @ @ + + + + ",
"+ + + + + + + + @ @ @ @ @ @ @ @ @ @ @ @ @ @ $ $ $ $ $ $ $ $ $ $ $ $ $ $ $ $ $ $ - - - - - - - - - - - - - - - - ; ; ; ; ; ; ; ; ; ; ; ; ; ; ; ; ; ; ; ; ; ; ; ; ; ; ; ; ; ; ; ; , , , , : : : : < < < 1 1 1 1 1 2 2 2 2 2 2 2 2 1 1 1 1 1 1 2 2 8 8 e r r u u i a a x x x x a a p a a a a p p p p u u u u u u u r r r r r r r r u u u u u u r r u u u u u u u r r r u u r r r r r r r r r r r r e e e e e e e e y y y e 8 8 8 8 8 8 8 8 8 8 8 8 2 2 2 8 8 r 9 r u u u u u u u u r r r r r r r r u u u u u u u u u r r r r e e e e 8 8 2 2 1 1 1 < < < < , ; ; ; - - - - - - - - $ $ $ $ $ $ $ $ @ @ @ @ + + + + + + + X X X . . O + + @ @ @ @ @ @ @ @ @ @ @ @ @ $ @ @ $ - - - - - - - - - - - - - - - - - ; ; ; ; ; ; , , 1 1 1 2 2 8 8 8 8 e e r r r r r r r r r r r r r r r r r r r r r r r r u u u u u u u u r r r r 8 8 8 8 8 8 8 8 8 8 8 8 2 8 8 8 2 2 2 2 8 8 8 8 8 8 8 8 8 8 8 8 e e e r r r r r r r r r r r u u p a x b N B J ' } } } } B B B B B B B b B B N N a i u r 2 e e r e 2 1 , 1 1 1 1 1 1 1 1 8 8 8 2 2 2 1 1 1 1 1 1 1 1 1 1 , , , , 1 1 1 1 , , , , : : : : ; ; ; ; , , , ; ; ; ; ; ; ; ; ; ; ; ; ; ; ; ; ; ; ; ; ; ; ; ; ; - - - - - - - - - - - - - - - - $ $ $ $ $ $ $ $ $ $ $ $ - - - $ @ @ @ @ @ @ @ @ @ @ @ @ @ @ @ @ @ @ @ @ @ @ @ @ + + + + ",
"+ + + + + + + + @ @ @ @ @ @ @ @ @ @ @ @ @ @ $ $ $ $ $ $ $ $ $ $ - - - - $ $ $ $ - - - - - - - - - - - - - - - - ; - - - - - - - ; ; ; ; ; ; ; ; ; ; ; ; ; ; ; ; ; ; ; ; ; ; ; ; ; ; ; ; ; ; ; ; : : ; < 1 1 1 1 1 1 1 1 1 1 1 1 1 1 , , 1 1 1 1 2 2 8 e r r u u a a a a a a a a u p p p p p p p u u u u r r r r r r r r r r r r u u u u u u u u r r u u u u u r r r r r r r u u u u u u r r r r e e e e 8 8 e e y y e 8 8 8 8 8 2 2 8 8 8 8 8 2 1 1 2 8 8 8 r r r r r r r r r r r r r 9 9 r r r r r r r r r r r r r r r r e e e e 8 8 2 2 1 1 1 1 < < < , ; ; ; ; - - - - - - - $ $ $ $ $ $ $ $ @ @ @ @ + + + + + + + X X X . . . . O + @ @ @ @ @ @ @ @ @ @ @ @ $ @ @ @ * * - - - - - - - - - - - - - - - - ; ; ; ; ; , , < < < 8 8 8 8 e 8 8 8 r r r r r r r r r r r r r r r r r r r r r r r r r r r r r r r r r r e 8 8 2 2 2 8 8 8 8 2 2 2 2 2 8 2 2 2 2 8 8 8 8 8 8 8 8 8 8 8 8 8 8 e e y y r r r r r r r r r r r u u p x x a x F J Y R R Y B B B B B B B x x a i r e 2 1 1 , 1 8 9 0 2 1 < , , ; ; ; ; ; - 1 1 1 1 1 < < , , , , , , , , , , , , , , , , , ; ; ; ; ; ; ; ; ; ; ; ; ; ; ; ; ; ; ; ; ; ; ; ; - - - - - - - - - - - - - - - - - - - - - - - - - - - - - - - - $ $ $ $ $ $ $ $ $ $ $ - - - $ $ @ @ @ @ @ @ @ @ @ @ @ @ @ @ @ @ @ @ @ @ @ @ @ @ + + + + ",
"+ + + + + + + + @ @ @ @ @ @ @ @ @ @ @ @ @ @ $ $ $ $ $ $ $ $ $ $ $ $ $ @ @ @ @ @ * * * * - - - - - - $ $ $ $ $ $ ; - - - - - - - ; ; ; ; ; ; - ; ; ; ; ; ; ; ; ; ; ; ; ; ; ; ; ; ; ; ; ; ; ; ; ; ; ; ; : , , , , , , , , , , , , 1 1 , , 1 1 < < 1 1 2 e e r r r u u u a a p u u u u u u u u u u u u u r r r r r u u u u u u u u u u u u u u r u r r u u u u u r r r r r r r r r r r r r r r r r e e e e 8 e e 8 y e 8 8 8 8 8 8 2 2 2 2 2 2 2 2 1 1 2 2 8 8 8 r r r r r r r r r r r r 8 8 r r r r r r r r r r r e e e e e e e e e 8 8 2 2 1 1 1 1 1 < < , ; ; ; - - - - - - - - $ $ $ $ $ $ $ $ @ @ @ @ + + + + + + + X X X . . . . O + + @ @ @ @ @ @ @ @ @ @ @ $ @ @ @ * * * - - - - - - - - - - - - - - - ; ; ; ; ; , , < < < 8 8 8 8 8 8 8 8 r r r r r r r r r r r r r r r r r r r r r r r r r r r e e e e r e e e 2 2 2 2 2 2 2 2 2 2 2 2 2 8 8 2 2 2 2 8 8 8 8 8 8 8 8 8 8 8 8 8 8 e e y y r r r r r r r r r r r u a x N B x B B F H F F b x x x x x a a a i u r e 2 < ; ; 1 1 8 0 8 8 1 < : ; - - - - - - ; ; , , , , ; ; ; ; , ; , , ; , ; ; ; ; ; ; ; ; ; ; ; ; ; ; ; ; ; ; ; ; ; ; ; ; - - - - - - - - - - - - - - - - - - - - - - - - - - - - - - - - - - - - - - - - $ $ $ $ $ $ $ $ @ @ @ @ @ $ @ @ @ @ @ @ @ @ @ @ @ @ @ @ @ @ @ @ @ @ @ @ @ @ @ @ + + + + ",
"+ + + + + + + + @ @ @ @ @ @ @ @ @ @ @ @ @ @ $ $ $ $ $ $ - - $ $ @ @ @ @ @ @ @ @ * * - - - - - - - $ $ $ $ $ $ $ - - - - - - - - - - - - - - - - - - - - - - - - - - - - - - - - ; ; ; ; ; ; ; ; ; ; ; ; , , , , , , , , , , , , , , , , , < < < 1 2 2 8 8 r r r u u u u u u u u r r r u u u u u u r r r r r e e u u u u u u u u u u u u r r r r r r u u u u u r e e e e e e e e r r r r r r r r e e e e e e 8 8 8 8 8 8 8 8 8 8 2 2 2 2 2 2 2 2 1 1 1 2 8 8 r r r r r 8 8 e e r r r r 8 8 r r r r r r r r e e e e e e e e e e e e 8 8 2 2 1 1 1 1 1 1 < < ; ; ; - - - - - - - - $ $ $ $ $ $ $ $ @ @ @ @ + + + + + + + X X X . . . . . + + + @ @ $ $ $ $ @ @ @ @ $ @ @ $ - - - - - - - - - - - - - - - - - ; ; ; ; ; ; ; , < < < 8 8 8 8 8 8 8 8 e e e e r r r r r r r r r r r r r r r r r r r r e e 8 8 2 8 8 8 e e 2 2 1 1 2 2 2 2 2 2 2 2 2 2 8 2 2 2 2 8 8 8 8 8 8 8 8 8 8 8 8 8 8 8 8 8 y e r r r r r r r r e e r r i a x N C B B B B x a a a a a a p u u u y y 8 1 < , : : , , 1 1 1 1 , ; ; - - - - - - - - - ; ; ; ; ; ; ; ; ; ; ; ; ; ; ; ; ; ; ; ; ; ; ; ; ; ; ; ; ; ; - - ; - - - - - - - - - - - - - - - - - - - - - - - - - - - - - - - - - - - - - - - - - - - - - $ $ $ $ $ $ $ $ @ @ @ @ @ @ @ @ @ @ @ @ @ @ @ @ @ @ @ @ @ @ @ @ @ @ @ @ @ @ @ @ + + + + ",
"+ + + + + + + + @ @ @ @ @ @ @ @ @ @ @ @ @ @ $ $ $ $ $ $ - - - $ @ @ @ @ @ @ @ @ - - - - - - - - $ $ $ $ $ $ $ $ - - - - - - - - - - - - - - - - - - - - - - - - - - - - - - - - - - - - - - - - ; ; ; ; ; , , , ; ; ; ; ; ; ; ; ; ; ; ; ; ; , < , 1 2 8 8 8 9 r r r r r r r r r r r r r r r r u r r r r r e e e u u u u u u u u u u u u u r r r r u u u u u u r e e 8 8 e e e e r r r r 9 9 9 8 e e e e e e 8 8 8 8 8 8 8 8 8 8 2 2 2 2 2 2 2 2 1 1 1 2 8 8 e r 8 8 8 8 8 8 8 8 r r r r r r r r e e r e e e 8 8 e e e e e e e e e 8 8 2 2 2 1 1 1 1 1 < < , ; ; - - - - - - - - $ $ $ $ $ $ $ $ @ @ @ @ + + + + + + + X X X . . . . . + + @ @ @ $ $ $ $ @ @ @ @ $ @ @ $ - - - - - - - - - - - - - - - - - ; ; ; : : ; ; , < < < 8 8 8 8 8 8 8 8 8 8 e e r r r r r r r r r r r u r r r r r r e e 8 8 2 1 1 1 2 2 e 2 2 2 1 1 2 1 2 2 2 2 2 2 2 2 8 2 2 2 8 8 8 8 8 8 8 8 8 8 8 8 8 8 8 8 8 8 e e r r r r r r r r e e e r r u p p x x x x a u y y p p u u u u y y 1 , , , ; - ; ; ; : : : < : : : ; ; - - - - - - - - - ; ; ; ; ; - - - - - - - - - - - - - - - - - - - - - - - - - - - - - - - - - - - - - - - - - - - - - - - - - - - - - - - - - - - - - - - - - - - - - - - - $ $ $ $ $ $ $ $ @ @ @ @ @ @ @ @ @ @ @ @ @ @ @ @ @ @ @ @ @ @ @ @ @ @ @ @ @ @ @ @ + + + + ",
"+ + + + + + + + + + + + + @ + + @ @ @ @ @ @ @ @ * * * * * * * * $ $ $ $ $ $ $ $ $ $ $ $ $ $ $ $ - - $ $ $ - - - $ $ $ $ $ $ $ $ - - - - - - - - - - - - - - - - - - - - - - - - ; ; ; ; - - - - ; ; ; ; ; ; ; ; ; ; ; ; ; ; ; ; ; ; ; ; ; ; < < 1 2 2 2 8 8 8 8 e r r r r r r u r r r r r r r r r r r r r r r r r r r r r r r r r r r r r r r r r e e e e e e e 9 9 9 9 8 8 8 8 8 8 8 8 8 8 e e 8 8 8 8 8 8 8 8 2 2 2 2 2 2 2 2 2 2 2 2 2 2 2 2 1 1 1 1 1 1 1 2 8 8 8 8 8 e e e 8 8 8 8 8 8 8 8 e e e e e e e e e e e e e e 2 2 e 8 2 2 2 1 1 1 < < < < , ; ; ; - - - - - $ $ $ * * @ $ $ $ % % @ @ @ @ @ + + + . . X X + + + + @ @ @ @ @ @ @ @ @ @ @ @ @ @ @ @ @ @ @ @ $ - - $ - - - - - - - - - - - - - ; ; ; : : ; , , 1 1 1 2 2 2 2 2 2 2 2 8 8 e e e e e e r r e e e e 5 5 e e 8 8 8 8 8 8 5 2 1 1 1 1 1 2 2 2 2 2 2 2 2 2 2 2 2 2 2 2 2 2 2 2 2 2 8 8 8 8 8 8 8 8 8 8 8 8 r r r r r r r r r r r r r r r r r r 9 9 r r r r u u u u u u r r i i t r e e 2 2 - - - - - - - - - - : , < 2 2 2 - - - - - - - - - - - - - - - - - - - - - - - - - - - - - - - - - - - - - - - - - - - - - - - - - - - - - - - - - - - - - - - - - - $ $ $ - - - $ $ - $ $ $ - - $ @ $ $ $ $ $ $ $ $ $ $ $ $ $ $ @ @ @ @ @ @ @ @ @ @ @ @ @ @ @ @ + + + + + + + + + + + + + + + + + + + + ",
"+ + + + + + + + + + + + + @ @ @ @ @ @ @ @ @ @ @ * * * * * * * * $ $ $ $ $ $ $ $ $ $ $ $ $ $ $ $ - - $ $ $ - - - $ $ $ $ $ $ $ $ - - - - - - - - - - - - - - - - - - - - - - - - ; ; ; ; ; ; ; ; ; ; ; ; ; ; ; ; ; ; ; ; ; ; ; ; ; ; ; ; ; ; < < 1 1 2 2 8 8 8 8 e e e r r r r r r r r r r r r r r r r r r r r r r r r r r r r r 8 8 9 8 9 9 9 9 e e e e e e e e 8 8 8 8 8 8 8 e 8 8 8 8 8 8 8 8 8 8 8 8 8 8 8 8 2 2 2 2 2 2 2 2 2 2 2 2 2 2 2 2 1 1 1 1 1 1 1 1 8 8 8 8 8 8 8 8 8 8 8 8 8 8 8 8 e e e e e e e e 8 8 8 8 8 8 2 2 8 8 2 2 1 1 1 1 < < < < , ; ; ; - - - - - $ $ $ * * @ $ @ @ @ @ @ @ @ @ @ + + + . X X + + + + + @ @ @ @ @ @ @ @ @ @ @ @ @ @ @ @ @ @ @ @ @ @ - $ - - - - - - - - - - - - - ; ; ; : : ; , , 1 1 1 1 2 2 2 2 2 2 2 8 8 8 e e e e e r r e e e 5 e 5 8 8 8 8 8 8 8 8 2 2 1 1 1 1 1 2 2 2 2 2 2 2 2 2 2 2 2 2 2 2 1 1 2 2 2 2 8 8 8 8 8 8 8 8 8 8 8 8 e e e e e e e r r r r r r r r r r 9 9 9 r r r r u u u u u r r r r r r e 8 2 1 1 - - - - - - - - - - ; : , < < 1 - - - - - - - - - - - - - - - - - - - - - - - - - - - - - - - - - - - - - - - - - - - - - - - - - - - - - - - - - - - - - - - - - - $ $ $ - - - - - - $ $ $ - - $ $ $ $ $ $ $ $ $ $ $ $ $ $ $ $ @ @ @ @ @ @ @ @ @ @ @ @ @ @ @ @ + + + + + + + + + + + + + + + + + + + + ",
"+ + + + + + + + + + + + + @ @ @ @ @ @ @ @ @ @ @ @ @ @ @ @ @ @ @ @ @ @ @ @ @ @ @ @ @ @ @ @ @ @ @ $ $ $ $ $ $ - - $ $ $ $ $ $ $ $ - - - - * - - - - - - - - - - - - - - - - - - - ; ; ; ; ; ; ; ; - - - - ; ; ; - ; ; ; ; ; ; ; ; ; ; ; ; ; : ; ; 1 1 1 1 2 2 8 8 8 8 8 8 8 r 9 9 r r r r r r r r r r r r r r r r r r r r r r r r 8 8 8 8 8 8 8 8 e e e e e e e e 8 8 8 8 8 8 e e 8 8 8 8 8 8 8 8 8 8 8 8 8 2 2 8 1 2 2 2 2 2 2 2 2 2 2 2 2 2 2 2 1 1 1 1 1 1 1 1 8 8 8 8 8 8 8 8 8 8 8 8 8 8 8 8 8 8 8 8 8 8 8 8 2 2 2 2 2 2 2 2 2 2 2 2 1 1 1 < < < < < , ; ; ; - - - - - $ $ $ - - @ $ @ @ @ @ @ @ @ @ + + + + O O + + @ @ @ @ @ @ @ @ @ @ @ @ @ @ @ @ @ @ @ @ $ $ @ @ @ @ @ @ - - - - - - - - - - - - - ; ; ; : : : , , < 1 1 1 1 1 2 2 2 2 2 8 8 8 8 e e e e r 8 8 e 5 5 2 2 8 8 8 8 8 8 8 8 2 2 1 1 1 1 1 2 2 2 2 2 2 2 2 2 1 2 1 1 2 1 1 1 2 2 2 2 8 2 2 8 8 8 8 8 8 8 8 8 8 8 8 8 e e e e r r e e r r r r r r 9 9 r r r r r r u u y r r 8 e 8 2 2 1 1 , , - - - - - - - - * - - ; ; ; ; ; * - - - - - - - - - - - - - - - - - - - - - - - - - - - - - - - - - - - - - - - - - - - - - - - - - - - - - - - - - - - - - - - $ $ $ $ $ $ $ $ - $ - - $ $ $ $ @ @ @ @ @ @ @ @ @ @ @ @ @ @ @ @ @ @ @ @ @ @ @ @ @ @ @ @ @ @ @ @ + + + + + + + + + + + + + + + + + + + + ",
"+ + + + + + + + + + + + + @ @ @ @ @ @ @ @ @ @ @ $ $ $ $ @ @ @ @ @ @ @ @ @ @ @ @ @ @ @ @ @ @ @ @ $ $ $ $ $ $ - - $ $ $ $ $ $ $ $ - - - - * * - - - - - - - - - - - - - - - - - - ; ; ; ; ; ; ; ; ; ; ; ; - - ; ; ; ; ; ; ; ; ; ; ; ; ; ; ; ; ; ; < < 1 1 1 1 2 2 2 2 2 8 8 8 8 8 e e e e e e e e e e e e e e e e e e e e e e e e 8 8 8 8 8 8 8 8 e e e e e e e e 8 8 8 8 8 8 e e 2 2 2 2 2 2 2 2 2 2 2 2 2 2 2 2 2 2 1 1 2 2 2 2 2 2 2 2 2 2 2 2 , , 1 1 1 1 1 1 2 2 2 2 2 2 2 2 2 2 2 2 2 2 2 2 2 2 2 2 2 2 2 2 2 2 2 2 2 2 2 2 2 2 2 1 1 1 < < < < < : , ; ; ; - - - - - $ $ $ - - @ @ @ @ + + @ @ @ + + + + + + + + @ @ @ @ @ $ $ $ @ $ $ $ $ @ @ @ @ @ @ @ @ $ @ @ @ @ @ @ @ - - - - - - - - - - - - - ; ; ; : : ; , , < < < 1 1 1 2 2 2 2 2 2 2 2 2 8 8 8 8 8 8 8 8 2 2 2 2 2 2 2 2 2 2 2 2 2 2 1 1 1 1 1 2 2 2 2 2 2 2 2 2 1 1 1 1 2 1 1 1 2 2 2 2 2 2 2 2 2 8 2 2 2 2 2 2 8 8 8 8 8 8 e e e e e e e e e e r r 9 9 9 r r r 9 r r y y e 8 8 2 2 1 1 , , ; ; ; ; ; ; ; ; ; ; @ @ @ * - - * * - - * * - - - - - - - - - - - - - - - - - - - - - - - - - - - - - - - - - - - - - - - - - - - - - - - - - - - - - - - - - - - - $ $ $ $ $ $ $ $ - - - - $ $ $ $ @ @ @ @ @ @ @ @ @ @ @ @ @ @ @ @ @ @ @ @ @ @ @ @ @ @ @ @ @ @ @ @ + + + + + + + + + + + + + + + + + + + + ",
"+ + + + + + + + + + + + + + + + @ @ @ @ @ @ @ @ @ @ @ @ @ @ @ @ @ @ @ @ @ @ @ @ @ @ @ @ @ @ @ @ $ $ $ $ - - - - $ $ $ $ $ $ $ $ - - - - - - - - - - - - - - - - - - - - - - - - - - - - - - ; ; - - - - - - - - - - - - - - - - - - ; ; ; ; ; ; , , , 1 1 1 1 1 2 2 2 2 2 8 8 8 8 8 8 8 8 8 8 8 8 8 8 8 8 8 8 8 8 8 8 8 8 8 8 8 8 8 8 8 8 8 8 8 8 8 8 8 8 8 e e 8 8 8 8 8 8 8 8 2 2 2 2 2 2 2 2 2 2 2 2 2 2 2 2 1 1 1 1 1 1 1 1 1 1 1 1 1 1 1 1 , , , 1 1 1 1 1 1 1 2 2 2 2 2 2 2 2 2 2 2 2 2 2 2 2 2 2 2 2 2 2 1 1 1 1 1 1 1 1 2 2 1 1 1 1 < < < < , , ; ; ; - - - - - - - - $ - - * @ @ @ + + @ @ + + + + X . + + + @ @ @ @ @ $ $ $ $ $ $ $ $ @ @ @ @ @ @ @ @ $ $ @ @ @ @ @ @ - - - - - - - - - - - - - - ; ; ; ; ; ; , < < < 1 1 1 1 1 2 2 2 2 2 2 2 2 2 8 2 8 8 2 2 2 2 2 2 2 2 2 2 2 2 2 2 2 1 1 1 1 1 2 2 2 2 2 2 2 2 2 2 2 2 2 1 1 1 1 1 2 2 2 2 2 2 2 2 2 2 2 2 2 2 2 2 8 8 2 8 8 8 8 8 8 8 8 8 8 8 8 8 8 8 9 9 8 8 8 8 8 e e r y 8 2 1 2 1 1 1 < , , ; , , , , , , , , - - - - - - * * - - - - - - - - * * * * * * * * - - - - - - - - - - - - - - - - - - - - - - - - - - - - - - - - - - - - - - - - - - - - - - - - - - - - $ $ $ $ - - - - $ $ $ $ @ @ @ @ @ @ @ @ @ @ @ @ @ @ @ @ @ @ @ @ @ @ @ @ @ @ @ @ @ @ @ @ + + + + + + + + + + + + + + + + + + + + ",
"+ + + + + + + + + + + + + + + + @ @ @ @ @ @ @ @ @ @ @ @ @ @ @ @ @ @ @ @ @ @ @ @ @ @ @ @ @ @ @ @ @ @ @ @ @ @ @ @ $ $ $ $ $ $ $ $ $ $ $ $ $ $ $ $ - - $ - $ $ $ $ - - - - * * - - - - - - - - ; - - - - - - - - - - - - - - - - - - - - ; ; ; ; ; ; ; ; , < < < 1 1 1 1 1 2 2 2 8 8 8 8 8 8 8 8 8 8 8 8 8 8 8 8 8 8 8 8 8 8 8 8 8 e e e e e e e e 8 8 8 8 8 8 2 2 8 8 8 8 8 8 8 8 2 2 2 2 2 2 2 2 2 2 2 2 2 2 2 2 1 1 1 1 1 1 1 1 1 1 2 2 2 2 2 2 , , , , < < 1 1 1 1 1 1 1 1 1 1 1 1 1 1 1 1 1 1 2 2 2 2 2 2 2 2 1 1 1 1 1 1 1 1 1 1 1 1 1 , , , , , , ; ; ; ; - - - - - - $ - $ * * @ @ @ @ + + + + + + + X . X + + + + @ @ @ @ @ @ @ @ @ @ @ @ @ @ @ @ @ @ @ @ $ $ @ @ @ @ @ @ - - - - - - - - - - - - - ; ; ; ; ; ; ; , < < < 1 1 1 1 1 2 2 2 1 1 1 1 2 2 2 2 2 2 2 2 1 2 2 2 1 1 1 1 1 1 1 1 1 1 1 1 2 2 2 2 2 2 2 2 2 2 1 1 2 2 2 1 1 1 1 1 2 2 2 2 2 2 2 2 2 2 2 2 2 2 2 2 2 2 2 2 2 8 8 8 8 8 8 8 8 8 8 8 8 8 8 8 8 8 8 8 8 8 8 8 2 2 1 1 2 2 2 1 1 1 1 1 1 1 1 1 1 1 1 1 ; : ; ; ; - - - * * * * * * * * - - - - - - - - - - - - - - - - - - - - - - - - - - - - - - - - - - $ - $ $ $ $ - - - - * * - - * * * * * * * * $ $ $ @ @ @ @ @ @ @ @ @ @ @ @ @ @ @ @ @ @ @ @ @ @ @ @ @ @ @ @ @ @ @ @ @ @ @ @ @ @ @ @ @ @ @ @ @ + + + + + + + + + + + + + + + + + + + + ",
"+ + + + + + + + + + + + + + + + @ @ @ @ @ @ @ @ + + + + @ @ @ @ @ @ @ @ @ @ @ @ @ @ @ @ @ @ @ @ @ @ @ @ @ @ @ @ $ $ $ $ $ $ $ $ $ $ $ $ $ $ $ $ $ $ $ $ $ $ $ $ - - - - * * * - - - - - - - - - - - - - - - - - - - - - - - - - - - - - ; ; ; ; ; ; ; ; ; < < < 1 1 1 1 1 2 2 2 2 2 8 8 2 2 2 2 8 8 8 8 2 2 2 2 2 2 8 8 8 8 2 2 8 8 8 8 8 8 8 8 2 2 2 2 2 2 2 2 2 2 2 2 2 2 2 2 1 1 2 2 2 2 2 2 1 1 1 1 2 2 2 2 1 1 1 1 1 1 1 1 1 1 1 1 1 1 1 1 < < < < < < < < 1 1 1 1 1 1 1 1 1 1 1 1 1 1 1 1 1 1 1 1 1 1 1 1 1 1 1 1 1 1 1 1 1 1 1 1 , , , : , , , ; ; ; ; - - - - - - $ $ - @ @ @ @ @ @ + + + + + + X . . . . . X + + + + + @ @ @ @ @ @ @ @ @ @ @ @ @ @ @ @ $ @ @ @ @ - - @ - - - - - - - - - - - - ; ; ; ; ; ; ; ; , < < < 1 1 1 1 1 1 1 2 1 1 1 1 1 2 2 2 2 2 2 1 1 1 1 1 1 1 1 1 1 1 1 1 1 1 1 2 2 2 2 2 1 1 1 1 1 1 1 1 2 2 2 2 1 1 1 1 2 2 2 2 2 2 2 2 2 2 2 2 2 2 2 2 2 2 2 2 2 2 2 2 8 8 8 8 8 8 8 8 8 8 8 8 8 8 8 8 8 8 2 1 1 1 1 1 2 2 2 2 1 1 1 1 1 1 1 1 1 1 1 1 1 < < ; ; - - - * * * * * * * * - - - - - - - - - - - - - - - - - - - - - - - - - - * * - - - - $ $ $ $ $ $ $ $ - - - - * * * - * * * * * * * * $ @ @ @ @ @ @ @ @ @ @ $ @ @ @ @ @ @ @ @ @ @ @ @ @ @ @ @ @ @ @ @ @ @ @ @ @ @ + + @ @ @ @ @ @ @ @ + + + + + + + + + + + + + + + + X X X X ",
"+ + + + + + + + + + + + + + + + @ @ @ @ @ @ @ @ @ + + + + + @ @ @ @ @ @ @ @ @ @ @ @ @ @ @ @ @ @ @ @ @ @ @ @ @ @ $ $ $ $ $ $ $ $ $ $ $ $ $ $ $ $ $ $ $ $ $ $ $ $ - - - - * * * - - - - - - - - - - - - - - - - - - - - - - - - - - - - - ; ; ; ; ; ; ; ; ; : < < < < 1 1 1 1 2 2 2 2 8 8 8 2 2 2 8 8 2 2 2 2 2 2 2 2 2 8 8 8 2 2 2 2 2 2 2 2 2 2 2 2 2 2 2 2 2 2 2 2 2 2 2 2 2 2 1 1 2 2 2 2 2 2 2 1 1 1 2 2 2 2 1 1 1 1 1 1 1 1 1 1 1 1 < < < < < < , < < < < < 1 1 1 1 1 1 1 1 1 1 1 1 1 1 1 1 1 1 1 1 1 1 1 1 1 1 1 < 1 1 1 1 1 1 1 < < , : : , , , ; ; ; ; - - - - - - $ $ $ @ @ @ @ @ @ @ @ + + + + . . . . . . X X + + + + @ @ @ @ @ @ @ @ @ @ @ @ @ @ @ @ $ @ @ @ $ - $ $ - - - - - - - - - - - - ; ; ; ; : : ; ; , < 1 1 1 1 1 1 1 1 1 1 1 1 1 1 1 1 2 2 2 2 2 1 1 1 1 1 1 1 1 1 1 1 1 1 1 1 1 2 2 2 2 2 1 1 1 1 1 1 1 1 2 2 2 2 2 2 1 1 1 2 2 2 2 2 2 2 2 2 2 2 2 2 2 2 2 2 2 2 2 2 2 2 8 8 8 8 8 8 8 8 8 8 8 8 8 8 8 8 e 8 2 1 , , , < 2 1 1 1 2 2 2 2 1 1 1 1 1 1 1 1 1 1 , ; - - - - * * * * * * * * - - - - - - - - - - - - - - - - - - - - - - - - - - - * - - - - $ $ $ $ $ $ $ $ - - - - * * * - * * * * * * * * @ @ @ @ @ @ @ @ @ @ @ $ @ @ @ @ @ @ @ @ @ @ @ @ @ @ @ @ @ @ @ @ @ @ @ @ @ + + + @ @ @ @ @ @ @ @ + + + + + + + + + + + + + + + + X X X X ",
"+ + + + + + + + + + + + + + + + + + + + + + + + + + + + + + + + @ @ @ @ + + @ @ @ @ @ @ @ @ @ @ @ @ @ @ @ @ @ @ @ @ $ $ $ $ $ $ $ $ $ @ @ @ $ $ - $ $ $ $ $ $ $ $ $ $ $ $ $ $ $ * * * * * * * * - - - - - - - - - - - - - - - - - - - - - - - - - - - - - - - - ; ; : < < 1 2 2 1 1 1 1 2 2 2 2 2 2 2 2 2 2 2 2 8 2 2 2 2 2 2 2 2 2 8 8 2 2 2 2 2 2 8 8 2 2 2 2 2 2 2 2 2 2 2 2 1 1 2 2 2 2 2 2 1 1 1 1 1 1 1 1 1 1 1 1 1 1 1 1 1 1 1 1 1 1 1 1 , , , , , , , , 1 1 1 1 1 1 1 1 < < 1 1 1 1 1 < 1 1 1 1 1 1 1 1 1 1 1 1 1 1 1 1 , , , , , , , , : ; ; ; ; ; ; ; ; ; ; - - - - - - * * * @ @ @ @ @ + + + + X . . o . X X + + + + @ @ @ @ + + + + + + + @ + @ @ @ @ @ @ $ $ $ @ @ * - - - - - - - - - ; ; ; ; ; , ; ; ; ; ; : : < < < < < < < < < , 1 1 1 1 1 1 1 1 1 1 1 1 1 1 1 1 1 1 1 1 1 1 1 < < , , , 1 1 1 , , , , , , , , 1 1 < < < < < < 1 1 1 1 1 1 1 1 1 1 1 1 2 2 1 1 2 2 2 2 2 2 2 2 2 2 2 2 2 2 2 2 2 2 2 2 2 2 2 2 2 2 1 2 < , , , ; , < < < 1 , , , , , , , < 1 1 ; ; ; ; ; ; - - $ $ $ $ $ $ $ $ * * * * * * * * - - - - - - - - - - - - - - - - * * * * * * * * * * * * * * * * $ $ $ $ - - - - $ $ $ $ $ $ $ $ $ $ $ $ $ $ $ $ @ @ @ @ @ @ @ @ @ @ @ @ @ @ @ @ @ @ @ @ @ @ @ @ + + @ @ @ @ @ @ + + + + + + + + + + + + + + + + + + + + + + + + X X X X ",
"+ + + + + + + + + + + + + + + + + + + + + + + + + + + + + + + + @ @ @ @ + + + @ @ @ @ @ @ @ @ @ @ @ @ @ @ @ @ @ @ @ @ @ $ $ @ $ $ $ $ @ @ @ $ @ - $ $ $ $ $ $ $ $ $ $ $ $ $ $ $ * * * * * * * * - - - - - - - - - - - - - - - - - - - - - - - - - - - - - - - - ; ; ; < < 1 1 1 1 1 1 1 2 2 2 2 2 2 2 2 2 2 2 2 2 2 2 2 2 2 2 2 2 2 8 8 2 2 2 2 2 8 8 8 2 2 2 2 2 2 2 2 2 2 2 2 1 1 2 2 2 2 2 2 2 2 1 1 1 1 1 2 1 1 1 1 1 1 1 1 1 1 1 1 1 1 1 1 , , , , , , , , 1 1 1 1 1 1 1 1 < < 1 1 1 1 < < < < < < < < < < , , , , , , , , , , , , , , , , ; ; ; ; ; ; ; ; ; ; ; - - - - - - - - * * $ @ @ @ @ + + + + X . . X X X + + + + + + + + + + + + + + + @ @ @ @ @ @ @ @ $ $ $ @ @ - - - - - - - - - - ; ; ; ; ; ; ; ; ; ; ; ; < < < 1 < < < < < < , , , , , , , , < < < < < < 1 1 1 1 1 1 1 1 1 1 < < , 1 , 1 1 1 , , , , , , , , 1 1 1 1 < < < < 1 1 1 1 1 1 1 1 1 1 1 1 1 1 1 1 2 2 2 2 2 2 2 2 2 2 2 2 2 2 2 2 2 2 2 2 2 2 2 2 2 1 1 < , ; ; ; - ; ; ; : , ; ; ; ; ; ; ; ; , , ; ; ; ; - - - - $ $ $ $ $ $ $ $ * * * * * * * - - - - - - - - - - - - - - - - - * * * * * * * * * * * * * * * * - $ $ $ - - - - $ $ $ $ $ $ $ $ $ $ $ $ $ $ $ $ @ @ @ @ @ @ @ @ @ @ @ @ @ @ @ @ @ @ @ @ @ @ @ @ + + @ @ @ @ + @ + + + + + + + + + + + + + + + + + + + + + + + + X X X X ",
"+ + + + + + X X + + + + + + + + + + + + + + + + + + + + + + + + @ + @ @ + @ @ @ @ @ @ @ @ @ @ @ @ @ @ @ @ @ @ @ @ @ @ @ @ @ @ @ $ $ @ @ @ @ @ @ $ $ $ $ $ $ $ $ $ $ $ $ $ $ $ $ * * * * * * * * - - - - - - - - - - - - - - - - - - - - - - - - - - - - - - - - - ; ; ; < < < 1 1 1 1 1 1 2 2 2 2 2 2 2 2 2 2 2 2 2 2 2 2 2 2 2 2 2 2 2 2 2 2 2 2 2 2 2 2 2 2 2 2 2 2 2 2 2 2 2 1 1 1 2 1 1 2 1 2 2 1 1 1 1 1 2 1 1 1 1 1 1 1 1 1 1 1 1 1 1 1 1 , , , , , , , , 1 1 1 1 1 1 1 1 < 1 1 1 1 < < < 1 1 1 1 < < < < , , , , , , , , , , , , , , , , ; ; ; ; ; ; ; ; ; ; ; - - - - - - - - - - - $ $ @ $ @ @ + + + + X X X + + + + + + + + + + + + + + + + @ @ @ @ @ @ @ @ @ $ $ @ @ - - - - - - - - - - - ; ; ; ; , ; ; ; ; ; ; ; < 1 1 1 1 < < < 1 , , , , , , , , < < < < < < 1 1 1 1 1 1 1 1 1 1 , < < < , 1 1 1 , , , , , , , , 1 1 1 1 < < < < 1 1 1 1 1 1 1 1 1 1 1 1 1 1 1 1 2 2 2 2 2 2 2 2 1 1 1 1 2 2 2 2 2 2 2 2 2 2 2 2 1 1 , , ; - - - - - ; ; ; ; ; - - ; ; ; ; ; ; ; - - - - - - - * @ @ @ @ @ @ @ @ @ @ @ @ @ @ @ @ @ @ @ @ $ $ $ $ @ @ @ @ * * * * * * * * * * * * * * * * * * * * @ @ @ @ @ @ @ @ $ $ @ @ @ @ @ @ @ @ @ @ @ @ @ @ @ @ @ @ @ @ @ @ @ @ @ @ @ @ @ @ @ @ @ @ @ @ @ @ + @ @ @ @ @ + + + + + + + + + + + + + + + + + + + + + + + + + + X X X X ",
"X + + + + X X X + + + + + + + + + + + + + + + + + + + + + + + + + + @ @ @ @ @ @ @ @ @ @ @ @ @ @ @ @ @ @ @ @ @ @ @ @ @ @ @ @ @ @ @ @ @ @ @ @ @ @ $ $ $ $ $ $ $ $ $ $ $ $ $ $ $ $ * * * * * * * * - - - - - - - - * * * * * * * * * * * * * * * * - - - - - - - - - ; ; ; ; , < < 1 1 1 1 1 1 2 2 2 2 2 2 2 2 2 2 2 2 2 2 2 2 2 2 2 2 2 2 2 2 2 2 2 2 2 2 2 2 2 2 2 2 2 2 2 2 2 2 1 1 1 2 1 1 1 1 2 2 2 1 1 1 1 2 1 1 1 1 1 1 1 1 1 1 1 1 1 1 1 1 , , , , , , , , 1 1 1 1 1 1 1 1 < 1 1 1 1 < < < 1 1 1 1 < < < < , , , , , , , , , , , , , , , , : : ; ; ; ; ; ; ; ; ; - - - - - - - - - - $ $ $ $ $ $ @ @ + + + + + + + + + + + + + + + + + + + @ @ + + + @ @ @ @ @ @ $ @ @ @ @ - - - - - - - - - - - - ; ; ; ; ; ; ; ; ; : : : < < < < , , , , , , , , , , , , < < < < < < 1 1 < < , , , , , , ; , < < , , 1 1 , , , , , , , , 1 1 1 1 < < < < 1 1 1 1 1 1 1 1 1 1 1 1 1 1 1 1 2 2 2 2 2 2 2 2 1 1 1 1 2 2 2 2 2 2 2 2 2 2 2 2 1 < , , ; ; - - - - - - - - $ $ $ $ $ $ - - - - $ - - @ * @ @ @ @ @ @ @ @ @ @ @ @ @ @ @ @ @ $ $ @ @ @ @ $ $ $ $ @ @ @ @ * * * * * * * * * * * * * * * * * * * * @ @ @ @ @ @ @ @ @ @ @ @ @ @ @ @ @ @ @ @ @ @ @ @ @ @ @ @ @ @ @ @ @ @ @ @ @ @ @ @ @ @ @ @ @ @ @ @ + + @ @ @ + + + + + + + + + + + + + + + + + + + + + + + + + + + X X X X ",
"X X + + + + X X + + + + + + + + + + + + + + + + + + + + + + + + + @ @ @ @ @ @ @ @ @ @ @ @ @ @ @ @ @ @ @ @ @ @ @ @ @ @ @ @ @ @ @ @ @ @ @ @ @ @ @ $ $ $ $ $ $ $ $ $ $ $ $ $ $ $ $ * * * * * * * * - - * - - - - - - - - - - - - - - - - - - - * * ; ; ; ; ; ; ; ; ; ; ; , , , , < 1 1 1 1 1 1 1 1 1 1 1 1 1 1 1 1 2 2 2 2 2 2 2 2 2 2 2 2 2 2 2 2 2 2 2 2 2 2 2 2 1 1 1 1 1 1 1 1 2 2 1 1 2 2 2 2 1 1 1 1 1 1 1 1 1 1 1 1 1 1 1 1 1 1 1 1 1 1 1 1 , , , , , , , , 1 1 1 1 1 1 1 1 1 1 1 1 < < < 1 < < < < < , , , , , , , , , , , , , , , < < , , : : ; ; ; ; ; ; ; ; ; - - - - - - - - - - - $ $ $ $ @ @ @ @ @ # + + + + + + + + @ + + + @ @ @ @ @ + + @ @ @ @ @ @ @ @ @ @ @ $ $ - - - - - - - - - - - - - - ; ; ; ; ; ; ; ; ; ; , , , < < < < < , , , , , , , , < < < < < < < < < < < < , , , , ; ; , , , , , , , , , , , , , , < < < < < < < < 1 1 1 1 1 1 1 1 2 1 1 1 1 1 2 2 2 2 2 2 2 2 2 2 1 1 1 1 1 1 1 1 1 1 1 1 1 1 1 1 < < < < < : , , > > - - @ @ @ @ @ @ @ $ $ $ $ $ @ @ @ @ @ @ @ @ @ @ @ @ @ @ @ @ @ @ @ @ @ @ @ @ @ @ @ @ @ @ @ @ @ @ @ @ @ @ @ @ @ @ @ @ @ @ @ @ @ @ @ @ @ @ @ @ @ @ @ @ @ @ @ @ @ @ @ @ @ @ @ @ @ @ @ @ @ @ @ @ @ @ @ @ @ @ @ @ @ @ @ @ @ @ @ @ @ @ @ @ @ @ @ @ @ @ @ @ @ @ @ @ + + + + + + + + + + + + + + + + + + + + + + + + X X X X ",
"X X + + + + X X + + + + + + + + + + + + + + + + + + + + + + + + + + @ @ @ @ @ @ @ @ @ @ @ @ @ @ @ @ @ @ @ @ @ @ @ @ @ @ @ @ $ $ @ @ @ @ @ @ @ @ $ $ $ $ $ $ $ $ $ $ $ $ $ $ $ $ * * * * * * * * - - * - - - - - - - - - - - - - - - - - - - - - ; ; ; ; ; ; ; ; ; ; ; ; < , < < 1 1 1 1 1 1 1 1 2 2 2 2 2 1 1 1 2 2 2 2 2 2 2 2 2 2 2 2 2 2 2 2 2 2 2 2 2 2 2 2 1 1 2 2 2 2 2 2 2 2 1 1 2 2 2 2 1 1 1 1 1 1 1 1 1 1 1 1 1 1 1 1 1 1 1 1 1 1 1 1 , , , , , , , , 1 1 1 1 1 1 1 1 1 1 1 1 < < < < < < < < < < , , , , , , , , , , , , , , < < , , : : ; ; ; ; ; ; ; ; ; - - - - - - - - - - - $ $ - $ $ @ @ @ @ @ @ @ @ @ + + + + @ + @ + + + @ @ + + @ @ @ @ @ @ @ @ @ @ @ @ $ $ - - - - - - - - - - - - - - ; ; ; ; ; ; ; ; ; ; ; ; : : : : : : , , , , ; , , , < < < < < < < < ; ; ; ; , , , , ; ; ; , , , , , , , , , , , , , < < < < < < < < 1 1 1 1 1 1 1 1 2 1 1 1 2 1 2 2 2 2 2 2 2 2 2 2 2 2 2 2 1 1 1 1 2 2 2 1 1 1 1 1 < < < < , , , , > > - * @ @ @ + @ @ @ @ @ @ @ $ @ @ @ @ @ @ @ @ - - - - - - - - @ @ @ @ @ @ @ @ @ @ @ @ $ $ $ $ @ @ @ @ @ @ @ @ @ @ @ @ @ @ @ @ @ @ @ @ @ @ @ @ @ @ @ @ @ @ @ @ @ @ @ @ @ @ @ @ @ @ @ @ @ @ @ @ @ @ @ @ @ @ @ @ @ @ @ @ @ @ @ @ @ @ @ @ @ @ @ @ @ @ @ @ @ @ @ @ + + + + + + + + + + + + + + + + + + + + + + + + X X X X ",
"X X X + + + + X + + + + + + + + + + + + + + + + + + + + + + + + @ @ @ @ + @ + + @ @ @ @ @ @ @ @ @ @ @ @ @ @ @ @ $ $ @ @ @ @ $ $ $ @ $ $ @ @ @ @ $ $ $ $ $ $ $ $ $ $ $ $ $ $ - - * * * * * * * * - * * - - - - - - - - - - - - - - - - - - - - - ; ; ; ; ; ; ; ; : : : < < , < < 1 1 1 1 1 1 1 1 1 1 1 1 1 1 1 1 2 2 2 2 2 2 2 2 2 2 2 2 2 2 2 2 2 2 2 2 2 2 2 2 1 1 1 1 1 1 1 1 2 2 1 1 2 2 2 2 1 1 2 1 1 1 1 1 1 1 1 1 1 1 1 1 1 1 1 1 1 1 1 1 , , , , , , , , 1 1 1 1 1 1 1 1 , , , , , , , , , , , , , , , , , , , , ; ; ; ; , , , , < < , , ; ; ; ; ; ; ; ; ; ; ; - - - - - - - - * @ $ @ @ $ @ @ @ @ @ @ @ @ @ @ @ + + + + + + + + + + + + + + @ @ @ @ @ @ @ @ @ @ @ @ $ $ - - - - - - - - - - - - - - ; ; ; ; ; ; ; ; ; ; ; ; ; ; : : ; : , , , , ; ; ; ; , , , , , , , , ; ; ; ; , ; ; ; ; ; ; , , , , , , , , , , , , , < < < < < 1 1 1 , , , , , , , , 2 1 1 1 1 1 2 2 2 2 2 2 2 2 2 2 1 1 1 1 1 1 1 1 1 1 1 1 1 1 , , < , , : , ; ; ; , ; - - * $ $ $ @ @ @ @ @ @ @ @ @ @ @ @ @ @ @ @ - - - - - - - - + @ + + + + + + + @ @ @ + + + + @ @ @ @ @ @ @ @ @ @ @ @ @ @ @ @ @ @ @ @ @ @ @ @ @ @ @ @ @ @ @ @ @ @ @ @ @ @ @ @ @ @ @ @ @ @ @ @ @ @ @ @ @ @ @ @ @ @ @ @ @ @ @ @ @ @ @ @ @ @ @ @ @ @ + @ + + @ @ + + + + + + + + + + + + + + + + + + + + + + + + X X X X ",
"X X X X + + X X + + + + + + + + + + + + + + + + + + + + + + + + @ @ @ @ + + + + @ @ @ @ @ @ @ @ @ @ @ @ @ @ @ @ $ $ @ @ @ $ $ $ $ $ $ $ @ @ @ @ $ $ $ $ $ $ $ $ $ $ $ $ $ - - - * * * * * * * * - - * - - - - - ; ; - - - - - - ; ; ; ; ; ; ; ; - - - - ; - - - , , , < < 1 1 1 1 1 1 1 1 1 1 1 1 1 1 < < 1 1 1 2 2 2 2 2 2 2 2 2 2 2 2 2 2 2 2 2 2 2 2 2 2 2 2 1 1 1 1 < < < < 2 2 1 1 1 2 2 2 1 1 1 2 1 1 1 1 1 1 1 1 1 1 1 1 1 1 1 1 1 1 1 1 , , , , , , , , 1 1 1 1 1 1 1 1 , , , , , , , , , , , , , , , , , , , , ; ; ; ; , , , , < < , , ; ; ; ; ; ; ; ; ; ; ; - - - - - - * * * @ @ @ @ * @ @ @ @ @ @ @ * @ @ @ @ + + + + + + + + + + + + + @ @ @ @ @ @ @ @ @ @ @ @ $ $ - - - - - - - * - - - - - - ; ; - ; ; ; ; ; ; ; ; ; ; ; ; ; ; ; , , , , ; ; ; ; , , , , , , , , ; ; ; ; , , , ; ; ; ; ; , , , , , , , , , , , , 1 1 < < < 1 1 1 , , , , , , , , 1 1 1 1 1 1 1 1 2 2 2 2 2 2 2 2 < < 1 1 1 1 1 1 1 1 1 1 1 1 , , , , ; ; ; - - - ; ; - * - $ - - @ @ @ @ @ @ @ @ @ @ @ @ @ @ @ @ @ @ @ @ @ @ @ @ + @ @ @ + + + + + + @ @ + + + + @ @ @ @ @ @ @ @ @ @ @ @ @ @ @ @ @ @ @ @ @ @ @ @ @ @ @ @ @ @ @ @ @ @ @ @ @ @ @ @ @ @ @ @ @ @ @ @ @ @ @ @ @ @ @ @ @ @ @ @ @ @ @ @ @ @ @ @ @ @ @ @ @ @ + + + @ @ @ + + + + + + + + + + + + + + + + + + + + + + + + X X X X ",
"X X X X X X X X X X + + + + + + + + + + + + X X + + + + + + + + + + + + + + + + + + + + + + + + @ + + + @ @ @ @ @ @ + + + @ @ @ @ @ @ @ @ @ @ @ @ @ @ @ @ @ @ @ $ $ $ $ $ $ $ $ * * * * * * * * - - - - * * - - - - - - - - - - - - - - - - - - - - - - - - - - ; ; ; ; ; ; ; ; < < < < < 1 1 1 1 1 1 1 1 1 1 1 1 1 < < < < 1 1 1 1 1 1 1 1 1 1 1 1 1 1 1 1 1 1 2 2 1 1 1 1 1 1 1 1 1 1 1 1 1 1 1 1 1 1 1 1 1 1 1 1 1 < < < < < < < , , , , , , , , , , , , , , , , , , , , , , , , , , , , , , , , , , , , , , , , , ; , , , , ; ; ; ; ; ; ; ; ; ; ; ; ; ; ; ; - - - ; - - - - ; ; - * * * - $ $ $ $ @ @ @ $ $ $ $ @ @ @ @ @ @ + + + + + + + + @ @ @ @ @ @ @ @ * * * @ * - - - - - - - - - - - @ @ - - - - - - ; ; ; ; ; ; , , ; ; ; : : : ; ; , ; ; , , , , ; , , , , , , , , , , , , , , , , ; ; ; ; ; ; ; ; , , , , , , , , , , , , , , , , 1 1 1 1 < < < 1 < < < < 1 < < < < < < < < < < < 1 1 1 1 1 1 1 1 , 1 1 1 1 1 1 , ; ; - - - - - - - - - - - - - * @ @ @ @ @ - - - * * * * * * * * @ @ @ @ @ @ @ @ @ @ @ @ @ @ @ @ @ + + + @ @ @ @ @ @ @ @ @ @ @ @ @ @ @ @ @ @ @ @ @ @ @ @ @ @ @ @ @ @ @ @ @ @ @ @ @ @ @ @ @ @ @ @ @ + + + @ @ @ @ @ @ + + + @ @ @ @ @ @ + + + @ @ + + + + + + + + + + + + + + + + + + + + + + + + X X X X X X X X X X X X X X X X X X X X ",
"X X X X X X X X X X + X + + + + + + + + + + X X + + + + + + + + + + + + + + + + + + + + + + + + @ + + + @ @ @ @ @ @ + + @ @ @ @ @ @ @ @ @ @ @ @ @ @ @ @ @ @ @ @ $ $ $ $ $ $ $ $ * * * * * * * * * * * * * * * * * * * * * * * * - - - - - - - - - - - - ; - - - - - ; ; ; ; ; ; < < < < < < < < , , , , , , , , 1 1 < < < < 1 1 1 1 1 1 1 1 < < 1 1 1 1 1 1 1 1 2 2 2 2 1 1 1 1 1 1 1 1 1 1 1 1 1 1 1 1 1 1 1 1 1 1 1 < < < < < < < , , , , , , ; ; , , , , , , , , , , , , , , , , , , , , , , , , , , , , , , , , , ; , , , , ; ; ; ; ; ; ; ; ; ; ; ; ; ; ; ; ; ; ; ; ; ; ; ; ; - * * - * $ $ $ $ $ @ @ @ $ @ @ @ @ @ @ @ @ @ @ + + + + + + @ @ @ @ @ @ @ @ @ * * @ @ * - - - - - - - - - - - @ @ @ * * * * * ; ; ; ; ; ; , , ; ; ; : : : ; ; , ; ; , , , , ; , , , , , , , , , , , , , , , , ; ; ; ; ; ; ; ; , , , , , , , , , , , , , , , , 1 1 < 1 < < < < < < < < 1 1 < < < < < < < 1 < < 1 1 1 1 , , , , , 1 1 1 1 1 1 , ; ; - - - - - - - - - - - - - - @ @ @ @ @ - - - * * * * * * * * @ @ @ @ @ @ @ @ @ @ @ @ @ @ @ @ @ + + @ @ @ @ + @ @ @ @ @ @ @ @ @ @ @ @ @ @ @ @ @ @ @ @ @ @ @ @ @ @ @ @ @ @ @ @ @ @ @ @ @ @ @ @ @ + + + @ @ @ @ @ @ + + + @ @ @ @ @ + + @ + @ @ + + + + + + + + + + + + + + + + + + + + + + + + X X X X X X X X X X X X X X X X X X X X ",
"X X X X X X X X X X X X X X + + X + X X + X X X + + + + + + + + + + + + + + + + + + + + + + + + @ @ @ @ @ @ + + @ @ @ @ @ @ @ @ @ @ @ @ @ @ @ @ @ @ @ @ @ @ @ @ @ @ @ @ @ @ @ @ * * * * * * * * * * * * * * * * * * * * * * * * - - - - - - - - - - - - ; ; - - - - - - ; ; ; ; , , , , , < < < , , , , , , , , < < < < < < < 1 1 1 1 1 < < < < , , , , , 1 1 1 1 1 1 1 1 1 1 1 1 1 1 1 1 1 1 1 1 1 1 1 1 1 1 1 < < < < < < < < < < < , , , , , ; ; ; ; , , , ; , , , , , , , , < , , , , , , , , , ; ; ; ; ; ; , , , ; , , ; , ; ; ; ; ; ; ; ; ; ; ; ; ; ; ; ; ; ; ; ; ; ; ; ; - - - * - $ @ @ $ $ @ @ @ @ @ @ @ @ @ @ @ @ @ @ @ @ + + + + @ @ @ @ @ @ @ @ @ @ @ @ @ @ @ @ - - * * * * * * * @ @ @ @ @ * * * * ; ; ; ; ; ; ; ; ; ; ; ; ; ; ; ; , , , , , , ; ; , , , , ; ; ; ; ; ; ; ; ; ; ; ; ; ; ; ; ; ; ; ; , , , , , , , , , , , , , , , , < < < < < < < < 1 < < < < 1 < < 1 1 < < 1 1 < < 1 1 1 1 , , , , , , 1 1 1 1 , , ; ; ; - - - - - - - - - - - - - $ @ @ @ @ - - - * * - - - - - - $ $ $ @ @ @ @ @ @ @ @ @ @ @ @ @ @ @ @ @ @ @ + + @ @ @ @ @ @ @ @ @ @ @ @ @ @ @ @ @ @ @ @ @ @ @ @ @ @ @ @ @ @ @ @ @ @ @ @ @ @ @ @ @ @ @ @ @ @ + + @ @ @ + @ @ @ @ @ @ @ @ @ @ @ @ + + + + + + + + + + + + + + + + + + + + + + + + + + X X X X + + X X X X X X X X X X X X ",
"X X X X X X X X X X X X X X X + X X X X X X X X + + + + + + + + + + + + + + + + + + + + + + + + @ @ @ @ @ @ + + @ @ @ @ @ @ @ @ @ @ @ @ @ @ @ @ @ @ @ @ @ @ @ @ @ @ @ @ @ @ @ @ * * * * * * * * * * * * * * * * * * * * * * * * - - - - - - - - - - - ; ; ; - - - - - - ; ; ; ; < < < < < < < < , , , , , , , , < < < < < < < < 1 1 < < < < < < 1 1 1 1 < 1 < < 1 1 1 1 < < < 1 1 1 1 1 1 1 1 1 1 1 1 1 1 1 1 1 < < < < < < < < < < < , , , , , , , , , , , , , , , , , , , , , < , , , , , , , ; ; ; ; ; ; ; ; , , , , , , ; ; ; ; ; ; ; ; ; ; ; ; ; ; ; ; ; ; ; ; ; ; ; ; ; ; - - - - $ @ @ @ $ @ @ @ @ @ @ @ @ @ @ + + + + + @ + + + + + + @ + + @ @ @ @ @ @ @ @ @ @ @ @ $ $ * * * * * * * * @ @ @ @ * * * * ; ; ; ; ; ; ; ; ; ; ; ; ; ; ; ; , , , , , , , , ; , , ; ; ; ; ; ; ; ; ; ; ; ; ; ; ; ; ; ; ; ; ; , , , , , , , , , , , , , , , , < < < < < < < < 1 < < < < < < < 1 1 1 < 1 1 < < < < < < , , , , , , < < < < , , , , ; ; ; ; ; ; - - - - - - - - $ $ @ @ @ - - - - - - - - - - - $ $ $ $ $ @ @ @ @ @ @ @ @ @ @ @ @ @ @ @ @ @ + + @ @ @ @ @ @ @ @ @ @ @ @ @ @ @ @ @ @ @ @ @ @ @ @ @ @ @ @ @ @ @ @ @ @ @ @ @ @ @ @ @ @ @ @ @ @ + + @ @ @ + @ @ @ @ @ @ @ @ @ @ @ @ + + + + + + + + + + + + + + + + + + + + + + + + + X X X X + + + X X X X X X X X X X X X ",
"X X X X X X X X X X X X X X X X + X X X X X X X + + + + + + + + + + + + + + + + + + + + + + + + @ @ @ @ @ @ @ + + + @ @ @ + + + @ @ @ @ @ @ @ @ @ @ @ @ @ @ @ @ @ @ @ @ @ @ @ @ @ @ @ @ @ @ @ @ * * * * * * * * - - - - - - - - - - - - - - - - - ; - - - - - - ; ; ; ; ; ; ; ; < < < , < , , , , , , , , , , , < < < < < < < < < < < < < < < < < < < 1 1 1 < < < < < < < < < < < < < < < < < < 1 1 1 1 1 1 1 1 < < < < 1 1 1 < , , , , , , , , , , , , , , , , , , , , , , , , , , , , , , , , ; ; ; ; ; ; ; ; , , , , , , , ; ; ; ; ; ; ; ; ; ; ; ; ; ; ; ; ; - - - - - - - - - - - $ @ @ @ @ @ @ @ @ @ @ @ @ @ + + + + + + + + + + + + + + + + + + + + + + + @ @ @ @ @ @ $ $ @ @ @ @ @ @ @ @ @ @ @ * * * * - - - ; ; ; ; ; ; ; ; ; ; ; ; ; ; , , , , , , , , ; ; ; ; ; ; ; ; ; ; ; ; ; ; ; ; ; ; ; ; ; ; ; ; , , , , , , , , , , , , , , , , < < < < < < 1 < 1 1 < < < < < < < < < < 1 1 < < < , , , , < , , ; ; , < < , ; ; ; ; ; ; ; ; ; ; - - - - - - - - - - - @ @ @ $ $ - - - - - - - - $ $ $ $ $ @ @ @ @ @ @ @ @ @ @ @ @ @ @ @ @ @ @ + @ @ @ @ @ @ @ @ @ @ @ @ @ @ @ @ @ @ @ @ @ @ @ @ @ @ @ @ @ @ @ @ @ @ @ @ @ @ @ @ @ @ @ @ @ @ @ + + + @ @ @ + + + + + + @ @ @ @ @ + + + + + + + + + + + + + + + + + + + + + + + + + + X X X X + + X X X X X X X X X X X X ",
"X X X X X X X X X X X + X X + X + + X X X X X X + + + + + + + + + + + + + + + + + + + + + + + + @ @ @ @ @ @ @ + + + @ @ + + + + @ @ @ @ @ @ @ @ @ @ @ @ @ @ @ @ @ @ @ @ @ @ @ @ @ @ @ @ @ @ @ @ * * * * * * * * - - - - - - - - - - - - - - - - ; ; - - - - - - ; ; ; ; ; ; ; ; ; : < : : : , , , , , , ; ; ; ; < < < < < < < < < < < < < < < < , , , , , , , , , , , , , , , , < < < < < < < < 1 1 1 1 1 1 1 1 < < < < 1 1 < < , , , , , , , , < < < < < < < < , , , , , , , , , , , , , , , , ; ; ; ; ; ; ; ; , , ; ; , , , ; ; ; ; ; ; ; ; ; ; ; ; ; ; ; ; ; - - - - - - - - - - $ $ @ @ @ @ @ @ @ @ @ @ @ @ @ @ + + @ + + + + + + + + + + + + + + + + + + + $ @ @ @ @ @ $ $ @ @ @ @ @ @ @ @ - $ - - - - - - ; ; ; ; ; ; ; ; ; ; ; ; ; ; ; ; , , , , , , , , ; ; ; ; ; ; ; ; ; ; ; ; ; ; ; ; ; ; ; ; ; ; ; ; , , , , , , , , , , , , , , , , < < < < < < 1 1 < < < < 1 1 < < < < < < 1 1 < < ; ; , ; , , , , ; : : : : : ; ; - - ; ; ; - - - - - - - - - - - - - - @ @ @ @ $ - - - - $ $ - - $ $ $ @ @ @ @ @ @ @ @ @ @ @ @ @ @ @ @ @ @ @ + + @ @ @ @ @ @ @ @ @ @ @ @ @ @ @ @ @ @ @ @ @ @ @ @ @ @ @ @ @ @ @ @ @ @ @ @ @ @ @ @ @ @ @ @ @ @ @ + + + + @ @ + @ + + + @ @ @ @ @ @ + + + + + + + + + + + + + + + + + + + + + + + + + + X X X X + + X X X X X X X X X X X X ",
"X X X X X X X X X X + + + + + + + + + + X + X X + + + + + + + + + + + + + + + + + + + + + + + + + + @ @ @ @ @ @ + + @ @ @ @ @ @ @ @ @ @ @ @ @ @ @ @ @ @ @ @ @ @ @ @ @ @ @ @ @ @ @ @ @ @ @ @ @ @ * * * * * * * * - - - - - - - - - - - - - - - - - - - - - - - - ; ; ; ; ; ; ; ; ; ; ; ; ; ; ; ; ; , , , ; ; ; ; 1 1 < < < < 1 1 , , ; ; , , , , ; ; ; ; , , ; ; ; ; ; : < < < , < < : : : : : : 1 1 1 1 1 1 1 1 1 1 < < 1 1 1 1 , , , , , , , , < < < < < < < < , , , , , , , , , , , , , , , , , , , , , , , , , , ; ; , , , , ; ; ; ; ; ; ; ; ; ; ; ; ; ; ; ; - - - - - - - - - $ $ $ @ @ @ @ @ @ $ $ @ @ @ @ @ @ @ @ + + + + + + + + + + + + + + + + + + + + + + + + + @ $ $ @ @ @ @ @ @ @ @ $ - - - - - - - - - ; ; ; ; ; ; ; ; ; ; ; ; ; ; , , , , , , , ; ; ; ; ; ; ; ; ; - - - - - - - - - - - - ; - - - , , , , , , , , , , , , , , , , < 1 1 < < < < 1 < < < < 1 < < < < < < < < < < < ; ; ; ; , , ; ; ; ; ; : : ; ; ; - - ; ; ; - - * - - - - - - - - - - - @ @ @ @ @ @ @ @ @ @ @ @ @ @ @ @ @ @ @ @ @ @ @ @ @ @ @ @ @ + + @ @ @ @ @ @ @ @ @ @ @ @ @ @ @ @ @ @ @ @ @ @ @ @ @ @ @ @ @ @ @ @ @ @ @ @ @ @ @ @ @ @ @ @ @ @ + + @ @ @ @ @ @ + + @ @ @ @ @ @ + + @ @ @ @ @ @ + + + + + + + + + + + + + + + + + + + + + + + + + + + X X + + + X X X X X X X X X X X X ",
"X X X X X X X X X X + + + + + + + + + + + + X X + + + + + + + + + + + + + + + + + + + + + + + + + + + + @ @ @ @ @ @ @ @ @ @ @ @ @ @ @ @ @ @ @ @ @ @ @ @ @ @ @ @ @ @ @ @ @ @ @ @ @ @ @ @ @ @ @ @ * * - * - - - - * * * * * * * * - - - - - - - - - - - - - - - - - - ; - ; ; ; ; - - - - ; - - ; ; , , , ; ; ; ; 1 1 < < < < < 1 , , ; ; ; , , , ; ; ; ; ; ; ; - ; ; ; ; ; , , , < < : : : : : : 1 1 1 1 1 1 1 1 1 1 < < 1 1 1 1 , , , , , , , , < < < < < < < < , , , , , , , , , , , , , , , , , , , , , , , , , , , , , , , , ; ; ; ; ; ; ; ; ; ; ; ; ; ; ; ; - - - - - - - - $ $ $ $ $ @ @ + $ $ $ $ @ @ @ @ @ @ @ @ @ + + + + + + + + + + + + + + + + + + + + @ + + + @ $ $ @ @ @ @ @ @ @ @ $ $ $ - - - - - - - ; ; ; ; ; ; ; ; ; ; ; ; ; ; , ; ; ; , , , ; ; ; ; ; ; ; ; ; - - - - - - - - - - - - ; ; - - , , , , , , , , , , , , , , , , < < 1 < < < < 1 < < < < 1 1 < < < < < < < < < < ; ; ; ; , , ; ; ; ; ; : : ; ; ; - - - ; - - - * * - - - - - - - - - - @ @ @ @ @ @ @ @ @ @ @ @ @ @ @ @ @ @ @ @ @ @ @ @ @ @ @ @ @ + + + + @ @ @ @ @ @ @ @ @ @ @ @ @ @ @ @ @ @ @ @ @ @ @ @ @ @ @ @ @ @ @ @ @ @ @ @ @ @ @ @ @ @ @ @ + + + + @ @ @ @ @ @ @ @ @ @ @ @ @ @ @ @ @ @ @ @ + + + + + + + + + + + + + + + + + + + + + + + + + + + + X X + + X X X X X X X X X X X X ",
"X X X X X X X X X X X X X X X X + + + + + + + + + + + + + + + + + + + + + + + + + + + + + + + + @ @ @ @ @ @ @ @ @ @ @ + + + @ @ @ @ @ @ @ @ @ @ @ @ @ @ @ @ @ @ @ @ @ @ @ @ @ @ @ @ $ $ $ $ $ $ @ @ @ @ @ @ @ @ $ $ $ $ $ $ $ $ $ $ $ $ $ $ $ $ - - - - - * - - - - - - - - - - @ @ @ @ @ @ @ - , , , < < , , ; ; ; , , , ; ; ; : : ; - - - $ $ ; ; - - - - - - ; ; ; , 1 1 1 1 , , , ; ; ; , , 1 1 < < < < < < 1 1 1 < < < < 1 , , , , , , , , , , , , , , , , ; ; ; ; ; ; ; ; : : : : ; ; : : < < , , , , , , , , , , , , , , , , , , , , , , ; ; ; ; ; ; ; ; ; ; ; ; - - - - - - - - - * * * @ @ @ @ @ @ @ @ @ @ @ @ @ @ @ @ + + + + + + + + + + + + + + + + + @ @ @ @ @ $ $ - - - - - - - - - - - - - - - - - - - - - - - - ; ; ; ; ; ; ; ; ; ; ; ; ; ; ; ; ; ; ; ; ; ; - - ; ; ; ; ; ; ; ; ; ; ; ; ; ; - - ; ; ; ; - - - - - ; ; : < < < < , , , , , , , , < < < < < < < < < < < < < < 1 1 < < < < < 1 1 1 , , , , ; ; - - - - - - - - - - - - - - - - - - - * @ @ @ @ + + @ @ @ + @ + + + @ @ @ @ + @ @ @ @ @ @ @ @ @ @ @ @ @ @ @ @ @ @ @ @ @ @ @ @ @ @ @ @ @ @ @ @ @ @ @ @ @ @ @ @ @ @ @ @ @ @ @ @ @ @ @ @ @ @ @ @ @ + + @ @ @ @ @ @ + + + + + + + + + + + + + + + + + + + + + + + + + + + + + + + + + + + + + + + + + + X X + + + X X X X X X X X X X X X X X X ",
"X X X X X X X X X X X X X X X X + + + + + + + + + + + + + + + + + + + + + + + + + + + + + + + + @ @ @ @ @ @ + + @ @ @ @ + + @ @ @ @ @ @ @ @ @ @ @ @ @ @ @ @ @ @ @ @ @ @ @ @ @ @ @ @ @ @ $ $ @ $ @ @ @ @ @ @ @ @ $ $ $ $ $ $ $ $ $ $ $ $ $ $ $ $ - - - - - - * * - - - - - - - - @ @ @ @ @ @ @ - , , , < < , , ; ; ; , ; ; ; ; ; : ; - - - - - $ - - - - - - ; ; ; ; ; ; , ; , , , , , ; ; ; , ; 1 1 < < < < < < < < 1 1 < < < < , , , , , , , , , , , , , , , , ; ; ; ; ; ; ; ; : : : : ; ; : : < < , , , , , , , , , , , , , , , , , , , , , , - - - - - - - - ; ; ; ; - - - - - - - - - * * * @ @ @ @ @ @ @ @ $ $ $ @ @ @ @ @ @ @ @ @ @ @ @ @ + + + + + + + + @ @ @ @ @ @ $ - - - - - - - - - - - - - - - - - - - - - - - - - ; ; ; ; ; ; ; ; ; ; ; ; ; ; ; ; ; ; ; ; ; ; ; ; ; ; ; ; ; ; ; ; ; ; ; ; ; ; - - ; ; ; ; ; - - - - ; ; : < < < < , , , , , , , , < < < < < < < < < < < < < 1 1 1 < < < < < 1 1 1 ; ; ; ; ; ; - - - - - - - - - - - - - - - - - - - - @ @ @ @ @ $ @ @ @ + @ + + + @ @ @ @ + + @ @ @ @ @ @ @ @ @ @ @ @ @ @ @ @ @ @ @ @ @ @ @ @ @ @ @ @ @ @ @ @ @ @ @ @ @ @ @ @ @ @ @ @ @ @ @ @ @ @ + + @ @ @ @ + + @ @ @ @ @ @ + + + + + + + + + + + + + + + + + + + + + + + + + + + + + + + + + + + + + + + + + + X X + + + X X X X X X X X X X X X X X X ",
"X X X X X X X X X X X X X X X X X X + + + + X X + + + + + + + + + + + + + + + + + + + + + + + + @ @ @ @ @ @ + + @ @ @ @ + @ @ @ @ @ @ @ @ @ @ @ @ @ @ @ @ @ @ @ @ @ @ @ @ @ @ @ @ @ @ @ @ @ @ @ $ $ - - $ - - $ $ - $ $ $ $ $ $ $ $ $ $ $ $ $ - - - - - * * * * * * * * * * * * @ @ @ @ @ @ - - ; ; ; ; ; ; ; ; ; ; ; ; ; ; ; ; ; - - - - - - - @ @ @ - - - - - ; ; ; ; - - - - , , , , , , , , 1 < < < < < < < < < < < < < < < , , , , , , , , , , , , , , , , ; ; ; ; ; ; ; ; ; ; ; ; ; ; ; ; < , , , , , , , , , , , , , , , , , , , , , ; ; ; ; ; ; ; ; ; ; ; ; ; ; ; - - - - - - - - - - - @ @ @ @ $ $ @ @ $ $ $ $ @ @ @ @ @ @ @ @ @ @ @ @ + + + + + + + + @ @ @ @ @ $ - - - - - - - - - - - - - - - - - - ; ; ; ; ; ; ; ; ; ; ; ; ; ; ; ; ; ; ; ; ; ; ; ; ; ; ; ; ; ; ; ; ; ; ; ; ; ; ; ; - - - - - ; ; - ; ; ; ; - - - - - ; ; ; < < < < , , , , , , , , < < < < < < < < < < < < < < 1 1 < < < < < < 1 1 ; ; ; ; ; - - - - - - - - - - - - - - - ; ; - - - - $ @ @ $ $ $ @ @ @ + @ + + + @ @ @ @ @ @ @ @ @ @ @ @ @ @ @ @ @ @ @ @ @ @ @ @ @ @ @ @ @ @ @ @ @ @ @ @ @ @ @ @ @ @ @ @ @ @ @ @ @ @ @ @ @ @ @ @ + + @ @ @ @ @ + @ @ @ @ @ @ @ @ + + + + + + + + + + + + + + + + + + + + + + + + + + + + + + + + + + + + + + + + X X + + + + X X X X X X X X X X X X X X ",
"X X X X X X X X X X X X X X X X X + + + + + X X + + + + + + + + + + + + + + + + + + + + + + + + @ @ @ @ @ + + + @ @ @ @ @ @ @ @ @ @ @ @ @ @ @ @ @ @ @ @ @ @ @ @ @ @ @ @ @ @ @ @ @ @ @ @ @ @ @ @ - - - - - - - - $ - - $ $ $ $ $ $ $ $ $ $ $ $ $ - - - - - - - - - - - - - * * * - @ @ @ @ * - - ; ; ; ; ; ; ; ; ; ; ; ; ; ; ; ; ; - - - - - - - @ @ @ @ @ * * - - - - - - - - - , , , , , , , , 1 1 1 < < < 1 1 < < < < < < < < , , , , , , , , , , , , , , , , ; ; ; ; ; ; ; ; ; ; ; ; ; ; ; ; , , , , , , , , , , , , , , , , , , , , , , , ; ; ; ; ; ; ; ; ; ; ; ; ; ; ; - - - - - - - - - - - - - - - - - - @ @ @ @ @ @ @ @ O + + + + + + + + + + + + @ @ @ @ @ @ @ $ - - - - - - - - - - - - - - - - - - - ; ; ; ; ; ; ; ; ; ; ; ; ; ; ; ; ; ; ; ; ; ; : : , , , ; ; ; ; ; ; ; ; ; ; ; ; ; - - - - - - - - - - - - - - - - - - ; ; ; < < < , , , , , , , , , , , , , , , , , , , , , , < < , , , , , , < < ; ; ; ; ; - - - - - - - - - - - - - - - ; ; ; ; - - $ @ @ @ $ $ @ @ @ + @ @ @ @ @ @ @ @ @ @ @ @ @ @ @ @ @ @ @ @ @ @ @ @ @ @ @ @ @ @ @ @ @ @ @ @ @ @ @ @ @ @ + + @ @ @ @ @ @ @ @ @ @ @ @ @ @ @ @ + + @ @ @ @ @ + @ @ @ @ @ @ @ @ + + + + + + + + + + + + + + + + + + + + + + + + + + + + + + + + + + + + + + + + X X + + + + X X X X X X X X X X X X X X ",
"X X X X X X X X X X X X X X X X X X + + + + X X + + + + + + + + + + + + + + + + + + + + + + + + @ @ @ @ @ @ @ @ + + + @ @ @ + + @ @ @ @ @ @ @ @ @ @ @ @ @ @ @ @ @ @ @ @ @ @ @ @ @ @ @ @ @ @ @ @ - - - - $ $ $ $ $ $ $ $ $ $ $ $ $ $ $ $ $ $ $ $ - - - - - - - - - - - - - - - - - - - - - - - - - - - ; ; - - - ; ; ; ; ; ; ; ; ; ; - - ; - - - * * * @ @ @ @ @ * - - - - - ; ; , , , , , , , , < < < < < < < < < < < < < < 1 1 , , , , , , , , , , , , , , , , ; ; ; ; ; ; ; ; ; ; ; ; ; ; ; ; , , , , , , , , , , , , , , , , , , ; ; , , , , ; ; ; ; ; ; ; ; ; ; ; ; ; ; ; ; - - - - - - - - - - - - - - - - @ @ @ @ @ @ @ @ + + + + + + + + @ @ @ @ $ $ $ $ @ @ @ $ - - - - ; ; ; ; ; ; ; ; ; ; ; ; ; ; ; ; - - - - - - - - ; ; ; ; ; ; ; ; ; ; ; ; ; ; ; ; , , ; ; ; ; ; ; ; ; ; ; ; ; ; ; $ $ $ - - - - - - - - - - - - * - - ; ; , , < < , , , , , , , , , , , , < , , , ; , , , , , < < ; , , , , , < < , , , , ; ; - - ; ; ; ; ; ; ; ; - - - - - - - - - * @ @ @ @ + + @ @ @ @ @ @ + @ @ @ @ @ @ @ @ @ @ @ @ @ @ @ @ @ @ @ @ @ @ @ @ @ @ @ @ @ @ @ @ @ @ @ @ @ @ @ @ @ @ @ @ @ @ @ @ @ @ @ @ @ @ @ @ @ @ @ @ @ @ @ @ @ + + @ @ @ @ @ @ + + + + + + + + + + + + + + + + + + + + + + + + + + + + + + + + + + + + + + + + X X + + + + + X X X X X X X X X X X X X ",
"X X X X X X X X X X X X X X X X X X + + + + X X + + + + + + + + + + + + + + + + + + + + + + + + @ @ @ @ @ @ @ @ + @ + + @ + + + @ @ @ @ @ @ @ @ @ @ @ @ @ @ @ @ @ @ @ @ @ @ @ @ $ @ @ @ @ @ - $ - - - - $ $ $ $ $ $ $ $ $ $ $ $ $ $ $ $ $ $ $ $ - - - - - - - - ; ; ; ; - ; ; ; ; - - - - - - - - - - - - - - - ; ; ; ; ; ; ; ; , , ; ; ; ; ; ; - - - - * * * * - - - - - ; , , , , , , , , , , < < < < < < < < 1 1 < < < < < 1 , , , , , , , , , , , , , , , , ; ; ; ; ; ; ; ; ; ; ; ; ; ; ; ; , , , , , , , , , , , , , , , , , , ; ; , , , , ; ; ; ; ; ; ; ; ; ; ; ; ; ; ; - ; ; - - - - - - - - - - - - - - $ $ $ $ $ @ @ @ @ @ @ @ @ @ @ @ @ @ @ @ $ $ $ $ @ @ $ - - - - - ; ; ; ; ; ; ; ; ; ; ; ; ; ; ; ; - - - - - - - - ; ; ; ; ; ; ; ; ; ; ; ; ; ; ; ; ; ; ; ; - - - - - - - - - - - - @ @ @ @ - - - - - - * * * * * * - - ; ; , , < < , , , , , , , , ; ; ; ; , , , , ; ; ; ; ; ; : : ; ; ; ; ; ; : : , , , , ; ; - - ; ; ; ; ; ; ; ; - - - - - - - - * * @ @ @ @ + + + + + @ @ @ @ @ @ @ @ @ @ @ @ @ @ @ @ @ @ @ @ @ @ @ @ @ @ @ @ @ @ @ @ @ @ @ @ @ + + + + + + + + @ @ @ @ @ @ @ @ @ @ @ @ @ @ @ @ @ @ @ @ @ @ @ @ + + @ @ @ @ @ @ + + + + + + + + + + + + + + + + + + + + + + + + + + + + + + + + + + + + + + + + X X + + + + X X X X X X X X X X X X X X ",
"X X X X X X X X X X X X X X X X X X X + + + X X + + + + + + + + + + + + + + + + + + + + + + + + @ @ + @ + + @ @ @ @ @ @ @ @ @ + @ @ @ @ @ @ @ @ @ @ @ @ @ @ @ @ @ @ @ @ @ @ @ @ - - @ @ @ @ - - @ @ @ @ @ @ @ @ $ $ $ $ $ $ $ $ $ $ $ $ $ $ $ $ - - - - - - - - - - - - - - - - ; ; - - - - - - - - - - - - - - - - - - - - - - , , , < ; ; ; ; : ; ; ; - - - - ; ; ; ; , , , , , , , , , , , , < < < < 1 1 < < < 1 < < < < 1 1 , , , , , , , , , , , , , , , , ; ; ; ; ; ; ; ; ; ; ; ; ; ; ; ; , , , , , , , , , , , , , , , , , , , ; , , , , , , , , , , , , , , , , ; ; ; ; ; ; ; - - - - - - - - - - - - - $ $ $ $ $ $ @ @ @ @ @ @ @ @ @ @ @ @ @ @ @ @ $ $ $ $ - - - - - - ; ; ; ; ; ; ; ; ; ; ; ; ; ; ; ; ; ; ; ; ; ; ; ; ; ; ; ; ; ; ; ; ; ; - - - - - - ; ; ; - - - - - - - - - - - - - + @ @ @ @ - - - - - - * * @ @ @ * - - ; ; , < < , , , , , , , , , , ; ; , , , , ; ; ; ; ; ; ; ; ; ; ; ; ; ; ; ; ; ; , ; ; ; - - ; ; ; ; ; ; ; ; - - ; - - - - - - - $ @ @ @ @ @ + + + @ @ @ @ @ @ @ @ @ @ @ @ @ @ @ @ @ @ @ @ @ @ @ @ @ @ @ @ @ @ @ @ @ @ @ @ @ + @ @ @ + + + + @ @ @ @ @ @ @ @ @ @ @ @ @ @ @ @ @ @ + + @ @ @ @ + @ @ @ @ + + + + + + + + + + + + + + + + + + + + + + + + + + + + + + + + + + + + + + + + + + + + + + + + + + + X X X X X X X X X X X X ",
"X X X X X X X X X X X X X X X X X X X + + + X X + + + + + + + + + + + + + + + + + + + + + + + + @ @ + + + @ @ @ @ @ @ @ @ @ @ @ @ @ @ @ @ @ @ @ @ @ @ @ @ @ @ @ @ @ @ @ @ @ @ @ $ - @ @ @ @ $ $ @ @ @ @ @ @ @ @ $ $ $ $ $ $ $ $ $ $ $ $ $ $ $ $ - - - - - - - - - - - - - - - - ; ; ; - - - - - - - - - - - - - - - - - - - - - 1 1 < < < : : : , , , , , , , , < < < < , , , , 1 1 1 1 1 1 1 1 < < 1 1 1 1 < < < < < < < < 1 1 , , , , , , , , , , , , , , , , ; ; ; ; ; ; ; ; ; ; ; ; ; ; ; ; , , , , , , , , , , , , , , , , , , , , , , , , , , , , , , , , , , ; , ; ; ; ; ; ; ; ; ; ; - - - - - - - - - - $ @ @ @ @ @ @ @ @ @ @ @ @ @ @ @ @ @ @ @ @ @ @ @ $ - - - - - - - ; ; ; ; ; ; ; ; ; ; ; ; ; ; ; ; ; ; ; ; ; ; ; ; ; ; ; ; ; ; ; ; ; ; - - - - - - - - - - - - - - - - - - - - - - + + @ @ @ - - - - - * * @ @ @ @ * - - ; ; , < < , , , , , , , , , , , ; , , , , : ; ; ; ; ; ; ; : ; ; ; ; ; ; ; ; ; ; ; ; - - - ; ; ; ; ; ; ; ; - - ; ; - - - - - - $ @ @ $ $ $ + + + @ @ @ @ @ @ @ @ @ @ @ @ @ @ @ @ @ @ @ @ @ @ @ @ @ @ @ @ @ @ @ @ @ @ @ @ @ + + + @ @ + + + @ @ @ @ @ @ @ @ @ @ @ @ @ @ @ @ @ @ + + + + @ @ + @ @ @ @ + + + + + + + + + + + + + + + + + + + + + + + + + + + + + + + + + + + + + + + + + + + + + + + + + + + X X X X X X X X X X X X ",
"X X X X X X X X X X X X X X X X + + X X + + + + + + + + + + + + + + + + + + + + + + + + + + + + + + + + + + + + @ @ @ @ @ @ @ @ @ @ @ @ @ @ @ @ @ @ @ @ @ @ @ @ @ @ @ @ @ @ @ @ $ $ @ @ @ @ @ @ @ @ @ $ - - $ $ * * * * * * * * - - - - - - - - - - - - - - - - ; ; ; ; ; ; , , ; ; ; ; ; ; ; ; - - - - - - - - ; ; , , , ; ; ; , , , ; ; ; , , , ; ; , , < < < , , , , , , , , , , , , , , , , , , , , , , , , , , , , , , , , , , ; ; , , , , ; ; ; ; ; ; ; ; , , , , , , , , , , , , , , , , , , , , , , , , , , , , , , , , , , , , , , , , ; ; ; - - - - - - - - - - * * - - - - - - - - - - - - $ $ @ @ @ + + + + + + + + X X X X X X X X + + O + + + @ @ $ $ $ - - - - - - - - - - - - - - - - - - - - - ; ; ; ; ; ; ; ; ; ; ; ; ; ; ; ; $ $ $ $ $ $ @ @ @ @ @ @ @ @ @ @ @ @ @ @ @ @ @ @ * * - - - - - - - - - - - - - - - - - ; ; , , , , , , , ; ; , , , , , , , , , , , , , , , , , , , , , ; ; ; ; ; ; ; ; ; ; , , , ; ; ; ; ; ; ; ; - - - - - - - - - - * * * * * * @ @ @ @ $ $ $ $ $ $ @ @ @ @ @ @ @ @ @ @ @ @ @ @ @ @ @ @ @ @ @ @ + + + + + + + + @ @ @ @ @ @ @ @ + + + + + + + + @ @ @ @ @ @ @ @ @ @ @ @ + + + @ + + + + + + + + + + + + + + + + + + + + + + + + + + + + + + + + + + + + + + + + X X X X X X + + + + + + + + + + X X X X X X X X X X X X ",
"X X X X X X X X X X X X X X X X + + + X X + + + + + + + + + + + + + + + + + + + + + + + + + + + + + + + + + + + @ @ @ @ @ @ @ @ @ @ @ @ @ @ @ @ @ @ @ @ @ @ @ @ @ @ @ @ @ @ @ @ @ @ @ @ @ @ @ @ @ @ @ $ - - - - - - - - - - - - - - - - - - - - - - - - - - - - ; ; ; ; ; ; , , ; ; ; ; ; ; ; ; ; ; ; ; ; ; ; ; ; ; ; ; , ; ; ; , , , ; ; ; , ; , ; ; , , < < < , , , , , , , , , , , , , , , , , , , , , , , , , , , , , , , , , , , ; , , , , ; ; ; ; ; ; ; ; , , , , , , , , , , , , , , , , , , , , , , , , , , , , , , , , , , , , , , , , ; ; ; ; ; - - - - - - - - - @ @ - - - - - - - - $ $ @ @ @ @ @ @ @ @ @ @ @ @ @ @ @ @ @ @ @ @ @ @ @ + + @ @ @ @ $ $ $ $ - - - - - - - - - - - - - - - - - - - - - ; ; ; ; ; ; ; ; ; ; ; ; ; ; ; ; - - - - - - - * @ @ @ $ $ $ $ $ * * * * * * * * - - - - - - - - - - - - - - - - - - ; ; ; , , , , , , , , ; , , , , , , , , , , , , , , , , , , , , , , ; ; , , ; ; ; ; ; ; , , ; ; ; ; ; ; ; ; ; - - - - - - - - - - - * * * * * * * @ $ $ $ $ $ $ $ @ @ @ @ @ @ @ @ @ @ @ @ @ @ @ @ @ @ @ @ @ + + + + + + + + @ @ @ @ @ @ @ @ + + + + + + + + @ @ @ @ @ @ @ @ @ @ @ @ + + + @ + + + + + + + + + + + + + + + + + + + + + + + + + + + + + + + + + + + + + + + + + + X X X X + + X X X X + + + + X X X X X X X X X X X X ",
"X X X X X X X X X X X X X X X X + + X X X X + + + + + + + + + + + + + + + + + + + + + + + + + + + + + + + + + + @ @ @ @ @ @ + + @ @ @ @ @ @ @ @ @ @ @ @ @ @ @ @ @ @ @ @ @ @ @ @ @ @ @ @ @ @ @ @ @ @ @ - - - - - - - - - - - - - - - - - - - - - - - - - - - ; ; ; ; ; ; ; ; ; ; ; ; ; ; ; ; ; ; ; ; ; ; ; ; ; ; ; ; , , , , , , , , , , , , , , , , ; , , < < < , , , , , , , , , , , , , , , , , , , , , , , , , , , , , , , , , , , , ; , , ; ; ; ; ; ; ; ; ; , , , , , , , , , , , , , , , , , , , , , , , , , , , , , , , , , , ; , , , , , ; ; ; ; ; ; ; ; - - - - - @ @ @ - - - - - - - - - - $ $ $ @ @ @ * * * * * * * * * * * * * * * * @ @ @ @ @ - - - $ $ $ - - - - - - - - - - - - - - - - - - - ; ; ; ; ; ; ; ; ; ; ; ; ; ; ; ; ; ; ; - - - - - - - - - - - - - - - - - - - - - - - - - - - - - - - - - - - - - - - - - ; ; ; , , , , , , , , , , , , , , , , , , , , , , , , , , , , , , , , , , , ; , ; ; ; ; ; ; ; ; ; ; ; ; ; ; ; ; ; - - - - - - - - - - - - - - - * - - - - - - - $ $ - @ @ @ @ @ @ @ @ @ @ @ @ @ @ @ @ @ @ @ @ @ @ @ @ @ @ @ @ @ @ @ @ @ @ @ @ @ @ @ @ @ @ @ @ @ @ @ @ @ @ @ + + @ @ @ + @ @ + + + + + + + + + + + + + + + + + + + + + + + + + + + + + + + + + + + + + + + + + + + + X + + + X X X X X X + + X X X X X X X X X X X X ",
"X X X X X X X X X X X X X X X X + + X X X X + + + + + + + + + + + + + + + + + + + + + + + + + + + + + + + + + + @ @ @ @ @ @ @ + @ @ @ @ @ @ @ @ @ @ @ @ @ @ @ @ @ @ @ @ @ @ @ @ @ @ @ @ @ @ @ @ @ @ @ - - - - - - - - - - - - - - - - - - - - - - - - - - ; ; - ; ; ; ; ; ; ; ; ; ; ; ; , , , ; < < < < < < < < , , , , , , , , , , , , , , , , , , ; , , < < < , , , , , , , , , , , , , , , , , , , , , , , , , , , , , , , , , , , , , , , , ; ; ; ; ; ; ; ; , , , , , , , , , , , , , , , , , , , , , , , , , , , , , , , , , , ; ; , , , , ; ; ; ; ; ; ; ; - - - - $ @ @ @ - - - - - - - - - - - - - - - - - - - - - - - - - - - - - - - - - * * * - - - - $ $ $ - - - - - - - - - - - - - - - - - - - ; ; ; ; ; ; ; ; ; ; ; ; ; ; ; ; ; ; : : : ; ; ; ; ; ; ; ; ; ; ; ; ; - - - - - - - - ; ; - - - - - - - - - - - - - - ; ; ; ; , , , , , , , , , , , , , , , , , , , , , , , , , , , , < < < < , , , , < < , , ; ; ; ; ; ; ; ; ; ; ; ; , , ; ; ; ; ; ; - - - - - - - - ; - - - - - - - $ $ $ $ - - - $ @ @ @ @ @ @ @ @ @ @ @ @ @ @ @ @ @ @ @ @ @ @ @ @ @ @ @ @ @ @ @ @ @ @ @ @ @ @ @ @ @ @ @ @ @ @ @ @ + + + + @ @ @ @ + + + + + + + + + + + + + + + + + + + + + + + + + + + + + + + + + + + + + + + + + + + + X + + + X X X X X X + + X X X X X X X X X X X X ",
"X X X X X X X X X X X X X X X X + + + X X X X + + + + + + + + + + + + + + + + + + + + + + + + + + + + + + + + + @ @ @ @ @ @ + + @ @ @ @ @ @ @ @ @ @ @ @ @ @ @ @ @ @ @ @ @ @ @ @ @ @ @ @ @ @ @ @ @ @ @ - $ $ - - * * * * * * * * - - - - * - - - - - ; ; ; - - - - - ; ; ; ; ; ; , , , , , , , , < 1 1 1 < < < < , , , , , , , , , , , , , , , , , , , , < < < < , , , , , , , , , , , , , , , , , , , , , , , , , , , , , , , , , , , , , , , , , , , , , , , , , , , , , , , , , , , , , , , , , , , , , , , , , , , , , , , , , ; ; ; , ; ; ; ; ; ; ; ; ; ; ; - - - - $ @ @ @ - - - - - - - - - - - - $ $ @ @ % + % % % % % % @ @ @ @ @ @ @ @ * * @ @ @ * - - $ $ $ - - - - - ; ; ; ; ; ; ; ; - - ; ; - - - - ; ; ; ; ; ; ; ; ; ; ; ; ; ; ; ; , , , , , , , , , ; , ; ; ; ; ; ; ; ; ; ; ; ; ; ; ; ; ; - - - - - - - - - - - - ; ; ; ; , , , , , ; ; ; , , , , , , , , , , , , , , , , , , , , , , , , , , , , < < < , ; ; ; ; ; ; ; ; ; ; ; ; ; ; , ; ; ; ; ; - - - - - - - - ; - - - - - - - @ @ @ @ - - - $ $ $ $ $ $ $ $ $ @ @ @ @ @ @ @ @ @ @ @ @ @ @ @ @ @ @ @ @ @ @ @ @ @ @ @ @ @ @ @ @ @ @ @ @ @ @ @ @ + + @ @ @ @ @ @ + + + + + + + + + + + + + + + + + + + + + + + + + + + + + + + + + + + + + + + + X X + + + + + + X X X + X X X X X X X X X X X X X X X X ",
"X X X X X X X X X X X X X X X X + + X X X X + + + + + + + + + + + + + + + + + + + + + + + + + + + + + + + + + + @ @ @ + @ @ + @ @ @ @ @ @ @ @ @ @ @ @ @ @ @ @ @ @ @ @ @ @ @ @ @ @ @ @ @ @ @ @ @ @ @ @ $ $ $ - - * * * * * * * * - - - - - - * * - - ; ; - - - - ; ; ; ; ; ; ; ; , , , , , , , , 1 1 1 1 1 1 1 1 , , , , , , , , , , , , , , , , , , , , : < < < , , , , , , , , , , , , , , , , , , , , , , , , , , , , , , , , , , ; , , , , , , , , , , , , , , , , , , , , , , , , , , , , , , , , , , , , , , , , , , , , , , , , ; , , ; ; ; ; ; ; ; ; ; ; - - - - - * - * * * - - - - - - @ @ @ @ @ @ @ @ X X X X X X X X + + + + + + + + @ @ @ @ @ @ @ $ $ $ $ - - - - - ; ; ; ; ; ; ; ; - - ; ; - - - - ; ; ; ; ; ; ; ; ; ; ; ; ; ; ; ; ; ; ; ; , , , , , , , , , , , , ; ; ; ; , , ; ; ; ; ; ; ; - - - - - - - ; - - ; ; ; ; ; , , , , , , ; ; , , , , , , , , , , , , , , , , , , , , < < < < < < < < < < < , , ; ; ; ; ; ; ; ; ; ; ; ; ; ; ; - - - - - - - - - - - - - - - - - * @ @ @ @ @ @ @ @ @ @ $ $ $ $ $ $ $ $ @ @ @ @ @ @ @ @ @ @ @ @ @ @ @ @ @ @ @ @ @ @ @ @ @ @ @ @ @ @ @ @ @ @ @ @ @ @ @ @ @ @ @ @ + + @ @ + + + + + + + + + + + + + + + + + + + + + + + + + + + + + + + + + + + + + + + + X X + + + + + + X X X + X X X X X X X X X X X X X X X X ",
"X X X X X X X X X X X X X X X X X X X X X X X X + + + + + + + + + + + + + + + + + + + + + + + + + + + + + + + + @ + + + @ @ @ @ @ @ @ @ @ @ @ @ @ @ @ @ @ @ @ @ @ @ @ @ @ @ @ @ @ @ @ @ @ @ @ @ @ @ @ $ $ $ - - * * * * * * * * - - - - - - - - - - - - - - - - ; - ; ; ; ; ; ; , , , , , , , , 1 1 1 1 1 1 1 1 , , , , , , , , , , , , , , , , , , , , : < < < , , , , , , , , , , , , , , , , , , , , , , , , , , , , , , , , , , ; ; , , , , , , , , , , , , , , , , , , , , , , , , , , , , , , , , , , , , , , , , , , , , , , , , , , , , ; ; ; ; ; - - - ; ; ; ; - ; ; * * * * - - - - - @ @ @ @ @ @ @ @ @ @ @ @ @ @ @ @ @ @ @ @ @ @ @ @ @ @ @ @ @ @ @ @ $ $ $ - - - - - ; ; ; ; ; ; ; ; - - - ; - - - - ; ; ; ; ; ; ; ; ; ; ; ; ; ; ; ; ; ; ; ; ; ; ; ; , ; , , ; ; ; ; , , , , , , , , : : ; ; ; ; - - ; ; ; ; ; ; ; ; ; ; ; : < , , , , , , , , , , , , , , , , , , , , , , , , , , , < < < < < < < < 1 < < , , , ; ; ; ; ; ; ; ; ; ; ; ; ; ; ; - - - - - - - - - - - - - - - $ @ @ @ @ @ @ @ @ @ @ @ @ @ @ @ @ @ @ @ @ @ @ @ @ @ @ $ @ @ * * * * @ @ @ @ @ @ @ @ @ @ * @ * * @ @ @ @ @ @ @ @ @ @ @ @ @ @ @ @ + @ @ @ + + + + + + + + + + + + + + + + + + + + + + + + + + + + + + + + + + + + + + + + X X X X + + + + X X + + + + + + X X X X X X X X X X X X ",
"X X X X X X X X X X X X X X X X X X X X X X X X + + + + + + + + + + + + + + + + + + + + + + + + + + + + + + + + @ + + + @ @ @ @ @ @ @ @ @ @ @ @ @ @ @ @ @ @ @ @ @ @ @ @ @ @ @ @ @ @ @ @ @ @ @ @ @ @ @ $ $ $ - - - - - - - - - - - - - - - - - - - - - - - - - - ; ; ; ; ; ; ; ; , , , , , , , , < < < 1 1 1 1 1 1 1 1 1 1 1 1 1 1 1 1 1 1 1 1 1 , , ; , : < < < , , , , , , , , , , , , , , , , , , , , , , , , , , , , , , , , , , , ; , , , , , , , , , , , , , , , , , , , , , , , , , , , , , , , , , , , , , , , , , , , , , , , , , , , , ; ; ; - - - - - , , , ; ; ; ; ; * * * - - - - - - - - - - - - - * * * * * * * * - - - - - - - - # @ @ @ @ @ @ @ $ $ $ - - - - - ; ; ; ; ; ; ; ; - - - - - - - - ; ; ; ; ; ; ; ; ; ; ; ; ; ; ; ; ; ; ; ; ; : : : , , , ; ; ; , , , , , , , , , , < : : ; ; ; ; ; ; ; ; ; : : ; ; ; ; : : < , , , , , , , , , , , , , , , , , , , , , , , , , , , < < < < < < < < < < < , , , , , ; ; ; ; ; ; ; ; ; ; ; - - - - - * * - - - - - - - - - $ $ @ @ + @ @ @ @ @ @ @ @ @ @ @ @ @ @ @ @ @ @ @ @ @ @ $ $ @ @ * * * @ @ @ @ @ @ @ @ @ @ @ * @ @ @ @ @ @ @ @ @ @ @ @ @ @ @ @ @ @ @ + + @ @ + + + + + + + + + + + + + + + + + + + + + + + + + + + + + + + + + + + + + + + + X X X X + + X X X X + + + + + + X X X X X X X X X X X X ",
"X X X X X X X X X X X X X X X X X + + + + + + + + + X + + + + + + + + + + + + + + + + + + + + + + + + + + + + + @ @ @ @ + + @ @ @ @ + + @ @ @ @ @ @ @ @ @ @ @ @ $ $ $ $ $ $ $ $ $ $ $ $ $ $ $ $ $ $ $ $ $ $ $ $ - - - - - - - - * * * * - - - - - - - - - ; ; - ; ; ; , , , , , , , , , , , , , 1 1 1 1 1 1 1 1 1 1 1 1 1 1 1 1 < < < < < < < < 1 1 1 1 1 1 1 1 1 1 1 1 1 1 1 1 1 1 1 1 1 1 1 1 1 1 1 < < < < < , , , , , , , , , , , , , , , , , , , , , , , , , , , , , , , , , , , , , , , , , , , , , , , , ; ; ; ; ; ; ; ; , , , , , , , , - - - - - - - - ; ; ; ; ; ; ; ; ; ; ; ; ; ; ; ; ; ; ; ; ; ; ; ; - - - - - - - - - - - * * - - - - - $ $ @ @ @ @ @ @ $ $ $ - $ $ - - - - - - - - - - - - - - - - ; ; ; ; ; ; ; ; ; ; ; ; ; ; ; ; ; ; ; ; ; ; ; ; ; ; , , , , , , , , , , , , , , , , , , , , , , ; , , , , ; ; ; , , , , , , , , , , , , , , , , < < < < < < < < < < < < 1 1 < < , , , , , , , , , , , , ; , , , - - - - - - - - - - - - - - - - ; - - - - - - - @ @ @ @ @ @ @ + + + @ + + + + + + + @ @ @ @ + + @ @ @ @ @ @ @ @ @ @ $ $ $ $ $ $ $ $ $ $ $ $ $ $ @ @ @ @ @ @ @ @ @ @ @ @ @ @ @ @ @ @ + + @ @ @ @ @ @ @ @ @ @ @ @ + + + + + + + + + + + + + + + + + + + + + + + + + + + + + + + + + + + X X X X X + + + + + + X X X X X X X X X X X X X X ",
"X X X X X X X X X X X X X X X X + + + + + + + + X + X X + + + + + + + + + + + + + + + + + + + + + + + + + + + + @ @ @ @ + + @ @ @ @ @ + @ @ @ @ @ @ @ @ @ @ @ @ $ $ $ $ $ $ $ - $ $ $ $ $ $ $ $ $ $ $ $ $ $ $ $ - - - - - - - - * * * * - - - * - - - - - ; ; - ; ; ; , , , , , , , , , , , , , 1 1 1 1 1 1 1 1 1 1 1 1 1 1 1 1 < < < < < < < < 1 1 1 1 1 1 1 1 1 1 1 1 1 1 1 1 1 1 1 1 1 1 1 1 1 1 1 < < < < < , , , , , , , , , , , , , , , , , , , , , , , , , , , , , , , , , , , , , , , , , , , , , , , , ; ; ; , ; ; ; ; , , , , , , , , - - - - - - - - ; ; ; ; ; ; ; ; ; ; ; ; ; ; ; ; ; ; ; ; ; ; ; ; - - - - - - - - - - * * * * - - - - $ @ $ @ @ @ $ $ $ $ $ - - - - - - - - - - - - - - - - - - - ; ; ; ; ; ; ; ; ; ; ; ; ; ; ; ; ; ; ; ; ; ; ; ; ; ; , , , , , , , , , , , , , , , , , , , , , , , , , , ; ; , , , , , , , , , , , , , , , , , , < < < < < < < < < < < < 1 1 < < , , , , , , , , , , , , ; ; , , ; ; ; ; ; ; ; ; ; - - - - - - - ; - - - - - - - * @ @ @ @ @ @ @ + + + + + + + + + + + @ @ @ @ + @ @ @ @ @ @ @ @ @ @ @ @ @ @ @ @ @ @ @ @ @ @ @ @ @ @ @ @ @ @ @ @ @ @ @ @ @ @ @ @ @ @ @ + @ @ @ @ @ @ @ @ @ @ + + + + + + + + + + + + + + + + + + + + + + + + + + + + + + + + + + + + + + X X X X + + + + + + X X X X X X X X X X X X X X ",
"X X X X X X X X X X X X X X X X + + + + + + X X X X X X X X + + + + + + + + + + + + + + + + + + + + + + + + + + @ @ @ @ + + @ @ @ @ + + @ @ @ @ @ @ @ @ @ @ @ @ $ $ $ $ $ $ $ $ $ $ $ $ $ $ $ $ $ $ $ $ $ $ $ $ - - - - - - - - * - - - - - * * - - - - - ; ; - ; ; ; , , , , , , , , , , , , , 1 1 1 1 1 1 1 1 1 1 1 1 1 1 1 1 1 1 < < < < 1 1 1 1 1 1 1 1 1 1 1 1 1 1 1 1 1 1 1 1 1 1 1 1 1 1 < < < < < < < < , , , , , , , , , , , , , , , , , , , , , , , , , , , , , , , , , , , , , , , , , , , , , , , , , , , , , , , , , ; ; , ; ; , ; ; ; ; ; ; ; ; ; ; ; ; ; ; ; ; ; ; ; ; ; ; ; ; ; ; ; ; ; ; ; ; ; - - - - - - - - * * * * * * * * - - - - $ $ $ @ $ - $ $ - - - - - - - - - - - - - - - - - - - - ; ; ; ; ; ; ; ; ; ; ; ; ; ; ; ; ; ; ; ; ; ; ; ; ; ; ; ; ; ; ; ; ; ; ; ; ; ; ; ; , , ; ; , , , , , , , , , , , , , , , , , , , , , , , , , , , , < < < < < < < < < < < < < < < < , , , , , , , , , , , , ; ; ; ; ; ; ; ; ; ; ; ; ; ; - - - - - - ; - - - - - - - * * * @ @ @ @ @ @ @ @ @ @ @ @ @ @ @ @ @ @ @ + + @ @ @ @ @ @ @ @ @ @ @ @ @ @ @ @ @ @ @ @ @ @ @ @ @ @ @ @ @ @ @ @ @ @ @ @ @ @ @ @ @ @ + + @ @ @ @ @ @ @ @ @ @ + + + + + + + + + + + + + + + + + + + + + + + + + + + + + + + + + + + + + + + + X X X X X X + X X X X X X X X X X X X X X X ",
"X X X X X X X X X X X X X X X X X + + + + X X X X X X X X + + + + + + + + + + + + + + + + + + + + + + + + + + + + + @ @ @ @ @ @ @ @ @ @ @ @ + + @ @ @ @ @ @ @ @ $ $ $ $ $ $ $ $ $ $ $ $ $ $ $ $ $ $ $ $ $ $ $ $ - - - - - - - - - - - - - - * * - - - - - ; ; - ; ; ; , , , , , , , , , , , , , 1 1 1 1 1 1 1 1 1 1 1 1 1 1 1 1 1 1 1 < < < 1 1 1 1 1 1 1 1 1 1 1 1 1 1 1 1 1 1 1 1 1 1 1 1 1 1 < < < < < < < < , , , , , , , , , , , , , , , , , , , , , , , , , , , , , , , , , , , , , , , , , , , , , , , , < < < < < < < < , , , , , , , , ; ; ; ; ; ; ; ; ; ; ; ; ; ; ; ; ; ; ; ; ; ; ; ; ; ; ; ; ; ; ; ; - - - - - - - - * * * * * * * * - - - - - - - - - - - - - - - - - - - - - - - - - - - - - - - - ; ; ; ; ; ; ; ; ; ; ; ; ; ; ; ; ; ; ; ; ; ; ; ; ; ; ; ; ; ; ; ; ; ; ; ; ; ; ; ; , , , , , , , , , , , , , , , , , , , , , , , , , , , , , , , , < < < < < < < < < < < < < < < < , , , , , , , , , , , , , , , , < < < < < < < < , ; ; ; ; ; ; ; - - - - - - - - - - - $ @ @ @ @ @ @ @ @ @ @ @ @ @ @ @ @ @ @ + + @ @ @ @ @ @ @ @ @ @ @ @ @ @ @ @ @ @ @ @ @ @ @ @ @ @ @ @ @ @ @ @ @ @ @ @ @ @ @ @ @ @ @ @ @ @ + + @ @ @ @ @ + + + + + + + + + + + + + + + + + + + + + + + + + + + + + + + + + + + + + + + + + + X X X X X + X X X X X X X X X X X X X X X ",
"X X X X X X X X X X X X X X X X X X + + + + X X X X + + X X X X + + + + + + + + + + + + + + + + + + + + + + + + + + @ @ @ @ @ @ @ @ @ @ + + + + @ @ @ @ @ @ @ @ $ $ $ $ $ $ $ $ $ $ $ $ $ $ $ $ $ $ $ $ $ $ $ $ - - - - - - - - - - - - - - - - - - ; ; - ; ; - ; ; , , , , , , , , , , < < , , 1 1 1 1 1 1 1 1 1 1 1 1 1 1 1 1 < < < < < < < < 1 1 1 1 1 1 1 1 1 1 1 1 1 1 1 1 1 1 1 1 1 1 1 1 < < < < 1 1 1 < , , , , , , , , , , , , , , , , , , , , , , , , , , , , , , , , , , , , , , , , , , , , , , , , < < 1 1 , , , , , , , , , , , , ; ; ; ; ; ; ; ; ; ; ; ; ; ; ; ; - - - - - - - - - - - - - - - - - - - - - - - - * * * * * * * * - - - - - - - - - - - - - - - - - - - - - - - - - - - - - - - - ; ; ; ; ; ; ; ; ; ; ; ; ; ; ; ; ; ; ; ; ; ; ; ; ; ; ; ; ; ; ; ; ; ; ; ; ; ; ; ; , , , , , , , , ; ; , , , , , , , , , , , , < < , , , , , , , , < < 1 1 1 1 1 1 1 1 < < < < 1 1 , , , , , , < < , , , , , , , , < < < < 1 1 < < , , , , ; ; ; ; - - - - ; ; ; ; - - - - $ $ $ $ @ @ @ @ @ @ @ @ @ @ @ @ @ @ @ + @ + @ @ @ @ + @ @ @ @ @ @ @ @ @ @ @ @ @ @ @ @ @ @ @ @ @ @ @ @ @ @ @ @ @ @ @ @ @ @ @ @ @ + + + + @ @ @ @ @ @ @ @ + + + + + + + + + + + + + + + + + + + + + + + + + + + + + + + + + + + + + + + + + + X X X X X X X X X X X X X X X X X X ",
"X X X X X X X X X X X X X X X X X X + + + + X X X X X + X X X X + + + + + + + + + + + + + + + + + + + + + + + + + + @ @ @ @ @ @ @ @ + @ @ @ + + @ @ @ @ @ @ @ @ $ $ $ $ $ $ $ $ $ $ $ $ $ $ $ $ $ $ $ $ $ $ $ $ - - - - - - - - - - - - - - - - - - ; ; - ; ; - , ; , , , , , , , , , , < < , , 1 1 1 1 1 1 1 1 1 1 1 1 1 1 1 1 < < < < < < < < 1 1 1 1 1 1 1 1 1 1 1 1 1 1 1 1 1 1 1 1 1 1 1 1 < < < < 1 1 < < , , , , < < , , , , , , , , , , , , , , , , , , , , , , , , , , , , , , , , , , , , , , , , , , < < < < < < < < < < < < < < < < ; ; ; ; ; ; ; ; ; ; ; ; ; ; ; ; - - - - - - - - - - - - - - - - - - - - - - - - * * * * * * * * - - - - - - - ; - - - - - - - - - - - - - - - - - - - - - - - - ; ; ; ; ; ; ; ; ; ; ; ; ; ; ; ; ; ; ; ; ; ; ; ; ; ; ; ; ; - - - ; ; ; ; ; ; ; ; ; ; ; ; , , ; ; ; , , , , , ; ; , , , , , < < : , , , , , , , , , , , , , , , , 1 < < < < < 1 1 1 1 < < < < < 1 < < < < < < < < 1 1 1 1 1 1 1 1 1 1 < < < : : : - - - ; ; ; ; ; - - - - - $ $ $ @ @ @ @ @ @ @ @ @ @ @ @ @ @ @ @ + + + + @ @ + + @ @ @ @ @ @ @ @ @ @ @ @ @ @ @ @ @ @ @ @ @ @ @ @ @ @ @ @ @ @ @ @ @ @ + @ @ @ + + @ @ @ @ @ @ @ @ + + + + + + + + + + + + + + + + + + + + + + + + + + + + + + + + + + + X + + + + + + X X X X X X X X X X X X X X X X X X ",
"X X X X X X X X X X X X X X X X X X X + + + + X X X + + + + X + + + + + + + + + + + + + + + + + + + + + + + + + @ @ @ @ + + + @ @ + + + @ @ @ @ @ @ @ @ @ @ @ @ $ $ $ $ $ $ $ $ - $ $ $ $ $ $ $ $ $ $ $ $ $ $ $ - - - - - - - - * * - - - - - - - - - - - ; ; - , , , , , , , , , , , , < < < < 1 1 1 1 1 1 1 1 1 1 1 1 1 1 1 1 < < 1 1 < < < < 1 1 1 1 1 1 1 1 1 1 1 1 1 1 1 1 1 1 1 1 1 1 1 1 1 1 < < 1 1 1 1 , , , , < < < < , , , , , , , , , , , , , , , , , , , , , , , , , , , , , , , , , , , , , , , , < < < < < < < < < < < < < < < < , ; , , ; ; ; ; ; ; ; ; ; ; ; ; - - - - - - - - - - - - - - - - - - - - - - - - - - * * * * - * - - - - - ; ; ; - - - - - - - - - - - - - - - - - - - - - - - - ; ; ; ; ; ; ; ; ; ; ; ; ; ; ; ; ; ; ; ; ; ; ; ; ; ; ; ; - - - - ; ; ; ; ; ; ; ; ; ; ; ; , , , ; ; , , , , , ; , , , , , , , < < , , , , , , , , , , , , , , , , 1 < < < < < 1 < 1 1 < < < < 1 1 < < < < < < < < 1 1 1 1 1 1 1 1 , , , < ; ; ; ; - - - ; ; ; ; ; - - - - - - $ $ * * * * @ @ @ @ + + @ @ @ @ @ @ + + + + @ @ @ + @ @ @ @ @ @ @ @ @ @ @ @ @ @ @ @ @ @ @ @ @ @ @ @ @ @ @ @ @ @ @ @ @ + + + @ @ @ @ @ @ + @ + + @ @ + + + + + + + + + + + + + + + + + + + + + + + + + + + + + + + + + + X X X X + X + + + + X X X X X X X X X X X X X X X X ",
"X X X X X X X X X X X X X X X X X X X X + + X X X X + + + + + + + + + + + + + + + + + + + + + + + + + + + + + + @ @ @ @ + + + @ @ + + + @ @ @ @ @ @ @ @ @ @ @ @ $ $ $ $ $ $ $ $ $ $ $ $ $ $ $ $ $ $ $ $ $ $ $ $ - - - - - - - - * * - - - - - - - - - - - ; ; - ; , , , , , , , , , , , < < < < 1 1 1 1 1 1 1 1 1 1 1 1 1 1 1 1 < < < 1 1 < < < 1 1 1 1 1 1 1 1 1 1 1 1 1 1 1 1 1 1 1 1 1 1 1 1 1 1 < < 1 1 1 1 , , , , < < < < , , , , , , , , , , , , , , , , , , , , , , , , , , , , , , , , , , , , , , , , , , , , , , , , < < < < < < < < , , , , , , , , ; ; ; ; ; ; ; ; - - - - - - - - - - - - - - - - - - - - - - - - - - - * * * * - - - - - ; ; ; ; ; ; - - - - - - - - - - - - - - - - - - - - - - ; ; ; ; ; ; ; ; ; ; ; ; ; ; ; ; ; ; ; ; ; ; ; ; ; ; ; ; ; - - - ; ; ; ; ; ; ; ; ; ; ; ; , , , ; , , , , , , , , , , , , , , < , , , , , , , , , , , , , 1 1 1 1 < < < < < < < < 1 < < < < < 1 1 < < < < < < < < < < < < < < < < , , , , ; ; ; ; - - ; ; ; ; ; ; - - - - - - - $ * * * * @ @ @ @ + + @ @ @ @ @ @ + + + + @ @ + + @ @ @ @ @ @ @ @ @ @ @ @ @ @ @ @ @ @ @ @ @ @ @ @ @ @ @ @ @ @ @ @ @ + + + @ @ @ @ @ @ + + + @ @ @ + + + + + + + + + + + + + + + + + + + + + + + + + + + + + + + + + + X X X X X X + + + + + + + + X X X X X X X X X X X X ",
"X X X X X X X X X X X X X X X X + + X X + + + + + + + + + + + + + + + + + + + + + + + + + + + + + + + + + + + + @ @ + + + + @ @ @ @ @ @ @ @ @ @ @ @ @ @ @ @ @ @ $ $ @ @ @ @ $ $ @ @ @ @ $ $ $ $ - - - - - * - - - - - - - - - - - - - - - - - - ; ; ; ; ; ; ; ; , , , , , < < < < 1 1 1 1 1 1 1 1 1 1 1 1 1 1 1 < < < < < < < < 1 1 1 1 1 1 < < < < < < 1 1 1 1 < < < < < < < < 1 1 1 1 1 1 1 1 1 1 1 1 1 1 1 1 1 1 1 1 1 1 1 1 1 1 < < < < < < , , , , , , , , < < < < < < < < 1 1 < < < < 1 1 1 1 < < < < < < < < 1 1 < < < < , , , , , , , , , , , , , , , , ; ; ; ; ; ; ; ; - - - - ; ; - - - - - - - - - - - - - - - - - - @ @ @ @ @ @ @ @ - - - - - - - - - - - - - - - - - - - - - - - - - - - - - - ; ; ; ; ; ; , , , , ; ; ; , ; ; ; , , , , , ; ; ; ; ; ; ; ; ; ; ; : : : : : ; ; ; ; , , , ; , , , , , , , , , , , , , , , , , 1 < < < < < < 1 1 1 1 1 1 1 1 1 1 1 1 1 1 1 1 1 1 1 1 2 2 2 1 1 1 2 2 < < < < 1 1 1 1 < < < < 1 1 1 1 , , < ; ; ; ; ; ; - - ; - - - - - - - - - - - - - - - - - - - - @ @ @ + + + + @ @ @ @ @ + + + + * * * * * * * * @ @ @ @ @ @ @ @ @ @ @ @ $ $ $ @ @ @ @ @ @ @ @ @ @ @ @ @ @ @ @ @ @ @ @ @ @ @ @ @ + + + @ @ @ @ @ + + + + + + + + + + + + + + + + + + + + + + + + + + + + + + + + X X X X X X + + X X X X X X X X X X X X ",
"X X X X X X X X X X X X X X X X + + + X X + + + + + + + + + + + + + + + + + + + + + + + + + + + + + + + + + + + @ @ + + @ @ @ @ @ @ @ @ @ @ @ @ @ @ @ @ @ @ @ @ $ $ @ @ @ $ $ $ @ @ @ @ $ $ @ $ - - - - - * - - - - - - - - - - - - - - - - - - - - - - - - - - , , , , , < < < < < 1 1 1 1 1 1 1 1 1 1 1 1 1 1 1 1 1 1 1 1 1 1 1 1 1 1 1 1 1 1 1 1 1 1 1 1 1 1 1 1 1 1 1 1 1 1 1 1 1 1 1 1 1 1 1 1 1 1 1 1 1 1 1 1 1 1 1 1 1 1 1 1 < < < < < < , , , , , , , , 1 1 < < < < 1 1 1 1 < < < < 1 1 1 1 < < < < 1 < < < 1 1 < < < < , , , , , , , , , , , , ; ; , , ; ; ; ; ; ; ; ; - - - - ; ; - - - - - - - - - - - - - - - - - - @ @ @ @ @ @ @ @ - - - - - - - - - - - - - - - - - - - - - - - - - - - - - - ; ; ; ; ; ; , , , , ; ; ; , ; , ; ; , , , , : : : ; ; ; ; ; ; ; ; : ; ; ; ; ; ; ; ; , , , ; , , , , , , , , , , , , , , , , , 1 1 1 1 < < < 1 1 1 1 1 1 1 1 1 1 1 1 1 1 1 1 1 1 1 1 2 2 2 2 1 1 2 2 1 1 1 1 1 1 1 1 1 1 1 1 1 1 1 1 , , < , ; ; ; ; ; ; ; ; ; ; - - - - - - - - - - - - - - - - - - $ $ $ $ $ $ $ $ @ @ @ @ @ @ @ @ * * * * * * * * @ @ @ @ @ @ @ @ @ @ @ @ $ $ $ @ @ @ @ @ @ @ @ @ @ @ @ @ @ @ @ @ @ @ @ @ @ @ @ @ + + @ @ @ @ @ @ + + + + + + + + + + + + + + + + + + + + + + + + + + + + + + + + X X X X X X + + X X X X X X X X X X X X ",
"X X X X X X X X X X X X X X X X + + X X X X + + + + + + + + + + + + + + + + + + + + + + + + + + + + + + + + + + @ @ @ @ @ @ @ @ @ @ @ @ @ @ @ @ @ @ @ @ @ @ @ @ $ $ @ @ @ @ $ $ @ @ @ @ @ @ @ @ - - - - * * * * - - - - - - - - - - - - - - - - ; ; ; ; ; ; ; ; , , , , , < < < < < 1 1 1 1 1 1 2 2 1 1 1 1 1 1 2 2 2 2 2 2 2 2 1 1 1 1 1 1 1 1 1 1 1 1 1 1 1 1 2 2 2 2 2 2 2 2 2 2 2 1 1 1 1 1 1 1 1 1 1 1 1 1 1 1 1 1 1 1 1 1 1 1 < < < < < < , , , , , , , , 1 1 < < < < < 1 < < < < < < < 1 1 < < < < < 1 1 < < < < < < < < , , , , , , , , ; , , , ; ; , , ; ; ; ; ; ; ; ; - - - - - - - - - - - - - - - - - - - - - - - - @ @ @ @ @ @ @ @ - - - - - - - - - - - - - - - - - - - - - - - - - - - - - ; ; ; ; ; ; ; , , , , , , , , , , , < , , < < < < < < : : ; ; ; ; ; ; ; ; ; ; ; ; ; ; , , , ; , , ; , , , , , , , , , , , , < 1 1 1 1 1 1 1 1 1 1 1 1 1 1 1 1 1 1 1 1 1 1 1 1 2 2 1 1 2 2 2 2 1 1 2 2 2 2 2 2 1 2 1 1 2 2 2 2 1 1 1 1 1 1 1 < < ; ; ; ; ; ; ; ; ; ; ; ; - - - - - - - - - - - - - - - - - - - - - - - $ $ $ $ $ $ $ $ * * * * * * * * @ @ @ @ @ @ @ @ @ @ @ @ $ $ @ @ @ @ @ @ @ @ @ @ @ @ @ @ @ @ @ @ @ @ @ @ @ @ @ @ @ @ @ @ @ @ @ + + + + + + + + + + + + + + + + + + + + + + + + + + + + + + + + + + + + + + + + + X X X X X X X X X X X X ",
"X X X X X X X X X X X X X X X X + + X X X X + + + + + + + + + + + + + + + + + + + + + + + + + + + + + + + + + + @ @ @ @ @ @ @ @ @ @ @ @ @ @ @ @ @ @ @ @ @ @ @ @ $ $ @ @ @ @ $ @ @ @ @ @ @ @ @ @ - - - - - - - - - - - - - - - - - - - - - - - - ; ; ; - ; ; ; ; , , , , , < < < < < 1 1 1 1 1 1 2 2 1 1 1 1 1 1 1 1 1 1 1 1 1 1 1 1 1 1 1 1 1 1 1 1 1 1 1 1 1 1 1 1 1 1 1 1 1 1 2 2 2 1 1 1 1 1 1 1 1 1 1 1 1 1 1 1 1 1 1 1 1 1 < < < < < < < < , , , , , , , , 1 < < < < < < 1 < < < < < < < < 1 1 < < < < < < < < < < < < < < , , , , , , , , ; , , , , , , , ; ; ; ; ; ; ; ; - - - - - - - - - - - - - - - - - - - - - - - - - $ $ $ $ $ $ $ - - - - - - - - - - - - - - - - - - - - - - - - - - - - - ; ; ; ; ; ; ; , , , , , , , < , , < < < < < < < < < < < < , , , , ; ; ; ; ; ; ; ; ; ; , , , , , , ; ; , , , , , , , , , , , < 1 1 1 1 1 1 1 1 1 1 1 1 1 1 1 1 1 1 1 1 1 1 1 1 2 2 2 1 2 2 2 2 1 1 2 2 1 1 1 1 1 1 1 1 1 1 1 1 1 1 1 1 1 1 1 1 < < < < , ; ; ; ; ; ; ; - - - - - - - - - - - - - - - - - - - - - - - - - - - - - - - - - - - - - - - - @ @ @ @ @ @ @ @ - $ @ @ @ $ @ @ @ @ @ @ @ @ @ @ @ @ @ @ @ @ @ @ @ @ @ @ @ @ @ @ @ @ @ @ @ @ @ + + + + + + + + + + + + + + + + + + + + + + + + + + + + + + + + + + + + + + + + + X X X X X X X X X X X X ",
"X X X X X X X X X X X X X X X X + + + X X X X + + + + + + + + + + + + + + + + + + + + + + + + + + + + + + + + + + + @ @ @ @ @ @ @ @ @ @ @ @ @ @ @ @ @ @ @ @ @ @ @ @ @ @ @ @ @ @ @ @ @ @ @ @ @ @ - - - - - - - - - - - - - - - - ; ; ; ; ; ; ; ; ; ; ; ; ; ; ; ; ; ; ; , , < < < 1 1 1 1 1 1 1 1 2 2 2 2 1 1 1 1 2 2 2 2 2 2 2 2 2 2 2 2 2 2 2 2 2 2 2 2 2 2 2 2 2 2 2 2 2 2 2 2 2 2 2 2 1 1 1 1 1 1 1 1 1 1 1 1 1 1 1 1 1 1 1 1 < < < < 1 1 1 < , , , , , , , , < < < < < < < < < < < < < < < < < < < < < < < < 1 1 < < < < < < , , , , , , , , ; ; , , , , , , ; ; ; ; ; ; ; ; ; ; - - - - - - - - - - - - - - - - - - - - - - - - - - - - - - - - - - - - - - - - - - - - - - - - - - - - - - - - - - - ; ; ; ; ; ; , ; , , , , , , , , 1 1 1 1 1 1 1 1 1 1 1 < < , , , , , , ; ; ; ; ; ; ; ; , , , , , , , ; , , , , , , , , < < < < 1 1 1 1 1 1 1 1 1 1 1 1 1 1 1 1 1 1 1 1 1 1 1 1 2 1 1 1 1 1 1 1 2 1 1 1 2 2 2 2 2 2 2 2 2 2 2 2 2 2 2 2 2 2 1 1 1 1 1 < , , ; ; ; ; ; ; - - - - - - * * - - - - - - - - - - - - - - - - - - - - - - - - - - - * - - - - @ @ @ @ @ @ $ $ - $ @ @ @ @ @ @ @ @ @ @ @ @ @ @ @ @ @ @ @ @ @ @ @ @ @ @ @ @ @ @ @ @ @ @ @ @ + + + + + + + + + + + + + + + + + + + + + + + + + + + + + + + + + + + + + + + + + + X X X X X X X X X X X X ",
"X X X X X X X X X X X X X X X X + + X X X X + + + + + + + + + + + + + + + + + + + + + + + + + + + + + + + + + + + + @ @ @ @ @ + @ @ @ @ @ @ @ @ @ @ @ @ @ @ @ @ @ @ @ @ @ @ @ @ @ @ @ @ @ @ - - - - - - - - - - - - - - - - - - ; ; ; ; ; ; ; ; ; ; ; ; ; ; ; ; , ; ; , , < < < 1 1 1 1 1 1 1 1 2 2 2 2 1 1 1 1 2 2 2 2 2 2 2 2 2 2 2 2 2 2 2 2 2 2 2 2 2 2 2 2 2 2 2 2 2 2 2 2 2 2 2 2 1 1 1 1 1 1 1 1 1 1 1 1 1 1 1 1 1 1 1 1 < < < < 1 1 1 < , , , , , , , , < < < < < < < < < < < < < < < < < < < < < < < < 1 1 < < < < < < , , , , , , , , , ; , , ; , , , ; ; ; ; ; ; ; ; - ; - - ; - - - - - - - - - - - - - - - - - - - - - - - - - - - - - - - - - - - - - - - - - - - - - - - - - - - - - - - - ; ; ; ; ; , , , , , , , , , , , , 1 1 1 1 1 1 1 1 1 1 1 1 < < < < < < ; ; ; ; ; ; ; ; , , ; ; , , , ; , , , , , , , , < < < 1 1 1 1 1 1 1 1 1 1 1 1 1 1 1 1 1 1 1 1 1 1 1 1 2 1 1 1 1 1 2 1 1 2 1 1 1 2 2 2 2 2 2 2 2 2 2 1 2 2 2 2 2 2 2 2 1 1 1 2 1 , , , , , ; , , - - - - - - - - ; ; ; - - - - - - - - - - - - - - - - - * * - - - - - * - - - - @ @ @ @ @ @ $ - - - @ @ @ @ @ @ @ @ @ @ @ @ @ @ @ @ @ @ @ @ @ @ @ @ @ @ @ @ @ @ @ @ @ @ @ @ + + + + + + + + + + + + + + + + + + + + + + + + + + + + + + + + + + X X + + + + + + X X X X X X X X X X X X ",
"X X X X X X X X X X X X X X X X X X X X X X X X + + + + + + + + + + + + + + + + + + + + + + + + + + + + + + + + + + @ @ @ @ + + @ @ @ @ @ @ @ @ @ @ @ @ @ @ @ @ @ @ @ @ @ @ @ $ $ - @ @ @ @ - - - - - - - - - - - - - - - - - - ; ; ; ; ; ; ; ; , , , , , , , , , , ; , , < < < 1 1 1 1 1 1 1 1 2 2 2 2 2 2 2 2 2 2 2 2 2 2 2 2 2 2 2 2 2 2 2 2 2 2 2 2 2 2 2 2 2 2 2 2 2 2 2 2 2 2 2 2 1 2 1 1 1 1 1 1 1 1 1 1 1 1 1 1 1 1 1 1 1 < < < 1 1 1 1 , , , , , , , , < < 1 1 < < < < 1 1 < < < < 1 1 < < < < 1 1 < < < 1 < < < < < < , , , , , , , , , , , , ; , , , ; ; ; ; ; ; ; ; - - - - ; ; - - - - - - - - - - - - - - - - - - - - - - - - - - - - - - - - - - - - - - - - - - - - - - - - - - - - - - - ; ; ; , , , , , , , , , , , , , 1 1 1 1 1 1 1 1 1 1 1 1 1 < < < < 1 < ; ; ; ; ; ; ; ; , , ; ; , , , , , , , , , , , , < < < 1 1 1 1 1 1 1 1 1 1 1 1 1 1 1 1 1 1 1 1 1 1 1 2 2 1 1 1 1 2 2 2 2 2 2 1 1 2 2 2 2 2 2 2 2 2 2 2 2 2 2 2 2 8 2 2 2 1 1 2 2 1 1 1 1 < < < < , , , ; ; ; ; ; ; ; ; ; ; ; ; ; - - - - - - - - - - - - - - - - - - - - - - - - - - $ $ - - - - @ @ @ @ $ @ @ @ $ $ $ $ $ $ $ $ @ @ @ @ @ @ @ @ @ @ @ @ @ @ @ @ @ + + + @ @ @ @ + + + + + + + + + + + + + + + + + + + + + + + + + + + + + + + + X X X X + X + + X X X X X X X X X X X X ",
"X X X X X X X X X X X X X X X X X X X X X X X X + + + + + + + + + + + + + + + + + + + + + + + + + + + + + + + + + @ @ @ @ @ + + @ @ @ @ @ @ @ @ @ @ @ @ @ @ @ @ $ @ @ @ @ @ @ $ $ - @ @ @ $ $ - - - - - - - - - - - - - - - - - ; ; ; ; ; ; ; ; , , , , , , , , , , ; , , < < < 1 1 1 1 1 1 1 1 2 2 2 2 2 2 2 2 2 2 2 2 2 2 2 2 2 2 2 2 2 2 2 2 2 2 2 2 2 2 2 2 2 2 2 2 2 2 2 2 2 2 2 2 2 2 1 1 1 1 1 1 1 1 1 1 1 1 1 1 1 1 1 1 1 < < < 1 1 1 1 , , , , , , , , < 1 1 < < < < 1 1 1 < < < < < 1 1 < < < < 1 1 1 < < < < < < < < , , , , , , , , , , , , ; , , , ; ; ; ; ; ; ; ; - - - - ; ; - - - - - - - - - - - - - - - - - - - - - - - - - - - - - - - - - - - - - - - - - - - - - - - - - - - - - - - ; ; ; , , , , , , , , , , 1 1 1 1 1 1 1 1 1 1 1 1 1 1 1 1 < < < < < < ; ; ; ; : : ; ; , , , , , , , , , , , , , , , , < < < < 1 1 1 2 1 1 1 1 1 1 1 1 1 1 1 1 1 1 1 1 1 1 2 1 1 1 1 1 2 2 2 2 2 2 1 1 2 2 2 2 2 2 2 2 2 2 2 2 2 2 2 2 8 8 2 2 2 1 2 2 2 2 2 2 2 2 1 1 1 1 1 < < , , , : ; ; ; ; ; ; ; ; ; ; - - - - - - - - - - - - - - - - - - - - - - $ $ $ $ $ $ $ @ @ @ @ $ $ $ @ $ $ $ $ $ $ $ $ @ @ @ @ @ @ @ @ @ @ @ @ @ @ @ @ + + + + @ @ @ @ + + + + + + + + + + + + + + + + + + + + + + + + + + + + + + + + X X X X X X + + X X X X X X X X X X X X ",
"X X X X X X X X + + X X X X X X + + + + + + + + + + + + + + + + + + + + + + + + @ @ @ @ @ @ @ @ @ @ @ @ @ @ + + @ @ @ @ @ @ @ @ @ @ @ @ @ @ @ $ @ @ @ @ @ @ @ @ @ @ @ @ @ @ @ @ * * * * * * * - - - - - - - - - - - - - - - - - ; ; ; ; ; ; ; ; ; ; ; ; ; , < < : : < : < < < < 1 1 1 1 1 1 2 2 2 2 2 2 2 2 2 2 2 2 2 2 2 2 2 2 2 2 2 2 2 2 2 2 8 8 8 8 8 8 8 8 2 2 2 2 2 8 8 8 2 2 2 2 2 2 2 2 2 2 2 2 2 1 1 1 1 1 1 1 1 1 1 1 1 1 1 1 1 1 1 1 < < < < 1 1 1 1 < < < < 1 1 1 1 2 2 2 2 2 2 2 2 1 1 1 1 1 1 < < 1 1 1 1 1 1 1 1 , , , , , , , , , , , , , , , ; ; ; ; ; ; ; ; ; - - - - - - - - - - - - - - - - - - - - - - - - - - - - - - - - - - - - - - - - - - - - - - - - - - - - - - - - ; ; ; ; ; ; ; ; , , , , , < < < 1 1 1 1 1 1 1 1 2 2 2 1 2 2 2 2 2 2 2 2 1 1 1 2 1 1 1 1 1 , , , , , , , , , , , : : : : : : < < 1 1 1 1 1 1 1 1 2 2 2 8 8 8 8 8 1 1 1 1 1 1 1 1 1 1 1 1 2 2 2 8 1 2 2 2 2 2 2 2 2 2 2 2 2 2 2 2 2 2 e 2 2 2 2 2 2 2 2 2 2 2 2 2 2 2 2 2 2 2 2 1 < 1 1 < < < : : , , ; ; ; ; ; ; - - - - - - - - - - - - - - - - - - - - - - - - * * * * * * * * - - - $ $ $ $ $ @ @ @ @ - $ $ $ @ @ @ @ @ @ @ @ @ @ @ @ @ @ @ @ @ @ @ @ @ @ @ @ @ @ @ @ + + + @ + + + + + + + + + + + + + + + + + + + + + + + + X X X X X X X + + + X X X X X X X X X X ",
"X X X X X X X X + + X + X X X X + + + + + + + + + + + + + + + + + + + + + + + + @ @ @ @ @ @ + + + + @ @ @ @ + + @ @ @ @ @ @ @ @ @ @ @ @ @ @ $ $ @ @ @ @ @ @ @ @ @ @ @ @ @ @ @ @ * * * * * * * - - - - - - - - - - - - - - - - - - - - - - - ; ; - - - ; ; ; , , : : < < < < 1 1 1 1 1 1 1 1 1 1 2 2 2 2 2 2 2 2 2 2 2 2 2 2 2 2 2 2 2 2 2 2 2 2 8 8 e 8 8 8 8 8 2 2 2 2 2 2 2 2 2 2 2 2 2 2 2 2 2 2 2 2 2 2 1 1 1 1 1 2 1 1 1 1 1 1 1 1 1 1 1 1 < < 1 < 1 1 1 1 1 1 1 1 1 1 1 1 2 2 2 2 2 2 2 2 1 1 1 1 1 1 1 1 1 1 1 1 1 1 1 1 , , , , , , , , , , , , , , , , ; ; ; ; ; ; ; ; - - - - ; - - - - - - - - - - - - - - - - - - - - - - - - - - - - - - - - - - - - - - - - - - - - - - - - - - - ; ; ; ; ; ; ; ; , , , , , < < < 1 1 1 1 1 1 1 1 2 2 2 1 2 2 2 2 2 2 2 2 1 1 1 2 1 1 1 1 1 1 , , , , ; ; , , , , : : : : : : < < 1 1 1 1 1 1 1 1 2 2 2 8 8 8 8 8 2 2 2 2 2 2 2 2 1 1 1 1 1 2 2 2 e e e e e e e e 2 8 2 2 2 2 8 8 e e e e 2 2 2 2 2 2 2 2 2 2 2 2 2 2 2 2 2 2 1 1 1 1 1 1 < : : : , , ; ; ; ; ; ; - - - - - * - - * - * * - - - - - - - - - - - - * * * * * * * * - - $ $ $ $ $ $ @ @ @ @ - $ @ @ @ @ @ @ $ @ @ @ @ @ @ @ @ @ @ @ @ @ @ @ @ @ @ @ @ @ @ @ + + + @ + + + + + + + + + + + + + + + + + + + + + + + + X X X X X X X X + + X + X X X X X X X X ",
"X X X X X X X X + + + + + + X X + + + + + + + + + + + + + + + + + + + + + + + + @ @ @ @ @ @ + + + + @ @ @ @ @ + @ @ @ @ @ @ @ @ @ @ @ @ @ @ @ @ @ @ @ @ @ @ @ @ @ @ @ @ @ @ @ @ * * * * * * - - - - - - - - - - - - - - - - - - - - - - - - - - - - - ; ; ; ; , : : , , < < , , 1 1 1 1 1 1 1 1 2 2 2 2 2 8 2 2 8 8 8 8 8 8 8 8 8 8 8 8 8 8 8 8 8 8 8 8 8 8 8 8 2 2 2 2 2 2 2 2 2 2 2 2 2 2 2 2 1 1 2 2 2 2 2 2 1 1 1 2 2 2 1 1 1 1 1 1 1 1 1 1 1 1 1 1 1 1 1 1 2 2 2 2 1 1 1 1 2 2 2 2 2 2 2 2 1 1 1 1 2 2 2 2 1 1 1 1 1 1 1 1 , , , , , , , , , , , , , , ; ; ; ; ; ; ; ; ; ; - - - - ; ; - - - - - - - - - - - - - - - - - - - - - - - - - - - - - - - - - - - * - - - - - - - - - - - - - - ; ; ; ; ; ; ; ; , , , , , < < < 1 1 1 1 1 1 1 1 2 2 1 1 2 2 2 2 2 1 2 2 1 2 2 2 2 2 1 1 1 1 1 1 , , , , , , , , < < < < < < < < 1 1 1 1 1 1 2 1 2 5 2 8 8 8 8 8 8 8 e e e e e e e e 8 8 8 8 8 e e e e e e e e e 8 8 8 8 8 8 8 8 e e e e 8 8 8 8 2 2 8 8 8 8 8 8 2 2 2 2 2 2 1 2 1 1 , 1 , , < ; , ; , ; , ; ; ; - - - - - - - - * * * * * * * * - - - - - - - - * * * * * * * * $ $ $ $ $ $ $ $ @ @ @ @ @ @ @ @ @ @ $ $ $ $ $ @ @ @ @ @ @ @ @ @ @ @ @ @ @ @ @ @ @ + @ @ + @ @ @ + + + + + + + + + + + + + + + + + + + + + + + + + + X X X X X X + + + + + + X X X X X X ",
"X X X X X X X X + + + + + + + + + + + + + + + + + + + + + + + + + + + + + + + + @ @ @ @ @ + + + + + + @ @ @ @ + @ @ @ @ @ @ @ @ @ @ @ @ @ @ @ @ @ @ @ @ @ @ @ @ @ @ @ @ @ @ @ @ * * * * * * - - - - - - - - - - - - - - - - - - - - - - * * - * - - - - ; ; ; ; ; ; ; < < < 1 1 1 1 1 1 1 2 2 2 8 8 8 8 8 8 8 8 8 8 8 8 8 8 8 8 8 8 8 8 8 8 8 8 8 8 8 8 8 8 8 8 2 2 2 2 2 2 2 2 2 2 2 2 2 2 2 2 1 1 2 2 2 2 2 2 1 1 1 1 2 1 1 1 1 1 1 1 1 1 1 1 1 1 1 1 1 1 1 1 1 1 1 1 1 1 1 1 2 2 2 2 2 2 2 2 1 1 1 1 1 1 1 1 1 1 1 1 1 1 1 1 , , , , , , , , , , , , , , ; ; ; ; ; ; ; ; ; ; - - - - ; ; - - - - - - - - - - - - - - - - - - - - - - - - - - - - - - - - - - - - - - - - - - - - - - - - - - ; ; ; ; ; ; ; ; , , , , , < < < < 1 1 1 1 1 1 1 2 2 1 1 1 1 2 2 2 2 2 2 2 2 2 2 1 1 1 1 1 1 1 1 1 1 1 1 1 1 1 1 < < < < < < < < 1 1 1 1 1 2 2 1 6 5 5 5 8 8 e e r r r r r r r r y y y e e e e e r e e e 8 8 8 8 r r r r r r r r r r r r r e e e e e e e e e e e 8 8 2 2 2 2 1 1 1 1 1 1 , , < < , , , , , , ; ; ; - - - - - - - * * * * * * * * - - - - - - - - * * * * * * * * $ $ $ $ $ $ $ $ @ @ @ @ @ @ @ @ @ @ $ $ $ $ $ $ @ @ @ @ @ @ @ @ @ @ @ @ @ @ @ @ + + @ @ @ @ @ @ + + + + + + + + + + + + + + + + + + + + + + + + + + + + + + + + + + + + + + + + X X X X ",
"X X X X X X X X + + + + + + + + + + + + + + + + + + + + + + + + + + + + + + + + @ @ @ @ @ @ @ @ @ @ @ @ @ @ @ @ @ @ @ @ @ @ @ @ $ $ @ @ @ @ @ @ @ @ @ @ @ @ @ @ @ @ @ @ @ @ @ @ * * * * * * - - - - - - - - - - - - - - - - - - * * * * * * * * - - - - ; ; ; ; : , ; < 1 1 1 1 2 2 2 2 2 2 2 2 8 8 8 8 8 8 8 8 e e e e e e e e e e e e e e e e 8 8 8 8 8 8 8 8 2 2 2 2 2 2 2 2 2 2 2 2 2 2 2 2 1 1 2 2 2 2 2 2 1 1 2 2 2 2 1 1 1 1 1 1 1 1 1 1 1 1 1 1 1 1 1 1 2 2 2 2 2 2 2 2 2 2 2 2 2 2 2 2 2 2 2 2 2 2 2 2 1 1 1 1 1 1 1 1 , , , , , , , , , , ; , , ; ; ; ; ; ; ; ; ; ; ; ; ; - - - - - - - - - - - - - - - - - - - - - - - - - - - - - - - - - - - - - - - - - - - - - - - - - - - - - - ; ; ; ; ; ; , ; , , , , , < < < < < 1 1 1 1 1 1 2 2 2 1 1 1 1 2 2 2 2 2 2 2 2 2 1 1 2 2 2 2 2 2 1 1 1 1 1 1 1 1 1 1 1 1 1 1 1 1 1 1 2 2 2 2 1 1 2 2 2 2 8 8 8 8 r r r r r r r r e e 8 8 8 8 8 8 r r r r r r r r u r r r r r r r r r r r r r r r r r r r r r r r 8 8 8 2 2 2 2 2 1 1 1 1 1 1 1 < , , , ; , , , , - - - - - - - - * * * * * * * * - - - - - - - - * * * * * * * * $ $ $ $ $ $ $ $ @ @ @ @ @ @ @ $ @ @ @ $ $ $ $ $ @ @ @ @ @ @ @ @ @ @ @ @ @ @ @ @ + @ @ @ @ @ @ @ + + + + + + + + + + + + + + + + + + + + + + + + + + + + + + + + + + + + + + + + X X X X ",
"X X X X X X X X + + + + + + + + + + + + + + + + + + + + + + + + + + + + + + + + @ @ @ @ @ @ @ @ @ @ @ @ @ @ @ @ @ @ @ @ @ @ @ @ $ $ @ @ @ @ $ $ @ @ @ @ @ @ @ @ @ @ @ @ @ @ @ @ * * * * * * - - - - - - * * - - * * * * - - - - - - - - - - - - - - - ; ; ; , , < < < 1 2 2 1 2 2 8 8 8 8 8 8 8 e e e e e e e e r r r r e e r r r r r r r r r r 8 8 8 8 8 8 8 8 2 2 2 2 2 2 2 2 2 2 2 2 2 2 2 2 1 1 2 2 2 2 2 2 1 1 1 2 2 2 1 1 1 1 1 1 1 1 1 1 1 1 1 1 1 1 1 1 2 2 1 2 2 2 2 2 2 2 2 2 2 2 2 2 2 2 2 2 2 2 2 2 1 1 1 1 1 1 1 1 , , , , , , , , , , , , , ; ; ; ; ; ; ; ; ; ; ; ; ; - - - - - - - - - - - - - - - - - - - - - - - - - - - - - - - - - - - - * * - - - - - - - - - - - - - - - - ; ; ; ; ; ; ; ; ; ; , , , < < < < < 1 1 1 1 1 1 2 2 1 1 1 1 1 2 2 2 2 2 2 2 2 2 2 2 2 2 2 2 2 2 1 1 2 2 1 1 1 1 1 1 1 1 1 1 1 1 1 1 2 2 1 1 1 1 2 2 2 2 2 8 8 8 8 8 8 r r r r r r e 8 8 8 8 8 r r r r r r u u u u u u u u u u u r r r r r r r r r r r r r r r r 8 8 8 8 8 2 2 2 2 2 2 2 1 2 1 2 , , , , , , , , - - - - - - - - * * * * * * * * - - - - - - - - * * * * * * * * $ $ $ $ $ $ $ $ $ @ @ @ @ @ - - @ @ $ $ $ $ $ @ @ @ @ @ @ @ @ @ @ @ @ @ @ @ @ @ + + @ @ @ @ @ @ + + + + + + + + + + + + + + + + + + + + + + + + + + + + + + + + + + + + + + + + X X X X ",
"X X X X X X X X + + X X X X X X + + + + + + + + + + + + + + + + + + + + + + + + @ @ + @ + + @ @ @ @ + + @ @ @ @ @ @ @ @ @ @ @ @ $ @ @ @ @ $ $ $ $ $ $ $ $ $ $ $ - - - - $ $ $ $ * * * * * * - - - - - - * * * - * * - - - - - - - - - - - - - - - - ; ; ; , , , < 1 1 1 2 2 2 2 8 8 8 8 8 e e e e e e e e e e e r r r r r r r r r r r r r r r r 8 8 8 8 8 8 8 8 2 2 2 2 2 2 2 2 2 2 2 2 2 2 2 2 1 2 2 2 2 1 1 1 1 1 1 1 1 1 1 1 1 1 1 1 1 1 1 1 1 1 1 1 1 1 1 1 2 2 2 2 2 2 2 2 8 8 2 2 2 2 2 2 2 2 2 2 2 2 2 2 2 2 2 2 2 2 2 2 , , , , , , , , , , , , , ; , ; ; ; ; ; ; ; ; ; - - - - - - - - - - - - - - - - - - - - - - - - - - - - - - - - - - - - - - - - - - - - - - - - - - - - - - - - ; ; ; ; ; ; ; ; ; ; ; , , < < < , , 1 1 1 1 1 1 2 2 1 1 1 1 1 1 2 2 2 2 2 2 2 2 2 2 2 2 2 2 2 2 2 2 2 2 2 2 2 2 1 1 1 1 1 1 1 1 1 1 1 2 1 1 1 1 2 2 2 2 2 2 2 2 2 2 8 8 8 0 0 y r r r r r r r r r r r u u i i i a a a a a a a a u u u u u u u u r r r r r r r r r r e e e e e 5 8 8 8 2 2 2 2 2 , , , , , , , , - - - - - * - - - - - - - - - - - - - - - - - - * * * * * * * * $ $ $ $ $ $ $ $ - - @ @ @ @ - - @ @ @ @ $ $ @ @ @ @ @ @ @ @ @ @ @ @ @ @ @ @ @ @ @ @ @ @ @ @ @ @ + + + + + + + + + + + + + + + + + + + + + + + + + + + + + + + + + + X X X X X X X X X X ",
"X X X X X X X X + + X X X X X X + + + + + + + + + + + + + + + + + + + + + + + + @ @ + + + @ @ @ @ @ @ + + + @ @ @ @ @ @ @ @ @ @ $ $ @ @ @ $ $ $ $ $ $ $ $ $ $ $ - - - - - $ $ $ * * * * * * - - - - - - * * * - - - * - - - - - - - - - - - - - ; ; ; ; ; , < < 1 < 1 2 2 2 2 8 8 8 e e e e e e r r r r r r r r r r r r r r r r r r r r r r r r 8 8 8 8 8 8 8 8 8 8 8 2 2 2 8 8 2 2 2 2 2 2 2 2 1 2 2 2 1 1 1 1 1 1 1 1 1 1 1 1 1 1 1 1 1 1 1 1 1 1 1 1 1 1 1 1 2 2 2 2 2 2 2 2 8 8 2 2 2 2 2 2 2 2 2 2 2 2 2 2 2 2 2 2 2 2 2 2 , , , , , , , , , , , , , ; , , ; ; ; ; ; ; ; ; - - - - - - - - - - - - - - - - - - - - - - - - - - - - - - - - - - - - - - - - - - - - - - - - - - - - - - - - ; ; ; ; ; ; ; ; ; ; ; , , < < < , , 1 1 1 1 1 1 2 1 1 1 1 1 1 1 2 2 2 2 2 2 2 2 2 2 2 2 2 2 2 2 2 2 2 2 2 2 2 2 1 1 1 1 1 1 1 1 1 1 1 1 1 1 1 1 < < 1 1 2 2 2 2 2 2 2 2 2 8 8 8 8 8 8 8 r r r r 9 r r u u u i i a a a a a a a a u u u u u u u u r r r r r r r r r r e e e e e e 8 8 8 2 2 2 2 2 , , , , , , , , - - - - - * - - - - - - - - - - - - - - - - - - * * * * * * - - $ $ $ $ $ $ $ $ $ $ @ @ @ @ $ $ @ @ @ @ @ @ @ @ @ @ @ @ @ @ @ @ @ @ @ @ @ @ @ @ @ @ @ @ @ @ @ @ + + + + + + + + + + + + + + + + + + + + + + + + + + + + + + + + + + X X X X X X X X X X ",
"+ + X X + + + + + + + + + + + + + + + + + + + + + + + + + + + + @ @ @ @ + + + + @ @ @ @ @ @ @ @ $ $ $ @ @ @ $ $ @ @ @ @ @ @ @ @ @ @ @ @ @ @ @ @ * * * * * * * * - - - - - * - - - * * * - - - - - - - - - - - - - - * * - - - - - - - - - - - - ; ; ; ; < , , < , , , 1 1 2 2 8 8 9 9 9 r 9 r r r r r r r r r r u u r r r r r r u u s s u u u 9 r r e e e e e e e e e 8 8 8 8 8 2 8 8 8 8 2 2 2 8 8 2 2 2 2 2 2 2 2 2 2 1 1 1 1 1 1 1 1 1 1 < < 1 1 1 2 1 2 2 8 8 8 8 8 8 8 8 8 8 8 2 2 2 2 8 8 8 2 2 2 8 8 8 2 8 8 8 2 2 2 2 2 2 2 1 , , , < < : : ; ; ; ; ; ; ; ; ; - - - - - - - - - - - - - - - - - - - - - - - - - - - - - * * - - - - - - $ $ $ $ $ $ $ $ * * * * * * * * - - - - - ; ; ; ; ; ; ; ; ; , , , , , , , < < < , , 1 1 1 1 1 1 2 2 2 2 2 2 8 8 8 8 2 8 8 8 8 8 2 2 2 2 2 8 8 8 2 2 2 2 2 1 1 1 1 1 1 < , 1 1 1 2 2 2 2 2 2 2 2 2 2 2 2 2 2 2 2 2 2 2 2 2 2 2 2 8 r r r r r r 9 9 r r u u u u r 8 8 r s p s y y a a p s s i t y u u u u u u u u u u r r r r r r r r r r 8 8 8 8 8 8 2 2 1 , , < ; ; ; ; - - - - * * * - - - - - - - - - - - - - - - - - - - - - - - * * - - - - - * * * * * * * @ @ @ @ @ @ @ @ @ @ @ @ @ @ @ @ @ @ @ @ @ @ @ @ @ @ + @ @ @ @ @ @ @ @ @ @ @ @ @ @ @ @ @ + + + @ + + + + + + + + + + + + + + + + + + + + + + + + + + + + ",
"+ + + X X + + + + + + + + + + + + + + + + + + + + + + + + + + + @ @ @ @ + + + @ @ @ @ @ @ @ @ @ $ $ $ $ @ @ @ @ @ @ @ @ @ @ @ @ @ @ @ @ @ @ @ @ * * * * * * * * - - - - - * - - - * * * - - - - - - - - - - - - - - - - - - - - - - - - - - - - ; ; ; ; < < 1 1 1 1 1 2 2 8 8 8 r r r r r r r r r r r r r r u u u u r r r r r r u u u u u u u u r r r r e e e e e y 8 8 8 8 8 8 8 8 8 8 8 2 2 2 8 8 2 2 2 2 2 2 2 2 2 2 1 1 1 1 1 1 1 1 1 1 1 1 1 1 1 2 2 2 2 8 8 8 8 8 8 8 8 8 8 8 2 2 8 8 8 8 8 8 8 8 8 e 8 8 8 8 8 2 2 2 2 2 2 2 1 1 , , < < : : ; ; ; ; ; ; ; ; ; - - - - - - - - - - - - - $ $ $ $ $ $ - - - - $ $ $ $ - - * * * * * * * * $ $ $ $ $ $ $ $ * * * * * * * * - - - - - ; ; ; ; ; ; ; ; ; , , , , , , , < < < , , 1 1 1 1 1 1 2 2 2 2 2 2 8 8 8 8 8 8 8 8 8 8 2 8 8 8 8 8 8 8 e 2 2 2 2 2 1 1 1 1 1 1 1 1 1 1 2 2 2 2 1 2 2 2 2 2 2 2 2 2 2 2 1 2 2 2 2 8 e e r r r r r r r u r r u u u u u u i a a x x p u u p u u u u u u u i u u u u u u u u u u u r r r r r r r e 8 8 8 8 8 8 8 2 1 1 , , ; ; ; ; - - - - * * * - - - - - - - - - - - - - - - - - - - - - - * * * - - - - * * * * * * * * @ @ @ @ @ @ @ @ @ @ @ @ @ @ @ @ @ @ @ @ @ @ @ @ + @ + + @ @ @ @ @ @ @ @ @ @ @ @ @ @ @ @ @ @ + + + + + + + + + + + + + + + + + + + + + + + + + + X X + + ",
"+ + X X X X + + + + + + + + + + + + + + + + + + + + + + + + + + + + @ @ @ @ @ @ @ @ @ @ @ @ @ @ @ @ @ @ @ @ @ @ @ @ @ @ @ @ @ @ @ @ @ @ @ @ @ @ * * * * * * * * - - - - * * * * - - * * - - - - - - - - - - - - - - - - - - - - - - - - - - - - ; ; < < 1 1 1 1 2 2 2 8 8 e r r r r r u u u u u u u u u u u u u u u u u r r u u u u u a a a a a u u r r r r r 8 y y e e 8 8 8 8 8 8 8 8 8 2 2 2 8 8 2 2 2 2 2 2 2 2 2 2 2 2 2 2 1 1 1 1 2 2 2 2 1 1 1 2 2 2 2 8 8 8 8 8 8 8 8 8 8 8 8 8 8 8 8 8 r 8 8 8 r r e 8 8 8 8 2 2 2 2 2 2 2 1 1 1 1 < < : : ; ; ; ; ; ; ; ; ; - - - - - - * - - - - - - @ @ @ @ @ @ @ @ @ @ @ @ @ @ @ @ * * * * * * * * @ @ @ @ @ @ @ @ * * * * * * * * - - - - - - ; ; ; ; ; ; ; ; ; ; , , , , , < < < 1 , 1 1 1 1 1 1 2 2 2 2 2 2 8 8 8 8 8 8 8 8 8 8 8 8 8 8 8 e e e e e e e 2 2 2 1 2 1 1 1 1 1 1 2 2 2 1 2 1 1 2 2 2 2 2 2 2 2 2 2 2 2 8 e 8 e e r e r r r r r u u u u u u u u u u N N B b b x a a u u a a a a x x x x a a a a p a p p u u u u u u r r r r e 8 8 8 8 8 2 1 1 < , , ; ; ; - - - - - - - - - - - - - - - - - - - - - - - - - - - - ; - - * * - - - - * * * * * * * * @ @ @ @ @ @ @ @ @ @ @ @ @ @ @ @ @ @ @ @ @ @ @ @ @ @ @ @ @ @ @ @ @ @ @ @ @ @ @ @ @ @ @ @ @ @ @ @ + + + + + + + + + + + + + + + + + + + + + + + + X X X X ",
"+ + X X X X + + + + + + + + + + + + + + + + + + + + + + + + + + + + @ @ @ @ @ @ @ @ @ @ @ @ @ @ @ @ @ @ @ @ @ @ @ @ @ @ @ @ @ @ $ $ - - - - $ $ - * * * * * * * - - - - - - - - - - - - - - - - - - - - - - - - - - - - - - - - ; ; ; ; ; ; ; ; < < 1 1 1 2 2 2 8 8 8 r r r r r u u u u u u u u p p p u p p p p i u u u u u u u a a a a a a a a u u u u r r r 9 y y e e 8 8 8 8 2 8 8 8 8 2 2 2 8 8 2 2 2 2 2 2 2 2 2 2 2 2 2 2 1 1 1 1 1 1 1 1 1 1 1 2 2 2 8 8 8 9 8 9 8 8 8 8 e e e e e r e r r r r r r r r r 8 8 8 2 2 2 2 2 2 2 1 1 1 1 < < : : ; ; ; ; ; ; ; ; ; - - - - - - - - - - - - - @ @ @ @ @ @ @ @ @ @ @ @ @ @ @ @ * * * * * * * * @ @ @ @ @ @ @ @ * * * * * * * * - - - - - - - - ; ; ; ; ; ; ; ; , , , , , < < < 1 1 1 1 1 1 1 1 2 2 2 2 2 2 8 8 8 8 8 8 8 8 8 8 8 8 8 8 8 8 e e r r e e 8 8 8 2 2 1 1 1 1 1 1 1 2 2 1 1 1 1 2 2 2 2 2 2 2 2 2 2 8 8 e 8 r r r r y y r r r u u i u u u u u u u u a x x b b x x x a a a x x b b n B B B B x x x x x a a a a a i i r r r r r e e e 8 8 2 1 1 , ; ; ; ; ; - - - - * - - - - - - - - - - - - - - - - - - - - - - - ; - - - - - - - - - - - - - - - * - - $ $ $ $ $ $ @ @ @ @ @ @ @ @ @ @ @ @ @ @ @ @ @ @ @ @ @ @ @ @ @ @ @ @ @ @ @ @ @ @ @ @ @ @ @ @ + + + + + + + + + + + + + + + + + + + + + + + + X X X X ",
"+ + + X X X X + + + + + + + + + + + + + + + + + + + + + + + + + + @ @ @ @ @ @ @ @ @ @ @ @ @ @ @ @ @ @ @ @ @ @ @ @ @ @ @ @ @ @ @ - - - - $ $ $ $ * * * * * * * * - - - - - - - - - - - - - - - - ; ; ; ; ; ; ; ; ; ; ; ; - - ; ; ; ; ; ; ; ; ; ; 1 1 1 2 2 2 8 8 9 9 r r r u u u u p p p a a a a a a a a a a a a a i i u u u u i a a a a a a a a u u u r r r r 8 r e e e 8 8 8 8 2 2 2 2 2 2 2 2 8 2 2 2 2 2 2 2 2 2 2 2 2 2 2 2 2 2 2 2 2 1 2 2 1 1 2 2 2 8 8 e r r 9 9 r r r r e e e e e e e e i u r r u u u r 8 8 8 2 2 2 2 2 1 1 1 1 1 < < < ; ; ; ; ; ; ; ; ; ; ; - - - - - - - - - - - - - @ @ @ @ @ @ @ @ @ @ @ @ @ @ @ @ * * * * * * * * @ @ @ @ @ @ @ @ @ @ @ @ @ @ @ @ - - - - - - - - - - ; ; ; ; ; ; , , ; , , < < < 1 1 1 1 1 1 1 1 2 2 2 2 2 2 2 2 8 8 8 8 8 8 e e 8 8 8 8 8 e e e r r r r e e 8 8 2 2 2 1 1 1 1 1 2 1 1 1 1 1 2 2 2 2 2 2 2 2 2 2 8 8 8 r e r r r e e 8 8 r r r u u u u r r r r u r u s p s s s h a a a x x b B b B B B B B B B B x x x x a a a a u u u u r r r r 8 8 8 2 1 , , , ; ; - - - - * * - - - - ; ; ; ; ; ; ; ; ; ; ; ; ; ; ; ; ; ; ; ; - - - - - - - - - - - * - - - - - - $ $ $ $ $ $ @ @ @ @ @ @ @ @ @ @ @ @ @ @ @ @ @ @ @ @ @ @ @ @ @ @ @ @ @ @ @ @ + + @ @ @ @ @ @ + + + + + + + + + + + + + + + + + + + + + + + + + + + X ",
"+ + X X X X + + + + + + + + + + + + + + + + + + + + + + + + + + + @ @ @ @ @ @ @ @ @ @ @ @ @ @ @ @ $ @ @ @ @ @ @ @ @ @ @ @ @ @ @ - - - - $ $ $ $ * * * * * * * * - - - - - - - - - - - - - - - - ; - - - - - ; ; ; ; ; ; ; ; ; ; ; ; ; ; ; ; ; ; 1 1 2 2 8 8 8 e r r u u u u u p a a a a a a a a a a a a x x x x a a a i i i a a i i i u u u u u r r r r r e r e r r e e 8 8 8 8 2 2 8 2 2 2 2 2 8 2 2 2 2 2 2 2 2 2 2 2 2 2 1 2 2 2 2 2 2 2 2 2 2 2 2 2 8 e e r r r r r r r r r r r r r r r r r i r r r u i r r 8 8 8 2 2 2 2 2 1 1 1 1 1 < < < ; ; ; ; ; ; ; ; ; ; ; - - - - - - - - - - - - - @ @ @ @ @ @ @ @ @ @ @ @ @ @ @ @ * * * * * * * * @ @ @ @ @ @ @ @ @ @ @ @ @ @ @ @ @ @ $ $ - - - - - - - ; ; ; ; ; , , ; , , < < < 1 1 1 1 1 1 1 1 2 2 2 2 2 2 2 2 8 8 8 8 8 e e e 8 8 8 r e r r r u u r r r r r e 5 2 2 2 1 1 2 2 2 1 1 1 1 1 2 2 2 2 2 2 2 2 2 2 8 8 8 e e e e r e 8 8 8 8 e r r r r r r r u u u r r r u u r r r a a a x x x x x x x b b b b b b b b b x x x x x a a a a p u u u r r r 8 8 2 1 1 , , , ; ; - - - - ; ; ; ; ; ; ; ; ; ; ; ; ; ; ; ; ; ; ; ; ; ; ; - - - - - - - - - - - - - - * * - - $ $ $ $ $ $ @ @ @ @ @ @ @ @ @ @ @ @ @ @ @ @ @ @ @ @ @ @ @ @ @ @ @ @ @ @ @ @ @ + @ @ + + @ @ + + + + + + + + + + + + + + + + + + + + + + + + + + X X ",
"X X X X X X X X + + + + + + + + + + + + + + + + + + + + + + + + @ @ @ @ @ @ + + @ @ @ @ @ @ @ @ $ $ $ $ @ @ @ @ $ $ $ $ $ $ $ $ $ - - - - - - - * * - - - - - - - - - - - - - - - - - - - - - - ; ; ; ; ; ; ; ; ; ; ; ; ; ; ; ; < < < < < < < < 2 2 2 8 8 r r r u u u p p a a a a a a a a a a a x x x x x x x x a a i u u u u u r r r r r r r r e e e e e e e e r r e e 8 8 8 8 8 8 8 2 2 2 2 2 2 2 2 2 2 2 2 2 2 2 2 2 1 1 1 1 2 2 2 2 2 2 2 2 2 8 5 e e e r r r r r r r r r r r r r r r r r r r r r r r r r r 8 8 8 8 5 2 2 2 1 1 1 1 1 < < < ; ; ; ; ; ; ; ; ; ; ; - - - - - - - - - - - - - $ - - - $ $ $ - $ - - - $ $ $ - * * * * * * * * @ @ @ @ @ @ @ @ @ @ @ @ @ @ @ @ @ @ @ $ $ $ $ $ - - - - ; - ; ; , , , , , < < < 1 1 1 1 1 1 1 1 2 2 2 2 2 2 2 2 8 8 8 8 e e e e r r r r r r r r u u r u r r r r e 2 2 2 2 2 2 2 2 2 1 1 1 1 1 1 2 2 2 2 2 2 2 2 2 2 2 e e e e e e e 8 8 8 e r r u r r r r u u u i u u p p u u u x x a a a a a a x x x x x x x x b b b b x x x x x x x x x x a a a i u u r e e 8 1 1 1 , , , , , ; ; ; ; ; ; ; , ; ; ; ; ; ; ; ; ; ; ; ; ; ; ; ; - - - - - - - - - - - - - - - - - - - - $ $ $ - $ $ - - - - - - $ $ $ $ $ $ $ $ @ @ @ @ @ @ @ @ @ @ @ @ @ @ @ @ @ @ @ @ + + + @ + + + + + + + + + + + + + + + + + + + + + + + + + + + + ",
"X X X X X X X X + + + + + + + + + + + + + + + + + + + + + + + + @ @ @ @ @ + + + @ @ @ @ @ @ @ @ $ $ $ $ @ @ @ $ $ $ $ $ $ $ $ $ $ - - - - - - - - - - - - - - - - - - - - - - - - - - - - - - - ; ; ; ; ; ; ; ; ; ; ; , , , , , < < < < < < < < 2 2 8 8 8 r r r u p a a a a x x a a a a a x x x x x x x x x x x u u u u u u u u r r e 8 e r r y 8 8 8 e e e e e r r e e 8 8 8 8 8 8 8 2 2 2 2 2 2 2 2 2 2 2 2 2 1 1 2 2 2 1 1 1 2 2 2 2 2 2 2 2 5 e e e e r r r r r r r r r r r e e r r r r r r r r e r r r r e 8 8 8 8 5 5 2 2 1 1 1 1 1 < < < ; ; ; ; ; ; ; ; ; ; ; - - - - - - - - - - - - - - - - - $ $ - - - - - - $ $ - - * * - - - - - - @ @ @ @ @ @ @ @ @ @ @ @ @ @ @ @ @ @ @ $ $ $ $ $ - - - - ; - ; ; , , , , , < < < < < 1 1 1 1 1 1 2 2 2 2 2 2 2 2 8 8 8 8 e e e y r r r r y y y y u u u u r r r r e e 2 2 2 2 2 2 2 2 2 2 1 1 1 1 2 2 2 2 2 2 2 2 2 2 2 5 5 e e e e e e 8 8 e r r r u r r u u i i x x x b b b x N x x x x a a a a B B b b x x x x b b b b b x x x B B b b x x x x x a a a u r r r 8 8 2 2 1 1 1 , ; ; ; ; ; ; , , ; ; ; ; ; ; ; ; - - - - - - - - - - - - - - - - - - - - - - - - - - - - $ $ $ - $ $ - - - - - - $ $ $ $ $ $ $ $ @ @ @ @ @ @ @ @ @ @ @ @ @ @ @ @ @ @ @ @ + + + @ + + + + + + + + + + + + + + + + + + + + + + + + + + + + ",
"X + + X X X X X + + + + + + + + + + + + + + + + @ @ @ @ + + @ @ @ @ @ @ @ @ @ @ @ @ @ @ @ @ @ @ @ @ @ @ $ @ @ @ $ $ $ $ $ $ $ $ - - - - * - - - - - - - - - - - - - - - - - - - - - - - ; ; ; ; ; ; ; ; ; ; , , , , , , 1 1 1 2 6 6 2 2 2 8 8 8 9 9 r r r r u i x x x x x b b b x x x x a a a i p a a i i t r r u u u r r r r r e e e e 8 8 8 8 r r r r r r r r 8 8 8 9 9 8 8 8 2 2 2 2 2 2 2 2 2 2 2 2 2 2 2 2 2 2 2 2 2 2 2 2 8 2 2 2 2 5 5 5 8 8 9 9 9 u r r u u u u u u u u u u u u u u r r r 9 r e 8 e 8 8 e e 8 2 2 2 1 1 2 2 2 2 1 1 < < , , ; ; ; ; ; ; - - - - - - - - - - $ $ - $ $ @ * * @ @ @ @ @ @ @ @ @ - - - - - - - - - - - - - - - - - - - - - - - - - - - - - @ @ @ @ * * - - - - - - - ; ; ; ; ; ; ; , 1 1 1 < 1 1 2 2 2 8 8 e e 5 8 8 8 e e y y y y y y e e e e r r r u u i i i i i i i i i r r r 8 8 8 8 2 2 2 2 2 2 2 1 1 2 2 2 2 2 2 2 2 8 8 8 8 8 8 2 2 8 e r r r r e r r r r r u u u u a a N N B B B F x x x a a a x a x B B F B b x x B B B B Z Z Z Z F B B B B F Z Z B B B B b a u u e 2 1 < < 2 1 2 , , , , , , , , 1 1 , , , , ; ; < < < ; ; ; ; ; - - - - - - - - - - - - - - ; ; - - - - - - - - $ - - - $ $ $ $ $ $ $ $ $ $ $ $ $ $ $ $ $ $ $ $ @ @ @ @ @ @ @ $ @ + + + @ @ @ @ @ @ @ @ @ @ @ @ + + + + + + + + + + + + + + + + X X X X ",
"+ + + + X X X X + + + + + + + + + + + + + + + + @ @ @ @ + + @ @ @ @ @ @ @ @ @ @ @ @ @ @ @ @ @ @ @ @ @ @ $ @ @ @ $ $ $ $ $ $ $ $ - - - - - - - - - - - - - - - - - - - - - - - - ; ; ; ; ; ; ; ; ; ; ; ; ; , , , , , 1 1 1 2 2 2 2 1 1 1 1 2 8 8 9 r u u u u a a x x b b b b b b b b b x x a a a p p a a i u r r u r r r 9 r r r e e e e 8 8 8 8 r r r r r r r r 8 8 8 8 8 8 8 8 2 2 2 2 8 2 2 8 2 2 2 2 2 2 2 2 2 2 2 2 2 2 2 2 8 8 2 8 8 e e e e r r u u u u u u u u u u u u u u u u u u u r r r r r 8 e e e e e e e 8 2 2 1 1 2 2 2 2 1 1 < < , , ; ; ; ; ; ; - - - - - - - - - - $ $ - $ @ @ @ @ @ @ @ @ + + @ @ @ @ * - - - - - - - - - - - * * * * * * * * $ $ $ $ @ $ @ @ @ @ @ @ * * - - - - - - - ; ; ; ; ; ; ; , , 1 1 1 1 1 1 1 2 2 8 e e e 8 e e e r r r r r r r r r r r r r r u i i a i i i i i i u u r r 9 8 8 2 2 8 8 2 2 2 1 2 1 2 2 2 2 2 2 2 2 8 8 8 8 2 2 2 2 e e e e e e e e r r r r r r r r u i a a x x x b a a a a a a a a x b B F B b x x B B B B F F F F F B B B B F Z Z B F F F b x a i u 9 8 2 2 2 8 8 1 1 1 1 1 1 , 1 1 1 , , , , , , < < , ; ; ; ; ; ; ; - - - - - - - - - - - - - ; - - - - - - - - $ $ - - $ $ $ $ $ $ $ $ $ $ $ $ $ $ $ $ $ $ $ $ @ @ @ @ @ @ @ $ @ + + + @ @ @ @ @ @ @ + @ @ @ @ + + + + + + + + + + + + + + + + X X X X ",
"+ + + + + + X X + + + + + + + + + + + + + + + + @ @ @ @ @ @ @ @ @ @ @ @ @ @ @ @ @ @ @ @ @ @ @ @ @ @ @ @ @ @ @ @ $ $ - - $ $ $ $ * * * * * * * * - - - - - - - - - - - - - - - - ; ; ; ; ; ; ; ; ; ; ; ; , , , , 1 1 1 1 2 2 2 8 1 1 1 1 2 2 e e 9 r s a a x b B F F F F F F b b b b b b x x a a p a p a i u u r r r 9 9 9 8 8 8 e e e e 8 8 8 8 r r e e r r r r 8 8 8 8 8 8 8 8 2 2 8 8 8 8 8 8 2 2 2 2 2 2 2 2 2 2 2 2 2 2 2 2 8 8 8 8 e e e e e r r u u u i i u u u u u u u u u u u u u u r r r r r e e e e e e e e 8 2 2 1 1 2 2 2 1 1 1 < < ; ; ; ; ; ; ; ; - - - - - - - - - - $ $ - $ @ @ @ @ @ + + + + + + + @ @ @ * - - - - - - * @ @ @ @ @ @ @ @ @ @ @ $ $ @ @ @ @ @ @ @ @ @ $ * - - - - - - - - ; ; ; ; ; ; ; , , , 1 1 < 1 1 1 2 2 2 2 2 2 8 8 e e r r r r r r r r r r r u u u u a a a a a a a a a a s u r r 8 8 8 2 8 8 8 2 2 2 1 1 2 2 2 2 2 2 2 2 2 2 2 2 2 2 2 2 8 8 8 e e e e e r r r e r r e e r r u u u a p p i u u u u u u u x x B B B b x x B B B B F F F F B B B B B B F Z F F H H F B N N z p u 9 9 9 9 9 1 1 1 1 1 1 1 1 2 2 1 1 1 1 1 < 1 < 1 < ; ; ; ; ; ; ; ; ; ; ; ; ; ; ; ; ; ; ; ; ; ; - - - - - - $ $ $ $ - $ - - $ $ $ $ $ $ $ $ $ $ $ $ $ $ $ $ @ @ @ @ @ @ @ @ @ @ @ @ @ @ @ @ @ @ + + @ @ @ @ + + + + + + + + + + + + + + + + X X X X ",
"+ + + + + + + X + + + + + + + + + + + + + + + + @ @ @ @ @ @ @ @ @ @ @ @ @ @ @ @ @ @ @ @ @ @ @ @ $ $ $ $ - - - - - - - - - - - - - - - - - - - - - - - - - - - - ; ; ; ; ; ; ; ; ; ; ; ; , , < < , < < , 1 1 1 1 1 1 2 2 2 8 8 8 8 8 8 8 e e y e r s c b F F H G Y J J H H F F F b b b b x x x a x x x a p u u u r r 9 9 9 8 8 r e e e e 8 8 8 8 e e e e e e e e 8 8 8 8 8 8 8 8 2 2 8 8 8 8 8 8 2 2 2 2 2 2 2 2 2 2 2 2 2 2 2 2 8 8 8 e r r r r r r u u a a a i a a a p u u u u u u u u u r r r r r r e e e e e e e e 8 2 2 2 1 2 2 1 1 1 1 , , ; ; ; ; ; ; ; ; - - - - - - - - - - $ $ - @ @ @ + + + + + X X X + + + @ @ @ * - - - - * @ @ @ @ @ @ @ @ @ @ @ @ + + + + + + + + @ @ @ @ - - - - - - - - - ; ; ; ; ; ; ; , , , , < < < 1 1 2 2 2 2 2 2 2 8 e y r u u u u u u u u r u u u u p p a x x x x x x b b a p u r 8 8 2 2 8 8 8 8 2 2 2 1 2 2 2 2 2 2 2 2 2 2 2 2 2 2 2 2 8 8 8 8 e e e e r r r 8 8 8 8 8 r r y u u u u u r r r r r r r r a x B B b x x x N B B B B B F F b B B N N B F F H U U Y Y J G G F n x p u u r 8 8 8 2 2 2 2 2 2 8 2 2 2 1 1 1 1 1 1 1 1 < : < : ; ; ; ; ; ; ; ; ; ; ; ; ; ; ; ; ; ; - - - - - - - - - - - - - - $ $ $ $ $ $ $ $ $ $ $ $ $ $ $ $ @ @ @ @ @ @ @ @ @ @ @ @ @ @ @ @ @ @ + + + @ @ @ + + + + + + + + + + + + + + + + X X X X ",
"+ + + + + + + + + + + + + + + + + + + + + + + + @ @ @ @ @ @ @ @ @ @ @ @ @ @ @ @ @ @ @ @ @ @ @ @ $ $ $ $ - - - - - - - - - - - - - - - - - - - - ; ; ; ; ; ; ; ; ; ; ; ; ; ; ; ; : : < < < < < < 1 1 1 1 1 2 2 2 2 2 2 8 8 8 e e r 9 r r r r u u p x Z H U R R ' Q R R Y H H F F F F F F B x x x x x x a a u u u u u r r r r r r r r e e 8 8 8 8 8 8 8 8 8 8 8 8 8 8 8 8 8 8 8 8 8 8 8 8 8 8 8 8 2 2 2 2 2 2 2 2 2 2 2 2 2 2 2 2 e 8 r r r r u u u u a a x x a a x x x a a a u u u u u u r r r r r r r e e e e e e e e 8 5 2 2 1 1 1 1 1 1 < < , , , ; ; ; ; - ; - - - - - - - - $ $ $ $ $ @ @ @ + @ @ + + X X X + + + + @ @ @ @ $ $ $ @ @ @ @ @ @ @ @ @ @ @ @ @ + + + + + + + + @ @ @ $ - - - - - - - - - ; ; ; ; ; ; ; ; , , , , < < 1 2 2 2 2 2 2 2 2 2 8 y y u u u u u u u u r r u u u p p a x x x b b B B F x x p u r 8 8 8 e e 8 8 8 2 2 2 2 2 2 2 2 2 2 2 2 2 2 2 2 2 2 2 2 2 8 e e e e e r r r e 8 8 8 8 r r y y y u u r r r r r r r r r a x b B b x x a x x x x x b b b b b N N N B F F Y Y R Q } ' R Y J G F B x i r r 9 9 8 8 8 8 e e 8 8 8 8 2 2 2 1 1 1 1 1 1 < < < ; ; ; ; ; ; , ; ; ; ; ; ; ; ; ; ; ; ; ; ; ; ; ; - - - - - - - - $ $ $ $ $ $ $ $ $ $ $ $ $ $ $ $ $ $ @ @ @ @ $ @ @ @ @ @ @ @ @ @ @ @ @ + + + + @ + + + + + + + + + + + + + + + + X X X X ",
"+ + + X + + + + + + + + + + + + + + + + + + + + @ @ @ @ @ @ @ @ @ @ @ @ @ @ @ @ @ @ @ @ @ @ @ @ $ $ $ $ - - $ - - - - - - - - - - - - - - - - - ; ; ; ; ; ; ; ; ; ; ; ; , , , , < < < < 1 1 1 1 1 1 1 2 2 2 8 8 8 8 8 e r r r r r u u u p p z x Z H Y ~ !  . .}  . .} R Y H F F J J K G F F B B x x a a i u u u u u r r r r r r r r e e 8 8 8 8 8 8 8 8 8 8 8 8 8 8 8 8 8 8 8 8 2 2 8 8 2 8 8 8 2 2 2 2 2 2 2 2 2 2 2 2 2 2 2 8 e e r r r u p u a a x b b b x N x x x x a p u u u u u r r r r r r r r e 8 e 2 2 e e 8 2 2 2 1 1 1 1 1 1 1 < < ; , , ; ; ; - - ; - - - - - - - - - - $ $ $ @ @ @ @ @ @ @ + + + + + + + @ @ @ @ @ @ @ @ @ @ @ @ @ @ @ @ @ @ @ @ @ @ @ @ @ @ @ @ @ @ @ $ $ - - - - - - - - - ; ; ; ; ; ; ; ; , , , , , , 1 1 2 2 2 2 2 2 1 2 2 8 8 r r r r r r r r r r u u u u u p a x x b B F F F F B b x u u r 9 r r e 8 8 8 2 2 2 2 2 2 2 2 2 2 2 8 2 2 2 2 2 2 2 2 8 2 8 8 8 8 e e e e e 8 8 8 9 r r r r r r r r r r r r r r r p x x b x x a a a a a x x x x x b x x x N B B F Y Y Q  . .=. . .} ' R Y F B a i u u u u r r r 8 9 8 8 8 8 8 2 2 2 2 2 2 1 1 < < , , , , ; ; , , ; ; ; ; ; ; ; ; ; ; ; ; ; ; ; ; - - - - - - - - $ $ $ $ $ $ $ $ $ $ $ $ $ $ $ $ $ $ @ @ @ @ $ $ @ @ @ @ @ @ @ @ @ @ + + @ + + + + + + + + + + + + + + + + + + + X X X X ",
"+ + X X X X + X + + + + + + + + + + + + + + + + @ @ @ @ @ @ @ @ $ $ $ $ $ $ $ $ $ $ $ $ $ $ $ $ - - $ $ $ - - - - - - - - - - - - - - - - - - - ; ; ; ; ; ; ; ; < < < < < < < < < < < 1 1 1 1 1 1 2 2 2 8 8 8 8 8 e r r r r r r u u p a b Z H H R  .>.;.1.;.=...=.=. .Q R H H F Y J J G F F B B x a a i u r r r u r r r r r r r r r e e 8 8 8 8 8 8 8 8 2 2 8 8 2 2 2 2 2 2 2 2 2 2 2 2 2 2 8 8 2 2 2 2 2 2 2 2 2 2 2 2 2 2 8 8 e r r u u p a a x b b F H F F B b b x x a u u u r r r r r r e e 9 9 8 8 8 8 2 2 8 8 8 2 2 1 1 1 1 1 1 1 1 < ; ; , ; ; ; - - - - - - - - - - - - - - $ $ $ @ @ @ - $ @ @ @ @ @ @ + + + @ @ @ @ @ @ @ @ @ @ @ @ @ + + @ @ @ @ @ @ $ @ $ @ @ @ @ @ @ $ $ - - - - - - - - - - ; ; ; ; ; ; ; ; , , , : < < < 1 1 2 2 2 1 1 1 1 1 2 2 r r r r r r r r e r r r r r u u p a x x B B F F Y H F b x p u u r r r e 8 8 8 2 2 2 2 2 2 2 2 2 8 8 8 8 2 2 2 2 2 2 2 2 2 5 5 2 8 8 8 8 8 e e e 9 9 r r r r r r u u r r u u u u p a x x x x a a i a a a x x x x b x x a x B F F J Y }  .:.2.2.6.2.2.;.=. .R H B z z z p p u u r r r r e e 8 e e 2 2 2 2 2 2 1 < < < < < < < < < ; ; ; ; ; ; ; ; ; ; ; ; ; ; ; ; - - - - - - - - $ $ - - - - - - $ $ $ $ - $ $ $ $ $ @ @ @ $ $ $ @ @ @ @ @ @ @ @ @ @ + + @ + @ @ + + + + + + + + + + + + + + + + X X X X ",
"+ + X X X X X X + + + + + + + + + + + + + + + + @ @ @ @ @ @ @ @ $ $ $ $ $ $ $ $ $ $ $ $ $ $ $ $ - - $ $ $ - $ $ - - - - - - - - ; ; - - - - - - ; ; ; ; ; ; ; ; < < < < < < < < < < 1 1 2 1 1 2 2 2 2 2 8 8 8 8 e r r r r r r r i a x B F Y Y Q -.:.3.7.3.2.;.-.;.=. .Q R U H F H H H F F B B b a a u u r r r e r r r 9 8 8 e e r r e e 8 8 8 8 8 8 8 8 8 8 8 8 2 2 2 2 2 2 2 2 2 2 2 2 2 2 8 8 2 2 2 2 2 2 2 2 2 2 2 2 2 8 8 8 e r r u u p a c b F H J H H H F b b x a p u u u r r r r e e 8 8 8 8 8 8 8 8 2 2 8 8 8 2 2 1 , , 1 1 1 1 1 , ; ; ; ; ; ; - - - - - - - - - - - - - - $ $ $ @ @ @ - - * * @ @ @ @ # # # @ + @ @ @ @ @ @ @ @ @ @ @ @ @ @ @ @ @ @ @ - - - - - - - - @ $ $ - - - - - - - - - - ; ; ; ; ; ; ; ; , , , : : ; < < < 1 1 2 1 1 1 , 1 1 2 y y y y y y y y 8 e e r r r r r u p a x B B F F R R Y F B x a p r r r e 8 8 8 2 2 2 2 2 2 2 2 2 8 8 8 8 8 8 2 2 2 2 2 2 2 2 2 2 8 8 8 8 e e e e u r r r r r r r u u u u u u i i p a x x x a p a i a a a a x x x x x x a x B B F F J ' =.2.7.i.d.g.g.a.u.4.>.X.R n n v x p p u u r r r r e e e e 2 2 2 2 2 2 2 1 < < < < < < < < ; ; ; ; ; ; ; ; - - - - ; - - - - - - - - - - - $ $ - - - - - - $ $ $ $ $ $ $ $ $ $ @ @ @ @ $ $ @ @ @ @ @ @ @ @ @ @ @ + @ @ @ @ + + + + + + + + + + + + + + + + X X X X ",
"+ + + + + + + + + + + + + + + + @ @ @ @ @ @ @ @ + + + + + + @ + $ $ $ $ $ $ $ $ $ $ $ $ $ $ $ $ - - - - - - - - - - - - - - - ; ; ; ; ; ; ; ; ; : : : : : < < < , , , , 1 1 1 1 1 3 3 8 1 1 1 1 w 0 9 e r r y y w 8 8 i N x v n I A A Y } ,.d.l.N.N.m.p.7.6.-. .R R R Y H H F Z Z Z b n v x x x a u u u r r r r 9 9 9 8 8 8 8 8 8 8 8 8 8 8 8 8 2 2 2 2 8 8 8 8 2 2 2 2 2 2 2 2 2 2 2 2 2 2 2 2 2 2 2 2 2 2 2 2 e e 8 8 8 e e e y e t i m M S F A ~ &.%.T J G n p p u u u r r i r r e e e 8 e 8 2 2 2 2 2 2 2 2 2 2 2 2 1 < , < 1 1 1 , , ; : : - - - - - - - - $ $ $ $ $ $ $ $ - - - - - - - $ % % % % % % % % @ @ @ @ @ + + + + + + + + + + + + + + + + + + + @ @ @ @ @ @ @ @ @ @ @ @ $ $ $ $ - - - - - - - - - - ; ; ; ; ; ; ; ; ; , , < < 1 < < < < < 1 1 1 2 8 8 e y e e e e e 8 8 8 e 8 0 i i i a x b b Z [ T %.5.0.Z p B f 9 8 s s r e e 2 2 2 2 2 2 2 8 2 2 2 2 2 2 2 2 8 8 2 2 2 2 8 8 8 8 8 8 8 8 8 8 y y y y y y e e e e r r r r r r u u u u u u u u i u u a a a a a a a a a x x x x F H Y Q  .:.2.3.p.p.h.j.k.k.p.e.;. .~ I A S v z g i t r r r 0 8 0 0 0 8 8 8 9 0 2 2 2 2 1 1 1 1 1 < < < : : : : , , , ; : ; ; ; ; ; ; ; ; ; ; ; - - - - - - - - - - - - - @ * * $ $ $ $ $ $ $ $ $ $ $ $ $ $ $ $ + + + + + + @ @ @ @ @ @ @ + + + + + + + + + + + X X X X ",
"+ + + + + + + + + + + + + + + + @ @ @ @ @ @ @ @ + + + + + + + + $ $ $ $ $ $ $ $ $ $ $ $ $ $ $ $ - - - - - - - - - - - - - - ; ; ; ; ; ; ; ; ; ; : : ; : < < < < < < 1 1 1 1 2 2 1 2 2 e e e y y e e t t r r 8 8 f N P M l q z F F [ +.I.eXtX$XA.C.C.B.p.7.:.-. .R Y Y J H F b b b b b x x c x x u u u u r r r r 9 9 9 9 8 8 8 8 e e 8 8 8 8 8 8 2 2 2 2 8 8 8 8 2 2 2 2 2 2 2 2 2 2 2 2 2 2 2 2 2 2 2 2 2 2 2 2 2 8 2 2 8 8 8 8 8 s c a u p b K q.q.6.=.Y G x q a a u u u u r r r e e 8 8 2 2 2 2 2 2 2 2 2 2 2 2 2 1 1 1 1 < < , , , , ; ; - - - - - - - - - - $ $ $ $ $ $ @ @ $ $ $ $ $ $ @ @ + + + + + + + + + @ + + + + + + + + + + + + + + + + + + + + + + @ @ @ @ @ @ @ @ @ @ @ @ @ @ @ @ - - - - - - - - - - - - - ; ; ; ; ; ; ; ; , , , < < < < 1 1 1 1 2 2 2 8 8 8 8 8 e 8 8 8 e y r r r r u p p x b F [ } 2.e.q.{ K / N C s 9 8 r 0 4 8 8 8 8 2 2 8 8 2 2 2 2 2 2 2 2 2 2 2 2 2 2 2 2 2 2 2 2 2 8 2 2 8 8 8 8 8 8 8 8 e e r r r r r r r r r r u u u u u u u u u u p p a a a a a x x x F F H R Q  .;.;.2.7.s.N.N.V.).}.dX:XP.#.( J ( ( z z z x a a t r r y y t r e 2 1 2 2 2 2 2 1 1 2 2 1 1 < < < : : 1 , < < : : ; ; ; ; ; ; ; ; ; ; - - - - - - - - - - - - - @ @ @ $ $ $ $ $ $ $ $ @ @ @ @ @ @ @ @ @ @ + + + + @ @ @ @ @ @ @ @ + + + + + + + + + + X X X X ",
"+ + + + + + + + + + + + + + + + @ @ @ @ @ @ @ @ $ @ @ @ @ @ @ @ $ $ $ $ $ $ $ @ $ $ $ $ - $ - - - - - - - - - - - - ; ; ; ; ; ; ; , , , ; ; , , : : : < < 1 1 1 < < 1 2 2 2 2 2 e 5 5 5 e e e r y r e e r i f N v v v F G ) #.@.T.jXVXSXSXmXwX].B.k.i.2.=.! Q R J J H H F b b x x x x x a a p p u u u r r r r 9 r 9 r r 8 e 8 8 e e e 8 e e 8 8 2 2 2 2 2 2 2 2 2 2 2 2 2 2 2 2 2 2 2 2 2 2 2 2 2 2 2 2 2 2 2 8 1 2 2 8 e 8 8 e d u u x M n { K.hX=Xe.} G N x z a u u r r r 9 8 r e 8 8 2 2 2 2 2 2 2 2 2 2 2 2 1 1 1 1 , , , ; , , , ; ; - - - - - - - - - - - @ @ @ @ @ @ @ @ @ @ @ @ @ @ @ @ + + + + + + + + + + + + + + + + X X X X + + + + + + + + + + + + @ @ @ @ + @ @ @ @ @ @ @ @ @ @ @ - - - - - - - - - - - - - - - - ; ; ; ; ; , , , < , < < < 1 1 1 2 2 2 2 8 2 2 2 2 2 8 8 r r r r r r u u p a b F x U :.Q.eXsXP.x q x V a 0 w 0 2 8 8 8 8 8 8 8 2 2 2 2 2 2 2 2 2 2 2 2 2 2 2 2 2 2 2 2 2 2 2 2 2 8 8 8 8 8 2 2 2 8 e e r r r r r r r r r r r r r u u u u u u p p a i p a a a x x B F F H Y R R Q ! >.7.p.s.M.{.3XZXFXGXGXnXR.+.) X.R A v z p a a u r r r e e t t 8 8 8 2 2 2 2 2 2 2 2 1 < < < < < 1 1 < < ; ; ; ; : ; ; ; ; ; ; - - - - - - - - - - - - - - - - $ $ $ $ $ $ $ $ @ @ @ @ @ @ @ @ @ @ @ @ $ $ $ $ @ @ @ @ @ @ @ + + + + + + + + + X X X X ",
"+ + + + + + + + + + + + + + + + @ @ @ @ @ @ @ @ @ @ @ @ @ @ @ @ $ $ $ $ $ $ $ $ - - - - - - - - - - - - - ; ; ; ; ; ; ; ; ; ; ; , , , , < < < < : , < < 1 1 1 1 < 2 2 2 2 2 5 5 e e e e r r r r r u s P P b x x [ J J [ @.E.cXFXGXGXFXFXKXCX.X..2.;.! Q U H H G F F F F b b b x a a a a a p i i u u u u r r r r r r r r e e e e e e 8 8 8 8 8 2 2 2 2 2 2 2 2 2 2 2 2 2 2 2 2 2 2 2 2 2 2 2 2 2 2 2 2 8 2 2 8 8 , 1 8 e r r r r p a x c N #.+XDXkX~.o.J B a x B u u u u r r r 9 r e 8 8 2 2 2 2 8 8 8 8 8 8 8 8 1 2 1 1 , , , < , , , ; ; - - - - - - - - - - - @ @ @ @ @ @ @ @ @ @ @ @ @ @ @ @ + + + + + + + + + + + + + + + + + + + + + + + + + + + + + + + + @ @ @ @ + + @ @ @ @ @ @ @ @ @ @ - - - - - - - - - - - - - - - ; ; ; ; ; ; , , , , , < < < 1 1 1 2 2 2 2 8 8 2 2 2 2 e e r r r r r s s a a a x B G H I -..XCXnX+XO.G p a a i t t r 9 r 8 8 8 8 2 2 2 2 2 2 2 2 2 2 2 2 2 2 2 2 2 2 2 2 2 2 2 2 2 2 2 2 2 2 2 2 2 e 8 8 8 e e 9 9 r r r r r r r r u u u u u u p p i u u u a a a x B B F F F F H H I R  .=.;.6.n.|.AXAXFXDXJXJXJXDXY.P.+.[ H K S S P c p u u r r r 9 9 e 8 8 8 2 2 2 2 2 2 1 1 1 1 1 1 1 1 1 < < < < < ; ; ; ; ; ; ; ; ; ; ; ; ; ; ; ; - ; - - - - - - - - - - - - $ $ $ $ $ $ $ $ @ @ @ @ @ @ @ @ @ @ @ @ @ @ @ @ + + + + + + + + X X X X ",
"+ + + + + + + + + + + + + + + + @ @ @ @ @ @ @ @ $ $ @ @ @ @ @ @ - - - - - - * * - - - - - - - - ; ; ; ; ; ; ; ; ; ; ; ; ; , , , , , , , 1 1 1 1 < < 1 1 1 2 2 2 2 2 2 2 e e e e e 8 r u s s a a B B b v v Z ` ] { P.yXFXFXFXFXGXSXFXMXyXR.@.| X.Y Y H F B B N N b b b b b n n b a a a a a a a i i u u u r r r r r r r e e e 8 8 e 5 e 2 5 2 2 2 2 2 2 2 2 2 2 2 2 2 2 2 2 2 2 2 2 2 2 2 2 2 2 2 8 8 8 8 8 8 8 8 1 2 y r r r u a f P / V K.mXCX3X#.) Z n c a p z p x N a u u u u r e e e 8 2 2 2 8 8 8 8 8 8 8 8 2 2 1 1 1 1 < < , ; ; ; ; ; - - - - - - - * * * $ $ $ @ @ @ @ @ @ @ + + + + + + + + + + + + + + + + @ @ + + + + + + + + + + + + + @ @ @ @ @ @ @ @ @ @ @ @ @ @ @ @ @ @ @ $ $ $ $ - - - - - - - - - - - ; ; ; ; ; ; ; ; ; , , 1 1 < < < < < < 1 1 2 2 8 8 8 8 8 8 2 e y r r r r u u s a a a x x N C F A Z K @.qXFXnXY.G p f g i s u r r 9 8 8 8 8 2 2 2 2 2 2 2 2 2 2 2 2 2 2 2 2 2 2 2 2 2 2 2 2 2 2 2 2 2 2 2 2 2 2 8 8 8 8 9 9 r r r r r r r r u u u u u p p p u u u a a a x x B B B B B B B B F F U T T ~ ..<.T.4XtXSXGXGXFXvXGXGXNX+XY.@.[ H Z v v b S D m m u u u r r 8 8 8 8 8 8 8 2 2 2 1 2 2 2 1 2 2 1 1 < < < < < < , , ; ; ; ; ; ; ; ; ; ; ; ; - - - - - - - - - - - - - - * - - - - - @ @ @ @ @ @ @ @ @ @ @ @ @ @ @ @ + + + + + + + + X X X X ",
"+ + + + + + + + + + @ @ @ @ + + @ @ @ @ @ @ @ @ $ $ @ @ @ @ @ @ - - - - - - * * - - - - - - - - ; ; ; ; ; ; ; ; , , ; , ; < < < , , 1 1 1 1 1 1 2 2 2 2 2 2 8 8 e e e e r r r r r u s s p z x b S S F ( { P.+XtXFXGXGXFXFXDXJXJXhXR.#.) ( F Z A N N N N N N f a b b Z b B F F F x x x a a a i i a i u u r r r r 8 8 8 8 8 8 2 2 2 2 2 2 2 2 2 2 2 2 2 2 2 2 2 2 2 2 2 2 2 2 2 2 2 2 2 2 2 2 2 2 8 8 8 8 8 8 8 8 8 y r r u u p x N V #.+XKXDXY.) f p l l s u p z p N B a p a i u r r e e 8 8 2 2 8 8 8 8 8 8 8 8 2 2 2 1 1 1 < < ; ; ; ; ; ; - ; - - - - - * * * $ $ $ @ @ @ @ @ + + @ + + + + + + + + + + + + + + + @ @ @ @ @ @ @ @ @ @ @ @ @ @ @ @ @ @ @ @ @ @ @ @ @ @ @ @ @ @ @ @ @ $ $ $ $ $ - - - - - - - - - ; ; ; ; ; ; ; ; ; ; , , 1 1 1 , < < < < < 1 1 2 2 8 8 e 8 8 8 2 e e r r u u a u p a x x x x x u N ( G m c { U.bXMXtXP._ p p p u u u r r 8 8 8 8 8 8 8 8 8 8 8 2 2 2 2 2 2 2 2 2 2 2 2 2 2 2 2 2 2 2 2 2 2 2 2 2 2 2 8 8 8 8 8 r r r r r r r r u u u u u p p p p p p a x x x b B B B B B B b b B b F H W D K H A I ] +.Y.8XDXGXzXAXFXGXGXVXhXuXw.+.{ ( F F S S b x x p u u r r r r r e e 8 8 8 8 8 2 2 2 2 2 2 1 1 1 1 1 1 , , ; ; ; ; ; ; ; ; ; ; ; ; ; ; ; - - - - - - - - - - - * - - - - - @ @ @ @ @ @ $ @ @ @ @ @ @ @ @ @ @ + + + + + + + X X X X ",
"+ + + + + + + + + + @ @ @ + + + @ @ @ @ @ @ @ @ - - - - - - - - - - - - - - - - - - - - - - - - ; ; , ; , , < < < < < < < < < < 1 1 1 1 1 2 2 2 2 2 2 8 8 e 8 e r r r r u u u u a x c b b F ( ] J o.T.jXnXSXFXFXSXFXFXSXBX3XP.{ G G L L n z b F a a x x x b b b F F F F F F F F x x x x a p p u i u u u r r r r 8 8 8 8 2 2 2 2 2 1 1 1 1 1 1 1 2 2 2 2 2 2 2 2 2 2 2 2 2 2 2 2 2 2 2 2 2 2 2 2 8 8 8 8 8 e e e 9 r u u p x B G _ K.bXLXuX{ B G C P M q u a N n z b x x N V N a r e e 8 2 2 2 2 8 2 2 2 2 2 2 2 1 1 1 1 1 < ; ; ; ; ; ; ; - - - - - - - - - * * @ @ @ @ @ @ @ @ + + + + + + + + + + + + + + + + + + + + + + + @ @ @ @ @ @ @ @ @ @ @ @ @ @ @ @ @ @ @ @ @ @ @ @ @ @ @ @ @ @ @ $ $ - - - - - - - - - - - - ; ; ; ; ; ; ; ; , , , , , , < < < 1 1 1 2 2 2 2 2 2 2 2 2 e e r r u a C V B x x x b b b P N N x p q v H @.+XDXbXT.O.K B a p u u r r r e e e 8 8 8 8 8 8 2 2 2 2 2 2 2 2 2 2 2 2 2 2 2 2 2 2 2 2 2 2 2 2 2 2 2 2 8 8 8 8 8 8 8 8 8 r r r u u u u u u p p z z z x x b b n F F F F F F F F b x b n D m v b / W H G ( { #.@.hXhXmXFXFXFXFXSXIXhX+XI.@.{ ( G H F F b x a u u u u r r r r r e 8 8 8 8 2 2 2 2 1 1 1 1 1 1 1 1 : : : : < < < < ; ; ; ; ; ; ; ; - - - - - - - - - - * - - - - - - - - - - - - - @ @ @ @ @ @ @ @ @ @ + + + + + + X X X X ",
"+ + + + + + + + + + @ @ + + + + @ @ @ @ @ @ @ @ - - - - - - - - - - - - - - - - - - - - - - - - ; ; , , , < < < < < < < < < < < 1 1 1 1 1 1 1 2 2 2 e e e e e r s s u i a a a a a N B G J ] q.T.dXmXSXFXFXAXFXKXGXnX+XP.{ [ ` Y F A m z x c s q x x b v Z A U E F F F H H H F F b x x x p p p u u u u u r r r r 8 8 8 2 2 2 2 2 1 1 1 1 1 1 1 1 2 2 2 2 2 2 2 2 2 2 2 2 2 2 2 2 2 2 2 2 2 2 2 2 8 8 8 8 8 r r e 9 u p a x B ( O.jXLXSXI.) L L b i x b x f N B v n n b b ) O.) V r e 8 8 2 2 2 2 2 2 2 2 2 2 2 2 1 1 1 1 , , ; ; ; ; ; - - - - - - - - - - - - - @ @ @ @ @ @ @ @ + + + + + + + O + + @ @ @ @ @ @ + + + + + + + + @ @ @ @ @ @ @ @ @ @ @ @ @ @ @ @ @ @ @ @ @ @ @ @ @ @ @ @ @ @ @ @ - - - - - - - * - - - - - - ; ; ; ; ; ; ; , , , , , < < < 1 1 1 1 1 2 2 2 2 2 2 1 2 e r r u N C O.) F b b b b b u s m c a a b A B ) P.fXGXiX@.L x a a u u r r e y y e e 8 8 8 8 2 2 8 2 2 8 8 8 2 2 2 2 2 2 2 2 2 2 2 2 2 2 2 2 1 1 2 2 2 8 8 8 8 8 8 8 8 8 8 8 r u u u u u u u x z z b b b Z Z F F F H H H H H c x x x z p a N x x v m D S I E ^ X.P.+XmXAXAXzXFXFXGXLXCXkXT.P.Y Y J F B x x a u u u u r r r r 8 8 8 8 8 2 2 2 2 1 1 1 1 1 1 1 : : < < < < < < : : ; ; ; ; ; ; - - - - - - - - - - * * - - - - - - - - - - - - $ @ @ @ @ @ @ @ @ @ + + + + + + X X X X ",
"X X X X X + + + + + + + # # # # @ @ @ @ $ $ $ $ $ $ $ $ - - - - - - - - - - - ; ; ; ; ; ; ; ; ; ; ; ; , , , , , 1 1 1 1 1 1 2 2 e e 5 5 5 5 5 6 1 3 0 0 0 u u a t t s s m S U R U ` { K.E.cXGXFXZXAXFXGXKXBXtX+X9.<.R A Z b B N g s q d h e r s z b F H Y Y U E U U H F B B x x a p p u u u u u e e e e 5 2 2 2 1 1 1 < < < < 1 , , , , , , , , 1 1 1 1 < < < < 1 1 1 1 1 1 2 2 2 2 2 8 8 8 8 8 2 y y 8 e i y 9 q p B B z G R.GXIXE.+.T ^ D t 7 s t h g B Z D D n G B _ Y.MXE.a 8 8 2 1 1 < < < 1 1 1 1 < < , , ; ; ; ; ; ; ; - - - - - - - - - $ $ $ $ $ $ $ $ @ @ @ + + + + + X X X X X X X X X X X X X X X X X X X X X X X X . . . . . . . . . . X + + + @ @ + + + + + + @ @ @ + @ @ $ $ @ % $ $ $ $ $ $ $ $ * * * - - - - - - - ; ; ; ; ; ; , , , ; ; , , , 1 1 1 1 < < < < 1 1 2 y r u _ $.FXE.[ x B V n M s x x x x a i t a b H o.OXVXDXUXO.J B N p 9 r i r 0 8 3 3 8 8 8 8 8 8 2 2 1 1 1 1 1 1 1 1 1 1 1 1 1 < < < < 1 1 < < < < < < < < 2 2 2 2 2 5 2 2 e e e e e r r r p p p a x x x x F F F H Y Y R ' K J F x c p r i 9 u z z b b x a Z A W W X.q.OXtXAXFXGXFXAXAXAXGXmX8XP.{ E E T T x z a f a t t i w w r e e e r u 0 0 8 2 1 2 6 5 2 2 2 1 1 1 1 1 < 1 1 , : ; : : ; ; ; ; ; ; - - - - - - - - $ $ $ $ $ $ $ $ $ $ @ @ @ @ + + + + + + + + + + + + X X X X ",
"X X X X + + + + + + + + # # # # @ @ @ @ @ @ $ $ $ $ $ - - - - - - - - - - - ; ; ; ; ; ; ; ; ; ; : ; ; , , 1 , , 1 < 1 1 1 2 2 2 4 4 3 2 2 2 8 8 g g i u u u p x x B F G J ( ( ( Y.3XCXKXGXFXAXZXGXGXmXyXR.w.{ G ( J F n c c a a b Z A Z x x v S Z H H Y Y Y U U H H F B x x a a u u u u r r r r e e e 5 2 2 2 1 < 1 1 < < < < 1 , , , , , , , , < 1 1 < < < < < 1 1 1 1 1 1 1 1 1 1 2 2 2 8 8 8 6 e 0 0 8 r u u N B M / t.fXFXpXP.{ N p z p p x v S D D Z F B N ( q [ 8XFXR.) x 8 8 2 1 , < , , , , , , , , , , ; ; ; ; - - - - - - - - - - * * @ @ @ @ @ @ @ @ + + + + + + + + X X X X X X X X X X X X X X X X X X X X X X X X . . . . . . . . . . X + + + + @ + + + + + + + + + + + + + + + + @ @ @ @ @ @ @ @ @ @ @ $ $ $ $ $ - - - - - - - - ; ; ; ; ; ; ; ; , , , , , , , , 2 , , 2 8 r f ( R.fXyX+.m C G q B B B b v m c c f N x x [ P.jXDXbXI.G M N f u w u r t y 2 2 8 r 8 2 2 2 1 1 1 1 1 1 1 1 1 1 1 1 1 1 < < < < 1 1 < < < < 1 1 1 1 1 2 2 2 2 2 2 2 8 8 e e e r 9 r u u u u a a a x b b F F H J Y Y E Y J H K b b F N N x q u i i t f N B F F G [ o.@.Y.3XCXLXGXFXFXLXJXDXMXyXY.+.( O.G b B G K m q r t i i h y 8 0 8 e e e 2 1 , , 2 2 2 1 1 1 1 1 1 1 < < , ; ; ; ; ; ; ; ; ; ; - - - - - - - - $ $ $ $ $ $ $ $ $ $ $ @ @ + % % % + + + + + + + + X X X X ",
"X X X X + + + + + + + @ + @ @ @ @ @ @ @ @ $ $ $ $ $ - - - - - - - - ; ; ; ; ; ; ; ; ; : ; , , , : : < , 1 1 1 1 2 2 2 2 2 2 e e y y y y y r u u i a a x x b n n / I H [ @.R.hXLXFXFXSXmXDXGXGXFX1XR.@.{ ( F K L i a a a s p p p U  .,.<.q.q.<.1.R R Y Y Y H H F b b b x a i u u r r r r e 8 e 8 5 2 2 2 2 2 1 1 < < < < < < 1 1 , , , , , , , , < < < < < < < < 1 1 1 1 1 1 1 1 1 1 1 1 2 2 2 8 t 2 1 8 r i a c p c O.R.FXGX+X@.U B a h t p A ~ ;.>.&.^ I G G N b +.8XmXE._ q u 8 2 1 , , ; ; ; ; ; ; ; ; ; ; ; - - - - - - - - $ $ @ @ @ @ @ @ @ @ @ @ @ @ @ @ + + + + + + + + X X X X X X X X X X X X X X X X X X X X X X X X . . . . . . . . . . X + + + + + + + + + + + + + + + + + + + + + + + + + + + + + @ @ @ @ @ @ @ $ @ @ @ @ $ $ $ $ - - - - - - - - - - - ; ; ; ; ; 6 ; - < 8 8 r i _ I.BXhXT.L z B F F H H A S l q 9 a x q q Z @.OXFXDX8X#.N M c p a u r e e y 0 3 2 2 2 1 2 1 1 1 1 1 1 1 1 1 1 1 1 1 < < < < < < , , , , , , , , 1 1 1 1 1 1 2 1 2 2 2 2 8 8 8 8 r r r r u i i i a x x B B F G G E R R R ~ T R <.<.o.| H b x s s y i f N b v v m ^ E o.@.I.+XfXVXFXFXFXGXGXDXJXVXR.P.{ W D S H ` N f a u y y y i r t t t y y 8 2 8 2 2 2 2 2 2 1 1 1 1 1 , , ; ; ; ; ; ; ; ; ; ; - - ; - - - - - $ $ $ $ - $ $ $ @ @ $ @ $ + + + @ @ + + + + + + X X X X ",
"X X X + + + + + @ + @ + + @ $ $ @ @ $ $ $ $ - - - - - - - - - - ; ; ; ; ; ; ; ; ; : < < < 1 1 1 < < 1 1 1 1 1 2 2 2 2 2 e e e e e e r r i a a a m m n b b F G J +.U.2XCXLXKXHXZXSXFXFXGXDXyXP.{ ' ` G F Z n b x s c c z z Z Y ] q.n. X>XwX3X}.p. . .R Y G F n b x p p u u r r r e e e 8 2 2 2 2 2 2 2 2 1 1 1 1 < < < < < < < < , , , , , , , , < < < < < < < < 1 1 1 1 1 1 1 1 1 1 1 1 2 2 2 2 w 8 e g N x z x _ @.pXGXmXI.L M v m d s a B ..8.}.S.8.=.T S K K t.bXFXP.s u f 9 2 1 , , ; ; ; ; ; ; ; ; - - - - - - - - - - - - @ @ @ @ @ @ @ @ @ @ + + @ @ @ @ + + + + + + + + X X X X X X X X X X X X X X X X X X X X X X X X . . . . . . . . . . X X + + + + + + + + + + + + + + + + + + + + + + + + + + + + + + + + + + + + @ @ @ @ @ $ $ $ $ $ $ $ $ $ $ $ - - - - - ; ; ; < ; ; , 6 e e r u a @.pXmXY.) B Z H T -.9.<.] G D z x B c z z F @.gXGXmXI.) B N z p u u r e 0 3 2 2 2 2 2 2 < < 1 1 1 1 1 1 1 1 < < < < < < < < , ; ; ; , , , , , < < < < < < < 1 1 1 1 2 2 2 2 2 2 8 e e e r r u u i a x N B B A Y Y R ~ ! ,.S.$X|.{.n.e.-.Q I d d m v F F C C S v Z F J { q.t.jXhXSXGXGXFXZXZXGXJXCXuXY.+.[ G b v m M c x a i u r 8 8 8 8 8 8 e e e 2 2 2 2 2 2 2 1 1 1 < , , , , , , : : ; ; ; ; ; ; ; ; ; ; - - - - - - - - - - $ $ $ $ @ + @ @ @ + + + + + + + + + ",
"X X + + + + + @ @ @ @ @ @ @ $ $ - - - - - - - - - - - - ; ; ; ; ; ; , , ; : : : < < < 1 1 1 1 1 2 1 1 2 2 2 8 8 8 e e e r r r r t i u p z v n K D S b ( { @.Y.4XMXSXFXFXFXFXGXGXKXBX4XP.{ ( ` ] n n D D P c p u D D I U } <.n./.+XtXnXSXFXMX&Xe.;. .R H B x x p u u r r r 8 8 8 2 2 2 2 2 1 1 2 1 1 1 1 1 1 1 1 < < < < < < < < , , , , , , , , < < < < 1 1 < < 1 1 1 1 1 1 1 1 1 1 1 2 2 e e e w 8 t f M m G #.+XFXGX+X{ G B l a p l S E q.~.:XrX#Xn.,.^ S { P.GXyX@.C u u y y 2 1 , , ; ; ; ; - - - - - - - - - - - - * * * @ @ @ @ @ @ @ @ @ @ + + + @ + + @ + + + + + + + + X X X X X X X X X X X X X X X X X X X X X X X X . . . . . . . . . . X X X + + + X X X X X X X X X X X + + + + + + + + + + + + + + + + + + + + + @ @ @ $ $ $ $ $ $ $ $ $ $ $ $ $ - - - - ; ; ; ; : ; ; : < 2 y y j 9 i { yXSX+X{ H U ~ b.XX,X2XR.r.| A Z V N p d N ) Y.JXGX8X@.[ z c P s r 8 e h 2 2 2 2 2 2 2 2 1 1 1 1 1 1 1 1 < < < < 1 1 1 1 ; ; ; ; ; ; ; ; < , < < < < < < < < < 1 1 1 2 2 1 2 2 2 2 2 e e r r r u i a a a x B F U Q ..b.XXbXbXfXrX>X[.n.e.| } I S S b x a f f B F A A A I G { P.R.gXMXKXKXAXAXZXAXFXVXjX4Xw.+.] H Z b b B c s d s s s u r r e e e 5 2 2 2 8 8 2 2 2 1 1 1 1 1 1 1 < < : : ; ; ; ; ; ; ; ; ; ; ; ; - - - ; - - - $ $ $ $ $ @ @ @ @ @ @ @ @ + + + + ",
"X + + + + + @ @ @ @ @ @ @ $ $ $ - - - - - - - - ; ; ; ; ; ; ; ; ; ; , , : < < < 1 1 2 1 2 2 2 2 2 2 2 8 8 e 8 8 r r r r u u i a P M M M m n K F ) { @.R.8XbXGXGXxXHXGXGXGXmXpXiX+.#.{ ( F v D / V N p q q m S L I T -.e.!.$XwXsXDXKXGXAXFXDX>Xv.;. .U B x a u u r r r 8 8 8 8 8 2 1 1 1 1 1 < < < < < < < < < < < < < < < < < < , , , , , , , , < < < < < 1 < < 1 1 1 1 1 1 1 2 1 2 2 2 e e e r u i a p d ) Y.bXGXdXI.) M m N V g N A ! e..XaXSXdX#Xv.%.W { +XFXiX+.p f f 8 4 w 1 1 , ; ; ; ; - ; ; - - - - - - $ $ $ $ - @ @ @ @ @ @ @ @ @ @ @ @ + + @ @ @ @ @ + + + + + + + + X X X X X X X X X X X X X X X X X X X X X X X X . . . . . . . . . . . X X X X . X X X X X X X X X X X X X + + + + + + + + + + + + + + + + + + + @ @ @ $ $ $ $ $ $ $ $ $ $ $ $ $ - - - ; ; ; ; ; ; , : : ; , 2 y 0 d d q { 4XnXbX+.o.=.x.$XsXmXbXrX~.<.E Z x f f N m P +.qXGXMX4X{ ) x p a s r 8 e e e e 2 2 2 2 2 2 2 1 1 1 1 1 < < < < 1 1 1 1 ; ; ; ; ; ; ; ; , , , , < < < < : : < < 1 1 1 1 < < 1 1 1 2 2 2 8 8 8 r r u u u i a x F R ..n.-XAXAXAXAXSXnXfXyX#X~.r...~ I Z x s s p p z v H U J H D L O.@.R.qXAXAXAXAXAXAXZXZXVXsXOXP.+.{ ` J b x z c n B x a u u r r r e e 8 e e e e 8 2 2 2 1 1 1 1 1 1 < < , , ; ; ; ; ; ; : : ; ; ; ; ; ; - - - - $ $ $ $ @ @ @ @ @ @ @ @ + + + + ",
"+ + + + + @ @ @ $ $ $ $ $ $ $ $ - - - - - - - - ; ; ; ; ; ; ; : < < < < < < < < 2 2 2 2 2 2 8 8 e e e e e r r r u u p a a x x x S n S F ( { +.@.+XiXMXGXGXGXAXZXGXFXMXuX4Xt.| H ` F v D / L m z a f B F K U Y R e.r.~.,XrXbXSXFXAXGXAXzXZXdX%XD.=.Q H x a i u u r r r 8 8 8 8 8 1 1 1 1 < < , , < < < < < < < < 1 1 < < < < < 1 , , , , , , , , 1 1 < < 1 1 1 1 1 1 1 2 1 2 2 2 2 8 8 8 r r r r x x N _ @.E.BXLX2Xo.z B G p q f x F | e.[.wXdXpXrX Xl.1.w.+XfXfX[ _ f a u 8 1 2 1 1 , , ; ; ; ; - - - - - - - - - - $ $ - - @ @ $ $ $ @ + + + + @ @ @ @ @ @ @ @ + + + + + + + + X X X X X X X X X X X X X X X X X X X X X X X X . . . . . . . . o o . . . . . . X X X X X X X X X X X X X X + + + + + + + + + + + + + + + + # # @ @ @ @ * * - - - - - - - - - - - - - - - - - - ; , : : : 1 2 8 5 w M x p G Y.DX8XY.e.x._.wXdXpXbXrX.Xb.=.I b N n L v q ) 4XCXDXjXI.{ V C P u 8 r r r e 8 e 8 8 2 2 2 2 2 1 1 1 < < < < < < 1 1 : : : : : : : : ; ; ; ; ; < < < : : < < < 1 1 1 , , , 1 1 1 1 1 2 2 8 8 r r u u i a z A E  .r.%XlXZXZXAXAXFXHXHXSXbXwX=X!.t.<. .b v v b b x x a M m b b F J ` ] #.T.uXDXFXGXGXJXFXGXGXKXBX+XP.#.{ [ G B b b x z a a a u u u r r r r r e e e 8 8 2 2 2 1 1 1 1 1 1 < < : ; ; : ; : ; ; ; ; ; ; ; - - - - - $ $ $ @ @ @ @ @ @ @ @ + + + + ",
"+ + + + @ @ @ @ $ $ $ $ $ $ $ $ - - - - - - - - ; ; ; ; : ; < < < < < < < < < < 2 2 2 2 2 8 8 8 e e e r r r r r p a a x x b B B H J ] @.Y.0XmXGXFXFXGXFXFXHXHXHX0XR.w.{ Y E I I S v b x a a a V d m m A ' <.n./.&X1XsXBXDXGXAXzXFXFXFXvXpX>X(.j.=.R F a s u u r r r r e 8 8 8 8 1 1 1 1 < < < , < < < < < < < < < 1 1 < < < < 1 , , , , , , , , < 1 1 < 1 1 1 1 2 2 2 2 2 2 2 2 8 8 8 r r u u u m M ) I.SXKXcXK.J G F n c a a d ^ X.r.#XdXmXdXrX>X`.l.D.aXGXE.F B c d w r t e , 1 1 , , ; ; ; ; ; - - - - - - - - - - - - - - - $ $ $ $ + + + + @ @ @ @ @ @ @ @ + + + + + + + + X X X X X X X X X X X X X X X X X X X X X X X X . . . . . . . . o o . . . . . . X X X X X X X X . X . . X X X X + + + + + + + + @ @ @ @ @ @ @ @ @ @ @ @ * * * * * * * * * * * * * * - - - - - - = ; ; : < 6 2 8 t r r c x N ) #.GXaX.XG._.>XtXjXNXdXrX|.Z.5.~ H b p b L D x @.qXGXMX4X+.B q a C r r r r r r e e 6 2 2 2 2 1 1 1 < < < < < < 1 1 : : : : : : : : ; ; ; ; ; : ; ; : : : < < 1 1 1 , , < , < 1 1 1 2 2 8 8 9 r u u a x z S E ! e.|.<XrXbXSXFXFXFXZXLXKXDXbXrX$XS.x.,.-.R A z p h h f N N b n S Z Z ~ ~ } o.P.8XSXFXHXAXzXZXFXGXGXKXuX=Xw.o.` J K K x x c a p p s u r r r e r e e e 2 2 2 2 1 1 2 1 1 1 < : : ; : : : : ; ; ; ; ; ; - - - - - $ $ $ * @ @ @ @ @ @ @ + + + + ",
"+ + + @ @ $ @ $ $ @ $ $ - - - - - - - - ; ; ; ; ; ; ; : : < < < 1 1 2 2 2 2 5 e r r e 9 9 r u u g t r r i r t t b F K H H U Q X.r.OXiXFXGXAXzXHXAXAXFXGXBX3XY.w.Y U K K S Z S Z A Z x i t r i x I ! 6.b.Q.OX8X9XZXZXAXFXFXGXSXDXbXfXaXwX<X$XF.p.Y H b p s u r r 8 8 8 8 8 2 2 2 < < < < < < < < < < < < 1 < < < 1 1 1 < < < 1 1 < < < < < < < < 1 1 1 1 1 2 2 2 3 0 2 2 e e e 2 1 y h u p x C n J @.jXLXFX+X+.I I Z a t t p S ^ f.S.OX9XlXBXsXwXXXQ.OXMXMXI.( M a x z q p a y 2 e 2 , , ; : ; ; - ; ; - - - - - - - $ $ $ @ @ @ $ $ @ @ @ @ @ @ @ @ @ @ @ + + + + + + + + + + + + + X X + + + + X X X X X X X X X X X X X X X X X X X X X X X X X X X X X X X X X X X X X X X X + + + + + + + + + + + + + + + + @ @ @ @ @ @ @ @ @ @ @ @ @ @ $ $ * * * - - - - - - - - - ; ; ; - - , , ; 3 1 9 x Z x r y h a A T 0.yXGXaXoXXX>XqXlXvXfXqX>X|.v.1.I Z z s g N G ` I.fXGXZXI.) A I a a i e 8 8 9 u 8 8 8 8 8 2 2 1 2 1 1 1 , , , , < < < < < , , , , , , , , , , , , , , , , , , , < < 1 1 < < < < 2 2 2 8 8 8 e e r u a x b Y x.).0XrXsXdXbXmXSXGXFXGXGXFXZXcX9XiX@XQ.b.7.%.^ S q p a c c c x N N F H J J Y ] <.t.qXdXMXDXFXAXAXAXFXFXFXmX8XY.+.[ } U H H F p s d 0 w w w q q p a y e 8 e e e e 5 1 2 1 1 1 1 , , < < < < : , : : ; ; ; ; - - - - - - - $ $ $ @ @ + + + + ",
"+ + @ @ @ $ $ - @ $ $ $ - - - ; - - - ; ; ; ; ; ; ; < < < 1 1 1 2 2 2 2 2 5 e e 1 2 0 y y s w 0 8 9 p P L S Z F H H K ` o.I.8XbXmXSXGXGXGXGXFXFXIXhX+XI.+.{ J Z H H F B x x a a i a a b A T %.1.e.!.-XuXhXMXDXGXAXFXFXFXSXmXbXdXqX0X:X>X&X|.A.a.Y H b p u r r r 8 8 8 8 8 2 2 2 < < < < < < < < < < < < 1 < < < 1 1 1 < < < < < < < < < < < < < 1 1 1 2 2 2 2 2 1 2 e e e e e e i r u a c z B [ OXBXKXiXK.) K S x a a a x F } 9.n.*XhXdXsXtX1X&XOXsXVXtXw.( F J u u p x G [ G z r 8 1 , ; ; ; - ; ; ; - - - - - - - $ $ $ @ @ @ $ $ @ @ @ @ @ @ @ @ @ @ @ + + + + + + + + + + + + + + X X + + + X X X X X X X X X X X X X X X X X X X X X X X X X X X X X X X X X X X X X X X X + + + + + + + + + + + + + + + + @ @ @ @ @ @ @ @ @ @ @ @ @ @ $ $ * * * - - - - - - - - - ; ; ; - ; < 1 , 3 r b ] <.] B u r s x B Y o.+XFXmXOX~.3X>XwXsXnXdXrX Xn.<.R v z a x B G ` +.E.mXFXcXP.D v z p s w 0 8 t e e e e 8 2 2 2 2 1 1 1 1 , 1 , < < < < < < , , , , , , , , , , , , , , , , , , < < 1 1 < < < < 1 2 2 8 8 8 e e r u z c b Y 8.F.#X&X>X<XwXwXaXaXSXSXGXGXGXGXSXDXDXnXrX&XQ.r.o.[ Y H Z z z z c x c c n n Z K Y ' G { P.OXgXMXGXGXIXCXKXGXFXSXmXbX4Xw.( F K Y J G _ V N a p u u r d y 0 0 0 0 y w 2 2 2 2 2 1 1 1 1 < < < < < : : ; ; ; ; ; - - - - - - $ $ $ $ @ @ + + + ",
"+ @ @ @ $ $ - - $ $ - - - ; ; ; ; ; ; ; , , < , < < < 1 1 2 1 2 2 2 2 2 2 e e e y y y r 9 q q q P n m S Z A T Q ] @.Y.qXmXFXGXKXAXFXGXGXDXBXtX3Xt.+.] J H S D D B B x x a i i t u x A Q ;.p.V.G.OX:XsXMXGXFXFXFXGXFXSXmXdXaXwX:X;X;X#X$X|.{.A.i.H F x u r r r 8 8 8 8 8 2 2 2 2 < < 1 1 1 1 1 < < < < < < < < < < < < < < < < < 1 1 1 1 < < 1 1 1 1 1 1 2 2 2 2 6 5 e e e 8 e r s a N N M L P.qXGXDX2X@.G b M w 5 r p v I } e.Q.:XrXfXsXeX,X#X@XcXSXhXw.H S Z B s p B ] q.n.e.! r e 2 , ; - - - - ; ; - - - - - $ - $ $ $ @ @ @ $ $ @ @ @ @ @ @ @ @ @ + @ + + + + + + + + + + + + + X X X X + + X X X X X X X X X X X X X X X X X X X X X X X X X X X X X X X X X X X X X X X X + + + + + + + + + + + + + + + + @ @ @ @ @ @ @ @ @ @ @ @ @ @ $ $ * * * - - - - - - - - - ; ; ; - > 3 , , y a ] b./.b...A q u r t Z I q.+XAXZX1X}.XX%X<XpXvXbXtX3XQ.q.] A S m x N b v E P.bXGXNXE.o.G z b C i 5 6 e e e e e e e 5 2 2 2 2 1 1 , 1 1 1 1 1 , , , , , , , , , , , , , , , , , , , , < < 1 1 < < < < 1 2 2 2 8 8 8 r r u p x n R 7.V._.}. X|.$X$X&X>XaXdXbXmXSXFXGXGXAXAXFXSXbXrX&X[.e.,.} H Z v v m s s s m m x z z / D H ( { P.OX1XFXFXFXFXAXFXJXLXSXDXnX+XP.o.R I U A v x x f f g u u s s d y 8 1 e e e 5 2 2 2 2 2 1 2 1 1 < < < ; ; ; ; ; ; ; ; ; ; ; - $ $ $ $ @ @ @ @ ",
"@ $ $ $ $ - - - - - - ; ; ; ; ; ; ; , , < 1 1 1 1 1 1 1 2 2 2 2 2 2 e e e e r r t i i i a x B K Z Z F G ] q.U.-XbXmXGXGXGXFXAXAXGXDXmXiX+XP.+.] H H H F F F n n i a a z z x b B T ! 2.p.n.[.;X0XbXmXSXAXAXAXFXFXSXSXbXdXrX<X>X>X&X*X|.|.{._.v.3.F b p u r r r 8 8 8 8 2 2 2 1 1 < < 1 1 1 1 < < < < < < < < < < < < < < < < < < 1 1 1 1 1 1 1 1 2 2 2 2 2 2 e e e e 5 e 8 e r s p m M n #.+XSXGXiXP.( Z F V f i h a I >.8.W.#XsXvXiXwXeX>X#X:XfXGX0Xq.R E K x 9 S K o.r.$X-X'.6.a u 8 1 , ; ; - - ; ; - - - - - $ $ $ $ $ @ @ @ $ $ @ @ @ @ @ @ @ @ @ + @ + + + + + + + + + + + + + X X X X + + X X X X X X X X X X X X X X X X X X X X X X X X X X X X X X X X X X X X X X X X + + + + + + + + + + + + + + + + @ @ @ @ @ @ @ @ @ @ @ @ @ @ $ $ * * * - * - - - - - - - ; ; ; - - , 1 2 r B ,.G.>X|.n.-.H z u t B R ~ >.OXGXSX#X%X|.@X:XaXpXbXnX<X[.e.-.E S x a B b S K o.R.mXGXpXI.] Z F N i j r r r e e e 5 5 8 8 2 2 2 1 1 1 1 1 1 1 1 , , , , , , , , , , , , , , , , , , , < < < < < < 1 1 1 1 2 2 2 8 8 8 r u p x n R 2.m.D.F.(._._.{.|.%X;X:XwXrXiXpXmXmXHXHXAXFXGXnXtX1X*X].r.q.o.} T I b b x x x N f f n n b Z Z H ' } #.I.8XCXKXGXFXAXZXAXFXFXFXMXuXR.o.o.[ Y K F x p B N a u u r t i r r e e e 5 5 6 2 2 2 2 1 1 1 1 < < < ; ; ; ; ; ; ; ; - - - $ $ @ @ $ @ ",
"@ @ $ $ - - - - - ; ; ; ; ; : : < < < 1 1 2 2 2 2 2 2 2 8 8 8 8 e e r r r u u u v n K F F Z F F [ o.w.Y.+XgXDXGXGXGXFXFXFXFXFXSXwXOXw.o.E H H Z J H B x x a a a r u z Z I T =.,.e.v.(.$X<XaXvXzXFXFXAXAXAXAXSXDXbXpXaXwX<X&X*X%X X X}._._.F.x.;.F x p u r r e e 8 8 2 2 2 1 1 1 < < < < < < < < 1 1 < < < 1 1 1 < < < < 1 1 1 1 2 2 1 1 1 1 1 2 1 2 2 2 8 8 8 8 y 8 8 y s s a c N D / t.pXGXSX4X$.G x v M m i k b A  .x.'.&XiXmXmXdXrX<X:X8XcXLX1X!. .E I b a h T -.n.$X<X1X/.<.x a r 2 1 , ; ; - ; ; ; ; ; - - $ $ $ $ - @ @ @ $ $ @ @ @ @ @ @ @ @ @ @ @ @ @ @ + + + + + + + + + + + X X X X + X X X X X X X X X X X X X X X X X X X X X X X X X X X X X X X X X X X X X X X X + + + + + + + + + + + + + + + + @ @ @ @ @ @ @ @ @ @ @ @ @ @ $ $ * * * - * - - - - - - ; - ; ; - - < 1 8 u F ,.G.wX<X*Xn.<.R A v B B I &.l.|.dXLX8X+X@X$X,XtXdXvXaX<X|.b.-.U b p d C _ B v ( P.iXGXFX4X+.K S b B u u r r e e e e 8 8 8 2 2 2 1 1 1 1 1 1 1 1 , , , , , , , , , , , , , , , , , , < < < < < < < < , 1 1 2 2 2 8 8 y 9 u x n Y :.g.M.D.F.(.(._.{. X$X$X&X>X<XwXaXdXVXDXFXAXAXFXmXfXnXaX0X#X~.n.e.6.=.~ I Z b x f g a a N C n n D D / W [ #.P.+XmXGXGXGXFXZXAXGXGXAXCXgXR.@.{ [ W W B b x x x x a a u u u r r e e e e e 8 8 2 2 2 2 1 1 < < , , , : ; ; ; ; - - - - $ $ $ $ ",
"$ $ $ - - ; ; ; ; ; ; ; < < < < 1 1 2 1 2 2 2 5 8 8 8 8 e r r r r r u a a x x b D D S A G ` o.+.4X3XhXVXGXGXAXxXzXZXFXFXMXyXT.t.| Q I S S D D L z m s s s a a f a b H } :.e.G.`.+X2XsXnXmXFXFXFXAXAXZXZXvXcXpXiXrXrXwX>X&X$X|. X{.`.(.(.(.F.p.;.B x u r r r e e 2 2 2 1 1 1 1 1 < < < < 1 < < < < 1 < < < 1 1 1 < < < < 1 1 1 1 2 2 1 2 1 1 2 2 2 2 8 8 e 8 e r r 8 0 d s p p x _ @.+XGXGXiXw.W m n C x p m c p ~  .8.Q.&XrXpXcXdXsX0X+XiXJXMXUXl.d.:.R v v B _ 9.n.%X1XeX>XW.,.B x r 8 1 , , ; - ; ; ; - - - - $ - $ $ - @ @ @ $ $ @ @ @ @ @ @ @ @ @ @ @ @ @ @ + + + + + + + + + + X X X X + + X X X X X X X X X X X X X X X X X X X X X X X X X X X X X X X X X X X X X X X X + + + + + + + + + + + + + + + + @ @ @ @ @ @ @ @ @ @ @ @ @ @ $ $ * * * - - - - - - - - - - ; ; ; ; 1 1 2 y x ..D.:XeXeX*XW.e. .~ B z S 2.f.j.].lXZXbX<X|.{.$XrXbXdXsXeX|.n.<.R H t i f N B F Y ] I.vXKXmXY.O.H v x x p u r r e e e 8 8 8 8 2 2 2 1 1 1 1 1 1 1 1 , , , , , , , , , , , , , , , , < < < < < < < < 1 , 1 1 2 2 2 2 0 9 u p x J =.a.D.D.).(.(./._.{.{. X X%X&X>XwXrXaXdXmXSXAXGXGXGXAXFXSXbXsX1X&X|.Z.8.=.T A v z p N N a p p a x N v Z H Y [ { o.+.8XbXKXKXZXxXxXzXZXFXGXKXCX2XU.+.) ( G F n v m z x x a a u u r r r r r r e 8 8 8 1 1 1 1 1 1 < < , , ; ; - ; - - $ $ $ $ ",
"$ $ - - ; ; ; ; ; ; ; , < < 1 2 2 2 2 2 2 2 8 e e r r r r r u u i a a x B F F H Z J ] +.P.R.hXIXSXSXGXFXGXGXFXZXGXmX2XT.t.O.H Z D S H F B b m w s s c M M c z x R ..9.b.W.|.<XtXvXSXGXGXFXFXFXFXAXGXSXMXdXsXrX0X<X>X&X$X|.|.{.{._._.(.F.F.A.9.%.x a u 9 8 e e e 2 2 1 1 1 1 1 1 < < < < 1 1 < < < < < < < < < < < < < < 1 1 1 1 2 2 2 2 2 2 2 2 2 8 8 e e e r r u u p x x x G { T.9XGXFXR.O.D S B x d q i V n D p.v.[.eXfXdXdXsXeX1X+X8XMXBX&Xe.z.3. .U A T <.e.~.,XeXeX<X|.n.2.B x u 8 1 , , , - ; ; - - - - - - - - - - $ @ @ $ $ @ @ @ @ @ @ @ @ @ @ + + @ @ + + + + + + + + X X X X X X X X X X X X X X X X X X X X X X X X X X X X X X X X X X X X X X X X X X X X X X X X + + + + + + + + + + + + + + + + @ @ @ @ @ @ @ @ @ @ @ @ @ @ $ $ * * * - - - - - - - - - - ; ; - 1 1 , < y u R v.OX<XtXwX#XQ.e.;.J W E  .6.s.Z.n.sXBXnX:X~.~.>XwXsXfXfXeX#XW.9.=.G x q d c N b v D P.pXFXSX+Xw.] F B x a u u r r e e 8 8 8 2 2 2 1 1 1 1 2 2 1 1 , , , , , , , , , , , , , , , , < < 1 1 < < < < , 1 , 1 1 2 2 2 1 8 r u a F  .a.V.D.F.).(.(./.`.].{.{.|.$X&X>X<XaXaXaXdXbXmXSXAXAXAXFXFXSXmXnXfX,X=X!.r.<...} Q z z b C C N a i K K b v Z H Y ' S ` @.OXhXJXDXSXKXGXFXSXSXSXFXFX3XR.@.{ ( G E W Z Z b x x a i i u u r r r r e 8 2 2 2 1 1 1 1 1 , , , ; ; ; ; - - - - - ",
"$ - - - ; ; ; ; , , , < < 1 2 1 2 2 2 2 5 e e e y y y u u i i i x x B B F J Y Y w.U.2XhXDXFXFXFXAXAXAXAXFXDXbXqXr.q.] J H G J J V N N a a x N N f a p p z F J [ 7.c.G.{.&XwXbXSXFXFXFXAXzXAXFXDXHXSXbXaXrXwX<X:X&X$X$X|. X{.{.{._.(.F.F.F.v.6.~ x u r 8 8 8 8 8 2 2 2 1 1 1 1 1 < < < < 1 1 < < < < < < < < < < < < < < < < 1 , 2 2 2 2 2 2 2 2 2 8 e e e e r r i i a N B ( t.5XFXKXgXK.V n F b Z p r g y q b | m.^.;XdXcXiX<X>X$X#XuXLXMX@Xm.l.x.=.E E R -.M.6X0XrXtX<X@X/.s.*.B x u 8 1 , , ; - ; ; - - - - - - - - - - $ @ @ $ $ @ @ @ @ @ @ @ @ @ @ + + + + + + + + + + + + X X X X X X X X X X X X X X X X X X X X X X X X X X X X X X X X X X X X X X X X X X X X X X X X + + + + + + + + + + + + + + + + @ @ @ @ @ @ @ @ @ @ @ @ @ @ $ $ * * * - - * - - - - - - - ; ; - 2 1 ; : 3 r J e.|.>XrXrXwX@Xn.:.` R T E ] <.j.l.r.<XJXSX8XOX&X$XqXsXdXaXwX|.v.2.I A x a t t a F T A ) I.ZXGXcX4XK F B x a u u u e e e 8 8 8 2 2 2 1 1 1 2 2 1 1 , , , , , , , , , , , , , , , , < < < 1 < < < < , , , 1 1 2 2 2 , 2 e r u b  .i.h.N.D.D.F.F.)._.[.|.|.|.$X$X>X>X2X2X1X1XtXsXnXmXSXFXFXFXAXAXHXHXFXSXdXeX*X_.S.A.o.X.H v z p s s g f a x b S A A Y H K E [ +.Y.tXSXFXFXGXGXAXHXHXGXGXDXhX-Xr.o.H H K F F b x a a i u i u r r r r 2 2 2 2 1 1 1 1 < , , , ; ; ; - - - - - ",
"- - - ; ; ; ; : 4 3 < 1 , 1 2 e e 8 8 9 9 y s w e r u z z b B V G J Y ` { w.#XsXFXFXFXAXAXzXzXzXGXFXSXsX=Xr.| H K K S A S S S S a a a a p i i i m S I T  .6.v.D.[.#XwXdXmXSXGXGXFXFXFXFXSXmXbXbXsXsXrXwX<X,X&X$X X X{.{._.(.(.(.G.G.C.V.V.m.:.E a u 9 8 2 2 2 2 1 1 1 1 1 1 , , 1 1 1 1 1 1 1 1 < < < < < < < < , < 1 1 1 2 1 2 8 2 2 2 2 2 2 5 e 5 2 e t a s q x b A T o.T.lXzXCX4Xo.E K b a r B N a i x } s.D. X1X9XlXiXrX1X$X0XMXLXiX].V.k.z.....%.! =.e.].&XaXwX&X|._.A.8.:.B a r 2 , , , ; - ; ; - - - - - $ $ $ $ $ $ $ $ $ $ @ @ @ @ @ @ @ @ @ @ + + + @ + + + + + + + + + + + + + + + + X X X X X X X X X X X X X X X X X X X X X X X X X X X X X X X X X X X X X X + + + + + + + + + + + + + + + + + + @ @ @ @ @ @ @ @ @ @ @ @ @ @ $ $ $ $ $ - - - - - - - - ; ; ; ; ; , 1 2 2 0 x } 7.'.[.#XwXrX<X@XQ.e...T ~ >.7.h.N.j.F.;XDXGXpX>X*X*XtXpX9XaX<X$XU.o.Y z q s z x N C c v U t.4XMXGXvXI.[ S Z N i y u r r e 5 2 8 0 e e 8 2 2 2 2 1 1 1 1 1 1 1 < < < < < < < < < < < < < < < < < < < 1 1 1 1 1 2 2 8 8 e r a F } >.s.m.N.V.D.D.D.G.F.F.(._.{.{. X X*X*X&X>X<XwXwXrXfXnXMXDXSXFXFXGXFXFXFXFXSXmXpXiX%X].r.<...E S l p p s s c N f f f f N N B U R  .+.U.2XhXGXFXFXFXAXAXFXFXFXFXmXdX!.q.] J G K K v B B b x s r t e i u r 8 8 8 0 w < , 1 2 2 3 4 = ; ; ; $ ",
"; ; ; ; : < < < , 1 2 5 5 e e e 0 0 y i i i i u N N b v S S K K W O.w.+XBXKXGXFXDXGXGXGXFXFXFXSXjXOXw.{ Y U E W F F B b N x a a i p p p z Z H Y ' | q.r.U..X,XuXfXnXMXDXGXAXAXAXFXSXSXmXbXdXaXaXwX<X;X;X#X@X[.[.{.{._._.(.F.F.F.D.C.M.V.V.s.-.Y x u r 8 2 5 2 2 1 1 1 1 1 1 , , 1 1 1 1 1 1 1 1 < < < < < < < < , < 1 1 1 2 2 2 8 8 2 2 2 8 2 2 2 y d d 9 9 a V l L ( #.8XGXSXnXK.{ b v v b a u a x Z Y ..e./.%XtXrXaXsX1X#XOX8XDXMXeX[.D.N.p.2. . .=.=.e.Q.>XwXeX<X$X{.).M.7.;.x a r 2 1 < , ; ; ; ; - - - - - $ $ $ $ $ $ $ $ $ $ @ @ @ @ @ @ @ @ @ @ + + + + + + + + + + + + + + + + + + + + X X X X X X X X X X X X X X X X X X X X X X X X X X X X X X X X X + X X X X + + + + + + + + + + + + + + + + + + @ @ @ @ @ @ @ @ @ @ @ @ @ @ $ $ $ $ $ - - - - - - - - ; ; ; ; ; , 1 2 2 0 a Q 7.^._.$X<XeXeX<X>X'.b.,.>.>.2.7.p.B.V.S.[.tXLXMX8X,X<XwXaXtXuXeXwX'.q.| Y Z z p i u x K Y J #.R.gXLXcXE.@.[ M z N i u r r h h r 8 e 8 8 2 2 2 1 1 1 1 1 1 1 1 1 1 < < < < < < < < < < < < < < < < 1 1 1 1 1 1 1 1 8 8 e r a F R  .i.s.h.N.N.V.V.V.D.F.F.F.(.(._._.|.|.|.$X&X>X<X<XwXrXaXdXbXmXSXSXGXFXFXFXFXGXSXmXhXeX#X~.!.e.<.} H Z v z z p a a Z b b N N B V G I Y | +.P.OXhXIXSXFXFXFXFXGXGXHXGXFXhX4Xw.{ ` ( / D b x x a a s 9 u s s i e 1 ; 2 2 5 6 6 6 < 3 , ; ; - ",
"; ; : : < < 1 2 6 6 5 e e e e e s u r r u a V G D S v Z ( { @.K.9XmXGXKXHXxXPXLXZXAXGXLXCX3XU.w.[ ` E I A S v z x x x a i i t t m m n Z I  .6.b.!.~.2XyXsXNXDXKXDXGXGXGXAXZXSXSXbXbXdXaXwXwX:X:X>X#X@X$X|.{._./.(.(.(.F.F.D.D.V.V.N.m.N.N.i. .H a i r 8 8 2 2 2 1 1 1 1 1 1 < < 1 1 1 1 1 1 1 1 1 1 1 1 1 1 1 1 < 1 1 1 2 2 2 2 8 8 8 8 8 8 e e r 0 0 d s p x B E { E.HXAXFX2X<.( F z c N N N b s n ! 7.F.|.0XgX9XaXeX,X XY.8XGXMX<XF.j.f.d.7.,.>.;.,.e.].>XrXrX>X$X{.(.D.c.2.%.x a r 2 1 < , ; ; ; ; - - - - - $ $ $ $ $ $ $ $ $ $ @ @ @ @ @ @ @ @ @ @ + + + + + + + + + + + + + + + + + + + + X X X X X X X X X X X X X X X X X X X X X X X X X X X X X X X X + + + + X + + + + + + + + + + + + + + + + + + + @ @ @ @ @ @ @ @ @ @ @ @ @ @ $ $ $ $ $ - - - - - - - ; ; ; ; ; ; , 1 2 e y p R 6.M.S._.|.&X<XeXtX,X|.S.x.2.;.;.:.6.Z.l.j.F.tXDXxX8X#X$X,XtX9XiXsXuX*XW.e.| F a u x B B b x F ] q.jXSXGXbXT.O.A H n x p u u r r e e e 8 8 8 2 2 2 2 2 1 1 1 1 1 1 1 1 1 1 1 1 1 1 1 1 1 1 < < < < 1 1 1 1 1 2 1 1 8 8 e r a F R  .2.7.a.h.j.N.N.N.V.V.D.D.D.F.F.F.^././.{.|.|.$X&X;X>X<XwXaXaXbXbXSXSXFXFXFXFXFXFXGXSXbXaXwX&X/.n.9.-.R A v z z s z z z a a x x x D D S A G [ o.q.+XtXBXJXGXFXzXxXxXzXAXGXFXnX2X~.{ ] [ Y E K S v f a i r e r y h e e e 5 2 2 2 2 1 < ; ; ",
": ; : : < 2 2 2 e e 8 8 r y i i u p x B K F Z Z H ' o.P.OXyXMXGXGXFXAXZXAXAXAXAXGXpX+XI.w.o.R T A Z Z Z n B N N a a a a a x x c A E X.-.<.b._.%XaXdXMXDXGXAXAXAXZXZXZXvXvXcXdXdXrXwXwX>X#X#X$X$X$X|.{.{.{.`.(.(.F.F.D.D.V.V.V.N.N.j.g.h.g.6.} F a u r 8 2 2 2 2 1 1 1 1 1 1 < < 1 1 1 1 1 1 1 1 1 1 1 1 1 1 1 1 1 1 1 1 2 2 8 8 8 8 8 8 e r r r i r u x B b Z W P.fXGXFXgXP.F A Z v c i i p v Z K } 8.(.$XwXaXcXUXwX$X{.@X9XJXJXOX^.j.f.u.:.:.i.7.x.n.[.<XrXrX<X|.{.(.D.m.p.>.! x a r 2 1 < , ; ; ; ; - - - - - $ $ $ $ $ $ $ $ $ $ @ @ @ @ @ @ @ @ @ @ @ + + + + + + + + + + + + + + + + + + + X X X X X X X X X X X X X X X X X X X X X X X X X X X X X X X X + + + + + + + + + + + + + + + + + + + + + + + + + @ @ @ @ @ @ @ @ @ @ @ @ @ $ $ $ $ $ - - - - - ; ; ; ; ; ; ; ; , , 2 8 y p U ;.c.M.F.(./.$X<XrXrX<X$X^.c.7.;.>.-.7.l.l.j.n.8XGXZX0X.X{.#X0XqXuXbXaX>X{.b.-.U Z K x u u x K A S { I.nXGXFX8Xw.` n n B x p u r w r r r 8 8 8 8 8 2 2 1 1 1 1 1 1 1 1 1 1 1 1 1 1 1 1 1 1 1 1 1 1 1 1 1 1 1 1 1 1 8 8 e r i B Y Q 2.7.a.s.j.j.j.N.V.V.V.V.D.D.D.D.F.F.(.(._.{.{.|.|.$X&X>X<XwXrXsXdXdXbXmXSXFXFXFXAXAXFXFXmXdXrX<X X/.r.<.| R A A t r u p m m S S z b b F F F H H ` o.P.R.8XcXFXGXKXHXzXZXGXGXGXFXJXgXY.@.{ ` Y U B B b x x a u 9 r r r e 2 2 2 2 2 1 < : ",
": : : < 2 6 8 e r r 0 u s s x N S S S Z H ` | o.R.+XdXDXGXGXGXGXCXPXAXGXGXFXdX8XT.t.{ J F G G G G B x a i i f f p p z v v I E ~ ;.6.b.Q.[.>XrXfXZXAXFXFXFXFXFXFXFXSXbXdXrXwX<X<X>X>X&X$X|.{.{.{._._.(.(.(.F.F.F.D.D.V.V.V.N.N.N.j.h.a.d.i.:.R B a u 8 2 1 1 1 1 1 1 1 1 1 1 1 < 1 1 1 1 1 1 1 1 2 2 1 2 1 1 1 1 1 2 2 2 2 8 8 8 8 8 e r r r u u p a c m x G @.4XGXSXmX2X] v L m v z a i i z U X.e.n.].>XrXaXrXrX0X%X'.@XbXGXdX[.Z.N.j.h.<.| 1.f.v./.&XwXrXeX>X@X_.F.D.m.s.2.! T x a r 2 1 < < ; - ; ; - - - - - $ $ $ $ $ $ $ $ $ $ @ @ @ @ @ @ @ @ @ + @ @ @ + + + + + + + + + + + + + + + + + X X X X X X X X X X X X X X X X X X X X X X X X X X X X X X X X X + + + + + + + + + + + + + + + + + + + + + + + + + @ @ @ @ @ @ @ @ @ @ @ @ $ $ $ $ $ - - - - - ; ; ; ; ; ; ; ; ; , 2 e r p H  .a.h.C.G.(.{.&X<XqXrX<X$X(.c.y.4.9.;.1.a.s.x.S.-XDXVXyXOX/.|.>XeXpXdXaX<X Xv.6.! n x a t i a m S A U +.E.FXKXmXR.{ ( F b m m a r r r r 9 8 8 8 8 2 2 2 2 2 2 2 2 2 2 1 1 1 1 2 2 1 1 1 1 1 1 1 1 1 1 1 2 2 2 2 2 8 8 e r u b H R :.2.8.s.g.h.j.j.j.j.j.N.N.V.V.V.D.D.F.F.F.(.(._._.{.{.|.$X$X&X>XwXeXrXaXpXbXmXSXFXFXFXGXGXGXGXSXfXrX<X@X!.r.,.=.J F v z z m m s f a a x x b F H n Z F ( { w.~.1XmXGXKXKXGXZXzXzXAXFXGXGXnX+Xw.o.W W K F F B B b u s p s r r 8 8 8 2 1 < ",
"< < 2 2 5 e r r u p s c z x x b D W ` { w.Y.yXhXDXGXGXGXAXAXZXAXGXGXGXfXOXw.0.0.I I I I K K x u p a a s s s 9 9 z v Z U T  .:.8.S.].&XeXdXbXSXGXzXAXAXFXSXSXSXmXmXbXaXeX1X,X*X*X$X$X|.|.{.`._._.(.F.F.F.F.D.D.D.V.V.V.N.N.N.j.j.h.a.i.7.2.=.Y B u u 8 2 1 1 1 1 1 1 1 1 1 1 1 1 1 1 1 1 1 1 1 1 2 2 1 2 1 1 1 1 2 2 2 2 8 8 8 8 e e r r u i p a x z m n [ I.bXKXAXhXq.I ^ A p f b x f a x H >.b.{.&XwXaXdXrX<X&X|.[.3XCXGXbX[.m.l.f.y.9.<.<.i.l.].&XeXaXrX>X|.'.F.D.N.h.i.>.R H x p r 2 1 , < ; - ; ; - - - - - $ $ $ $ $ $ $ $ $ $ @ @ @ @ @ @ @ @ @ @ @ @ @ + + + + + + + + + + + + + + + + + X X X X X X X X X X X X X X X X X X X X X X X X X X X X X X X X X X + + + + + + + + + + + + + + + + + + + + + + + + @ @ @ @ @ @ @ @ @ @ @ @ $ $ $ $ $ - - - - - ; ; ; ; ; ; ; ; : , 2 e r p F Q :.7.d.C.D.(.{.$X+X0XwX>X$X(.m.a.3.2.:.,.8.s.k.k.~.dXGXbX%X`. X;X8XiXaXrX<X|.S.x.Y H B a i i a x I A S [ P.gXGXGXiXY.{ n l M N g u u u u r 9 8 8 2 2 2 2 2 2 2 2 2 2 2 1 1 1 2 2 2 2 2 2 1 1 1 1 2 2 2 2 2 2 2 2 8 8 e r u x H Y =.:.2.7.i.a.a.a.h.h.j.j.N.N.V.V.V.V.V.D.D.D.F.F.(.(._._._.{.|.|.&X>X,X1X0XrXsXdXbXmXSXGXFXHXHXHXFXSXmXnXtX>X[.^.c.7.=.U Z a t 5 f a a p p s s z V V F Z A I T ! +.P.+XmXFXGXGXGXGXGXFXAXFXFXDXKX+XR.w.{ ( H K D x z p p p s u r e 8 2 1 ",
"2 2 2 e r u u u x N B B F G [ o.{ w.R.uXCXKXGXGXJXDXZXZXFXFXGXKXbX+Xw.{ O.W A v ` J Z v l q d d c c p u q z Z K Q  .<.q.r.!.~.@XwXrXdXmXGXFXAXAXGXGXFXmXbXdXaXaXrXwX<X>X*X%X%X|.|.{.{.{._.(.(.F.F.F.D.D.D.D.V.V.N.N.N.N.j.h.g.g.a.7.2.2.:. .H b u r 8 2 1 1 1 1 1 1 1 1 1 1 1 1 1 1 1 1 1 1 1 1 2 2 2 2 2 2 2 2 2 2 2 8 8 e 8 8 r r r u i a a a Z F ( @.+XCXGXSX~.o.K D v F N 8 u u a z Z Q e._.<XrXsXfXaX<X&X$X~.0XVXLXtX/.m.B.a.3.=.=.2.a.v.S.#X<XrXrX:X$X{.).D.V.N.a.3. .Y F x p r 2 2 , < ; - ; ; - - - - - $ $ $ $ $ $ $ $ $ $ @ @ @ @ @ @ @ @ @ @ @ + + + + + + + + + + + + + + + + + + + X X X X X X X X X X X X X X X X X X X X X X X X X X X X X X X X X X X X + + + + + + + + + + + + + + + + + + + + @ @ @ @ @ @ @ @ @ @ @ @ @ $ $ $ - $ - - - - - - ; ; ; ; ; ; , , : , 8 r r s Z R Q =.7.g.N.D.F.(.|.>X<XwX<X&X_.D.y.a.8.:.:.i.k.k.a.{.dXDXhX3X[.[.$X>XrXaXrXwX&X[.b.<.} H Z B a i c K S D A #.+XSXKXMXR.@.[ F N N a u u u r r 9 9 8 8 8 8 8 2 2 2 2 2 2 2 2 2 2 2 2 2 2 2 2 2 2 2 2 2 2 2 8 8 8 e 8 e y y u x F Y  .=.:.2.3.7.7.i.a.s.g.h.m.N.N.V.N.N.N.V.V.V.D.F.F.F.).(.(._._.{.$X$X&X&X>X>X<XwXrXaXdXmXZXSXAXFXAXAXFXFXSXbXaXwX$X{.n.e.<.| ( V p z z m M M c m i a x K L D S D [ Y J { w.+XbXFXZXDXKXKXGXAXAXAXGXFXmXyX4Xw.] F ] Y F b x x a u r r e 2 ",
"5 e e r u a a c B V G G ` +.T.5XSXFXFXFXAXAXzXAXAXAXAXGXJXjXY.@.Q Q Y U H F B B x c c c x x x N p p x x B J } ..c.A.`.*X1XsXMXDXDXDXDXGXFXAXAXHXSXSXmXbXdXaXrX0XwX<X>X&X$X|.].Q.{.{._._.(.F.F.D.D.D.D.V.V.V.V.N.N.N.h.h.g.a.a.a.i.6.:.:.=.Q H x a u 8 2 1 < 1 1 1 1 1 1 1 1 1 1 1 1 1 1 1 1 1 1 2 2 2 2 2 2 2 2 2 2 2 e 8 e 8 8 r r r i a a x x S o.R.bXGXKXjXK.~ R V f s d z Z y i B E X.e.{.wXqXsXsXaXwX>X$X$XtXSXZX9X^.l.l.c.6.9.0.5.*.g.n.Y.1XtXtX:X#X|._.F.C.N.h.a.2.} J B x p r 2 2 , < ; - ; ; - - - - - $ $ $ $ $ $ $ $ $ $ @ @ @ @ @ @ @ @ @ @ @ + + + + + + + + + + + + + + + + + + + X X X X X X X X X X X X X X X X X X X X X X X X X X X X X X X X X X X X X + + X + + + + + + + + + + + + + + + + @ @ @ @ @ @ @ @ @ @ @ @ @ $ $ $ - - - - - - - - ; ; ; ; ; ; , , ; , 2 r r s b U R  .2.a.j.N.C.H.(. X<XrXrXwX*X_.N.s.y.4.5.7.p.c.N.N.).yXxXxXwX6X`.%X<XqXpXpXaXwX X(.x.=.I Z x a 6 t x U I U ] +.9XGXKXbXR.{ n / a a p u u r r 9 e e e e 8 2 2 2 2 2 2 2 2 2 2 2 2 2 2 8 2 2 2 2 e 5 e e e e e e 8 e y y i x F Y !  .:.2.2.2.3.7.i.i.a.a.s.s.s.s.N.N.N.N.V.V.D.D.D.D.F.F.(.(.(._.|.|.$X$X$X&X&X>X<XwXrXdXbXmXSXSXAXAXAXFXFXFXSXmXnXgX1X X`.G.N.g.| Y H v z z x N P p p p a i f N l D W E U R ..9.E.9XSXFXGXFXDXLXAXAXAXGXGXDXbXdXt.q.] J G G B x s y y e ",
"6 t a B Z Z Z Z E X.w.R.qXmXFXFXGXFXFXFXFXAXAXAXKXnX+XY.q.| Y H U H F b b b v Z g g i i u u u i q m S T ! 2.c.D.OX:XdXmXSXSXSXGXFXFXFXSXmXmXbXdXaXsXtXtXeXwX<X<X*X&X$X$X|. X{.{.^.(.(.F.F.D.D.D.V.N.N.j.h.g.g.s.h.g.g.a.a.i.i.i.2.2.;. .Q Y H H i i y r e e 2 5 1 1 1 1 1 , , , 2 2 2 2 2 2 2 2 2 2 2 2 2 2 2 2 2 5 e y 0 0 9 r q s d h t V R ^ K.8XKXGXbXOXo.v f a a s p a a x f F  .d.G._.$XwXlX9XaXeX>X@X;XsXGXbX#XF.j.d.i.6.,.:.7.h.D.{.>XwXaXrXeX>X$X`.F.D.N.j.a.2. .R H b i r r 8 1 < ; - ; ; ; ; - - - - - - - - $ @ @ $ @ @ @ @ @ @ @ @ @ @ @ @ + + + @ + + + + + + + + + + + + + + + + + + X X X X X X X X X X X X X X X X X X X X X X X X X X X X X X + + + + + + X X + + + + + + + + + + + + + @ @ @ @ @ @ @ @ @ @ @ @ @ @ $ $ $ - - - - - - - - - - - ; ; ; : : < < 1 2 5 e u p b Z R } >.6.i.h.N.V.F.F.{.$X<XwX0X:X'.v.i.u.u.3.7.e.k.B.N.D.*XIXKX7XOX|.%X3XtX8XqXfXaX<X[.n.,.H a h t i a c z b F J O.Y.SXGXFXyXw.R I Z x c d w 9 N e 0 0 0 1 2 e t e e e 2 2 2 2 2 8 8 8 8 8 8 8 8 e e e e e e e e 8 9 r u p x B F Q  . .>.:.2.2.7.i.i.a.a.a.g.h.h.j.N.N.N.N.N.V.V.D.D.F.F.(.(.(._.`.}.}. X$X$X&X&X>X<X<XrXrXaXdXnXSXSXSXSXFXAXAXAXAXFXFXSXmXdX0X+X(.v.8.;.Q A m q a u u u s c a a v b b B B F J Y G ] q.~.2XfXGXGXAXAXFXGXFXFXFXFXFXSXgXR.q.] R Q n v x c ",
"d d m z F [ +.J.8XiXmXFXGXGXGXGXZXFXFXGXKXCXhXyXK.@.{ [ U A S S A Z b x a a a a a a x v v Z H Y ' | <.e.r.Q.|.&XqXpXSXGXFXFXFXGXFXSXmXcXpXiXqX0X<X<X:X>X#X#X#X$X$X|.|.{.{._._.(.(.(.F.F.D.D.V.V.N.N.j.h.g.s.s.s.a.a.a.i.i.7.3.3.:.;.=. .R Y H F u u r r 8 2 2 2 2 2 2 2 1 1 1 1 2 2 2 2 1 1 1 1 2 2 2 2 2 2 8 8 2 8 e e r r i g i i u z D b { 4XmXKXLX8X@.( Z D b b c s s a a x U Q 6.A.{.&XrXnXpXdXrX>X&X1XbXFXsX>X_.V.j.g.a.7.:.2.i.m.F.$X<XrXrXwX<X&X|.(.F.D.N.h.i.:. .Y F b t r 8 2 1 < ; - ; ; - - - - - - - - - - $ @ @ $ @ @ @ @ @ @ @ @ @ @ @ @ + + + @ + + + + + + + + + + + + + + + + + + X + X X X X X X X X X X X X X X X X X X X X X X X X X X X X + + + + + + X X + + + + + + + + + + + + + @ @ @ @ @ @ @ @ @ @ @ @ @ @ $ $ $ - - - - - - - - - - ; ; ; ; : < < < 1 2 5 e u p x Z Y R  .;.7.a.N.N.D.F._.|.>X<XwXwX%X_.v.a.u.3.2.8.a.h.N.M.^.>XdXDXmX:X].{.>XrXrX0XdXrX>X%X'.e.} U b x c s p x b b Z ] P.8XSXGXbXE.#.[ Z z v C a 8 t t r r r e 8 8 e e 8 2 2 2 2 2 8 8 8 8 8 8 8 8 e e e e e e e e 9 9 r u p x B B R Q  . .=.;.:.2.3.7.7.i.a.a.a.a.h.h.j.j.N.N.N.N.V.V.D.D.D.D.F.F.(.(.(._.{.|.|.|.#X&X>X<XwXwXrXaXdXdXbXbXmXSXFXFXGXFXFXFXSXmXbXdXuX1X*X/.n.<...R R U A S v z p p x a f N N B F H K K U Y { @.I.R.SXSXSXSXSXGXKXLXKXFXFXFXFXfXR.@.{ ( N p ",
"p B ) @.I.+XdXSXKXGXGXFXAXAXZXZXGXGXJXhX3XU.o.Y Y H A S S S n n b x x a i i i u v Z I T  .:.8.v.W./.$X,XeXaXdXmXSXGXFXFXFXFXFXSXKXDXMXnXfXtXeX0X>X&X#X$X|.|.|.|.{._._.(.(.(.F.F.D.D.D.D.V.V.N.N.N.h.h.s.a.a.a.a.i.i.7.3.2.2.:.:.=.-. .} Y H F B u u r r 8 8 2 2 2 2 2 2 2 2 2 2 2 2 2 2 2 2 2 2 8 8 8 8 8 8 8 8 w y e e r u i a i a J I I T.CXxXKXbXR.#.B z m n Z v z u u p x F 4.d.A.].#XrXpXcXsXtX,X#XwXMXGXxX{.(.V.j.j.j.a.7.4.3.a.M._.>XwXiXwX<X&X|._.F.D.V.h.s.7.=.Q U F b y e 2 1 , : ; - - - - - - - - - - - - - $ @ @ $ @ @ @ @ @ @ @ @ + + @ @ @ + @ @ + + + + + + + + + + + + + + + + + + + + + + X X X X X X X X X X X X X X X X X X X X X X X X X X X + X X + X X X + + + + + + + + + + + + + @ @ @ @ @ @ @ @ @ @ @ @ @ @ $ $ $ $ $ - - - - - - ; - ; ; ; ; < < < < 1 2 5 e r p x b U Y } =.:.7.s.h.V.D.F._.|.&X<XeXeX&X/.v.a.3.3.3.7.a.h.m.c.r.@XhXGXnX+X~.|.>XeX8XiXiXaXwX*X`.c.1.~ U b s s a x x A A S o.R.bXGXGXjXK.` ~ R b u j i u r r t r r 0 r r 8 e 8 e 2 2 8 2 2 2 2 2 2 2 e e e 8 8 8 8 8 r r u u p x x B U Y R }  . .=.;.:.:.2.2.3.7.i.i.a.a.s.s.g.h.j.j.N.N.V.V.V.V.V.V.D.A.F.F.(._._._.|.|.$X&X#X#X>X:X0XwXrXdXbXmXSXSXDXSXSXFXGXDXDXGXSXmXdXrX>X|.Q.n.x.8.:. .T Z v v a i i a a x x b K S S A A E ' O.o.r.-XkXLXKXAXZXZXAXGXGXGXGXKXLXVXtXR.@.",
"K.I.+XnXGXGXGXGXPXPXHXGXGXGXGXGXhX+XP.{ G H I ^ H F F b x x a f a a a a x x b Z ! ! :.e.n./.$X*XwXrXdXMXDXGXFXFXGXFXAXAXSXmXbXpXfXaXrXeX<X>X>X#X$X$X|.{.{._.`.`.(.(.F.F.F.D.D.V.V.V.V.N.N.N.j.j.s.s.a.i.7.7.7.7.2.2.:.;.-.-.=. . .} ' Y J F B B u u u r r e 8 8 8 8 8 8 8 8 8 8 e e e e e e e e 8 8 8 e e e r r w r r u u s s c q D H +.tXSXZXGX3Xw.G z D L B a v z p s p Z R >.Z.). X>XrXdXdXqXwX>X2X8XSXFXaXR.C.N.N.j.j.g.a.7.u.a.c.^.$X<XrXiX:X>X|._.F.D.V.N.s.i.2.=.Q H b x e 2 1 1 , : ; - - - - - - - - - - - - - $ @ @ $ @ @ @ @ @ @ @ @ + + + + @ @ @ @ + + + + + + + + + + + + + + + + + + + + + + + + X X X X X X X X X X X X X X X X X X X X X X X X X X X X X X X X + + + + + + + + + + + + + @ @ @ @ @ @ @ @ @ @ @ @ @ @ $ $ $ $ $ - - - - - ; ; - ; ; ; ; < < 1 1 1 2 e e r u x b H H R } =.2.i.a.N.V.D.F._.{.&X,XrX<X&X/.v.p.y.y.8.3.i.B.m.c.A.}.uXMXAXpX@X`.*XaXqXdXdXaXwX&X(.h.4.%.U x a s x x K F Z A ` +.+XFXZXLX5X+.J J G a M p u u i u r s r r r r e e e e 2 2 2 2 2 2 2 2 8 8 8 8 8 8 8 8 9 r u u p x x B H J Y R } }  . .=.=.;.;.:.2.2.3.6.7.7.i.a.s.h.h.N.N.N.N.N.j.j.j.V.V.V.D.D.F.(.(._.`.{.{.|.|.$X&X&X>X<XeXrXaXdXdXdXpXbXmXSXSXGXGXzXAXFXGXDXbXsXrX$X|./.n.q.| R Y A v v z p c c c u x b F K H A Z ^ E ` { @.R.dXJXGXGXSXZXZXFXAXxXFXSXmXMX",
"FXGXGXGXGXDXPXNXGXGXGXFXnXyXOXU.' ' ` ` E K F b N N N a a i i i r u x Z A T %.>.x.v.'.$X<XrXdXmXSXSXGXGXFXFXAXAXSXmXbXdXdXaXrXwX:X;X#X#X$X|.[.[._._.(.(.F.F.F.F.F.D.D.V.V.V.N.N.N.N.h.h.g.g.a.a.i.i.7.7.2.2.2.:.;.-.=. . . .} } R R Y J G F B N a a u u r r r r r e r r r r r r r r r r r r r r r r r r r r r r 9 u i a m M M P W G P.mXFXFXbXR.] H v n n x a f a a a x H  .p.C.Q.&XeXaXdXfXtX<X&X0XcXzXZXrX_.N.N.N.m.h.s.7.4.1.a.s.S.[.<XrXaXaX&X$X{.(.D.V.N.j.i.7.;. .R H b x 5 2 1 , , : ; - - - - - - - - - * * * - - @ @ $ @ @ @ @ @ @ @ @ + + @ @ @ @ @ @ + + + + + + + + + + + + + + + + + + + + + + + + X X X X X X X X X X X X X X X X X X X X X X X X + X X X X X X X + + + + + + + + + + + + + @ @ @ @ @ @ @ @ @ @ @ $ @ $ - - - $ $ - - - ; ; ; ; ; ; ; ; , < 1 1 2 2 8 e e r u x b F H Y Q  .;.2.7.g.N.V.D.F._.|.*XwXwX<X&X{.S.c.i.7.3.3.d.d.k.h.h.D.:XAXHXgX.X X>X<XaXdXpXiXwX&X{.Z.8...H B x x x i f B K D K o.P.SXSXGXCXR._ b U D M c x a u r u u r r r r r e e e e e e 2 2 2 2 8 8 8 8 8 8 8 8 9 r u u p x x B F H Y R R Q }  . . .=.>.:.:.:.2.:.:.6.7.7.a.a.a.j.j.j.j.j.j.j.k.m.N.N.V.V.D.D.D.F.F.).(.(._.{.{.{. X$X&X>X<X<X<XwXwXrXdXbXbXvXvXAXAXGXGXGXGXSXSXbXaXwX;X@X~.r.e.5.>.~ T Z b c s a a a a x x b b b B F J ` ] o.<.Y.yXGXGXFXZXZXGXGXGXGXKX",
"GXFXAXAXAXAXGXGXFXbX8XR.w.{ H v ^ ^ D v z x N N a a a s s s m M x F Y } ,.e.A.G.$X&XwXsXbXSXZXAXzXAXAXZXZXmXmXmXdXaXrXwX<X<X>X&X>X&X$X|. X{._._.F.F.F.A.D.V.V.V.V.V.N.N.N.N.j.h.h.g.s.a.i.i.3.3.2.2.2.:.:.;.=.=.=. . . .} Q R R Y Y Y J F F B x x a a p u u r r r r r r r r r r u u u u i i u i r r r r r r r r u a a p q z F ( q.uXGXZXAXjX+.U b b B B x q q m t i N Y  .e.F.}.:XrXdXdXaXeX>X&X-XdXFXAX8Xn.j.N.m.m.p.p.6.2.:.:.s.M.].>XrXaXtXeX$X{.(.D.V.N.k.g.6.:.=.} Y F x p 5 2 1 , 1 , ; ; ; ; - - - - - - * * - - - $ @ $ @ @ @ @ @ @ @ @ @ @ @ @ + + @ @ + + + + + + + + + + + + + + + + + + + + + + + + X X X X X X X X X X X X X X X X X X X X X X X X + + X X X X X X + + + + + + + + + + + + + @ @ @ @ @ @ @ @ @ @ @ @ @ $ - - - $ $ - - - ; ; ; ; ; ; ; ; , 1 1 2 1 8 8 e e r u a x B F J R Q  .;.:.7.s.m.V.D.(.{. X>X<XeXeX,X|.^.v.7.i.i.3.3.a.g.g.N.S.+XNXGXbX>X X&X<XaXdXpXgXqX:X X/.e...Y F b x g s d M F F H E q.:XFXAXZXkXT.} b v z n n p u i u u u u r r r r e e e e e 8 8 8 8 8 8 8 8 8 8 8 8 r u u p x x B F H J Y R R Q }  . . .=.=.:.:.:.:.;.:.2.2.7.7.7.a.h.h.h.h.h.h.k.h.h.j.N.N.N.V.V.V.V.D.F.F.F.F.).).(.`.{.|.$X$X&X=X>X<XeXrXaXiXiXmXmXmXZXzXzXZXAXAXZXvXmXnXsX<X#X`.G.b.,.| Y B x n m s s s s c n x N C n S A I I O.[ { I.qXJXGXFXAXAXAXZX",
"ZXZXAXGXFXFXmXbXt.t.] H H K L L v v m n P N a i q p p p p v S I ..,.e.n./.[.>X<XaXdXmXSXFXAXAXAXFXZXSXmXbXdXaXaXrXwX<X>X>X&X&X&X|.|.{._._.(.F.F.F.F.D.D.V.V.V.V.N.N.N.j.j.h.g.g.a.a.i.i.3.2.2.2.:.:.;.;.=.=. . . . . .} Q R R Y Y Y Y H H F B B x x a a u u u u u u u u u u u u i i i i i i i i r r r r u u u u x x x z x ( @.I.VXmXFXVXI.) A v B x a a x s s d a b R -.x.^.$X>XaXaXaXrX:X#X#X<XNXMXbX<X^.B.j.N.g.s.i.2.:.2.7.p.M._.&XrXaXrX<X&X{._.F.V.N.j.d.y.;.=. .R H B a u 5 2 1 1 1 1 1 , , , , ; ; ; ; ; - - - - - $ @ $ @ @ @ @ @ @ @ @ @ @ @ @ + @ @ @ + + + + + + + + + + + + + + + + + + X X X X X X X X X X X X X X X X X X X X X X X X X X X X X X + + + + X + X X + + + + + + + + + + + + + @ @ @ @ @ @ @ @ @ @ @ @ @ @ - - $ - $ - - ; ; ; ; ; ; ; , , 1 1 1 1 1 8 8 8 e r u a x x B F Y R }  .-.2.7.s.j.V.D.(.`.[.*X<XwXwX<X$X_.m.c.i.2.;.2.i.a.N.j.Z. XbXFXbX<X$X$X>XeXrXrXiXaXwX>X{.v.6.Q H B K M q u f B F A E { K.9XKXLXgX+X+.[ B b n c a a u u u u u r r r r r r r r r r r e e e e e e e e 8 9 u u a x x B F H H Y R R Q } }  . . .=.=.;.;.;.;.;.;.;.:.:.:.3.i.d.d.s.s.g.h.g.g.h.h.h.h.j.N.N.N.V.V.V.V.V.D.D.F.F.(._.`.{.{. X$X*X&X>X>X<X<XrXaXfXnXmXSXGXGXAXAXAXFXFXSXmXbXrXwX&X[.W.e.<.} A Z v z m s p q q d m M n B F G S D D D K o.U.+XbXSXGXGX",
"FXFXFXcX+XP.o.Y H Z v v Z B B x g g i u p p z z z x x B G ' -.9.M.G.}.%X<XrXdXmXZXAXFXFXFXFXFXGXSXSXSXmXbXaXrXwX0X<X<X>X&X$X@X@X X|.{._._.(.(.F.F.F.D.D.D.V.V.V.N.N.j.j.j.h.g.g.i.i.i.3.2.:.:.-.;.=.=.=. . . .}  . .} Q R R Y Y Y Y Y H H F B B x x x p p u u u u u u u i a a a p p p p p p p p u u u u u u u u p x n n ( w.2XJXxXGX5Xq.Y J G B a a s p p a a a F Y >.d.G.%XwXiXdXrXeX<X+X+X0XBXzXMX6Xj.j.D.D.6.g.a.7.4.2.7.c.V.(.|.eXfXdX0X#X[.`.(.D.V.N.h.i.2.=. .Q Y F b p u e 2 1 1 1 2 1 1 , , , , , ; ; ; - - - - - @ @ $ @ @ @ @ @ @ @ @ @ @ @ @ + + @ @ + + + + + + + + + + + + + + + + + + X X X X X X X X X X X X X X X X X X X X X X X X X X X X X X + + + + + + X X + + + + + + + + + + + + + @ @ @ @ @ @ @ @ @ @ @ @ @ @ - - - $ $ - - ; ; ; ; ; ; ; , , 1 1 1 1 1 8 8 8 r r u a x x B F H Y Q  .=.:.2.i.a.j.N.D.F.'.[.#X:XwXrX<X&XG.N.i.7.6.:.2.7.7.k.k.N.~.pXAXAX,X$X@X&X<XwXrXdXpXrX,X`.Z.2.' J A F V g i d B G b S E +.+XFXGXxXuXY.{ F n x a a p u u u u u r r u u u r r r r r e e e e e e e e 8 9 u u a x B B Z H H U Y R Q Q Q }  . .=.=.;.;.;.;.;.;.-.-.-.-.2.3.7.i.i.p.s.s.h.h.g.h.h.h.j.j.N.N.N.N.m.m.V.V.V.V.D.D.F.F.S.^._.{.{.|.|.|.$X%X>X>XwXqXiXdXbXmXSXGXFXFXFXAXAXAXFXSXbXsX3X-X`.A.e.<.| G B N x x B B x p u u i s x B G G F Z H Y [ @.4XgX",
"jXR.@.[ K K K G t a a x x x c a b x i i i a b Z A T  .6.x.A.(.{.;X:XrXaXbXvXZXAXFXFXFXFXAXAXZXZXSXZXvXbXdXrXwXwX<X<X>X&X&X$X|.|.{.{.{._.(.(.(.F.F.F.D.D.V.V.N.N.h.s.s.i.i.i.7.7.2.2.:.:.;.-.-.-. . . . . . .} } } Q Q Q R R R R H H H H F F B b a a i i i i i r x a a a a p u u u u u u u u u u x u r i i u z F N n E q.OXSXGXxXhX!.] K K b x M I v u t t i N F %.2.b.{.<XaXpX9X8XaXrX|.}.5XFXzX5X}.M.h.j.k.d.8.6.2.y.u.u.p.A._.#XwXfXdXwX&X{.`.F.D.V.h.a.i.4.;.! Q Y H F x a u 2 1 1 1 , , , , ; ; ; ; ; ; - - - - $ $ $ @ @ @ @ @ @ @ @ @ @ @ + + + @ @ @ @ + + + + + + + + + + + + + + + + + X X X X X X X X X X X X X X X X . . . . . . . . X X X X X X X X + + + + + X + + + + + + + + + + + + + + + + + + @ @ @ @ @ @ $ $ $ @ @ * - - - - ; ; ; ; ; : < < ; ; < 1 2 2 2 2 8 8 e r r u a a x B B H Y R ' } 1.2.7.p.h.N.V.V.A.F._. X$X>X0XqX&X].v.h.u.3.:.,.3.u.k.k.N./.wXLXGXrX{.{.&X;X:X3XiXaXrX<X|.S.c.y.Y F x a s x b Z f x n K [ @.8XKXzXGX3Xq.T I H B Z n c t e t g f i i a a a p u u u r r 8 8 8 e e 2 2 8 e r i a x F F F H U T T T R R R R Q } } }  . . .=.=.=.=.=.=.;.;.;.:.2.2.2.3.7.7.7.i.i.i.i.j.j.j.j.N.N.N.N.V.V.V.V.V.D.D.D.F.F.(._.{.|.$X&X$X&X>X<XwXrXrXaXdXbXmXmXSXSXFXFXFXFXFXFXSXmXbXpX$X{.S.x.:.~ I S i a a a p p a a v z z a a x b B b B C C ",
"_ _ N x v b x p x x x x a a i u a a a z b Z T Q ,.e.n.^.|.&X1XtXaXdXnXmXSXFXAXAXFXFXFXSXSXSXSXSXSXmXbXdXsXtXeX<X>X&X&X$X|.|.{.{._._.(.(.F.F.D.D.D.D.V.V.N.N.N.j.a.a.a.i.7.7.3.2.:.:.:.;.-.-.-.=. . . . . .} } } Q Q R R R R Y Y J H H H F F B b x x x x x a a a x x x a a a a a p u u u u u u u q c a u a V B z J ) @.8XKXGXnXjXw.{ Z v b N x a a a i s c b H Q ,.n. X>XwXrXaXsXwX>XOX+XdXSXmXiX}.F.M.N.j.g.7.2.2.2.3.a.c.A.{.*XwXrXsXrX;X[._.F.D.V.m.s.a.3.;.=.Q R Y H B x u u 2 2 1 1 , , , , ; ; ; ; ; ; - - - - $ $ $ @ @ @ @ @ @ @ @ @ @ @ + + + @ @ @ @ + + + + + + + + + + + + + + + + + X X X X X X X X X X X X X X X X . . . . . . . . X X X X X X X X + + + + X X + X + + + + + + + + + + + + + + + + @ @ @ @ @ @ $ $ $ @ @ * - - - - ; ; ; ; ; ; ; ; : ; < 1 2 2 2 2 8 8 e r r u a a x B B H Y Y R } ;.:.3.i.s.h.N.V.D.F.(.{.$X>X<XrX<X$X_.A.s.3.2.:.8.i.g.g.h.v./.=XFXDXhX=X]. X&X<XrXrXaXrX<X[.^.A.:. .U b x a a a N B n S F [ w.Y.GXSXKXCXY.{ U D F b x a a s s d i i i i p u u u s u u r r r e e e e e r u p x x B B F H H U T T R R R R Q } } }  . . . .=.=.=.=.=.=.;.;.;.:.2.2.2.2.2.3.7.7.i.i.g.g.g.g.h.h.h.h.N.N.N.N.V.V.V.V.D.D.F.(._.{.{.|.|.|.$X#X>X<XwXwXrXaXdXbXbXmXSXFXSXAXFXFXFXSXSXmXbXaX<X$X/.n.e.<.U H Z v z z z a a a i i i a p z p a a i ",
"r u p c C N a a v z p i i i u u u z Z T ~ ;.8.H. X%X,XeXsXdXcXvXmXSXGXGXGXFXFXFXFXFXSXSXmXmXbXbXdXaXrXrXwX<X>X&X$X|.|.{._._.(.(.(.(.F.F.D.D.D.V.V.V.N.N.m.h.s.s.i.i.i.3.2.2.2.:.;.;.;.=.=.=. . . . . . .} } Q Q R R R Y Y Y Y Y J H H H F B B b Z Z Z b b n n n x x x a a a a a p p p p p p p p s 9 p B F b B K o.OXSXAXAXhXT.o.F Z b x x f a i t t a n I ~ :.x.!.@XtXsXrXwXwX<X&X XR.lXGXFX<X).M.M.N.j.k.y.2.:.3.3.i.v.^.|.>XtXaXrXwX#X[./.F.D.V.N.s.a.3.;. .} R R H F B x u r 2 1 1 1 1 , , , ; ; ; ; ; - - - $ - $ $ $ @ @ @ @ @ @ @ @ @ @ @ @ @ @ @ @ @ + + + + + + + + + + + + + + + + + + X X X X X X X X X X X X X X X X . . . . . . . . X X X X X X X X + + X X X X X X + + + + + + + + + + + + + @ @ @ @ @ @ @ @ @ $ $ $ $ @ * - - - - - - - ; ; ; ; ; : < < 1 2 2 2 2 8 8 e r r u a a x x B F J Y R R  .=.:.7.a.g.j.N.V.D.F._.{.$X>X<XeX1X$X{.A.p.3.3.<.,.2.i.g.h.m.C.>XbXGXNX>X{.|.#X>X<XrXaXaXwX#X$XA.x.:.~ A x i t x x b S Z A Y | w.hXKXZXAXgXw.X.F F H H b p q d u u u i u u u u p p u u u u u r r r r u u a x x B B F F H H Y Y Y Y R R R Q Q }  . . . . . .=.=.=.=.=.;.;.;.:.:.2.2.2.2.3.3.3.3.7.i.i.a.a.a.a.g.j.j.j.N.N.N.N.N.V.V.V.D.F.F.(.(._._.{.|.$X#X#X>X:X<XwXrXaXdXdXbXmXSXSXFXFXGXDXDXFXFXmXdXwX&X|.].Z.8.-.Q U A v z u i t t t u u u u u r 8 ",
"0 w y s u u u u z p u r r a Z H F R -.7.x.S.}.-XwXaXdXmXSXZXzXxXAXAXFXFXFXFXFXFXSXSXmXbXdXaXrXrX<X<X>X#X$X$X|.{.{._._.(.(.F.F.F.F.F.D.D.V.V.V.N.N.j.j.h.s.a.a.i.3.3.3.2.2.:.:.;.-.-.=.=. . . . . . . .} } Q Q R R R Y Y Y Y J J H H H H F B B b b b b b b b b x x x x a a a a a a a p a a a x x g i z K H b ] T.hXmXGXGX8X{ F R S P P x a a a a i a v I ! 8.W. XwXrXrXrXtXeX>X$X$X<XmXHXDX<X(.N.N.j.j.g.a.3.2.6.i.p.v.^.$X<XrXaXrXwX#X[./.F.D.D.N.h.a.3.;. .} R Y U F F x a u r 1 1 1 1 1 , , ; ; ; ; ; - - - - $ $ $ $ $ @ @ @ @ @ @ @ @ @ @ @ @ @ @ @ @ @ + + + + + + + + + + + + + + + + + + X X X X X X X X X X X X X X X X . . . . . . . . X X X X X X X X + + + X X X X X + + + + + + + + + + + + + @ @ @ @ @ @ @ @ @ $ $ $ $ @ - - - - - - - - - - ; ; ; < < 1 1 2 2 2 2 8 8 e r r u a a x x B F H Y Y R }  .-.2.i.a.j.j.N.V.D.F._.{.$X&X<X<X<X>X{.A.s.d.2.:.:.7.p.k.k.l.m.~.pXGXFXwX[.]. X&X<XrXiXaXwX<X X_.A.7.=.U C s a a x n S S S I ^ ` I.SXFXGXmXE.o.[ A I I v a f a a u u u u u u p p p a a p p p i u u p a x x x B B B F H H Y Y Y Y Y R R R R R } } }  . . . . . .=. .=.=.;.;.;.2.2.2.2.2.2.2.3.2.6.7.7.i.i.a.a.j.h.j.j.j.j.N.N.N.N.N.V.V.V.D.D.F.F.(._._.{.|.|.$X$X&X>X:X<XwXrXdXbXmXSXSXFXHXFXzXZXZXbXsXeX>X&X%X}.n.e.,...R T v v p p s y y y r r e 5 ",
"8 8 8 e 8 8 0 w u r r u x U =.4.e.n.).{.|.#XwXrXpXcXmXSXFXFXFXFXAXAXAXFXSXSXmXmXbXdXiXrXwX:X>X#X&X$X|.|.{.{._.(.(.(.(.(.F.F.D.D.V.V.V.N.N.N.j.j.j.j.g.a.a.i.7.7.3.2.2.2.:.;.;.-.-.-.-.=. . . . . . .} } Q R R R R R Y Y Y Y J J J H H H F B B b a x a a a a a a a a a a a a a a a a a a x x x x f C S Z Y w.+XgXFXGXbXU.] W K f m n x i u p c m S A T =.e./.>XrXaXaXrX:X2X>X&X$X9XSXGXmX=XG.N.N.N.j.g.a.3.2.2.6.s.v.'.$X<XrXaXaXwX>X|.(.G.G.V.N.h.a.7.:.=.} ' Y J H F b x a r 8 1 1 < , ; ; ; - - ; ; - - - - - $ $ $ $ - @ @ @ @ @ @ @ @ @ @ @ @ @ @ @ @ @ @ + + + + + + + + + + + + + + + + + X X X X X X X X X X X X X X X X . . . . . . . . X X X X X X X X X X X X + + X X + + + + + + + + + + + + + @ @ + @ @ @ @ @ @ $ $ $ $ $ - - - - - - - - - - ; ; ; < < 1 1 2 2 2 2 8 8 e r r u a a x x b F H J Y R ' } ..:.2.i.a.j.N.N.V.D.F._.{.|.#X:XwXwX&X{.F.m.f.u.3.7.7.i.a.k.l.h.{.dXGXZX8X=X_.{.$X>XwXrXrXeX<X&X{.S.p.=.U Z P x a N B b b v M L ` w.uXSXZXGXuXI.] I ^ W B f x a a a p u u u p p x x x x x x a a x x x x b b B B F F H H J Y Y Y Y Y R R R R } } } } } }  . . . . . .=.=.=.-.:.2.2.2.2.2.2.2.6.6.6.7.i.a.a.a.h.h.h.j.h.j.j.j.N.N.N.N.N.N.N.N.D.D.D.F.(.(.(._.{.|.|.$X$X&X&X>XwXwXrXdXbXbXmXvXvXmXmXMXnXfXfXsXwX<X#X[./.^.v.x.>.! I A z u y 8 9 8 8 5 ",
"8 e e e e r y d e r p v U =.p.M.(.{.&X<XrXaXcXvXZXHXHXAXSXSXSXDXFXSXmXbXdXdXaXrXwXwX:X>X&X$X$X|.{.{._._._.(.F.F.F.F.F.F.D.D.D.D.V.V.N.N.N.j.j.j.s.a.a.i.7.7.3.2.2.2.:.:.;.-.-.-.-.-... . .} } } } Q Q Q R R R R R R R Y Y Y Y Y J H H H F B B b a i i i i r r r a a a a a x x x a a x x x b b b M m F { Y.hXGXGXGXE.#.X.^ D a _ z a a a p m v v ! >.9.n.|.<XaXiX0XrXtX;XOX@X:XeXzXFXdX|.V.j.N.N.h.a.y.y.3.2.2.3.v.^.$X<XrXaXrXwX>X$X_.F.G.C.N.g.a.i.2.-.} ' Y J F F b x a u r 8 1 < , ; ; ; - - - ; - - - - - - $ - $ $ - @ @ @ @ @ @ @ @ @ @ @ @ @ @ @ @ @ @ @ + + + + + + + + + + + + + + + + X X X X X X X X X X X X X X X X . . . . . . . . X X X X X X X X X X X X + X X X + + + + + + + + + + + + + @ + + @ @ @ @ @ @ $ $ $ $ $ - - - - - - - - ; ; ; ; ; < < 1 1 2 2 2 5 8 8 e r r u a a x x B B F H Y Y ' ' } -.:.3.i.a.h.m.V.V.D.(._.{.@X#XwXwX<X$X_.S.k.k.y.2.2.:.6.p.N.k.k.S.8XGXGXdX$X|.[.|.&X,XeXeXqXwX>X|.(.x.=.~ K b z a f f a a g B W ^ R Y.CXzXKXSX2Xw.[ Z S A b b x x a a p i p p a x x x x x x b B B B B F F F F F H H J J Y Y Y Y Y Y R R R R R R } Q } } Q } }  . . . .=.=.:.:.:.:.2.2.2.6.6.6.6.7.7.i.i.i.s.h.h.h.h.h.j.j.h.h.j.j.j.j.N.N.V.V.V.D.D.F.F.F._.`.{.{.{. X|.$X@X#X>X<XwXrXaXdXbXbXmXSXSXSXSXFXmXbXdXaXrX<X&X|.G.Z.8.-.R Z p 9 9 9 8 8 ",
"8 2 2 2 8 8 8 9 p b U ! :.p.A._.$X&XwXdXmXSXFXFXGXGXGXFXSXmXbXbXbXdXaXrXrX<X:X;X&X&X&X$X|.|.{.{._.(.(.(.F.F.D.D.F.F.F.D.D.V.V.V.N.N.N.N.N.j.j.k.i.i.7.7.6.2.2.2.:.:.;.;.-.=.=. . . . . .} } } } Q Q Q Q R R R R Q Q R R R R Y Y J H H H F F B b a a a a u u u r a a a a a x x x x x x x B F F F W [ @.+XJXGXSXmXP.+.G z v K C 9 c x f N c v I } 8.v.{.&X<XrXrX0X:XwX1X&X@X:XpXSXFXrX{.V.N.j.h.d.i.3.2.6.6.7.i.s.S. X>XrXrXwX<X&X X{.(.D.V.N.h.a.i.2.-.} ' Y J H B B x a a u 9 8 1 1 < < ; ; ; - - - - - - - - - - - - - - $ @ @ @ @ @ @ @ @ @ @ + + @ @ @ @ @ @ + + + + + + + + + + + + + + + + X X X X X X X X X X X X X X X X . . . . . . . . X X X X X X X X + X + + + + X X + + + + + + + + + + + + + + + + @ @ @ @ @ @ $ $ $ $ $ - - - - - ; ; ; ; ; ; ; ; < < 1 1 2 2 2 2 8 8 e r r u a a a x x B F H U Y Y R }  .=.:.3.7.h.h.N.V.D.F.(.(.{.$X>X:X<X<X&X|.D.m.a.3.2.2.6.8.s.k.k.g.A.1XMXGXdXwX@X{.{.$X<XwXrXrXwX>X$X^.v.7.=.T A b x x f N V B z S W J +.5XSXGXLXgXI.#.' ^ F F b b x x a a a a a a x x x x B B F F F F F H J J H H H U Y Y Y Y Y Y Y Y Y Y R R R R R Q Q Q Q } } }  . . . .=.-.;.;.;.:.:.2.2.2.2.3.7.7.7.7.i.i.d.a.a.s.g.g.s.s.s.g.h.j.j.j.N.N.N.V.V.D.D.F.F.(.(._._._.{.{.{.|.|.&X>X<X<X0XrXaXdXmXmXSXSXFXDXGXGXSXmXbXaXrX1X&X[.W.e.<.} R b x u 9 ",
"0 8 1 4 3 y i i F E 0.z.Z.S.{.$X<XwXpXvXZXAXFXFXSXSXSXSXvXcXpXdXsXrXrXwX<X>X>X&X*X%X$X X{.{._._.(.(.(.F.F.F.D.D.A.D.D.V.V.V.V.V.N.N.j.j.h.h.g.g.7.7.6.6.2.2.:.:.;.;.=.=.=. . . . . . .} } } R R Q R R R R R R R } Q Q Q R R R R J H H H F F B b c c c a p p u u p a a a x x N B N N N B F F H H ..=XMXGXGXDXE.#.~ I m V k g z / m p i N n A ..b.W.|.<XrXrXrXeX3XwX<X&X$X>XdXFXHX3X/.v.N.B.h.i.8.7.6.:.,.:.7.h.C.{.*XeXrXwX<X&X X'.(.D.V.N.j.h.d.3.:. .} ` Y J H B B x a u y 8 8 1 < < < : ; ; ; - - - - - - - - - - - - - $ @ @ @ @ @ @ @ @ @ @ + + @ @ @ @ @ @ + + + + + + + + + + + + + + + + X X X X X X X X X X X X X X X X . . . . . . . . X X X X X X X X + + + + + + X X + + + + + + + + + + + + + + + + @ @ @ @ @ @ $ $ $ $ $ - - - - - ; ; ; ; ; : : < < < 1 1 2 2 2 2 8 8 e r r u i a a x x B F H H U Y R }  .=.;.2.2.a.h.m.V.V.D.F.(._.|.$X#X2XeX<X>X|.^.v.d.z.4.3.7.y.p.M.V.j.m.OXxXGXMX:X{.`.|.#X:XwXwXrXwX<X%X'.S.d.3.! E S m c x A A C N a F } =.L.8XGXGXFXtXr.Q H H F b b x x x f f a a x x x x F F F F H K K K U U U Y Y U Y Y U Y Y Y Y Y Y Y Y R R R R R Q Q Q Q } }  . . . . .=.=.=.;.;.:.:.3.3.3.2.2.2.6.6.i.i.i.i.a.a.a.a.a.a.a.a.s.g.j.j.j.N.N.N.V.V.V.V.F.F.F.F.^.^.^./.{.{.{.|.$X=X#X>X2XyXyXgXgXdXbXbXvXSXSXFXFXSXZXZXbXaXwX&X X).Z.p.W K b p ",
"< < 2 8 9 u x F 1.i.b.n.Q.OX;XwXpXcXmXFXFXFXSXZXmXmXmXbXbXdXdXdXrXrXwXwX:X;X#X@X|.|.|.{.{._._.(._.(.(.F.F.D.D.D.V.V.V.V.N.N.m.m.k.k.h.a.a.i.7.7.:.:.;.;.;.-.-.-.=.=. . . . .} } } } } Q R R R R R ' Q } }  . . .R R R ' R ' R R R R Y J G F B B x x x x x x c c N N a s s p c B _ N x n S H ..r.lXzXGXGXaXU.| U K K B x a a a x i a a B Y ,.A.(.#X<XtX8X8XwXwX>X&X%X.X+XSXKXVX4XD.V.N.m.s.p.i.3...-.4.u.u.s.M.S.;XwXtXtX<X#X|.{.F.D.V.N.j.s.i.2. .X.Q R Y H H F F B x a i r e e 1 < < ; ; ; ; ; - - - - - - $ $ $ - $ $ - $ $ @ @ @ @ @ @ @ @ @ @ @ @ @ @ @ + @ + + + + + + + + + + + + + + + + + + + + + + + + X X X X X X X X . . . . . . . . X X X X X X X X X X X + + + X X + + + + + + + + + + + + + + + + @ @ @ @ @ @ $ $ $ $ $ - - - - - ; ; ; ; ; , , , < < 1 1 2 2 e e e e r r t i i i x x x B B B F F Y Y R } }  .-.-.i.a.g.j.N.V.D.F.F.(.{.|.&X>X<XwX&X{.S.m.a.u.3.2.,.7.a.j.j.N.C.G.sXGXGXcX@XF./.[.>X<X0X0XyXeX<X@X].S.8.;.~ I F N f a x x b F F G A q.=XSXGXGXlXUX;.=.T S x C V N N x c c c B F F Z F B B F F J Y F F F H H J Y Y Y Y Y Y Y Y Y Y R R R ' R ' ' } Q Q R } } } } } } }  . .=.=.=.=.;.;.:.:.2.6.6.6.2.2.2.7.7.i.p.d.h.h.g.g.g.g.g.g.h.h.h.j.j.N.N.N.V.V.V.D.D.D.D.D.F.(.(._.{.{.|.|.$X$X&X>X<XwXwXrXaXsXfXbXmXSXGXGXHXZXvXpXaXwX;X#X/.n.x.3.",
"8 r a x F Y ..-.n.^..X=X>XwXdXnXmXSXFXFXFXSXmXvXbXbXdXdXaXrXrXwXeX<X>X>X&X$X|.|.{.{.{._._.(.(.(.F.F.F.D.D.D.D.D.N.N.N.N.m.h.h.h.g.g.a.i.i.3.2.2.:.;.;.;.;.-.-.-.=. . . . . .} } } } Q } R R R R ' Q Q } } }  . .Q Q R R R R Y Y R R R Y G G G B x a a p p a u a x a u i a N b x z n W I Y @.OXhXGXGXBX+Xw.( F K v b x x a a a x z b F ' <.b.`. XeXrXaXqXqX<X*X X X#XqXSXGXdX#X_.V.N.h.s.a.7.2.2.-.;.1.3.i.M.(.{.wXeXtXeX>X|./.(.F.D.V.N.g.a.3.:. . .Q R U H F F B b x a u r e e 1 1 < ; ; ; ; ; - - - - - - $ $ $ $ $ $ - $ @ @ @ @ @ @ @ @ @ @ + + @ @ @ @ + + + + + + + + + + + + + + + + + + + + + + + + + + X X X X X X X X . . . . . . . . X X X X X X X X X X X X + + X + + + + + + + + + + + + + + + + + @ @ @ @ @ @ @ @ $ @ $ $ - - - - - - ; ; ; ; , , : < < 1 2 8 e e r r r r i i a a x x x B B F F F Y Y R } }  .=.-.3.y.a.g.j.N.V.D.F.(._.{.$X>X<X<X>X$X_.F.Z.s.y.3.2.2.i.a.g.s.m.C.].wXSXFXiX#X[./.[.$X>X<XwXrXeXeX$X{.n.p.:.~ U H b b x x B F F F W ` { I.gXLXKXmXIXI.( Y ^ W v x x B B x x z b B Z b B B F F J Y H H H H J Y Y Y Y Y Y Y Y Y Y Y Y Y Y Y R R R R R R R R } } } } } }  . . . .=.=.-.;.;.:.:.2.6.6.2.2.2.2.6.7.7.7.a.a.a.a.a.a.a.s.s.g.g.h.j.j.j.j.N.N.V.V.V.V.D.D.F.F.F.(.(._.{.{.|.|.$X$X&X>X<X<X0XrXaXdXdXbXmXSXSXSXSXmXmXnXsXrX<X&X[.^.",
"z Z ` ..<.b.S.).;X<XrXdXbXmXGXGXGXGXFXFXSXmXbXpXdXdXaXrXwX<X>X>X%X X{._._._.(.(._._.(.(.(.F.F.F.D.D.D.V.V.N.N.N.h.h.s.s.s.a.a.a.i.y.3.3.2.:.;.;.;.;.;.-.=.=.=.=. . . . .} } } } R } R Q R R R R Q Q Q Q } } }  .Q Q R R R Y Y Y R R Y H H F B B a a a i i i u i q s a f a x b F D D I } U.hXKXxXKXqXP.{ H v v n z x x a a x x b H R -.9.n.{.*X1XtXrXrXrXrX>X-XXX%XrXFXGXgX~.D.V.N.h.s.a.7.2.:.;.2.1.1.7.v.^.$X>XeXwX<X>X$X_.S.F.V.V.m.g.a.3.:.=. .} Q R U H F F b b x a u r e e 1 1 1 ; ; ; ; ; ; ; ; - - - - - - - $ $ - $ @ @ @ @ @ @ @ @ @ @ + + + @ @ @ @ + + + + + + + + + + + + + + + + + X X + + + + X X X X X X X X X X . . . . . . . . X X X X X X X X X X X X + + + + + + + + + + + + + + + + + + + + @ @ @ @ @ @ @ @ @ @ @ @ @ - * * - - - ; ; ; ; ; ; ; < 1 2 e e e r r u u a a a x x x N B B F F F Y Y R R }  . .=.;.2.3.a.h.N.V.V.D.F.(._.|.$X>X>X0X>X$X{.(.M.a.3.4.1.3.7.7.i.a.j.g.(.<XmXHXvX<X{.oXoX$X>X<X<XwXtX<X>X$X/.n.8.=.~ A Z b N N B B b H Z b J +.OXnXGXxXGXuXw.T I ^ D H F b b B B c p Z b B B B F H H Y Y Y Y Y Y Y Y Y Y Y Y Y Y Y Y J Y Y Y Y Y R R Q Q R Q Q Q Q Q } } }  . . . . .=.=.-.-.;.:.:.:.:.:.:.:.2.2.2.2.3.3.7.7.i.i.i.i.a.a.a.a.g.g.g.h.j.N.N.N.N.N.V.V.V.V.D.D.F.(.(._._._.{.{.|.$X&X&X>X:XwXrXaXaXdXbXmXmXSXSXSXSXSXmXbXdXaXeX",
"Q -.e.n.].$X>X<XpXbXmXSXFXFXFXGXSXSXSXSXmXbXdXaXrXrXwX<X>X&X$X|.(.(.S.F.F.F.F.F.(.(.F.F.F.D.D.D.V.V.N.m.h.s.a.a.a.a.a.i.i.7.7.3.2.2.2.:.;.=.=.=.-.-.=.=. . . . . . .} } } } } ' R R R R ' R R R Q Q Q Q } } } } R R R R R Y Y Y Y Y U U H F F F B N x x a a a a s a x N B F F A ^ H +.uXJXvXlXKXOXw.( Z D P n x a a a a x x Z H =.6.b.G. X>XwXrXqX0X<XwX<X#X@X=XhXDXGXpX~.H.N.N.h.g.d.i.3.2.:.-.3.3.7.b./.&X<XrX<X>X@X[._.(.D.V.N.m.g.a.7.2.-. .Q Q R Y H F F B b x x a u r e 8 2 2 1 < , ; ; ; ; ; ; - - - - - - - $ $ - @ @ @ @ @ @ @ @ @ @ @ + + + @ @ @ @ + + + + + + + + + + + + + + + + + X + + + + + X X X X X X X X X X . . . . . . . . X X X X X X X X + + + + + + + + + + + + + + + + + + + + + + + + @ @ @ @ @ @ @ @ @ @ @ @ @ * * * - - - - ; ; ; ; ; ; < 1 2 e e e u u u p a x x x x x b B B F F H Y Y Y R }  . . .-.;.2.i.a.j.N.N.D.D.F.(.{.|.$X&X:X:X<X&X|.F.c.y.u.3.2.6.6.7.a.g.g.j.D.#XvXGXmXwX.X]._.|.$X&X;X0XeXwX<X&X{.n.8.1.~ T K B N N b Z b F L D Z { I.wXAXFXSXfXR.+.R E I H H F F B x a b b b B B F F H Y Y Y Y R R R R Y Y Y Y Y Y Y Y J Y Y Y Y Y R R R R R Q Q Q Q Q } } } } }  . . . . .=.=.-.-.-.;.:.;.;.;.:.;.:.:.:.2.2.2.3.7.7.7.i.i.i.i.a.a.a.a.h.h.h.j.j.j.N.N.N.N.V.V.D.D.F.F.).(.(.(._.{.{.|.>X>X>X<X<XwXwXrXaXaXdXbXSXSXSXSXFXSXmXmX",
"v.S.}.>XwXaXdXbXSXSXFXFXAXZXZXZXSXmXmXbXdXaXrXrX<X:X>X$X|.{._._.(.^.S.S.F.(.(.(.F.F.F.D.D.V.V.V.m.h.g.a.a.y.y.y.i.i.i.3.3.3.2.2.:.:.:.:.=.=. . .=. . . . . . . .} } } Q ' ' ' ' R R R R ' } } } } } } Q } } } } R R R R R R Y Y R R R Y Y Y J J H H H F Z Z b b P x p z F K K Z ' OXVXxXAXLXhXU.] ` J F x p a N a a a p x F Y } 8.v.).|.>X<XrXqXrXwX,X-X$X@X0XbXGXGXrX{.C.B.N.m.a.a.i.3.4.2.:.:.a.p.A.].*XeXrXrX>X$X[./.F.D.V.V.m.g.a.7.2.;. .} Q R R U H F B B x x a u u r e 8 2 2 2 1 < < < : ; ; ; ; - - - - - - $ $ $ @ @ @ @ @ @ @ @ @ @ @ @ @ @ @ @ @ @ @ + + + + + + + + + + + + + + + + X X + + + + X X X X X X X X X X . . . . . . . . X X X X X X X X + + + + + + + + + + + + + + + + + + + + + + + + @ @ @ @ @ @ @ @ @ @ @ @ * * * * $ - - - ; ; ; ; ; ; , 1 2 e e r u u u a x x x b x N B B F F H H J Y Y R Q }  . ...-.:.3.a.g.N.N.V.V.D.F.(.{.|.%X;X:X<X<X&X{.S.Z.g.i.2.2.2.2.y.g.x.g.f.V.@XpXSXDXrX#XQ.).`.}.#X:X<XwXwXwX>X|.S.v.6.-.R F b b v Z B F K S Z J ] o.,XrXSXGXGX8XP.o.A E E E Z x N C Z Z b b B F H H Y R R R Q } } } R R R R R R R R Y Y R R R R R Q Q Q Q Q Q } } }  . . . .} } } } }  . . . . .-.-.-.-.-.;.;.:.:.:.;.;.:.2.2.2.2.2.7.i.i.i.a.a.a.a.a.a.g.h.j.j.j.j.N.N.N.N.V.V.D.D.F.D.D.F.F.(._._.$X$X&X&X&X>X>X<X<X<XrXaXdXcXcXvXSXSXSXSX",
"$X>XeXdXmXZXZXAXGXGXGXGXSXmXvXcXbXbXdXaXrXwX<X<X&X&X$X|.{._.(.(.`.(.^.(.F.F.F.F.D.D.V.V.m.m.h.h.a.a.i.i.y.3.3.y.3.3.3.2.2.2.2.2.:.:.:.-.=. . . . . . . .} } Q Q R R R R R R ' ' R R R R Q } } }  .} } Q } Q Q Q R R R R R R R Y R R Y Y Y Y Y J Y Y U H H H H A x F H F Z G { +.hXbXZXGXHX+Xq.%.W S b B f a a N a a x b H R -.8.A.(.|.>XwXwXwX0XwX>X*X-X=XwXmXGXFX0XS.B.l.j.s.x.7.7.3.4.1.2.7.8.v.S.{.>XeXeX<X<X&X|._.(.D.V.V.N.h.d.i.2.:.-. .} Q R Y H F B B x x x a a u r r 8 5 2 2 2 1 1 < < ; ; ; ; - - - - - - $ $ $ @ @ @ @ @ @ @ @ @ @ @ @ @ @ @ @ @ @ @ + + + + + + + + + + + + + + + + X X + + + + X X X X X X X X X X . . . . . . . . X X X X X X X X + + + + + + + + + + + + + + + + @ @ + @ + + @ @ @ @ @ @ @ @ @ @ @ @ @ @ * - * * - - - ; ; ; ; ; ; , 1 2 2 e e e r u u p a x x x x b B B F F H H J J Y R R } }  . . .;.2.7.a.h.h.N.N.V.D.F._.{.{.#X#X<X<X<X&X X_.M.c.7.7.2.2.3.y.9.a.k.l.m.~.qXGXFXdX#X'.'.'.|.$X#X>XwXrXwX>X$X{.v.e.,.} U H F Z b b b F H K K S ! oXhXZXzXGXMX:X+.{ H A E E G B H F F F F H U U R R R Q }  . . .} } } } } } } } ' ' ' } Q } } } Q Q Q Q Q  . .}  . . .} } } } } } } } }  . . . . . .-.-.-.-.:.:.;.:.;.:.:.:.2.2.3.3.7.7.i.i.a.a.a.a.a.a.g.h.j.j.j.j.N.N.N.N.V.V.V.V.D.D.D.F.F.F._._.{.|.|.$X$X&X*X,X,XwXwXrXaXaXbXmXMXDX",
"sXdXmXSXFXAXAXHXDXDXSXmXmXbXdXdXaXaXrXwX<X>X#X#X$X$X|. X{._._.(.(.(.S.S.F.F.V.V.V.V.N.m.h.g.s.a.a.i.i.7.3.3.3.4.2.2.2.2.:.:.:.:.-.-.-.-.=.=. . . . .} Q Q Q Q R R R R R R Y Y Y Y R R R Q } } }  . .} } } Q Q ' Q Q R R R R Y Y Y Y U Y U U U U Y Y H H H F F F b J O.' [ +.R.hXFXKXLXyXP.] H I K b u p N N x x x x B U } 6.v.D.{.$X>XwXrXwX<X<X&X#X#X;XrXMXDXSX>X^.h.k.B.h.7.7.2.2.3.3.3.p.m.D._.|.>XwXwX<X>X$X|.{.(.D.V.N.N.N.d.i.2.:.=. . .Q R Y Y H F b x x x a a a u u r r 5 5 2 2 2 1 1 < , , ; ; - - - - - - $ $ $ @ @ @ @ @ @ @ @ @ @ @ @ @ + + @ @ @ @ + + + + + + + + + + + + + + + + X X X + + + X X X X X X X X X X . . . . . . . . X X X X X X X X + + + + + + + + + + + + + + + + @ @ @ @ + + + + @ @ @ @ @ @ @ @ $ @ $ $ - - - - - - ; ; ; ; ; : < , < 1 2 e e e r r u u a a x x B B B F F H H H J J Y Y R Q } }  . .=.:.2.i.a.a.j.j.N.V.D.F.(._.|.|.&X>X1X,X&X$X_.S.c.a.y.3.2.2.3.7.c.h.f.g./.<XGXDXhX<X[././._.$X&X;XwXwXwX<X>X{.^.v.7.;.~ U F b B F F F F K W ^ R o.OXhXDXGXGXyXY.+.' X.X.Y A U U H H H Y R R R Q Q }  . . .=. . . . . . . . .} } }  . . . . .Q  .} }  . . . . . .Q } Q Q R R R R R Q } } }  .}  . . .=.-.-.-.:.:.:.:.2.2.2.2.2.2.2.3.7.7.7.i.i.i.a.s.s.g.h.h.h.h.h.j.N.N.N.N.V.V.V.V.D.D.D.D.F.(.(._._.{.|.|.$X$X&X>X>X<X<XwXaXsXfXnX",
"ZXHXFXFXFXFXGXGXSXmXmXbXdXdXdXaXwXwX<X>X#X#X@X@X|.|.{.{._._.(.(.F.F.F.D.D.C.V.N.N.N.m.h.h.s.s.s.p.a.i.i.7.3.3.2.2.2.:.:.;.;.;.-.-.-.-.=.=. . . . .} Q Q Q Q R R R R R Y Y Y Y Y Y Y Y R Q } } }  . . .} } Q ' R } } } R R R Y Y Y Y Y Y Y Y Y U G G F F B B B B [ H A ' t.3XDXGXzXZX=X9.~ ^ G g N N c M d q p b b B J X.,.v.F.`.%X>XwXiXqX0X>X&X%X&X:XaXSXLXNXE.N.V.N.m.h.h.i.3.2.2.3.3.a.Z.G.).$X>XwXrX0X;X$X X_.(.F.V.N.N.j.h.i.3.2.=.=. .! ~ R Y Y H B b x x x a a a u u r r e 5 2 2 2 1 1 1 , , ; ; - - - - - - $ $ $ @ @ @ @ @ @ @ @ @ @ @ @ @ @ + @ @ @ @ + + + + + + + + + + + + + + + + X X X + + + X X X X X X X X X X . . . . . . . . X X X X X X X X + + + + + + + + + + + + + + + + @ @ @ @ + + + + @ @ @ @ @ @ $ $ $ $ $ - - - - - ; ; ; ; , , < , < < 1 2 2 2 e e r r u u a a x x b B B F F H H H H J Y Y R R Q Q  . .=.=.:.3.i.i.j.j.j.N.V.F.F.F._.{.[.=X,X<X<X>X$X_.D.h.a.3.2.,.z.7.q.e.k.f.j.S.UXNXLXbX<X|._.).{.|.#X:X8X0XwXwX&X|.(.N.i.>.R G G F b v F G G J C E T =.n.hXGX7XGXmX2Xt.Q I ~ >.Y Y Y Y Y R R Q } } }  . . . . .-.-.-.-.-.-.-.-. . . . . .=.=.=. . . . . . .X.X.Q Q Q Q R R R R R R R R } } } } } } } }  . . . .;.;.:.2.2.2.2.2.2.2.2.2.2.7.7.7.7.7.i.a.s.s.g.h.h.h.h.h.h.N.N.N.m.N.V.V.V.D.D.D.F.F.(.(._._.{.{.[.$X$X&X&X&X>X>X<XwXrXaX",
"FXFXFXFXGXSXSXmXbXpXiXaXrXrX<X<X>X>X&X$X|. X{._./._._.(.(.F.F.F.D.D.D.D.V.V.V.V.N.N.N.N.j.h.h.g.a.a.i.7.7.7.6.6.;.;.;.-.-.-.=.=. . . . . .} } } } Q Q R R U U U Y Y Y Y R R R R R R Q Q ! ! !  .} } ! Q Q ! } } R Y Y H H H H H G G J J J H H U ^ E F x B J Y U I R q.+XmXGXGXAX5XU.] J K S m m b x x a i a x x I ~ 2.c.F.{.#X2X3XrXrX0X+XOX@X$X|.;X9XAXFXaX{.V.N.h.p.8.6.6.6.6.3.y.i.s.v._.$X&XwXwX<X>X&X$X{._.G.D.V.N.j.j.s.a.2.:.;.=. .! Q R Y Y J H F B B B v x c p u r e e 8 8 2 2 < , , ; , , ; ; - - - - - - * - $ @ @ @ @ @ @ @ @ @ @ @ @ + + + + + X X + + + + + + + + + + + + + + + + X X X X X X X X X X X X X X X X X X X X X X X X + + X X X X X X @ @ @ @ @ @ @ @ + + + + + + + + @ @ @ @ @ @ @ @ $ $ $ $ $ @ @ @ * * * - - - - - ; ; , , 1 1 < < 8 8 e 8 r r u u u u u u p a x x B B B B F F F F Y Y R R R ' } }  . .=.=.:.2.2.3.a.s.j.N.N.V.A.n.(.(.{.|.&X>X<XwX&X$X(.V.j.a.3.,.2.2.2.7.a.h.N.V.V. XhXGXHXpX@X(. X[.OX+X0X0XwXwX+X#X|.(.D.s.2.%.J F x x x B F H G H E E ' o.~.uXAXGXGXnXOXq.Q ~ ! X.} ' }  .=.%.}  . . . . .=.;.;.;.;.;.;.;.;.;.;.;.;.;.-.=.=.=.} } } } } ' ' ' Q Q Q Q Q Q Q Q Q Q Q Q Q } } } } } } } } } } } -.-.-.-.;.:.:.:.2.2.6.6.2.2.2.2.7.7.7.7.7.7.7.7.7.i.a.s.h.j.N.N.N.N.N.N.V.V.D.G.D.F.F.F.(.(.(._._._.{.{.|.|.$X$X#X#X>X1X",
"SXSXSXSXSXSXmXmXdXiXrXwXwX<X>X&X&X$X|.|.{.{._.(._.(.(.(.F.F.D.D.D.D.V.V.V.V.N.N.N.N.N.h.g.a.a.a.i.i.i.7.3.2.2.2.;.;.;.-.=.=.=.=. . . . .} } } } Q R R R Y Y Y Y Y Y Y Y R R R R R Q } Q Q Q } } R R R R R R R R Y Y U H H H F F F F H H H H J J F G J K A A I T o.~.hXSXAXKXhXE.q.] H H H Z x x x x x x x B H Y  .,.x.(.|.&X<XwX2X:X<X>X%XXX{.|.8XfXKXSXqX[.D.k.g.a.i.7.6.2.2.3.g.h.Z.G.'. X&X>XwX<X>X#X|.{.(.F.D.V.N.j.j.g.a.7.:.:.;.=. .Q R R Y J J H F B B B x x x p u r r e 8 8 8 8 1 1 , , , , ; ; - - - - - - - - $ $ $ $ @ @ @ @ @ @ @ @ @ @ + + + + + X + + + + + + + + + + + + + + + + X X X X X X X X X X X X X X X X X X X X X X X X + + X + X X X X @ @ @ @ @ @ @ @ + + + + + + + + @ @ @ @ @ @ @ @ @ $ $ @ @ @ * * * * - - - ; ; ; ; ; , , < 1 < < 2 8 e e r r r r i i u u p a a a N N B B F F F H U Y Y Y Y R R R }  . .=.;.:.2.2.a.s.h.j.N.V.D.A.F.(._.|.$X&X>X<X>X$X{.F.V.s.7.2.2.2.2.3.7.a.g.j.B.A.@XiXGXJXaX+X{.{.|.*X>X>X<XwXwX<X&X X_.A.8.,.} Y H b b n Z Z G F K E U Y { w.8XnXGXSXMXhX~.| I ~ >.>.! }  .| }  . .=.=.=.-.:.;.;.;.;.;.;.;.;.;.;.;.;.;.-.-.-.} } Q Q R R R R Q Q Q Q Q Q Q Q Q Q Q Q Q } Q } } } } } } } } } =.=.-.-.-.;.:.:.:.:.:.:.2.2.2.2.6.6.6.6.6.6.6.6.7.7.i.s.s.j.N.N.j.j.j.j.N.N.V.V.V.D.D.D.F.F.F.(.(.(._._.{.{.|.|.$X$X&X&X",
"mXvXcXbXbXbXbXpXrXwX<X>X>X&X$X|.|.{.{._._.(.(.F.(.F.F.F.D.D.D.V.V.V.V.N.N.N.N.N.j.j.g.s.a.i.i.7.3.3.3.2.2.:.:.;.-.=.=.=.=. . . . . .} } } } Q R R R R R Y Y Y Y Y Y Y Y R R R R R R R R R R R R Y U U U U U U Y J H H H F F F F F F F F H H H H _ B v S ^ X...<.tXpXZXGXKXhXU.| Y H H K H B x N v b b b Z U R  .x.n./.&X<XwXwXwX+X>X&X X`.`.$X>XxXKXJX<X^.m.j.f.y.3.2.2.2.3.3.i.h.C.G.`.$X>X<X:X>X&X$X|._.(.F.D.V.N.j.j.g.a.7.2.;.;.-. . .Q R R Y J H F F B B B x x x a u u r r r r r e 8 2 1 1 < : ; ; ; - - - - - - - $ $ @ @ @ @ @ @ @ @ @ @ @ @ @ + + + + + + + + + + + + + + + + + + + + + X X X X X X X X X X X X X X X X X X X X X X X X + + + + + + X X + + + + + + + + + + + + @ + @ @ @ @ @ @ @ @ @ @ @ @ @ * * * - - - - - - - ; ; ; ; ; ; ; ; ; ; , 1 1 2 2 5 5 e e y y r r r y u i a a a x x b B B H H H H U U Y Y Q } }  .=.;.;.:.7.i.a.j.N.V.V.D.F.(._.{.|.$X&X>X,X,X&X|._.A.m.a.3.3.2.2.2.3.i.a.k.g.c.[.rXDXFXzX&X|._.`.}.%X>XwXeXwX<X,X%X].W.n.7.:. .U H Z Z n B B F K I A A Y -.U.CXKXHXxXiXeXt.-.! ~ %.X.| ] Q  . . . . .=.=.;.;.;.;.;.;.;.;.;.;.;.;.-.-.-.-. . . .Q Q Q Q Q Q Q Q Q Q Q Q Q Q Q Q Q Q Q Q Q Q Q } } } } } }  . . . .=.-.-.-.-.-.;.;.;.:.2.2.2.2.2.2.2.2.2.2.2.3.7.a.s.s.h.h.j.j.h.h.h.m.m.m.N.N.V.V.V.D.D.D.F.F.F.(.(._._._.{.|.|.|.",
"mXbXpXdXiXaXaXrX>X>X&X$X$X|.{.{._.(.(.(.(.F.F.D.F.F.D.D.D.V.V.V.N.N.N.N.N.j.h.h.g.g.a.i.i.7.2.2.2.2.2.2.:.;.-.-.=.=. . . . . . .} } } } Q R R R R R Y U U U Y Y Y Y Y Y Y R Y R R Y Y Y Y J J J H H F F F F H H H H H H F F F F F F F F H H H H F H E E T o.Y.kXAXFXGXDX+X+.R ^ E Y H K F b B V m n K U Q -.8.b._.{.&X<XeXwX<X>X@X$X X).(.[.rXDXGXMX>XA.h.k.f.y.2.4.2.2.3.3.a.s.m.F._.$X>X<X<X2X&X$X{._.(.F.D.V.N.N.h.a.a.7.2.:.-.=. . .} Q R R Y Y H H F F B B b b x x a u u u u u u r r e 8 8 : : ; ; - - - - - $ - $ $ @ @ @ @ @ @ @ @ @ @ @ @ @ @ @ + + + X + + + + + + + + + + + + + + + + X X X X X X X X X X X X X X X X X X X X X X X X + + + + + + + + + + + + + + + + + + + + @ @ @ @ @ @ @ @ @ @ @ @ @ @ * * - ; ; ; ; - ; ; ; ; ; ; ; ; ; ; ; ; ; ; : , , < < < < < 1 1 1 2 2 8 8 e r u u p x x b b F H H H H H U U R R R }  .=.=.-.2.3.i.g.j.N.V.V.D.F.(._.{.|.$X&X,X>X<X<X&X{.D.B.d.i.3.2.2.3.3.7.g.g.j.N.^.:XmXGXMXwX[.F.).}.$X#X>X<X<X:X2X>X$X|.G.Z.8.-.Q U F n B B B F J U E W %.} @.E.ZXFXFXGXuXY.q. .%.%. ... . . . . . . .! =.=.=.=.=.=.=.=.=.=.=.=.-.-.-.-.-.=.=. . .} } } Q Q Q Q Q Q Q Q Q Q Q Q Q Q Q Q Q Q Q Q Q Q Q Q } }  . . . .=.=. . .=.=.-.;.;.;.:.:.:.:.:.:.:.:.2.2.3.7.i.a.s.s.h.h.s.h.h.g.h.h.j.j.j.N.N.N.V.V.V.D.D.F.F.F.(.(.(._._._.",
"dXdXaXrXwXwX<X:X$X$X|.|.{._._.(.(.F.F.F.F.F.D.D.D.D.D.V.V.N.N.N.N.N.j.j.h.h.g.g.a.a.i.i.3.2.:.:.2.2.2.;.;.-.=.=. . . . .} } } Q ' Q R R R Y Y Y R Y Y U H H H H J J J Y Y Y Y Y U U U H H H F F H H H H H H H H H H H H H H H H J H H H H H H H ^ T T ..P.+XmXGXzXGXhX/.2.%.! E Y F b b b v n n v A R -.8.Z.).XX$X&X>XwXwX<X>X&X|.{._._.$XrXFXGXhX#Xv.g.k.k.7.<.2.4.4.3.3.a.s.c.F._.$X>X<XwX1X2X X{._.(.D.D.V.N.N.j.a.a.i.2.;.-. . . .} } R R R Y Y Y J H F F B B B B x x a a a a a i i u r r e : : ; ; ; - - - - - - $ @ @ @ @ @ @ @ @ @ @ @ @ @ @ @ @ + + + + + + + + + + + + O O X X X X X X X X X X X X X X X X X X X X X X X X X X X X X X + + + + + + + + + + + + + + + + + + @ @ @ @ @ @ @ @ @ @ @ @ @ @ * @ - - - ; ; ; ; ; ; ; : < < < < < < < : : : ; < < ; ; ; - - - ; ; ; , , 1 2 8 r y u a x B B F F H H H H H Y Y Y Y R } }  .=.=.;.2.3.a.h.j.N.N.D.D.F.(._._.{.|.$X#X:X<X>X|.(.D.c.p.7.3.3.4.2.2.6.d.l.f.a.n.;XfXHXSXrX$X_.(._.{.$X&X;X:X0X<X<X>X}._.A.p.:.} U F P K F F F F H Y X.! ~ ..Q.hXKXAXFXmX+XU.<.! %.5.=.=.=.=.=. . . . . . . . . . . . . . . . . . . .-.-.-. . . .} } } } } } } } } } Q Q Q Q Q Q Q Q R R R R Q Q Q Q Q Q } }  . . . . . . . .=.=.=.=.;.;.;.;.;.;.;.;.:.:.2.2.7.7.i.i.i.i.i.a.i.i.i.a.g.g.j.j.j.N.N.N.N.V.V.D.D.D.D.D.F.F.(.).",
"rXrXwX<X>X&X&X$X{.{.{.`._.(.(.F.F.F.D.D.D.D.D.D.V.V.V.N.N.N.j.j.j.j.h.h.a.a.a.a.i.i.7.3.2.:.:.:.:.;.;.-.=. . . . . .} } Q Q Q Q R R R R Y Y Y Y Y Y Y H H H H F H H H J Y Y Y Y U U H H H H H H J J J H H J J J H H H Y Y Y U U Y Y Y Y Y Y Y Y ~ Q +.Y.fXKXGXFXCXOXq.%.*.&.R B G B b x b v c m H R -.8.M.F.`. X>X>X<X0X0X1X&X*X{._.Q.+XbXGXGXlX_.M.h.k.l.y.:.<.:.2.2.3.i.p.M.A.{.$X>X<X<X>X&X|._.(.F.D.V.V.N.j.h.g.a.i.6.:.-.=.} } } } R R R Y Y Y Y Y J H F F B B B B B x x x a a a i i r r r < < ; ; ; - ; ; - - - - - - $ $ $ $ $ $ $ $ $ $ @ @ @ @ @ + + + + + + + + + + + . . X . X X X X X X X X X X X X X X X X X X X X X X X X X X X X + + + + + + + + + + + + X X X + + + + + + @ @ @ $ $ $ $ $ $ $ $ $ $ $ - - - - ; ; ; ; : < < 2 1 6 2 2 2 2 2 2 2 2 2 1 1 , ; ; ; ; ; ; , 1 1 2 5 r r u a x b F F H H H H Y Y Y Y Y Y R Q }  . .=.=.;.2.7.a.g.j.j.V.V.D.F.(.(._.{.{.$X>X<X<X&X|.`.A.v.p.i.3.3.2.2.,.6.d.f.f.h.F._.lXDXLXnX;X~.(.(.|.$X&X:X<X<X<X<X*X$X_.S.x.,.} U Z K H G G G J Y J } 5.&.%.q.OXCXGXGXGXfXOXr.;.%. . .! !  . . . .} } } } } } } } } } } } } } } }  . . . .} } } Q Q Q Q Q Q Q Q Q Q Q Q Q Q Q Q Q R R R R R R R R Q Q Q Q } } Q } } } }  . . . . .=.=.=.=.=.=.=.=.;.;.;.:.2.2.6.6.3.7.7.i.i.i.i.i.a.a.g.h.h.j.N.N.N.N.V.V.V.D.D.D.D.D.D.F.",
"<X>X&X&X$X|.{.{._._._.(.(.F.F.F.D.D.D.D.D.D.V.V.V.N.N.N.j.h.h.h.g.g.a.a.a.i.i.7.2.2.2.2.:.:.>.>.=.=.=. . . .} } Q Q Q Q R R R R R R Y Y Y Y Y Y Y Y J H H F F F H J J J Y Y Y Y J J Y Y Y Y Y Y Y Y Y Y Y Y Y Y Y Y Y Y R R R R Y Y R R R Q Q } ' U.hXDXFXSXnXsX!.<. .X.^ v v ` B B B b b x x z Q =.8.M.F._.{.|.:X0XwXwX<X>X&X$X{.|.+XcXGXDXwX].j.j.h.h.a.3.2.:.2.2.3.i.p.M.F._.&X>X>X>X>X$X|._.(.F.D.V.V.N.j.g.s.a.i.2.2.;.=.=.} } ' ' R R R Y Y Y Y H H H F F B B B B B B x x a a a i u r e e 2 2 1 1 , , ; , ; ; ; ; ; ; ; ; - - - - - - - - * * @ @ @ @ @ + + + + + + + + + . . . . . . . . . . . . . . . . X X X X X X X X X X X X X X X X + + X X X X X X + + X X X X + + + + + + + + + + @ @ @ @ @ @ @ @ $ $ $ @ $ $ - - - - ; ; < 1 1 2 2 2 2 2 2 2 2 2 8 8 8 2 1 1 < < , , < < < 1 2 2 8 r u p x b F H U U U Y Y Y R R Y Y R } }  .=.=.=.;.:.2.7.a.g.h.N.V.D.D.F.(.(._.{.|.$X>X>X>X&X#X`.F.M.h.a.i.3.3.2.2.6.7.p.h.j.j.].eXJXKXcX:X|.(.{. X$X&X>X>X<X<X:X>X$X{.F.c.,. .U U J H F H J Y ( H T &.%.T o.T.rXMXGXGXSXyX!.<.-.=.! Q !  .} Q Q Q Q Q Q Q } } } } } Q Q Q Q Q Q Q } } } Q R R R R R R R R R R Q Q Q Q R Q R R R R R R R R R R R R Q Q Q Q Q Q } } } } }  . . .=.=.=.=.=.=.=.=.=.=.-.;.;.:.:.:.3.7.7.7.i.i.i.i.i.a.a.a.s.h.h.m.j.N.N.N.V.V.V.V.V.V.D.D.",
"#X$X$X|. X{._.(.(.(.(.F.F.F.F.F.D.D.V.V.V.V.M.m.N.N.N.j.h.h.g.g.g.a.a.i.i.3.3.2.:.:.;.;.;.;.;.>.=.=.=. . .} Q } Q Q Q Q R R R R Y Y Y Y Y Y Y Y J H H H F F F F J J J J Y Y Y Y Y Y Y Y R R R Q R R R R R R R R Y Y R R ' } R Q Y R R Q } } X.X.3XhXAXAXGXJX=Xe.u.;.R V f N B v m m v x x N V V Q :.c.F.`.|.&X&X8XqXrXwX<X>X@X@X|.<XBXGXAXaX(.k.k.j.s.6.6.i.z.*.6.3.i.a.m.F._.|.>X<X<X,X*X%X X_.(.F.D.V.V.N.h.s.s.i.7.2.:.;.=.=.} ' ' R R R Y Y U U U H H F F F B B B B B b b b p i u u r r e e 8 2 2 1 1 1 < < 1 < < < : ; : : - - - - - - - - * * * @ @ @ @ @ + + + + + + + + . . . . . . . . . . . . . . . . X X X X X X X X X X X X X X X X + + X X X X X X + + + X X X + + + + + + + + + + + + + + + + + + + + @ @ @ @ @ @ @ - - ; , 1 1 1 2 2 1 2 2 2 2 2 8 8 8 8 8 2 3 3 , , , < < < 1 1 r u a x B F J J U U U Y Y R R R Y R R }  . .=.=.>.=.;.2.7.i.a.a.N.N.V.D.D.F.(.(._.{. X$X&X>X;X+X%X}.F.V.m.h.i.3.u.y.6.,.6.p.k.k.j.(.wXZXHXJX1X_.(.`.{.|.$X&X>X1X8X0X>X$X}.G.x.6.-.} U S n S A A Z H J J Y  .=.%.e.=XVXAXAXGXBX2X9.9.:.=. . . .} } } } } } } } } } } Q Q Q Q Q Q Q Q } } } ' R R R R R R R R R R Q Q Q Q R R R R R R R R R R R R R R R Q Q Q Q Q } } } } } }  . .=.=.=.=.=.=.=.=.=.=.=.=.-.:.:.:.:.:.2.2.7.3.7.3.7.i.i.a.s.s.h.h.j.N.N.N.V.V.V.V.V.V.V.V.",
"{.{.{.`._.(.(.).F.F.F.F.D.D.D.D.V.N.N.N.N.m.m.m.s.s.a.a.a.i.i.i.7.2.2.2.2.:.:.:.=.=.=. . . . . .} } } } } Q Q Q R R R R R R R R Y Y Y Y Y J J H J J H H H H H H H F H H H H H H H H J J J H H H H H H U U U U U Y J H H Y ' ' R ) Y ~ &.&.9.~.aXxXFXGXSXwX!.:.~ R Y H F b b b b b x c c b Z R  .p.s.M.F.{.&X:X8XeXrXrX0X=XXX}.|.UXzXGXmX>XS.k.l.j.h.s.i.7.2.2.4.4.7.p.A._.$X&X>X<X>X>X&X%X}.`.(.F.D.V.N.N.j.g.p.2.2.:.;.=.=. . .} } } } R R R R Y Y H H F F F F B b b b b x x x i u u r r e 8 8 < < ; ; ; - - - - - - - - ; ; ; - - - - - - - - - - - * @ @ @ @ + + + + + + + + X X + + X X X X . . . . . . . . . . . . . . . . X X X X X X X X X X X X X X X X X X X X X X X X . . . . . . . . + + + + + + + + @ @ @ @ @ @ @ @ @ @ @ @ @ @ $ $ ; ; ; ; ; ; ; ; 2 8 0 y r 9 9 9 < , , , , , 4 3 u u a x F H Y Y Y Y R R R R R } Q Q }  . . .=.-.=.=.;.:.2.3.3.7.i.s.j.j.N.V.D.F.F.).(.{.|.$X&X>X&X&X$X{.S.M.g.g.:.:.:.2.7.a.a.a.l.k.n.+XSXKXGXlX_.).G.'.[.[.|.XX>X<X<X;X#X$X].W.V.p.6.=.Q R Y Y H H Y R Q Q  . .&.2.n.<XSXGXAXxXCXOX9.u.z.*.-.<.-... . . . . .! -.-.=. . .} } } Y Y Y U U Y Y R U U H H Z Z n n Y Y J Y Y Y Y Y Y Y Y Y Y Y Y Y Y Y ' ' ' ' ' ' } } } } } } } }  . . . . . . . . . . .-.-.-.-.;.2.2.2.2.2.2.2.2.3.3.3.7.i.i.a.a.p.s.s.g.h.j.j.j.N.N.N.V.",
"_._._._.(.).F.F.F.F.D.D.D.V.V.V.N.N.N.h.h.s.s.s.a.a.a.a.i.i.7.7.2.2.2.2.:.:.;.;.=.=. . . . . . .} } } } Q Q Q R R R R R R R R R Y Y Y Y Y Y J J J J H H H U U U H H H H H H H H H J Y Y Y Y H H J J U Y Y Y R R H Y ' ' R R Q ~ ~ >.0...q.OXnXFXGXGXfXOXw.|  .>.R U H b b x x x x x c n K R >.9.V.D.(. X*X1XrXaXqXwX<X$X X@X:XrXAXDXfX>X/.M.j.k.a.a.i.6.2.:.;.;.3.a.c.F.{.&X>X<X>X>X&X$X X{.(.F.D.V.N.N.j.h.s.i.2.2.:.;.=.=. . .} } } R R R R R Y H H F F B B B B b x x x x x x u u u r r 8 8 8 < < ; ; ; ; - - - - - - - - - - - - - - - - - - - - - * @ @ @ @ + + + + + + + + X + + + + X X X . . . . . . . . . . . . . . . . X X X . X X X X . . . . X X X X X X X X X . . . . . . . . . . . + + + + + + + + @ @ @ @ @ @ @ @ @ @ @ @ @ @ $ $ ; ; ; ; ; ; ; ; 1 1 2 e e e 9 9 e e 8 r r r r r a a x B F H Y Y Y R R R R R } } Q Q } }  . . . .=.=.;.:.2.2.3.7.i.a.j.j.N.N.V.D.F.F.(._.{.|.$X&X>X&X$X|.`.F.m.h.7.2.2.2.3.7.i.i.g.a.c.^.&XfXDXAXrX#XQ.F._.{.|.@X>X>X:X:X<X,X&X|.(.A.x.6.;.! R Y J H U Y R R Q Q ! ! ,.n.=XsXDXGXvXMXeXW.6.3.4.4.;.;.:.>.>. . . . . . . .} } Q Q R R Y Y U Y J Y R R R R Y Y Y J Y Y Y Y Y U U U Y Y Y Y Y Y Y Y Y Y Y Y Y Y R R } } } } } } } }  . . . . . . . . . . . .=.=.-.-.2.2.:.:.:.:.2.2.2.2.2.7.7.7.i.i.i.a.a.a.s.g.h.h.N.N.N.N.",
"(.(.(.(.F.F.D.D.V.V.V.V.V.N.N.N.j.h.h.g.g.a.a.a.a.a.i.i.7.7.7.3.2.2.:.:.;.;.-.-. . . . . . .} } ' ' ' R R R R R R R R R R R R R Y Y R Y Y Y Y Y H H H Y Y Y Y U G H H H H H U U Y Y Y Y Y Y Y J Y Y Y Y Y R R R J Y R R ~ ! =.>.*.;.q.Y.pXGXGXFXJXyXP.| E E ' ] Y H F b x x x x x x v K U ~ :.p.F.(.|.>XwXrXrXtX0X>X X}.|.<XcXAXGXdX$XA.h.h.N.m.i.i.3.2.:.;.:.;.3.p.M.(. X&X>X>X>X#X$X|._.(.F.D.V.V.N.j.h.a.7.6.:.:.;.-.=. . . .} } } R R R Y Y H H H F F B B B x x x x x x a a u u u r 8 8 8 8 < < ; ; ; ; - - ; - - - - - - - - - - - - - - - - - - * @ @ @ + + + + + + + + + X X + + + + X X . . . . . . . . . . . . . . . . . . . . . . . . . . . . . . . . . . . . . . . . . . . . . . . . + + + + + + + + @ @ @ @ @ @ @ @ @ @ @ @ @ @ @ @ - - - - - ; ; ; ; < 1 2 e e y y u i a a a a a a C B B F H H U U Y Y R R R ' ' } Q } } }  . . . .=.=.=.:.2.2.3.3.7.a.g.j.j.N.V.V.D.F.F.(._._.|.|.#X&X&X&X|._.F.D.s.a.i.3.3.3.2.2.q.8.g.k.N.{.sXGXHXcX>X_.G.G.{.@X$X&X#X>X<XwX<X#X|.{.F.Z.d.:.~ R H H U U U U U U } Q ~ ~ <.U.:XnXKXFXSXbX;Xr.3.z.u.u.4.;. .} } |  . .} } Q Q Q R R Y Y H F F B B R ' } } } } ' R Y R R R ' R R R R R R R R R R R R R R R R R R R Q } Q Q } Q } } } } }  .}  . . .}  . . . . .=.=.;.;.;.;.=.;.;.;.:.:.2.2.2.2.7.7.3.7.7.i.a.s.s.s.h.h.j.j.",
"F.F.F.D.D.V.V.V.V.N.N.N.N.N.j.j.j.j.h.g.g.a.a.a.7.7.7.7.2.2.2.2.:.;.;.-.-.-.=.=. . . .} } } Q Q R R R R R R R R R R R R R R R R Y Y R R Y Y Y Y U U Y Y Y Y H H H H H H H H U U Y Y Y Y Y Y Y Y Y Y Y R R R R R ' R R ! %.>.;.;.3.r.+XGXGXAXSXDX[.r.} I ^ W Y F H F b x a a a x x x Z T ! =.7.c.(.{.#X0XqXrX<X<X>X$X}.|.wXmXFXKXrX$XA.j.k.k.s.8.7.3.2.:.:.:.2.7.a.c.S.{.$X>X>X>X&X#X|.{.(.F.D.V.N.N.h.g.a.i.6.:.;.;.-.=. . .} Q } } R R R Y Y Y H H H F F B B B N x x a x a a a u u u r 8 8 8 8 1 < < , ; ; - - ; ; ; - - - - - - - - - - - - - - - - * @ @ @ + + + + + + + + + X X + + + + X X . . . . . . . . . . . . . . . . . . . . . . . . . . . . . . . . o o o o o o o o X X + + X X X X + + + + + + @ @ @ @ @ @ @ @ @ @ @ @ @ @ @ @ @ @ - - - - - - - - ; ; ; < 2 2 e e r r u u a a a a C B F F H H U U Y Y Y R R R ' ' } Q } } } }  . .=.=.=.;.:.2.2.2.3.i.a.g.h.N.N.V.V.D.D.F.(._._.{.@X$X&X&X&X|._.(.C.m.a.y.3.3.2.,.o.8.k.f.f.M.[.wXHXGXSXwX/.n.^.|.{.|.$X&X>X<X<X<X>X&X{.).V.i.>.Q Y U H H H J H H ' R ^ ^ ~ ..r.~.dXGXGXAXZXsX.Xp.d.u.1.;.=.=.} ]  . . .Q } Q Q Q R R Y H F B b x J Y Y Y R R Y Y Y R ' } } } Q R R ' R R R R R R R R R R R R R R R R R R R R R R } } } } } } } } } }  . . . . .=.-.-.=.=.=.=.=.-.;.;.;.;.:.:.2.2.2.2.2.3.7.i.i.i.a.a.g.g.",
"D.D.V.V.V.N.N.N.N.N.N.j.j.j.j.j.h.h.h.a.d.a.a.i.7.3.2.2.2.2.:.:.-.-.-.=. . . . .} } } } Q Q R R R R R R R R R R R R R R R R R R Y Y R R R R R R Y Y Y Y Y H H F F F H H H H U U Y Y Y Y Y Y Y Y R R R R R R Q Q R } >.>.%. .-.<.#XfXGXAXAXDXeX!.-. . .R E J H J F B x a a a a x x B Y :.7.v.F.}.$X>XwXaXiXwX>X&X|.|.OXiXFXGXMXuX^.A.N.j.k.k.i.2.2.2.2.:.:.2.7.p.M.F.{.$X,X>X>X>X$X[.{.(.F.D.V.N.N.j.g.a.i.7.2.:.=.-.=. . .} Q Q Q R R R R Y Y Y J H H F F B B B N x x a x x a a u u u r 8 8 8 8 2 < 1 < ; ; ; ; ; ; ; ; - - - - - - - - - - - - - - * * @ @ @ @ + + + + + + + + X X X + + + + X X X X X X X X X . . . . . . . . . . . . . . . . . . . . . . . . . . . . . . . . + + + + + + + + + + + + + + + @ @ @ @ @ @ @ @ @ @ @ @ @ @ @ @ @ @ @ * * @ - - - ; ; ; ; < 1 2 2 e 8 8 8 r u p a b B F F H H U U Y Y Y Y R R R R R Q Q Q } } } }  . .=.=.;.:.2.2.2.3.i.a.a.g.m.N.V.V.D.F.F.(._.{.[.@X&X>X&X$X|.{.F.V.h.a.y.3.2.,.1.3.d.d.a.s.M.D.:XmXGXFXqX~.^.(.'.}. X%X*X&X<XwX<X>X$X{.F.m.7.;.Q R U H K K F F H H T ! ! ! -.6.r.2XJXAXAXGXnX;Xe.6.;.;.5.0.>.}  . . . . . .} }  .} } R Y G F F F F F F F H H H U Y R R R R R R U U U U U U U U R R R R R R R R R R R R ' ' ' ' R R Q Q } } } } } } }  . . . .=. . . . . . .=.=.-.-.-.-.;.;.:.:.2.:.2.2.2.7.7.7.a.a.a.a.",
"V.V.N.N.N.j.j.j.j.j.h.h.h.g.s.s.a.a.i.i.i.7.3.3.2.2.2.:.:.;.;.;.=.=. . . .} } } Q Q Q R R R Y Y R R R Y Y Y Y Y R R R R R R R R Y Y R R R R R R R Y Y Y J H F F F F H H H H U H Y Y Y Y Y Y R R R R R Q Q Q Q Q ! >.>.! Q o.U.3XFXGXGXSXdX-Xe.! ! ! R Y G F F K b b x x a x x x x H  .7.M.(. X*X<XeXsXaXrX<X&X$X{.&XiXAXGXDX,XF.Z.m.j.j.j.a.7.>.:.:.:.:.2.7.c.M.(.{.$X>X>X>X&X$X X{._.F.D.V.N.N.j.h.a.i.7.2.:.;.=.=. . .} Q Q Q R R R R R Y Y Y Y H H H F F B B B x x x x x x a u u u r 8 8 8 8 2 2 1 1 < , , ; ; ; ; ; - - - - - - - - - - - - - - - * @ @ @ @ + + + + + + + + X X + + + + + X X X X X X X X X . . . . . . . . . . . . . . . . . . . . . . . . X X X X X X X X + + + + + + + + + + + + + + + @ @ @ @ @ @ @ @ @ $ $ @ @ @ @ @ @ @ @ @ @ @ $ $ $ ; ; - ; ; , 1 1 3 2 2 8 8 r i s b B b F F H H H Y Y Y Y Y Y Y R R R R R Q } } }  . . .=.-.;.;.:.2.2.7.i.a.a.g.h.N.V.V.D.F.(.(.`.{.|.$X&X>X&X&X$X_.F.M.s.a.7.2.:.u.4.2.9.8.p.j.k.F.$XbXGXGXhX&X(.^.^.'.{.|.|.#X1X<X>X&X|.`.F.c.i.-.} U F F K F F S F J ' }  .! %.4.<.U.sXKXGXFXFXuX~.q.-.=.4.0.>.;.-.=.=.=.=. .X.=. . .} R R Y Y K H H F F F F F U U Y Y R R R R Y Y Y Y Y Y Y Y Y R Y Y Y Y Y Y R R R R R R R R R R R R R R R R } } }  . . . . . . . . . . . .=.=.=.=.-.;.;.:.:.2.2.2.2.2.2.2.2.y.i.i.a.",
"N.N.N.h.h.h.h.h.g.s.s.s.a.a.i.i.7.7.7.3.2.2.2.2.:.:.;.;.;.=.=.=. . . .} } } } } R R R R R Y Y Y Y Y Y Y Y Y Y Y Y Y Y R R R Y R Y Y R R R R Q Q R R Y Y J H F F F F H H H H U Y Y Y Y Y Y R ' ' } } } }  . . . .>.=.;.,.r.OXnXLXxXFXLXkXW. .~ 0.X.R Z B G G F v v b x x c x b B F R :.m.F._.@X:XrXrXrXwX>X#X$X$X0XdXFXFXnX,XF.N.k.k.g.a.i.7.2.:.:.2.2.2.2.p.V.F.{.|.#X:X;X#X|.{._._.(.F.D.V.N.N.h.a.i.7.2.2.:.;. . . .} } Q R R R R R R Y Y Y Y Y H H H F F B B B b b b b x x x u u u r r 8 8 8 2 2 2 1 1 < < , ; ; ; ; - - - - - - - - - - - - - - * * @ @ @ @ + + + + + + + + + + + + + + + + X X X X X + + + X X X X X X X X X X X X X X X X X . X X X X X X + + + + + + + + + + + + + + + + + + + + + + + + @ @ @ @ @ @ @ @ $ $ $ @ @ @ @ $ @ @ @ @ $ $ $ $ ; ; ; ; , 1 1 2 2 8 8 r u a a x B B B F F F H H H J J Y Y Y Y Y R R R R Q } } }  . . . .-.-.;.;.;.2.3.7.i.a.g.h.N.N.V.V.D.F.).).{.{.|.$X&X&X&X&X|.{.F.M.h.a.3.2.u.3.2.2.7.a.g.k.j.D.[.iXGXGXbX:X[./.Q./.{.|.$X>X<X<X>X#X|._.D.V.6.=.R F b B B B J H H Y Y R R ~ ~ >.9.e.@XIXKXzXKXMX+XU.8.2.3.y.2.:.:.:.;.=.=.=.=.=. . . .} } } } } R R Y Y Y J Y Y Y Y R R R R R R R R R R R R Y Y Y Y J J H H R R R R R R R R Y Y Y R R R R R Q Q Q } }  . . .=. . . . . .=.=.=.=.=.;.;.:.:.:.2.2.2.2.2.2.2.2.i.i.i.i.",
"N.j.h.g.g.g.h.k.a.a.a.a.i.i.7.7.7.7.7.6.2.:.:.:.:.;.;.;.=.=.=.=. . .} } } } R R R R R R R Y Y Y Y Y Y Y Y Y Y Y Y Y Y R R R Y Y Y Y R R R Q Q Q R R Y Y J G K K F F H H H Y Y Y R R Y Y R R ' ' } }  . . . . .=.:.;.8.'.kXLXGXxXHXMX@X9.;.5.0.Y H J K L P b B F v v z x x b B F Y X.p.G.`.$X<XgXiXaXwX>X$X[.$X=XxXGXGXmX@Xv.h.N.j.g.a.3.2.:.:.:.2.2.2.7.i.c.D.).$X&X<X:X;X$X|.`.(.(.F.D.V.N.N.j.s.a.7.3.2.2.;.;. . . .} } Q R R R R R Y Y Y Y Y Y H H F F B B B B b b n b b b x i u u r r e 8 8 5 5 2 2 1 < < < ; ; ; ; - - - - - - - - - - - - - - - * @ @ @ @ + + + + + + + + + + + + + + + + X X X X X + + + X X X X X X X X X X X X X X X X X X X X X X X X + + + @ @ @ @ @ + + + + + + + + + + + + + + + + @ @ @ @ @ @ @ @ - - $ $ $ $ $ $ @ @ @ $ $ - - - ; ; ; ; 1 2 8 e 2 8 r u a x x x C B B B F F F F H H J J Y Y Y Y U Y R R R Q } }  .}  . .=.=.;.;.;.2.2.3.7.i.a.h.j.j.N.V.V.D.F.)._._.{.[.@X@X&X&X*X$X_.F.V.s.i.3.,.2.3.y.y.y.s.c.k.k.C.[.dXFXFXxX,X$X].{.$X$X&X>X<X<X>X;X@X{.F.D.p.:.R Z b x b b F F F K E Y ' | | ! %.4.x.!.iXKX7XAXKXhXXXv.i.y.2.2.2.2.:.;.=.=.>.>.-.:.:.-.-.-.=.=.=. . .} R Y H H H U Y Y Y E R R R R R R R R Y Y Y J Y J J J Y Y Y Y Y Y Y Y Y Y Y Y R R R R R R Q Q Q }  . .=.X.X.X.X.=.=.=.=.=.=.;.:.:.2.2.7.6.6.2.2.2.:.:.7.7.i.i.",
"j.j.j.h.h.s.s.s.i.i.i.i.3.3.3.3.6.6.2.:.:.:.;.;.-.-. . . .} } } Q Q Q Q Q Q Q R Y Y Y Y Y J J J Y J J Y H H H H H H H H H H H H J G J Y Y Y Y Y E E U H H G F F B F F J Y Y R R Y R ' R R }  . ... . .X. . .:.8.7.n.;XMXGXFXFXFX5X).8.;.-. .' J F F Z b b x x a b x a i a v T ! 1.c.).{.#XwXpXcXZXnXeX$X{.@XqXJXxXGXhX XV.N.N.s.i.i.3.3.2.:.=. .:.7.i.d.Z.D.{.$X>X>X<X>X@X[./.).F.D.D.V.N.N.h.s.a.i.3.2.;.;.>.>. . .} } } Q Q Q R R R Y Y U H H J G H H F F F K G F F F F B B B x x a u r e 8 2 2 1 1 < < < ; ; - - - - - ; - - - - - - - - - - - - - - - $ $ $ + + + + + + + + + + + X X X . . X X X . . . X X . . . . . . . . + + X X X X X X + + + + + + + + + + + + + + + + + + + + + + @ + + + + + + + + + + + @ @ $ - - - ; - - - - - - * - - - - - - - - ; ; , , 1 2 8 e 1 2 y y a x x x b B B F F F H H J J J Y Y R R R R R R Q Q } }  . . . . . . . . .-.-.-.:.2.3.i.i.h.j.j.N.V.D.F.S._.{. X$X$X&X&X>X&X$X|._.S.m.s.a.2.2.2.2.2.3.i.a.m.N.N.V.(.>XmXGXFXpX.XG.).|.&X@X$X&X>X>X&X|._.(.v.x.;.~ I S n P H A H H R }  .X.-.-.=.=.=.,.n.XXCXSXzXzXAXiXQ.p.4.3.6.,.,.6.4.>.1.2.2.-.=.=.>.>.-.-. . ..... .} R R Y Y Y Y H H U T R R R R R R ' R R R R R R Q Q Q R R R R R R Y Y Y Y Y Y Y Y R R R R Q Q } } } } }  . . .=.=.=.=.=.;.;.:.:.2.4.4.2.2.2.:.;.;.6.2.2.2.",
"j.j.j.h.g.s.s.a.i.i.i.7.3.3.2.2.:.:.:.;.;.-.-.-. . . . .} } } } Q Q Q R R R R R Y Y Y Y Y Y J J H H H H H H H H Y H H H H H H H J Y R R Q R R R E U H H H H H F F F H J Y Y Y Y Y R R R R Q }  . . .=.0.0.:.2.6.~.uXLXAXxXSXsX&Xb.6.=.=. .Q U H H F F F B B x x b b F K ' X.9.d.v.'.%X>XwXaXdXpXdXrX>X$X>XrXmXAXJXrX].v.g.j.h.s.i.7.2.2.;.-. .Q -.2.3.a.s.A./.$X<X<X<X>X$X{.(.).D.D.V.N.j.g.a.a.7.2.;.=. .} } } } } } R Q R R R R R R Y Y Y U H H H F F F F F B F F B B B b b x x a a u r e e 8 2 2 2 1 < ; ; ; - - ; ; ; - ; ; - - - - - - - - - - - - @ @ $ $ + + + + + + + + + + + X X X . . X X X X . . X X . . . . . . . . X X X X X X X X X X X X X X X X + + + + + + + + + + + + + + + + + + + + + + + + + + @ @ $ - - - ; - - - - - - - - - - - - - - - , : < 1 1 1 2 8 1 2 y y i a x x F F F F F F F F J J J Y Y R R R R R Q } }  . . . . . . . . . . .-.-.-.:.2.3.i.i.s.g.j.j.N.V.D.D.(._.{.|.$X&X&X>X&X&X$X{.(.D.m.s.3.3.2.2.2.3.7.7.a.s.j.N.V./.<XdXGXSXdX#X]._.{.|.&X&X>X<X<X>X&X$X}.'.v.9.=.Q Y Y T U U Y R } X.=. .=.>.:.:.:.8.v.!.tXKXAXZXDXBXwXA.p.7.z.z.%.;.p.3.2.2.:.-.:.:.4.-.-.=.=.-... . .R R R R Y Y Y Y R Q Q } } } } } ' R R R R R R R R R R R R R R R Y Y Y Y Y Y R R R R R R R R R R Q } } }  . . . . . . .=.=.-.;.;.:.:.2.:.:.:.:.;.:.:.:.:.",
"h.h.g.s.a.a.a.i.7.7.7.3.2.2.2.2.;.;.;.=.=. . . .} } } } } Q Q R R R R R R R R R Y Y Y Y Y J J J H H H H H H H H J J H H H H H H U R ~ ! ! ! Q R U U H H H H H H H H J Y Y Y Y Y Y Y U U R R Q ! =.>.>.4.1.8./.-XJXZXzXzXFXtX^.u.-.=.=.>.~ T A H H F F F F F B B Z A T ! ;.6.x.v.{.&X<XrXiXaXrXrX<X&XOX+XhXJXFXAXuX].x.m.l.k.y.i.7.2.:.=. . .} Q  .>.3.a.m.S.[.>XrXwX<X#X|._.(.F.D.V.V.N.h.s.a.7.-.-.| ' Y Y Y Y R R R R R R R R R R R R Y Y Y Y H H H F F F F F b B b b b b x x a p u u r e e e 2 2 1 1 1 , ; ; , , ; ; - - - - * - - - - - - - - * * $ @ @ @ @ + + + + + + + + + + + X X X . . X X X X . . X X . . . . . . . . X X X X X X X X . . . . . . . . X X X X X X X X + + + + + + + + + + + + + + + + + + @ @ $ $ - - ; - - - - - - - - - - - - - - - : : : < 1 1 1 2 2 2 8 r u a x N F F F F F G F G J J J Y Y R R R Q Q Q } }  . . . . . . . . . . .-.-.-.;.2.3.7.7.i.a.g.j.j.N.V.V.F.(._.{.|.|.$X&X#X&X&X$X{.(.D.m.a.i.3.3.2.2.2.6.3.a.h.k.g.c.^.$XNXGXGXmX+X]._._.$X$X#X>X:X:X:X:X>X&X{.n.e.6.-...Q Q R R R Q  . . .=.;.2.2.:.2.6.c.b.[.BXLXGXAXAXhX$Xx.1.z.z.i.6.7.7.2.:.:.:.:.:.:.;.=.-.-.-.-.=.} } Q Q R R R R Q Q } } } } } } R R R R R R R R R R R R R R R R U Y Y Y Y R R R R R R R R R R R Q Q Q Q  . . .X.} } }  . . . . .=.=.;.;.:.:.:.:.:.:.;.;.",
"a.a.a.a.i.7.7.7.2.2.2.2.:.:.;.;.-.=.-.=. . . . .} } } R Q R R R R R R R R R R R Y Y Y J J G G G H H H H H H H H H H H H H H H H H U R R R R R U H H H H H H H H Y Y Y Y Y Y Y Y Y Y Y R } }  . .5.4.1.6.r.@XfXLXAXAXAXMXOXe.1.u.>.>.>.! T T H H F F F F F F H H Y Q ;.i.m.M.^._.>XwXaXpXpXrX<X,X$X&X8XcXDXKXbXqXF.v.h.B.l.u.2.6.:.;.=. .} } } } ! >.y.h.D.{.>XtXrXwX<X&X{.(.F.D.m.N.m.g.a.i.7.4.=. .' Y Y Y Y Y Y Y Y R R R R R Q R R R R Y Y Y J J H H H F F F B B B B B x x x u u u r r r e e 2 2 1 2 1 < < , < , , ; ; - - - * * - - - - - - - - $ $ $ $ @ $ + + + + + + + + + + + X X X . . X X X X . . X X X X X X . . . . X X X X X X X X . . . . . . . . . . . . . . . . . . O O + + + + + + + + + + + + + + @ @ $ $ - - - - - - - - - - - - - - - - - - - - - ; , < 2 3 2 2 8 r u a x N F F F F F F B B J J J Y Y R R R R Q Q } } }  . .} }  . . . . . .=.=.-.;.2.2.3.3.6.7.a.a.j.N.N.V.F.F.F.(._.{.{.|.#X#X>X&X$X{.(.F.c.s.a.3.3.2.:.:.2.i.a.k.f.g.m.A.OXaXFXGXZX0X|._.{.{.|.$X&X>X<X:X<X>X$X{.S.v.p.7.:.=. .Q !  . .=.-.-.=.;.2.2.3.7.u.i.x.Q.eXKXGX7XFXDXeXS.7.3.i.i.7.7.2.2.2.;.;.;.2.:.:.;.;.:.-.=. . . . .} } Q Q } } } } } } Q Q R R Y Y Y Y Y Y Y Y Y Y Y Y Y Y U U Y R R R R R R R R R R R R R R Q Q Q Q Q Q Q Q } } } } } } }  .=.=.-.;.:.:.:.:.:.:.:.",
"i.i.i.7.7.2.2.2.:.:.;.;.;.=.=.=.=. . . . .} } } } } Q R R R R R Y Y Y Y Y Y U Y Y J Y H H H H H H H F F F F F F F F F F F F F F B B F H H H H F H H H H J J H H Y Y Y Y Y Y Y Y } ' } X.>. . .-.4.2.8.Q.tXJXAXxXGXKXuXS.1.1.2.,. . .Q Q R R ' [ H H H F H H R Q Q %.3.N.F._.|.&XrXrXdXdXsXeX,X%X#XrXSXGXFXdX&X^.N.j.g.a.y.2.2.6.-. .} Q Q  .=.-. .:.p.F._.&X<XqX0X<X&X|._.F.M.m.s.s.a.i.3.2.;.=.=.~ Q R R R R Q R R R R R R R R Q Q R R R R R Y Y Y J H H F F F B b b b x x x x u u r r r r e e 2 1 1 1 1 1 < < , , , , ; - - - - - - - - - - - - - - $ $ $ $ $ @ @ @ + + + + + + + X X X X . . . . . . . . . . . . . . . . . . . . . . . . . . . . . . o o o o . . . . . . . . . . . . . X X X + + + + + + + + + + @ @ $ $ - - - - - - - - - - - - - - - - - - - - - - ; < 1 3 8 8 8 9 r u a a b b B B B B B B J J J Y Y R R R R R Q Q } } }  .} }  . . . . . .=.=.=.;.:.:.2.2.6.6.7.a.g.j.N.N.V.D.D.F.(.(._.{.[.$X&X>X&X|.{.(.D.M.h.a.3.2.:.;.6.7.a.a.f.f.j.j.M.].eXSXGXFXaXOX{.{.{. X$X&X<X<X<X<X>X$X}.(.D.M.p.7.:.=.=.=.-.-.-.-.=.;.2.4.3.3.4.u.y.6.e.@XhXLXzXAXFXMX>Xr.2.4.6.2.3.5.4.4.:.9.2.2.:.:.:.:.;.-.-.-.=. . . . . .} } } } } } } } Y Y U H H H H H H H H H H H J J U E U Y Y R R R R R R R R R R R R R R R R Q Q Q R R ' } } } } }  . .=.=.=.;.-.;.:.:.:.:.",
"i.7.3.3.2.2.:.:.-.-.-.=.=. . . . . .} } } } ' R R R R R R Y Y Y Y Y Y U U U U U H H H H H H F F F F F F F F F F F B B B B B B B N B B b F F F F H H G H H H U U Y Y Y Y Y R ' ' | }  .>.=. .=.:.,.n.@XsXDXGXHXzXhX$Xc.f.z.z.<.) R } } } } } ' J Y J J H H R  .-.:.6.c.F._.|.#X<XsXaXaXtX0X;X#X&XqXVXKXFXdX&XG.f.B.j.a.1.2.9.,.-.} } R R Q  .2.7.9.b.'. X&X<XwXqX>X#X|._.D.v.8.6.8.8.7.7.4.;.=.! ! ~ ! Q R Q ! X.R R R R R R R R } } } R R R R R Y J H H H F F F b b x x x a p p r r r r r e e e 2 2 2 2 1 2 1 1 ; , ; - - - - - - - - - - - - - - - $ $ $ @ % % @ @ + + + + + + + + X X X . . . . . . . . . . . . . . . . . . . . . . . . . . . . . . . o o o . . . . . . . . . . . . . . . . . + + + + + + + + + + @ @ $ $ - - - - - - - - ; ; - - - - - - - - ; ; ; ; , , 1 1 8 8 8 r u u u p x x b B B B F F J J J Y Y R R R R R R Q Q } }  . . . . . . . . .=.=.=.;.;.:.:.:.2.2.7.i.a.g.j.j.N.V.V.D.F.(._.}.{.|.$X&X&X$X|.{.(.F.V.h.i.3.2.:.:.2.7.i.a.k.g.h.j.N.'.2XSXGXGXgX&X$X{.{. X%X>X>X<X<X<X>X%X}.).G.m.p.2.=.!  . . . .=.-.=.:.2.2.;.6.=.4.z.7.6.W.5XHXAXAXFXGXhX'.9.8.2.2.3.4.1.;.9.2.:.:.;.;.:.-.-.-.-.=. . . . . .' } } } ' ' ' R U U H H H F F F F F F F F F F F J H H Y Y Y R Y Y Y Y R R R R R Y R R R R R R R R R R } } } } } }  . . .=.=.=.=.-.-.=.-.",
"2.2.2.2.:.;.-.-.-.-. . . . .} } } } } Q R R R Y R R Y Y Y Y Y Y J J J H H H H H H H H H F F F F F F F F F F F F F F B B B B B B B B F H H H F F F H J G U U Y U Y Y Y Y Y R } } .. .! =.=.=.6.v.~.wXMXFXAXSXnXhXv.6.3.z.z.! R o.R } ..} } ' Y F Y Y J H H R =.6.H.G.). X>X<XrXsXdXrXwX>X#X#X:XaXZXGXVXeX[.A.h.u.g.d.3.:.,.0.X.T Y Y Y Y Q =.i.h.D.(.|.>XrXrXrXwX&X|.(.V.s.3.=.Q -.:.>.:.:.>. . .! Q R R Y R R } } } } } Q R R R Q } Q } ' R R R Y Y Y H H H F F B B x x x p p p r r r r r e e e e e 2 2 1 1 1 1 - - - - - - - - - - - - - - * * @ @ @ @ + + + + + + + + + + + + + O X X . . . . . . . . . . . . o o o o o o o o o o o o o o o o o o o o o o o o o o o o . . . . . . . . . X X X + + + + + + + + + + @ @ $ $ - - - - - - ; ; ; ; ; ; ; ; ; ; ; ; : : , , 1 1 2 8 e r r r u u u u a a x x B F F F J J J Y Y R R R R R Q Q } } }  . . . . . . . . .=.=.=.=.;.;.;.;.2.2.2.7.i.a.h.j.j.N.V.V.D.F.).(._.{.|.#X#X#X$X$X{._.D.m.a.i.3.2.1.2.6.7.7.i.a.g.k.j.N.^.&XdXGXHXdXwX#X|.{.$X&X>X>X<X<X<X#X|./.^.V.p.2.=.~ R R R Q  .=. .=.;.;.=.=.9.d.1.1.d.m.a.~.hXKXAXZXFXBXeX(.b.7.3.3.1.;.:.:.;.;.;.;.;.-.=. . . . . .} } } Y Y Y Y Y Y Y Y U U H H F F B B F F F F F F F F F F H H H J Y Y Y Y Y Y Y Y Y Y Y Y Y Y R R R R R R R R Q } }  .} } }  . .=.=.=.=.=.=.=.",
"2.2.2.:.;.-.-.-..... . .} } } } } } R R R Y Y Y Y Y U Y U H H H J H H H H H H H H H H F F F F F F F F F F F F Z F F B B B B B B F K H E E E H K F F G G U U U U J J Y Y R Q }  .:.=.>.>.2.7.A.XXCXDXAXAXGXnX$Xx.l.d.:.] [ ] ~ ~ U R Q T T U E K Y H H Z Z T =.7.Z.A./.$X:XqXdXnXpXrX<X&X&X>XdXKXGXFXtXW.x.s.s.p.y.3.:.=.Q T E E H H H U Q :.s.N.F._.$X:XqXaXrXwX%X{.F.h.y.%.T H T Q Q ! =. . .Q ' R Y J J J Y Y } } } Q Q Q Q Q } } } } } ' R R R ` Y Y J J H H B B B x x x a p r r r r e e e e y e e 2 1 , , , - - - - - - $ - ; - - - - * * * @ @ + + + + + + + + + + + + O O O O X X . . . . . . . . . . . . o o o o o o o o o o o o o o o o o o o o o o o o . . o o . . . . . X X X X X X X + + + + + + + + + + @ @ $ $ - - - - - - ; ; ; ; : : : : : : : : ; , , 1 2 8 y y r r y u i u u u i i a x B F H H J J J Y Y R R R Q Q Q } }  . . . . . . . . . . .=.=.=.=.;.;.;.;.1.2.2.2.7.a.a.h.j.N.N.N.M.M.A.F.(._.{.$X#X#X&X*X X{.F.V.g.i.3.2.>.4.6.6.6.3.a.s.k.N.N.N.G.=XcXFXKXMXwX#X|.$X#X;X,X<XwXwX:X#X[.].D.m.7.=.! Q R ' R  . .Q Q =.:.:.8.:.;.4.u.3.a.B.h.S.<XDXHXHXAXFX5X{.v.p.p.7.:.:.:.;.=.-.-.-.-.=. . . .! Q Q Q R Y Y Y Y Y Y Y Y E U H H F F B B F F F F F F F F B F F F H H H H Y U Y Y Y Y Y Y Y Y Y Y Y R R R T T R R Q Q Q  .R } }  . .=.=.=.-.-.-.-.",
"=.=.=.=.=. . . . .} } } Q Q Q Q R R Y Y Y Y Y Y J J J J J H H J F F F F F F F F B B B B B B B B B B F F F F F F H H K K H H H H Z F F H H H Y Y U Y Y Y Y Y R R ' R E E ~ X... .%.6.8.7.s. XnXHXxXFXGXMX>XS.p.z.7.2. .R Y J H U ! ~ ~ E K H H H B B F H R =.7.d.(._.$X>XaXmXAXAXSXbX<X@X:XmXGXAXIX,XS.m.j.g.2.-.! ~ } R J G G G B G Y ~ ! :.p.M.n.].<XdXnXsX,X X(.S.M.m.a.3.:.>.;.-.-. .} ' R Y G H F F F H G J R R R R R R R R } } Q Q Q Q Q Q R R R R R Y Y Y Y U H H F B B B x x a p u u u y 8 8 2 1 , , ; ; ; ; - ; - ; - - ; - - - - - - - @ @ @ + + + X . X X X X + + + + + O X X . . . . . . . . . o     . . . . . . . . o o o o o o o o . . . . . . . . . . . . . . . . + + + + + + + + + + @ @ @ @ * @ @ @ @ @ $ $ $ $ - - - ; - ; ; ; ; ; < < 1 1 1 2 6 6 5 e e e r r a a x x b b Z Z B B B F F F F F J J J J Y Y Y Y Q Q Q } } } }  . . . . . .=.=.X. . . .=.=.-.=.-.;.:.:.2.2.7.i.i.g.g.h.j.N.V.V.V.F.(._.{.{.|.$X&X$X|.{._.F.M.p.i.3.2.;.:.:.6.i.i.s.s.j.C.V.D.{.3XxXzXFXdX*X X$X<X,X1XwXrXwX:X>X=X X_.S.v.i.2.;.%. .=.=.;.=.-.:.:.;.;.:.2.2.2.3.3.p.p.x.}.uXKXGXzXzXGXeXn.i.d.z.4.<.<.;.1.1.1.2.6.;.;.=.=.=.-.-.-.=.=. . . . . . . .=.=. . . .} } Y Y H H H F F F H A F F H F F F G G H H H H H H H J Y Y Y R R R Y Y Y R R R ' } ' R R R ' ' } } =.=.=.>.",
"=.=.=.=.=. . . .} } } } Q Q R R R Y Y Y Y Y Y J J J J J H H H H F F F F F F F F B B B B B B B B F F F F F F F F F F F F F F F F Z Z F F H H H J U Y Y Y Y R R R U ' o...Q ~ =.4.q.1.u.G.eXZXAXSXGXDXtX$Xn.8.7.7.2.=.} Y H H H U } } R R Y Y Y Y R R R } ..6.b.A.].&XtXsXbXmXDXDXeX+XOXaXSXGXSXJX$XW.x.a.a.u.4.:.>.=. .} R Y Y Y U R ! =.2.p.A.F.%X*X<XwXwX>X|.{.F.F.V.h.a.i.2.:.;.:.-. . .} R R J J H H H H J Y R R R R R R R R } } } Q Q Q Q } R R R R R Y Y Y U U H F F B N N x x a p u u r r e 8 8 2 1 < < < ; ; ; ; ; ; ; ; ; ; - - - - - - @ @ @ @ + + + X X X X X + + + + + + + X X X . . X X . . . . . . . . . . . . . .                 . . . . . . . . . . o o . . . . + + + + + + + + + + @ @ @ @ * @ @ @ @ @ @ @ $ $ - - - ; ; ; ; ; < < < 1 2 2 2 2 2 2 2 e e r r u a x x b B F F F F F F F F H H H J Y Y Y Y Y Y Y Q Q Q } } } }  . . . . .=. .=.=. . . .=.=.=.;.;.;.;.:.2.2.3.7.i.a.a.g.h.N.N.V.V.D.F.(.(._.{.|.$X&X$X|.{._.F.M.h.y.2.:.;.:.6.7.i.p.i.a.j.N.m.S.{.sXMXGXGXpX:X$X|.&X>X>X>X>X>X>X&X&X$X{.(.A.v.x.8.:.:.:.;.;.;.=.=.:.:.2.2.2.3.7.3.y.a.s.c.W.;XnXKXxXAXKXCX%Xe.3.a.f.u.3.6.9.6.2.1.:.:.;.;.;.;.-.;.-.-.-.=.-.=.=.=.=.=.=.-.=. . . .' R R R Y Y Y Y Y Y Y Y H J J J H H H H H H H H H H J Y Y Y Y Y R R R R R R ' ' R Q Q Q Q Q } } } } } } ",
"=.=. . . . . . .} Q Q Q R R R R Y Y Y Y Y J J H H H H H H H H H F F F F F F F F B B B B B B B B F F F F F F F F F F F B B B B B b B B F F H H G J J Y Y Y R ' ' T Q  .-.:.2.2.4.y.r.OXsXDXSXFXGXBX1XW.9.4.1.2.6.=.! R Y H H H U J Y Y R R R }  .! !  ...<.e.n.S.#X<XfXnXmXnXdXaX.X2XqXSXGXGXhXY.c.8.3.3.4.1.1.4.:.;.-. .} }  . .1.2.7.p.v.^.{.|.1X1X>X#X@X[./.(.D.V.N.j.g.a.7.6.:.;.=.! Q Q R R Y Y Y U U U Y Y Y Y R R R R R R } } } } Q Q } } R R R R Y Y Y Y H H H F B b x x x x a u u r r r 2 2 2 1 1 1 , , ; ; ; ; ; ; ; ; ; ; ; - - - - - $ $ @ @ @ + + + + + X X + + + + + + + X X X . . X X X X . . . . X X X X X . X X           o     . . . . . . . . . . . . . . . . + + + + + + + + + + @ @ @ @ * @ @ @ @ @ @ $ $ $ - - - ; ; ; ; ; 2 1 2 2 2 2 e e e e e r r u u i x x x B F F F F F F H H H J H Y Y Y Y Y Y R R R Q Q Q } } } }  . . . . . . . . . . . . .=.=.=.;.;.;.;.:.2.2.3.7.a.a.a.g.h.N.N.N.V.D.F.F.^.].|.$X>X&X$X|.}.).G.N.a.7.2.;.:.2.3.7.p.7.y.k.j.N.M.A._.>XMXGXHXvX:X}.|.|.|.$X$X&X&X>X<X>X&X$X{._.^.S.v.c.s.a.3.3.4.4.2.2.2.2.2.3.7.7.y.u.k.a.i.b.|.3XGXGXAXAXDXhX|.x.f.f.d.8.<.,.2.3.2.2.2.:.:.:.:.:.:.:.:.;.;.;.;.-.;.;.;.-.-.-.=.=. . . .} } } } Q } ' R R Y Y Y U H H H H H H H H H H H J Y Y Y U T T U U U R R R Q Q Q R R R R R ' ' ' ' ",
" . . .} } } Q Q Q R R R R R Y Y Y Y Y Y J H H H F F F F F F F F F F F F B B B B F F F F F F F F F F F F F F F F F F B B B B b b B B B B F F F F J J J Y Y R ' ' }  .! ;.2.7.7.8.A.<XHXzXAXDXDXvX}.n.8.2.5.4.=.-. .Q R Y J H U U G G Y R ~ ! =.:.a.p.v.n.W.].[.$X<XwXqXiXiXrX>X$X;XhXDXAXZXdX[.8.j.g.d.d.4.1.;.2.:.:.;.=.=.;.:.2.k.B.M.(.{.$X&X&X>X>X#X[.{.(.F.F.V.N.N.j.h.s.i.7.:.;.=.! Q Q Q Q R R Y Y Y Y Y Y R R R R R R R R } R R R R R R R Y Y Y Y Y Y J J H H F B b x x a x x a u u r r r 8 8 8 2 2 1 1 1 1 < < < : ; ; ; ; ; ; ; - - - - - $ - $ @ @ + + + + + + + + + + + + + X X X . . X X X X X X . . X X X X X X X X . . . o . . . . . . . . . . . . . . . . . . . X + + + + + + + + + + @ @ @ @ * @ @ @ @ @ $ $ - - - - - ; ; ; ; , 1 1 2 2 2 5 e e r r r u u a a a x x N B F F F F H H H U Y Y Y Y Y Y Y Y R R R R Q Q Q } } } }  . . . . . . . . . . . . . .=.=.=.-.-.;.;.2.2.2.2.i.i.a.a.g.h.N.N.V.V.D.F.(._.{.|.#X#X&X$X{.(.D.N.s.i.2.2.:.2.2.3.7.3.y.g.k.B.N.N.N.F.=XNXGXGXmXtX|.{._.{. X*X&X&X:X>X>X&X$X|.{./.).F.V.m.g.a.i.u.2.2.2.2.2.2.3.7.i.a.f.f.g.a.s.c.:XbXGXAXAXGXBXwXC.m.s.y.3.3.y.3.7.7.6.2.2.2.2.:.2.2.2.2.:.;.;.;.;.;.;.;.;.-.-.-.=.=.=. . . . .Q } } } Q R R Y Y Y Y U H H H H H H H H H H J H H R U U U U Y Y U R Y R R R R R R R R R R ",
"} } } Q Q R R R R R R R Y Y Y Y Y Y Y H H H H H F F F F F F F F F B B B B F F F F F F F F F F F F F F F F B B B F F B B B B b b B B B F F F F F H J Y Y R R } }  .:.5.5.%.:.n.$XvXDXDXAXAXGX<XF.d.i.3.7.6.:. .~ Q R Y Y J H H H B K E ! %.;.7.p.D.).}.%X*X,X<X<X>XwXwX:XOXOX$X$XFXZXHXJXaX].M.k.B.j.d.p.9.6.2.2.:.;.;.=.;.2.7.p.V.D._.|.&X>X>X#X&X$X|.`.).G.D.D.N.N.j.h.g.s.i.7.2.:.>.X. .} X.X.R R R R R R R R R R R R R R R R R Y Y Y Y Y Y Y Y Y Y J H H H H F F F B x x x x x a a p u r r r t t y y y y e e 2 1 1 1 < < , ; < , ; ; ; - - - ; - - $ $ $ @ @ + + + + + + + + + + X X . . . . . . . . . . . . X X X X X X X X . . X X X X X X . . X X X X X X X X X X X X X X + + + + + + + + + + @ @ @ @ * @ * * * - - - - - - - - ; ; , < 1 1 1 1 1 2 8 8 e r r r r u p a c x x x B B F F F H H H U U Y Y R Y Y Y R R ' ' ' R R Q } Q Q Q !  . . . . . . . . . . . . . .=.=.-.-.-.;.:.:.2.2.3.3.i.a.a.g.h.h.N.V.V.D.F.(.{. X#X&X>X&X|.(.A.m.m.s.i.2.2.2.2.2.:.2.3.u.a.g.j.j.N.Z.H. XaXFXFXAXwX&X]./.{. X&X&X#X;X>X>X&X$X|.|._.(.D.V.N.h.a.a.7.3.3.2.2.2.2.2.x.7.1.1.u.d.s.a.c./.tXKXHXxXZXKXfXOXb.a.k.l.g.2.7.7.3.2.2.2.2.2.2.2.2.:.:.;.;.;.;.;.=.=.=.=.=.-.=.=.=.=. . .! ! } } } } Q Q R R R Y Y Y H H H H H H H J J J H H E J J H H K F F K K J H Y Y Y Y Q Q Q Q ",
"R R Q R R R Y Y R Y Y Y Y Y J J U U H H H H H F F F F F F B B B F F F F F F F F F F F F F F F F H H F F B B B B F F F F B B B B F F F F F H H G H J Y R R }  . .-.;.:.:.9.!.eXVXGXAXGXDXsX@Xv.a.u.3.7.8.,. .R E Y Y Y J H H H H F U ~ %.1.3.p.Z._.{.$X>X<X:X:X:X>XeXuX&X~.@XeXhXGXFXBXuX].M.j.j.k.g.i.7.6.6.,.:.-.-.-.=.;.2.p.c.A.^.|.&X>X>X#X@X$X|._.F.D.V.V.V.j.h.g.a.a.7.7.2.;.=. .Q Q R R R R R R R R R R R R R R R R R R R Y Y Y Y U U Y Y H H H H H F F F B B B B x x x x x a a a u u r r i i y y r r e e 2 2 1 1 1 1 , , 1 < , ; ; ; - - ; - - - $ @ @ @ + + + + + + + + O + X . . . . . . . . . . . . X X X X X . . X X . . X X X X X X X X + + + + X X + + + + + + + + + + + + + + + + + + @ @ @ @ * @ * * - - - - - - - - - ; , < 1 1 1 1 1 1 2 2 8 8 8 8 8 9 r u p p a x x b B F F F H H H U U Y Y Y Y Y R R R R R } R Q Q } Q Q } !  . . . . . . . .}  . . . . . . .-.=.-.-.;.:.:.:.2.2.7.i.a.s.g.h.j.N.V.V.F.F._._.|.&X>X>X$X/.S.M.V.m.s.7.2.2.;.;.;.:.2.3.y.y.g.k.Z.k.k.C. XaXFXHXLXfX;X~.].{.|.$X#X#X&X,X,X*X*X&X|.{.(.F.D.V.h.s.i.i.7.3.2.2.2.2.9.6.6.2.7.i.a.a.f.a.b.#XBXKXGXAXzXvX<X(.N.g.i.7.7.7.7.3.2.2.2.2.2.2.:.:.;.;.;.=.;.=.=.=.=.=. . .=.=.=. . . . . . . .} } } } } } R R R Y Y H H H H H H J J H F F F b x x x x a u a x x B F F J J R R R R ",
"R R R R Y Y Y Y Y Y Y Y J H H H U H H H H H F F F F F F F F F F F F F F F F F F F F F F H H H F H H H F B B B x F F F F F F F F F F F H H H H J Y Y R Q Q  .=.=.2.:.9.n.2XBXGXGXmXZXZXeXG.f.y.e.7.2.;. .} Y Y Y F H H J Y U H H R Q ;.3.i.c.A.).$X>X<XwXrXrXrXrXwX1X*X%X&XrXmXGXFXMX3XS.m.N.j.g.i.i.y.3.2.:.-.=. . . . .;.7.c.D.^.{.$X>X&X$X|.{.}.`.(.D.V.N.N.N.h.g.s.i.7.2.:.=.! ! Q Q R U U U Y Y Y Y Y Y Y Y R R R R R R R R Y Y U U H H U U J J H H F F F F N x x x x x x a p a a a i u r r r r r e r 8 e 8 2 2 1 1 1 , , , 1 < < ; ; - - - ; - - - $ $ @ @ @ @ @ @ @ @ @ @ + + X X X X . . . . . X X X X X . . . . . . . . . . . . . . . . + + + + + + + + + + + + + + + + + + + + + + + + + + @ @ @ @ @ @ * * * - - - - - - - - ; , < 1 1 1 1 1 1 2 8 8 8 8 8 8 r r u u u a x x b B F F F F F H H H Y Y Y Y Y Y R R R R R R Q Q } }  .Q ! } } } } } } } } } }  . . . . . . . .=.=.-.;.:.:.2.2.7.7.a.s.g.h.j.j.N.V.D.F.(.(.{.|.$X&X&X|.^.A.V.N.h.i.3.2.;.=.>.:.:.2.7.i.a.a.g.j.j.j.V.{.eXmXGXGXbXwX$X|.{. X$X$X&X&X>X>X>X>X=X$X|._.(.F.V.m.s.p.a.i.3.3.2.2.2.6.8.8.7.3.3.3.y.g.h.c.^.tXJXGXzXFXGXfX@Xn.c.h.i.i.7.3.3.2.2.2.2.2.:.;.;.=.=.=.-.=.=. . . . . . . . . . .} } Q } } } } } } } ' Q R R Y Y J H F H H H H H F F F a u 9 9 r e 8 1 e e r i a B F F H H H H ",
"R R Y Y Y Y Y J Y Y Y Y H H H H H H H H H F F F F F F F F F F F F F F F F F F F F F F F H H H F Y Y J F F B B x H H H H H H H H H H H H H H H U R R Q ! X.=.;.;.5.b._.wXSXGXzX7XAXdX Xh.i.d.d.&.,.=.! ^ W I J ` F F G Y Y Y Y E -.6.p.m.V.F._. X;X:XwXrXaXaXsXsXfX:X].[.3XCXFX7XBXOXv.N.B.j.a.9.6.7.i.y.1.;.X.X.R R Q  .:.x.D.).{.$X>X>X&X|.`.).F.F.F.F.D.V.N.N.h.s.i.7.6.:.=. . . .} } R R Y J Y Y Y Y Y Y Y Y R R R R R R R R Y J H H H H H H J J J H F F F F x x x x x x a a p p a a a i u y r r r r r r r r 2 2 2 1 1 , , , 1 1 < , ; - - - ; ; - - $ @ @ @ @ @ @ @ @ @ @ @ + + + X X X . . X X X X X X X X . . . . . . . . . . . . . . . . . . O O O O . . + + + + + + + + + + + + + + + + + + @ @ @ @ @ @ * * * - - - - - - - - ; , < 1 1 1 1 1 2 8 8 8 8 e e r r r i i a a x x b B F F F F F H H H J Y Y Y Y R R R R R R Q Q Q } }  . . .} } } } } } } } } }  . . . . . . . .=.=.=.;.;.;.:.2.6.7.a.s.g.g.j.j.N.V.D.F.F.(.`.].[.#X,X*X_.n.V.N.h.d.i.2.-.=.! =.=.:.6.7.i.i.f.N.D.V.s.b.'.&X7XAXKXVXwX$X{.}.|.$X$X@X#X;X>X>X2X#X$X X`.).D.M.m.s.s.i.7.3.3.2.y.3.3.2.3.7.i.a.e.i.f.k.j.n.OXbXDXFXAXHXGXtX).g.a.i.i.7.7.3.3.3.:.:.:.:.-.>.=.=.-.-.=. . . . . . . .} } Q R R R } } Q Q R R R R Q R R Y Y H H F H H H H F F b b i r 8 8 e 5 2 < : : 2 e u x b B B B B B ",
"Y Y Y Y Y Y Y Y H H H H H H H H F F F F F F F F F F F F F H H H B B B B F F F F F F F F F F F F B B B B F F F F F F F B B F F F R Y E W W E Y R ( [ ' } ..,.3.z.n.<XFXAXxXzXGXFXXXG.c.p.p.p.6.-.} Q Q R R Y U U G G Y Q =.:.6.6.g.g.j.V.D.S.Q.].$X<XsXbXcXpXdXfX>X~.OXhXGXFXZXVXD.V.m.g.g.a.i.7.3.1.=. . .} Q ~ R  .2.a.V.).{.%X&X$X$X|.{.{._.(.F.F.V.V.N.N.m.h.7.7.2.;.-.=. . .X.Q Q R R R R R R R R R R ' ' ' R R R R R R R R Q Q R R R R R Y Y Y Y Y H H H F E U H F b x a a a a a a i u r r e e e e 8 e e 5 1 2 1 1 1 1 , < ; ; ; ; ; ; - - - $ $ @ @ + + + + + + + + + + + . . . . . . . . o o o . . . o o                 . . . .       . o o o o . . . o . . . . . . . . . . . . + + + + @ @ @ @ @ @ @ @ + + @ @ @ @ * * - - - - ; ; , , 1 1 1 2 8 8 9 r r r r u u p p a x x x b b F F F F F H H H H H U Y Y Y R R R R R } } } } } } } } } } } } } } } } } } } }  . . . . . . .=.=.-.=.-.-.;.:.2.3.3.i.a.s.h.m.N.V.V.D.D._._.{.|.$X&X&X>X|.{.F.M.s.a.i.i.=.;.;.:.:.2.2.7.a.s.h.j.N.V.V.D.#XfXGXHXzXiX&X_.`. X$X&X$X&X&X*X&X>X>X&X$X{.(.F.V.N.h.a.a.i.7.6.3.2.6.6.6.7.7.i.3.3.7.i.a.h.N.B.rXMXGXzXzXGXbXwXD.e.6.a.l.u.,.+.4.4.u.u.u.3.,.<.:.:.;.-.=.=. . .} } } } } } ' ' Y Y R R R R R R ' ' R Y Y U E E H H H F B x i r r r 9 9 9 r 8 8 - ; ; , 1 8 r s x x x x ",
"Y Y Y Y Y Y Y Y H H H H H H H H F F F F F F F F F F F F F F F H B B B F F F F F F F F F F F F F B B B F F F H H H H H H H H H H H H Y E R R R } X.R  .9.0.=.e.|.mXMXDXAXGXFXrX].v.x.7.3.3.6.-. .R R R R R R Y Y Y ' Q X.=.;.2.2.h.h.N.D.(./.[.$XwXwXqXrXrXwX:X#X$X1XdXvXFXGXrX~.V.N.N.h.a.a.7.7.2.:.;.=. . . .~ =.:.i.m.D._. X$X&X$X|.{.{.(.(.F.D.D.V.N.N.N.g.s.7.7.2.:.=.=. . .} ! Q R R R R R R R R R R R R R R R R R R R R R Q Q R R R R R Y R Y Y Y H H H F H H F b b x x x a a a u u u r r r r e e e e 8 e 1 1 1 1 1 < , ; ; ; - - - - - - - $ $ @ @ + + + + + + + + + + + . . . . . . . . o o o . . . o o                 . . .         . . o o . . . . o . . . . . . . . X X X + + + + + @ @ @ @ @ @ @ @ + + @ @ @ @ * * - - - - ; ; , , 1 1 1 2 8 8 9 r 9 r r u u p p p x x x b b F F F F F H H H H Y Y Y Y Y R R R R R Q Q } } } } } Q } } } } } } } } } } } }  . . . . . . .=.=.=.=.=.-.;.:.2.2.7.i.i.s.s.h.N.N.V.V.D.(.(._.{.|.$X$X&X$X|._.F.D.M.c.s.;.;.;.;.:.2.2.7.i.a.a.h.j.N.V.V.S.$XaXGXGXGXdX<X_././.{.|.$X&X&X&X&X>X&X$X|.{._.F.D.m.g.a.a.i.7.3.3.7.6.6.7.7.7.7.7.7.i.a.s.h.m.r.@XsXDXGXGXGXSXqX%XB.u.6.e.b.u.,.6.2.2.2.2.2.2.:.:.;.;.=.=.=.=. . . .} } } } } R R R R R R R R } } ' R R Y Y Y Y J H K B x i r s y y u s i i i 0 y 0 2 1 1 2 5 u u u u ",
"Y Y Y Y J J J Y H H H H H H H F F F F F F F F F B B B B F F F F F F F F F F F F F F F F F F F F b b b B F F H H T E U U H H H H J J Y ' R R Q ~ 5.4.1.1.9.!.wXSXAXGXLXJXfX>XS.y.6.2.2.2.:.>. .Q U Y Y Y R R R ' } >.>.4.1.1.3.i.m.V.F.`.|.$X>X<XpXiX0X:X#X#X@X[.eXdXAXHXZX0X(.j.N.N.j.h.a.i.3.2.:.;.=. . .=.=.;.3.i.c.D.(.{.$X#X>X&X|.{.`.(.F.F.D.V.N.N.j.h.a.a.7.3.2.;.=. . . .Q Q Q Q Q R R R R R R R R R R R R R R R ' ' } ' Q Q R R R R R Y R Y Y Y H H F F B B b b b x x x a a u u u r r u r r r e e e e e 1 1 1 1 < , , ; ; - - - - - * * - $ @ @ + + + + + + + X X X X X X X . . . . . . o o o . . . . .                 . .         . . . . . . . o o o . . . . . . . . X X + + + + + + @ @ @ @ @ @ @ @ + + @ @ @ @ * * - - - - ; ; ; , < < 1 2 2 8 r r 8 8 r r u u p p x x x b b F F F F F H H H J Y Y Y Y Y R R R R R } } } } } } } Q } } } } } } } }  . .} } } } } }  . . . .=.=.=.=.-.-.;.:.2.3.7.i.i.a.g.j.N.N.V.V.F.F.(._.{.{.|.|.&X$X|.{._.F.A.M.2.2.1.;.;.2.2.6.6.7.i.a.h.j.N.N.j.D.|.eXDXKXAXxX,X|././.}.[.@X+X#X#X&X>X&X$X|.|._.(.F.M.h.g.a.a.y.y.7.7.6.6.7.7.7.7.7.7.i.a.a.a.a.c.^.,XBXGXGXHXJXVXeXW.p.a.z.d.,.<.<.,.-.=.1.4.2.2.:.;.;.;.-.-.=.=. . . . .} } Q Q } } Q Q Q Q R ' R R R Y U H E J H F B x a u y y e y h s s a v z p u 8 2 < : 1 1 1 1 ",
"H H H H H H H H H H H H H H H F F F F F F F F F b b b B b b F F F F F F F F F F B B B B B B B B B B B F F F H K E U J K F F F F E J Y R Q Q X.0.1.4.4.e.~.bXGXFX7XAXFXrX'.d.u.a.2.2.:.:.=.} R Y Y Y Y R R Q } } =.2.4.y.y.a.c.M.F.(.{.$X>X<XeXtXpXaXeX&X[.[.#XeXVXFXGXSX+Xb.h.j.j.j.g.a.i.7.2.;.=.=. . .=.;.2.3.s.m.V.F._.|.#X#X&X$X|.{._.F.D.V.V.V.N.j.j.g.a.y.2.2.:.;.=. . .} Q Q Q Q Q R R R R R R R R R R R R R R ' } } } } Q Q R R R R R Y R Y Y Y J H F F b b b b b b b x a a u u u u r r r r r r e e e e 1 1 1 1 1 < , < - - - - - - @ @ $ $ @ @ + + + + X X X X X X X X X X X X . . . . o o o . . . . .                             . . . . . o o o . . . . . . . . . . X X X + + + + + + + + + + + + + + + @ @ @ @ * * - - - - ; ; ; ; < < 1 1 2 8 8 e 8 8 r r u u u p a x x x b B F F F H H H H Y Y Y Y Y Y R R R R R } } } } } } } Q } } } } } } } }  . . .} } } } }  . . . .=.=.=.=.-.-.;.;.:.2.2.3.i.i.a.g.j.N.N.N.V.D.D.F.(._.{.{.$X$X$X|. X_.(.S.p.i.3.3.2.2.:.:.,.6.7.i.a.h.j.j.B.B.D._.<XbXAXzXDXrX#X XXX X@X#X$X&X&X>X>X&X$X$X|.{._.F.V.N.h.g.a.a.i.i.7.7.2.6.7.7.7.3.3.i.i.i.l.a.i.v.$XrXSXGXGXAXAXnX%XN.y.8.u.7.6.,.-.=.1.4.2.:.:.:.;.>.:.:.=.=.=.=. . . . . . . . . .! Q Q R R R R Y U H H K H F B b x a a 2 2 2 8 r u u u x x x a u r e 5 , , , , ",
"H H H H H H H H H H H H H H H H F F F F F F F F b b b B F F F F H H H H F F F F B B B B B B B B K K F F F K J J F F F F B B B N K H T ! =.>.>.0.:.,.!.rXFXFXAXHXLXbX;Xn.a.u.4.6.>.>.>. .R U U U R ' } }  . .=.-.7.a.s.h.m.M.F.(._.|.$X>X<XwXrXrXwX<X>X$X@X;XaXJXxXGXSX@Xc.l.B.j.j.g.a.i.7.2.:.;.=. . .=.;.2.p.c.V.D.F._.|.$X#X#X|.|._.(.F.D.V.N.V.N.j.j.g.a.7.3.2.:.;.=. .Q Q Q R R Q R R R R R R R R R R R R R R R ' } } } } } Q Q Q R R R R Y R Y Y Y H H F F B B x x x x x x p a i u u u r r r r r e e 8 8 8 1 1 1 1 < < , : ; ; - - - - - $ $ $ @ @ + + + + X X X X X X . . X X X X . . . . . . . . o o . .                             . . . . . . o o o . . . . . . . . . . . . . O O O + + + + + + + + + + + @ @ @ @ * * $ - - - - ; ; ; : < < 1 2 2 e e e e r r u u p p a a x x b B B F F H H H H Y Y Y Y Y R R R R R R } } } } } } } } } } } } } } } }  . .} } } } } }  . . . .=.=.=.=.-.-.=.;.;.:.2.2.7.i.a.g.h.j.N.N.N.V.V.D.F.(._.`.[.[.|.$X$X|.{._.A.M.p.a.y.3.2.;.,.,.6.7.i.a.h.j.N.N.j.M.^.;XnXKXGXSXiX<X&X|.|.$X$X$X&X>X>X&X&X&X&X$X|._.(.D.V.N.h.g.s.a.7.3.2.2.7.7.7.7.i.i.i.i.i.y.u.g.c.n.>XCXxXAXGXLXGXqXQ.m.l.f.y.2.6.6.2.:.;.;.;.;.;.=.>.>.=.=. . . . . . . . . . . . . . .} } } ' R Y H H F b b b b b x x r r r r u s p u i i a a x c c p r r r r ",
"H H H H H H H H H H H H H H F F F F F F F F F F B F F F F H H H Y U H H F F F F B B B B B B B B B F B F F F F F B B B B B B B B U T ~ >.>.;.-.,.t.OXbXGXGXGXDXDXeX Xv.i.i.8.:.} =.X. .Q R R R } }  . .=.:.2.7.i.m.m.V.V.D.F._.{.|.&X>X:X<XwX:X:X*X$X[.#XwXbXGXFXAXcX$XV.l.l.B.c.g.a.3.2.2.:.>.;.=.-.:.;.2.p.M.D.(._.{.$X&X&X&X$X{._.(.F.F.D.V.N.N.N.h.g.a.i.2.:.;.=. . .} R R Y R R R Y Y Y Y Y R R R R R R R R R R ' ' ' ' ' ' Q Q R R R R R Y R Y Y Y H H F F B B B x x x a p u u a i u u r 9 r e e 8 2 2 2 1 1 1 1 < < , ; : ; ; - - - $ $ @ $ $ @ @ + + + + X X X X X . . . X . . . . . . . . . . . o o . .                             . . o o . . . . o . . . . . . . . . . . . . O O O O + + + + + + + + + + @ @ @ @ * * $ $ - - - ; ; ; : < < 1 2 2 8 e 8 e e r r u u i a a a x x B B B F F H H H J Y Y Y Y R R R R R R } } } } } } } Q Q Q Q Q Q Q Q Q }  .} }  . .} } }  . . . . . .=.=.=.=.=.=.;.;.;.2.3.i.a.a.h.h.h.N.N.V.D.D.F.(._._.{.|.$X$X$X|.{.(.F.M.m.s.a.3.:.2.2.6.6.7.i.a.g.c.m.N.N.M.S.$XuXGXGXFXbX0X#X|.{. X|.$X&X&X&X#X#X&X&X$X|.{._.F.F.V.V.m.s.a.i.3.3.7.7.7.7.i.i.i.i.,.6.i.g.a.p.v._.pXmXGXGXGXGXfX>XV.m.y.3.3.3.6.:.;.=.=.=.=.=. . . . . . . .} } }  . . . . . . . .} } } R Y Y H F b b x x x b b b x x a a a a a p t t i a x n Z v x x x x ",
"H H F F F F F F H H H H H F F F F F F F F F F F F F H H H H U Y Y U Y H H F F F B B B B B B B B b b b b b F F F G G G G J Y Y R ' } >.>.:.,.r.Q.uXJXGXAXZXJXhX>Xv.p.u.u.a.6...R  . .} } } } ..-.-.;.:.2.i.a.h.j.m.N.V.V.F.(.{.|.#X>XwXwXwX<X>X#X%X$XOX0XMXGXGXZXsX].v.B.H.j.g.h.a.7.2.;.-.:.>.;.=.;.:.:.2.p.M.F.{. X$X&X&X&X|. X_._.(.F.D.D.V.N.h.g.a.a.i.2.:.-. . .} Q R Y Y J Y Y U H H J J J R R R R R R R R R R R R R R R R Q Q R R R R R Y R R Y Y H H F F F F B x x a a a u u u u u r r r e e 2 2 1 1 1 1 , , , , ; ; ; ; - - - $ $ $ @ @ $ @ @ @ + + + + . . . . . . . . . . . . . . . . . . o o o o . .                 . .             o o . o . o o o . . . . . . . . . . . . O O O O + + + + + + + + + + @ @ @ @ * * $ $ $ - - ; ; ; : : < 1 2 2 2 5 e 8 e r r u u u a a a x x B B B F F H H H H Y Y Y Y R R R R R R Q Q } } } } } Q Q Q Q Q Q Q Q Q } } } }  . . .} } }  . . . . . .=.=.=.=.=.-.-.-.:.2.3.i.a.a.s.s.N.N.V.V.D.F.(.(.(._.{.|.$X$X$X|.{.(.F.V.m.s.i.2.2.2.:.2.6.7.i.a.c.m.B.B.j.m.F._.sXDXGXFXvXaX#X_.{.{.|.$X#X#X&X&X&X&X&X#X$X|.{.^.F.F.V.N.h.a.i.i.7.7.7.7.7.7.7.7.8.6.3.i.g.g.i.3.H.*XlXxXSXKXGXAXwX@Xn.p.y.y.2.:.-.=.=.=. . . .!  . . .} } } } } } } } } } }  . .Q Q R Y U H F F n b x x x B F Z F F b b x x a a i i a a x B b v B B B B ",
"H H F F F F F F H H H H H F F F F F F F F F F F H H H J Y Y Y Y Y Y Y J G F F F b b b b b b b b B B B F F F K J J Y Y R R ~ ! ! | -.:.4.6.n.-XIXGXFXHXHXKXdX].x.l.a.3.1.4.5. .|  .} } ' }  .-.:.6.7.7.i.a.g.j.j.h.h.m.M.F.(.{.|.>XwXrXrXwXwX,X&X[.#XrXMXGXGXSXbX(.D.Z.p.c.m.h.f.7.6.;.-.-.=.>.1.;.;.;.:.2.8.M.F.|.$X#X>X#X$X{._.(.(.S.D.V.V.N.j.s.a.a.i.7.2.-... .} } R Y J J H Y H H H H H G K Y Y Y R R R R R R R R R R R R R Q Q R R R R R Y R R Y Y H H F F F F B B x a i i a a u u r r r r 5 2 1 1 1 , , , , ; ; ; - - - - - - * @ @ @ @ @ @ @ @ @ + + + + . . . . . . . . . . . . . . . . . . o o o o . .                 .               o o o o . . . o . . . . . . . . . . X X + + O + + + + + + + + + + + @ @ @ @ * * $ $ $ $ - ; ; ; ; : < 1 2 2 2 5 2 8 e e r r u u a a a x x B B B F F H H H H U U Y Y R R R R R R Q } } } } } } } Q Q Q Q Q Q Q Q } } } }  . .} } Q }  . . . . . .=.=. .=.=.=.-.-.-.:.2.7.i.a.s.s.N.N.N.V.D.F.F.(.).(._.|.$X$X$X[.{._.F.V.N.h.a.3.2.2.:.:.:.2.3.y.g.a.g.k.B.N.N.D./.1XDXAXAXDXtX.X_._.{.|.$X&X&X&X&X&X>X>X>X#X[.[.`.).F.V.N.g.a.a.7.7.7.7.7.3.3.2.7.i.i.3.3.y.d.d.f.g._.aXAXxXAXSXGXSX2XG.d.u.i.7.-.>.-. . . .} }  .} } } } } } } } } R } } } } }  . .Q R Y H H F F B x x x B F Z H H F B b N x a x z p x x N N N x x x x ",
"F F F F F H H H F F F H H H H H H H H H H H H J Y Y Y Y Y Y H H U H H F Z n x v a a a a a x x N F F F F H H H H H A I I ~ } | ] 5.4.2.b.$XsXDXAX7XAXKXhXXXv.p.i.7.2.:.=. . .! !  . . . . .;.2.4.7.i.a.h.j.N.A.S._.{.|.$X#X>X>X>X&X&X>X<X>X&X$X|.%XtXSXAXAXDX1XS.M.V.N.N.j.s.a.i.3.2.:.:. . . . .:.2.3.3.p.A._.|.&X$X$X|.|.|.{._.).F.D.V.V.N.N.j.a.a.i.3.2.:.;.=. . .} Q R R R R Y Y H H H U R Q Y Y Y Y Y Y Y Y Y Y Y Y R R R R Q Q Q Q Q Q Q Q Y Y Y Y J G G F F B B b x x a a u u r 2 2 2 8 8 2 2 2 2 2 2 2 2 , , ; ; ; ; - - @ @ @ $ $ - - - @ @ @ + + + + + . . . . . . . . . . o o o o o o               o . . . . . . . . . . o o o o o o . . . . . . . . . . X X X X X X + + + + + + + + + + + + @ @ @ @ @ @ @ @ @ @ @ @ - - - ; ; ; ; ; : : ; < < < 1 1 8 8 r r r u u a a a a x x x B B B B F F F H H H Y Y Y R R R R Q } } } } Q Q } } } } } } } } } } } } } } } } } } Q Q } } } } } }  . . . . . .=.=.-.-.;.2.7.i.a.a.h.j.N.N.V.V.D.D.F.F.(._.{.|.$X$X$X|.{./.S.V.N.j.6.:.;.>.:.2.3.i.a.a.a.g.h.N.N.N.V._.1XnXDXAXZXZX X X_.(.{.*X&XOX@X&X&X$X$X&X&X@X|.{._.^.S.V.j.j.s.a.7.2.2.3.3.3.6.6.7.7.7.7.i.i.7.2.7.A.-XhXFXAXGXGXSXbX;Xr.6.4.7.2.;.0.>.!  .-. . . .=. . . . .>.>..... . . .}  .} R Y H J J J J H F F b B F B b x x a a a x x a a a x x b b Z b b b x ",
"F F F F F H H H H H H H H J U U U U Y Y Y Y Y Y R R Y Y Y Y U H H H F F B b x x p p z z x x b b H H H H H H H H Y R Y Y R  .4.z.%.7.W.>XBXKXGXxXGXMXwX].v.i.d.d.2.2.;.=.=.=.=.>.=.=.=.-.-.:.2.3.i.p.h.N.V.D.F.).{.|.$X#X#X>X>X>X>X#X&X$X[.].[.$XnXmXGXGXmX;X^.m.N.N.N.j.g.a.i.7.2.2.;.=. . .=.;.7.d.d.s.M.(.|.$X$X$X|.|.{.{._.(.F.D.D.V.N.N.h.h.a.a.i.3.2.:.=.=. . .} Q R R R R R Y Y H H Y Y R Y Y Y Y Y Y R R Y Y Y Y R R R R Q Q Q Q Q Q Q Q R R Y Y J J G G F B B b x x a a a i r e 2 2 8 0 2 2 1 1 1 1 2 2 , , ; ; ; ; - - $ $ $ $ $ - - - @ @ @ + + + + + . . . . . . . . . . o o o o o o                 . . . . . . . . . . o o o o . o . . . . . . . . X . X X X X X X + + + + + + + + + + + + + @ @ @ $ $ $ $ $ $ $ $ - - - - ; ; ; ; ; : ; : , < 1 1 2 8 e r r r u i i a a a x x B B B B F F F H H H Y Y Y R R R R Q } } } } } Q } } } } } } } } } } } } } } } } } } } } } } } } } }  . . . . . .=.=.-.-.;.:.2.7.i.a.g.h.j.N.N.V.V.D.F.F.(._.{.{.|.$X|.|.|.{.(.F.V.N.i.7.2.:.:.2.7.7.i.i.a.a.h.j.N.N.V.D./.;XnXGXGXAXhX>X].}.}._.[.>X@X$X$X$X$X&X>X#X$X$X|.{.(.F.V.N.g.a.i.3.3.7.7.i.6.6.6.3.7.7.i.i.p.i.a.i.x.Q.eXVXGXAXZXFXJXuX'.e.z.u.7.6.-. . .0. . . .=. . . . . . . . . . . .} } Q Y Y H H G J J J H F F F F F b b x a a a a a a a a x x b b b b b b x ",
"F F F F H H H H J H H U U Y Y Y Y Y Y Y Y Y Y R R R R R Y Y U U J G F F B B B B K K H H J Y Y E Y Y U Y Y R R R ~ R ] { ..2.u.f.A.|.sXGXAXFXGXGXuX*XW.p.y.y.u.u.2.2.:.-.-.-.-.:.;.;.;.:.:.2.7.7.a.h.N.V.D.(.`.}.|.$X&X>X>X<X>X>X+X#X@X]./.[.<XsXAXAXGXBX>XS.N.k.N.j.j.g.a.i.2.2.:.;.=. . .=.:.2.p.Z.C.G.(.{.$X&X$X$X|.{.{._.(.F.D.D.V.N.m.h.s.a.i.7.7.2.:.;.=.=.} } } Q Q R R R R R Y J J Y Y Y Y Y Y Y Y Y Y Y Y Y R R R R R R Q Q Q Q R R Q Q R R Y Y Y J G G F F B B x x a a a a i r e 8 8 0 2 2 2 1 < 1 < < , , ; ; ; ; - - - - - $ - - - - @ @ @ + + + + + . . . . . . . . . . . . . . o .                 . . . . . . . . . . . . . . . . . . . . . . . . . . . X . . X . + + X X + + + + X + + + + + @ @ @ @ $ $ @ @ @ @ @ $ $ - - - - - - - ; ; ; : < < , 1 2 8 8 r r u u u i a a x B B B B F F H H H J Y Y Y R R R R Q } } } } } } } } } } } } } } } } } } } } } } } } } } } } } } } } } }  . . . . . .-.-.;.:.2.7.7.i.a.g.h.j.N.N.V.V.D.D.F.(._.{.{.|.|.|.$X|.{.(.F.D.m.s.i.4.2.2.2.2.3.3.i.a.g.j.j.N.B.j.c.S.&XfXDXGXFXmXwX~.W._.$X&X$X$X$X|.|.&X&X&X&X&X$X$X{._.F.D.N.h.a.i.3.7.7.7.6.6.2.2.3.3.7.7.7.a.g.a.y.i.S.XXcXSXGXGXGXGXhX3XH.x.3.3.i.9.=.Q  .=.=.=.=.=.=.=. . . . . . . . .} R Y H F F F F Y J J H H F F F F b x p u i a a a a x x x b b b b b x x ",
"F F F F H H H J Y U U Y Y R R R R R Y R R R R R R R R R R Y Y Y Y Y Y Y J H H H H U U U U Y R R R R R Q }  . . .! =.:.,.6.8.c.M.tXnXFXzXxXzXbXhXS.v.p.y.u.z.4.;.3.2.:.;.-.-.;.;.:.:.2.2.6.7.i.a.g.h.N.D.F._.{.|.$X&X>X<X<X<X>X>X&X&X X X=XeXMXGXAXFXsX[.A.V.B.j.j.j.g.a.i.2.:.;.-.-.=.=.=.:.3.a.m.V.G.)._.$X&X>X$X|.|.{._.(.F.F.V.V.m.h.s.s.a.i.6.2.2.;.;.=. . .} } Q Q R R R R R R Y J H J Y Y R R R R R R R R Y Y R R R R R Q Q Q Q Q Q Q Q Q R R Y Y Y J J G F F F B b x x x x a i r e 8 8 8 2 2 < < : ; ; : , , ; ; ; ; - - - - - - $ - $ $ @ @ @ + + + + + + X . . . . . . . . . . . . . . o o o o o o o o . o . . . . o o . . . . . . . . . . . . o o o o . . . X . . . . X X X X X X X X X X + + + + + @ @ @ @ @ @ @ @ @ @ @ @ @ * - - - - - ; ; ; ; : : ; , 1 2 8 8 r y r u u u a x x x B B F F H H H J Y Y Y R R R R Q } } } } } } } } } } } } } } } Q } } } } } } } } Q Q Q Q Q Q Q Q } } }  . . . . .=.=.-.;.:.2.7.7.i.a.g.j.j.N.N.V.V.D.F.F.(._.{.{.|.$X$X$X|.{._.(.V.N.s.i.3.2.2.:.2.2.7.i.a.h.j.j.j.j.N.N.F.[.rXMXAXGXDX+XOX|. X{.$X$X|.|.|.$X$X$X&X&X&X&X$X|._.^.V.V.h.a.i.i.3.7.3.3.2.2.3.3.3.7.7.7.a.z.f.u.i.i.!.<XMXAXzXAXGXGXrX@Xr.3.z.z.2.=.-.-.-.-.>.>.-.=. . . . . . . . .R R Y H F F F F U U H H H H H F F b x p u i a a a a x x x b b b x x x x ",
"F F F F H H H J Y Y U Y Y R R R Y Y Y Y Y R R R R R R R Y Y Y Y Q Q R R R R R R U R R R R R Q Q Q Q }  . .=.-.;.-.4.z.u.3.r.;XBXFXFXxXzXAXhX XM.c.i.3.1.2.2.6.,.3.2.:.;.-.-.;.;.:.2.2.3.i.i.s.s.N.V.D.F.(.{.|.$X#X>X<X<X<X<X>X#X$X$X%X&XrXmXAXAXSXsX$Xv.g.m.m.p.g.a.i.3.2.;.-.-.....>.-.;.2.a.s.m.D.)._.|.&X>X>X%X|.{._.(.F.F.D.N.N.h.s.a.i.3.3.;.;.-.=. . .! Q R R R R R R Y Y Y Y H H H H J Y R R R R R R R R R R R R R Q } Q Q Q Q Q Q Q Q Q R R R Y Y J J J F F F B B x x x x a i r r e 8 9 2 2 1 < : ; : ; , , ; ; ; ; - - - - - - $ $ @ @ @ @ + + + + X X + X . . . . . . . . . . . . . . . . . . . . . . o o o o o o o o . . . . . . . o . . . . . o o o . . . . . . . . X X X X X X X X . X X X + + + + + + + + + + + + @ @ @ @ @ * * - - - - ; ; ; : : ; , < 1 2 8 e r r u u u a a a x B B B F H H H J Y Y Y R R R R Q } } } Q } } } } } } } } Q Q Q Q R R R R R R R R R R R R R R R R } } } }  . . . .=.=.=.-.;.:.2.2.7.i.a.g.j.j.N.N.V.V.D.F.(.(._.{.|.|.$X$X$X|.{.{.F.D.m.s.a.7.2.:.2.2.7.i.i.a.g.j.m.N.B.B.j.v.].2XHXZXFXGXbX;X].XX|.|.{.{.|.|.|.$X&X&X&X&X&X$X|.{.(.F.V.m.s.i.3.3.7.3.3.3.2.2.3.3.9.6.2.3.y.i.a.a.f.V.[.rXSXKXGXzXGXSXeX'.i.1.y.g.;.-.=.=.=.=. . . . . . ... . . .R R H F F B B F H H H H H F Z Z F b x a p a a f x x x x x x x b x x x x ",
"F F F F F H H H J J H U U Y Y Y U U U U U Y Y Y R R Y Y U H H H R R R R R R ~ ~ Q Q } } }  . . .R R Q  .=.=.;.:.,.2.y.h.`.eXSXHXAXAXGXMXeX}.h.u.i.i.7.2.2.,.,.,.2.2.;.;.;.:.2.2.2.2.3.i.a.s.m.m.D.F.(._.{.|.$X&X#X>X<X:X<X<X>X&X{.$X<XaXSXGXGXzX3X{.M.V.B.h.8.e.i.i.2.:.-.-.-.-. .=.-.:.2.7.s.h.V.F._.|.$X&X>X>X%X X{.(.F.D.D.V.N.j.g.a.i.7.2.:.=. . . .Q Q Q Q R R R R R Y Y U H H H F H H Y Y Y Y R R R R R R R R R R Q } } } Q Q Q Q Q Q Q Q R R R Y Y J J J H H F F B B x x x x a u r r 9 9 8 2 2 1 < , : : , , ; ; ; ; - - - - - - @ @ # + + + + + + + X + + X X . . . . . . . . . . . . . . . . . . . . .                 . . . . . . o o                 . . . . . . . . . . . . X X X X . X X X + + + + + + + + + + + + @ @ @ @ @ @ * * - - - ; ; ; < < , , 1 2 2 8 8 r r r u u u p a a b B B F H H Y Y Y Y Y R R R R Q } } Q Q } } } } } } } } Q R R R R R R R R R R R R R R R R R R R } } } } }  . . .=.=.=.=.=.;.;.:.6.7.i.a.g.k.j.N.V.V.V.D.F.(.(._.|.|.|.$X$X$X|.|._.(.D.M.m.s.i.7.7.7.7.7.i.a.a.s.m.N.j.j.B.V.A.n.3XfXGXGXGXdX;X.X[.]._.{. X|.|.$X$X$X&X&X&X&X$X|.{._.F.V.m.s.a.i.7.7.3.3.2.2.6.6.:.2.6.6.:.6.p.c.f.f.s.W.2XVXGXGXAXGXGXdX#Xn.i.&.:.;.=.=. . . . . . . . ..... . .Q R Y H F F F F H H F F F B b b B B x a a a x N x x x x x x x x x x x x ",
"F F F F F H H H H H H H J J U U H H H U U U U U Y Y H H H H F F H H H H Y J Y Y H U U Y R R R R R R Q  .=.;.:.2.i.8.r.#XBXKXGXxXAXGXhX-Xv.i.a.d.3.y.i.9.7.6.:.:.2.:.:.;.:.2.7.7.7.7.a.s.h.N.V.V.(._.{. X$X&X&X>X>X>X<X>X>X>X&X$X|.<XbXAXGXGXnXwX).M.h.V.C.h.i.p.4.:.=. . . . .-.=.=.=.=.:.7.s.N.F._.|.$X&X>X&X&X X{._.F.D.V.V.N.j.h.a.i.7.2.:.;. . .} } Q Q ~ R R R R R R Y Y U F F F F J Y R R Y Y Y Y Y Y Y Y R R R R } } } } Q Q Q Q Q Q Q Q Q R R R Y Y Y J H H F F B B x x x x a i u u u 9 y 8 8 1 1 , , : , , ; ; ; ; - - - - - * @ @ + + + + + + + X + + X X . . . . . X X X X X X X X X . . . . . . . .                 . . . . o o o o     . .         . . . . . . . . . . . . . . . . . . . X X + + + + + + + + + + + + @ @ @ @ @ @ * - - - ; , , < 1 1 1 2 2 8 8 8 r r r u u p a a x b B B F H H Y Y Y Y Y R R R R Q } } } } } } } } } } } Q R R R R R R R R R R R R R R R R R R R R ' } } } } }  . .X.X.=.=.=.-.-.;.:.:.3.i.a.g.h.j.N.N.V.D.D.F.(.(._.{.|.|.$X$X$X$X|.{._.F.D.m.s.a.i.i.7.7.7.i.i.i.h.g.g.j.N.V.V.M.^.,XfXSXAXGXMX8X|.{._.{.{.{.|.|.|.|.$X&X&X&X&X$X$X{._.F.D.V.h.s.i.i.7.7.3.6.6.6.%.2.7.6.6.2.3.i.d.g.u.a.x.Q.tXCXZXZXAXFXGXsXQ.<.6.6.:.;.=. . . . . . . . . . . . .} R Y H F F H F F F B b b B b x a a a a x b b x x x x x x x x a x x x ",
"F F F F F F H H F F F H H H H H H H H H H H H J H H F Z Z Z Z Z N B B B B B B F Y Y Y R R ' R R R Q }  .=.:.2.2.a.'.tXHXzXzXFXKXGXqX/.s.f.k.p.8.a.u.3.3.1.3.3.i.2.2.:.:.:.6.7.7.7.i.s.j.N.V.D.D.^._.{.$X$X&X>X1X>X<X<X>X#X&X$X|.2XfXFXHXAXbX*XS.N.V.V.N.j.j.k.u.>.=. .} } }  .=.>.=.=.=.;.7.c.V.(.`.$X&X&X&X&X$X{./.^.F.D.V.N.j.j.h.a.i.3.2.;.=.} } } } } Q ~ R R R R R R Y Y Y V B V G J Y R Q Y Y Y Y Y Y Y Y R Q Q Q Q } } } Q Q Q Q Q Q Q Q Q Q R R Y Y Y Y H H H F B B B x b x a a i u u u r 0 8 2 1 1 < < , , ; ; ; ; - - - - - @ @ + + + + + + + + X X . X . . . . . X X + + + + + + + + X X . . . . . .                 o . . o o o o o       .         . . . . . . . . . . . . . . . . o . . X X X + + + + + + + + + + + @ @ @ @ @ $ $ ; ; ; ; , , 1 1 1 2 8 8 8 8 8 r r r r u a a x x b b B F H H Y Y Y Y Y R R R R Q } } } } } } } } } } } Q R R R R R R R R R R R R R R R R R R R R ' ' } } } }  . .X.X. .=.=.=.-.-.-.-.2.7.i.a.g.h.j.N.N.V.D.F.F.(.(._.{.|.$X$X$X$X@X|.{._.F.C.m.h.a.i.i.7.7.7.7.7.d.d.h.h.m.N.V.D.V.S.OXpXGXAXFXFX-X X{.{.{._.{.|.{.|.|.$X&X&X&X$X$X|.{._.G.G.V.m.i.i.i.7.7.7.6.6.u.y.1.;.:.2.3.y.<.,.u.f.u.p.W.&XFXFXAXzXFXKXnXwXp.9.9.:.:.-.>.>. . . . . . . . .=. .' Y J J J J G F B b b x B B a a a a a x b b x x x x x x x x a a x x ",
"B B F F F F F H H H H H H H H H F F F F F F F F B b b b x b b b B F F H Y Y Y Y ( J H U E E ~ E  . .>.:.,.8.x.H.rXbXDXzXxXzXFXSX).C.s.3.4.4.2.2.2.2.2.2.2.2.2.2.2.2.2.2.3.3.7.i.j.N.N.V.F.F.(._.{. X|.@X#X>X>X&X2X#X$X&X$X[.@X2XzXAXAXDXhX*XG.N.V.V.N.N.h.d.7.2.>.>. .} ' R R R N b I ~ %.3.c.F.@X$X&X&X$X|.{.`.(.F.D.D.V.N.h.h.g.a.y.3.:.=. . .Q  . . . .Q R T R R Y Y U H J J F F H H J Y Y Y Y Y Y R R R R Q Q Q Q } } } } }  . .} } } } } } R R R Y Y Y Y Y H H F F B b b x a a a a i i u r 8 8 2 2 1 1 1 1 , , ; ; - $ @ @ $ $ $ $ @ @ + + X X X X . . . . . . . . . . . . o o o o                                                     o o . o o o . . . . . . . . . . . o . . . . . . . . o o . X X X + + + + + + + + + + + + @ + @ @ $ - - - - ; ; ; < < 2 2 2 2 e e r r u u u a a x x x B F F F H H U Y Y Y R R R R Q } } } } } } } } } } } } } } ' ' ' R R R R R R R R R R R R R R R R R R R Q Q Q Q Q !  . . . .=.=.=.;.;.2.2.7.i.a.a.h.j.N.N.V.V.D.D.(.(._.{.{.|.|.$X$X|.|.{.(.D.h.g.a.a.i.7.7.7.i.i.i.i.a.s.h.N.N.N.V.V.D.}.1XbXFXHXGXdX@X_.).`._.].|.{.[.|.%X*X&X&X#X#X$X|._.F.D.V.N.N.a.y.3.2.2.2.2.2.2.3.3.3.3.3.3.3.3.7.7.i.i.i.Q.uXLXFXxXAXGXGXfX~.c.a.8.<.-.%.:.=.! !  .=.;.;. .} } R Y Y H H H H H F F B B B x x a a a x B F a a a a x x b b x x x x ",
"B B B B F F F F H F F F H H H H F F F F F F F F F F B b b B B F Z F F H H H H H R Y U U Y R ' } ' ..3.u.u.d.[.dXJXGXAXAXGXVX:XU.M.s.i.3.4.3.2.2.2.2.2.2.2.2.2.2.2.2.2.3.7.a.s.s.N.N.V.D.F.(.`.{.|.$X&X&X>X>X&X$XOX>X*X X].#XsXMXAXFXSXaX@XW.V.V.N.N.N.j.g.i.3.2.2.;.=. .} } Q Q K Y X.9.b.A.(.}.#X&X&X$X|.{._.^.F.F.D.V.N.j.h.g.a.d.i.2.;.=. . .Q Q } } Q Q R R R R Y Y Y J Y J F H H J J Y Y Y H Y Y R R R Q Q Q Q Q } } } } }  . . .} } } } } R R R Y Y Y Y Y H H F F B b b x a a a a i u i u y e 8 2 2 1 1 , ; ; ; - - $ @ @ $ $ $ @ @ + + + X X X X . . . . . . . . . . . . o o o o                             o                       o o . . o o . . . . . . . . . . . . . . . . . . . . . . X X + + + + + + + + + + + + + + + + @ @ @ @ - - ; ; ; : < < 1 2 2 2 e e r r u u u a a x x x B F F F H H U Y Y Y R R R R } } } } } } } } } } } } } } } ' ' ' R R R R R R R R R R R R R R R R R R R R Q Q Q Q Q Q  . . . .=.=.=.=.:.2.3.7.i.a.g.h.j.N.N.V.V.D.F.F.(._.{.|.$X$X$X|.|.{._.F.V.N.h.h.s.a.i.7.7.3.i.i.a.s.s.h.N.N.V.V.V.D.{.<XmXGXZXGXBX#XQ.{.}.(.{.{.{.{.|.|.$X$X#X&X$X$X{._.F.F.D.V.h.a.i.3.2.2.2.2.2.2.3.2.2.2.3.3.3.7.7.7.i.i.p.b.@XBXKXFXZXZXGXmXyXoXz.*.3.e.=.-.-.>. . . . . .} } R R R Y Y Y Y H H F F F B b x x a a a x x i i a a a x x x x x a a ",
"B B B B B F F F F F F F F F F F F F F F F F F F b b b b b b b b Z Z F F F F H H ~ ~ R R ' } ..-.<.;.&.d.).1XnXGXzXHXGXFXdX&XG.u.a.i.3.3.3.7.6.6.2.2.2.2.2.2.2.2.7.7.3.i.d.h.h.m.V.V.D.F.(._. X|.&X>X>X<X>X>X>X&X>X>X|.~.OXfXFXFXGXMXrX@XS.M.V.V.N.N.j.g.a.3.2.:.2.:.;.-. .} Q Q T  .8.S._.{.|.$X&X&X$X|.{.(.F.A.D.D.V.N.N.j.g.a.i.i.3.:.=. .} } } ' R R R R Y Y R Y Y Y Y J Y Y G G J J J Y U U H U Y Y R Q Q } Q Q Q } } } } }  . . .}  .} } } R R R Y Y Y Y Y H H F F B B b x x x a a i u u u e 8 2 2 1 < : ; - ; - - * @ @ @ @ @ @ @ + + + + X X X X X . . . . . . . . . . .     o   . . . .     o o         o     o                             o o . . . . o o . . . . . . . . . . . . . . X O + + + + @ @ + + + + + + + + + + + + @ @ @ @ - - - - ; ; ; ; 1 1 2 2 2 e r r u u u a a x x x B F F F H H U Y Y R R R R R } } } } } } } } Q Q } } } } } ' ' ' R R R R R R R R R R R R R R R R R R R R R R } } Q } }  . . .=.=.=.=.=.;.2.3.7.i.a.g.j.j.N.N.V.V.F.F.F.(._.{.|.$X$X$X|.|.{.(.F.G.B.B.h.s.a.i.7.3.7.7.i.a.a.g.h.h.N.B.B.N.M./.>XhXzXFXGXmX:X].(.).).`.{.{.{.{.|.|.$X$X&X&X$X|.{._.F.D.V.h.s.i.3.3.2.2.2.2.2.2.2.2.3.3.3.3.3.7.7.7.u.a.v.Q.wXJXGXAXGXGXGXdX XB.a.3.;.:.:.>.Q R | o.} } } } } } } } R R Y Y J G G F F B b a a p p p a a a a a a a a a a a a ",
"N B B B B B F F F F F F F F F F B B B B B B B B b b b b b b b b A F F F F F F F ~ R ' | ..;.4.u.f.i.e.R.cXFXGXDXzXGXMXwX/.p.a.z.i.7.3.3.7.7.6.2.2.2.2.2.2.2.3.3.7.7.i.i.s.h.N.V.D.F.F.(._.|.$X$X>X<X<X<X>X>X>X,X1X$X~.:XfXSXAXAXVXwX].A.V.C.V.m.j.h.g.a.i.3.2.:.:.:.=.} Q R R R ~ :.v._.|.$X$X$X#X$X|.{.(.F.D.D.V.V.N.N.j.h.a.a.3.2.:.=. .Q R R ' ' Y J J J Y Y Y Y Y Y U H H H H H H H H H U H H H Y Y R } Q } Q Q Q } } } } }  . . .}  .} } } R R R Y Y Y Y Y H H F F B B b x x x p p u u r r 2 1 1 , ; - - - - - - * @ @ @ @ @ @ @ @ + + + + X X X X X X . . . . . . . . . .         . . . .       o         o o o o o o o o                         . . .   o o o . . . . o . . . . . . . . + + + + @ @ @ @ + + + + + + + @ + + + + + @ @ @ * * * - - - ; ; < < 1 1 2 8 e e u u u p a x x x B F F F H H U Y Y R R R R Q } } } } } } } } } Q } } } } } ' ' ' R R R R R R R R R R R R Y Y Y R Y R R R R R ' ' Q Q } }  . . . . . .=.;.:.2.2.3.i.a.h.j.j.N.N.V.D.D.F.F.(.{. X|.$X$X$X$X|.{._.(.N.N.N.h.s.a.i.7.7.7.i.i.a.a.s.s.h.B.B.B.N.M.^.{.NXZXAXGXSX0X[.`.).`._._.{.{.{.{.|.$X$X&X&X$X$X|._.(.F.V.m.s.i.y.2.2.2.2.2.2.2.2.2.2.3.3.3.3.3.3.u.l.g.3.e.#XBXLXxXAXFXFXAXiX'.u.2.2.1.;.=.X.| | } } }  . . . . .' R R R Y Y J J J H F x a a p p a a x x x x x x a a a a ",
"N B B B B B B B B B B B B B B B B B B B B B B B b B B F F F F B F F F F F H H H J Y ' ..=.1.u.f.d./.aXZXzXzXAXGXGXaX[.v.a.u.y.3.7.7.3.3.3.7.6.6.2.2.2.2.3.3.7.7.a.a.a.s.m.V.V.D.F.(._.{.|.$X&X&X:X<X<X<X>X&X&X&X[.@XrXSXGXFXSXKX>X].v.j.B.C.N.s.j.h.a.i.7.2.:.:. .Q R U U Y R } 4.p.S.{.$X&X&X$X$X|.{.(.F.D.D.C.V.N.N.j.j.a.a.i.2.:.=. .! Q R Y R Y H F B F H J H H H H H H H H F F H H H H U U H H Y Y R } Q } Q Q Q } } } } }  . . . . .} Q Q ' ' R R Y Y Y Y H H F F B b b x x x a u u r 8 8 < < ; - - - $ @ - * * @ @ @ @ @ @ @ @ @ + + + + X X X X X X X X . . . . . . . .     . .       .                 . . . . o o                         . . . .     o o . . . . o o . . . . . . . . + + + + @ @ @ @ + + + + + + @ @ + + + + + @ @ @ * - - - - ; ; ; < < 1 1 2 2 8 e r r u p a x x x B F F F H H U Y Y R R R R R } } } } } Q } } } } } } } } } ' ' R R R R R R R R R R R Y Y Y Y R R R R R R R R R R R R Q Q } }  . .}  . .=.;.:.2.2.7.i.a.h.j.j.N.N.V.V.D.F.F.(._.{.$X$X$X$X$X{._.^.V.V.N.h.g.a.i.i.i.i.i.i.a.a.s.s.g.j.N.B.N.V.V.A.~.tXDXFXGXGXdXOX{./._._._.{.{.{.{.|.$X$X&X&X$X@X|.{._.F.D.m.g.a.7.3.2.2.2.2.:.:.2.2.2.2.2.2.3.3.6.1.u.z.a.8.Q.3XAXFXDXHXHXHXbX<Xv.p.3.3.5.5.%.T  . . . . . .=.=.} } Q R R Y Y Y Y Y H F B x b n x x x x x x x x a a a a ",
"x x B B b B B b b b b b b b b b B B B B B B B B b b b B B F F F B F F F H U U Y ` '  .>.1.7.p.M.8XfXJXKXGXFXAXAX<X].8.3.z.z.6.<.3.2.2.2.2.2.2.6.2.2.2.3.3.i.a.a.h.h.h.m.M.D.F.(._._.{.|.$X&X>X>X:X<XeX1X,X#X@X@X=XtXSXGXGXGXhX#XW.S.D.C.B.j.j.m.j.g.a.7.6.2.:.:.R U U U T } -.,.Z.G.`.|.&X&X&X@X|.{._.F.F.V.V.N.N.j.j.h.a.a.7.7.2.:.-.=. .} Q R Y H Z x x b F H H H H H H H H U F F H H H H U U H U Y Y R Q Q } Q Q Q } } } } }  . . . . .} } } ' ' R R Y Y Y Y H H F F B b b x x a p u 8 2 1 , , : ; - - $ $ $ @ @ @ @ @ @ @ @ @ @ @ @ + + + + X X X X X X X X . . . . . . . .     . .                         . . . . . . . .                                 o o . . . . o o . . . . . . . . X + + + + + @ @ @ + + + + + @ @ + + + + @ @ @ @ - - ; ; : : , < : , < 1 1 2 8 8 r r u u a x x x B F F F H H U Y Y R R R R } } } } } } } } } } } } } } } } ' ' ' R R R R R R R R R R Y Y Y Y R R Y Y Y R R R R R R R R R Q } } } } }  . .-.;.:.2.2.7.i.a.h.j.j.N.V.V.V.D.F.(.(._.{.|.$X$X$X|.{.].S.F.D.N.h.a.i.i.i.i.i.i.i.a.a.a.s.h.j.N.V.V.V.V.v.{.eXmXGXGXHXlX>X@X].^._.`._._.{.{.|.$X$X$X$X$X$X|.{._.F.D.m.h.a.i.7.3.2.2.2.2.2.2.2.2.2.2.2.2.<.:.3.d.z.y.a.c. XtXGXHXGXFXAXzXuX Xn.6.1.4.4.4.=.=.=.=.=.=.=.=. .} } Q R R R Y R Y Y J K K H K Z b b b b b b b x x x x ",
"x x x x b b b b x x x x x x x x B B B B B B B B b b b b b b B F B F F H U R Q ! ..-.1.y.p.n.@X0XGXGXJXKXGXGXaXOXv.p.7.u.4.2.6.8.2.2.2.2.2.2.2.2.2.2.2.3.7.a.s.g.V.V.V.D.F.(._._.{.|.|.$X&X>X<X<X<X<X>X,X&X@X#X>XnXDXFXFXSXhX$Xv.V.D.G.V.N.j.h.j.k.g.a.7.:.:.:.:.R T Q ! ;.7.m.C.^.{.|.$X$X&X$X[.{._.).D.V.N.N.N.h.h.g.a.a.7.6.6.2.:.;.=. .} Q Q R H Z b x b F H F F F H H H Y Y H H J J J H U U H Y Y R R R Q Q Q Q Q } } } } }  . . . .} } } } ' ' R R Y Y Y Y H H F F B b b x a a u r 2 , ; - ; ; - - $ $ @ @ @ @ @ @ @ @ $ $ $ $ $ @ @ + + + + + X X X X X X . . . . . . . .   . . .                         . . . . . . . .                                 o . . . . o o o . . . . . . . . . X X X X + + + @ @ @ + + + + @ % + @ + @ @ @ * - - ; ; ; : , < ; ; ; , 1 2 2 8 r r u u a x x x B F F F H H U Y Y R R R Q } } } } } Q } } } } } } } } } } ' ' ' R R R R R R R R R R R R R R R R Y Y Y Y Y Y Y Y Y Y Y R R R R } R } }  . .=.;.;.-.:.7.i.a.g.h.N.N.N.V.V.D.F.(.(._.{.|.|.$X|.|.|.]._.(.D.N.h.a.i.a.i.i.i.i.i.i.i.s.g.h.j.N.V.V.V.N.V._.eXbXmXAXGXbXrX#X/.(.)._.{.{.{.|.|.$X$X$X$X$X$X|.{._.F.D.N.g.s.a.7.3.2.2.2.2.2.2.2.2.2.2.2.,.8.7.1.3.d.d.3.z.S.0XSXFXSXAXzXKXnX;XW.e.7.i.d.:.:.;.;.=.=.=.=. . . .} } ' R R R R Y Y Y Y Y R H H H H F F F F B B B B ",
"x x x x x x b b x x x x x x x x B B B B B B B B F B b b b F K K G G G Y R  .=.>.2.y.f.f.D.#XmXGXCXGXHXxXxXyX).g.u.3.7.p.7.:.;.1.2.6.7.6.2.2.2.1.2.2.2.3.i.a.g.h.D.D.D.F.)._.{.|.|.$X$X&X>X<XwXwX<X>X&X$X|.@X>XtXFXAXAXGXgX~.F.D.C.N.m.m.m.m.h.g.g.a.i.2.:.;.;.:.=.=.;.2.p.V.D.(.[.$X$X&X&X&X$X|.(.(.F.D.V.N.N.N.g.g.a.a.i.6.:.:.:.;.-.=. .Q Q Q Q Y K K n F J Y F F F H H Y Y Y J J Y Y J Y U H J Y Y R R R R Q Q Q Q } } } } }  . . .} } } } } ' ' R R Y Y Y Y H H F F B b b x a i r e 1 ; - * - * * @ @ + + + @ @ @ @ @ @ $ = $ $ $ $ @ @ + + + + X X X X X X . . . . . . . .   . . .                         X X . . . . . .                                 o o . . o o o o . . . . . . . . o o . X X X + + @ @ @ + + + @ @ % % @ + @ @ $ - - - - - ; ; ; ; ; ; ; , 1 2 2 8 9 r u u a x x x B F F F H H U Y Y R R R R } } } } } } } } } } } } } } } } ' ' ' R R R R R R R R R R R R R R R R ' R R Y Y Y Y Y Y Y Y R R R R R R R } }  .=.=.=.-.-.6.7.i.a.g.h.j.N.N.V.D.F.F.(.`.{.{.|.|.|.|.|.[.{._.F.V.N.h.s.i.i.i.7.7.i.i.i.g.g.j.N.N.N.N.V.V.D.A.!.;XMXGXZXGXmX<X.X'.).{.|.{.{.|.|.|.$X$X$X=X$X$X|.{.(.D.V.N.h.s.a.7.3.2.3.3.2.2.2.2.2.2.2.i.1.:.9.9.:.2.d.x.y.s.}.hXGXGXSXxXAXKXhXXXv.7.2.2.2.2.:.;.-.=. .=. . . .} } ' ' R R R R R R R Q Y Y Y Y J J G G F F F F ",
"x x x x x x x x x x x x b b b b b x b b b b x x C B F H U Y R R ! T T }  .! %.4.4.1.p.|.bXFXFXFXxXGXLXkX`.p.y.g.2.2.2.2.2.2.2.2.6.2.2.2.2.2.2.3.6.2.3.u.g.j.V.D.F.(.(._.{.|.$X&X&X&X&X#X=X;X1XwX;X>X%X.X[.:XbXGXAXFXVX3X`.F.D.F.V.V.N.N.j.h.g.g.i.7.2.2.;.=. . .-.;.2.7.p.M.(._.|.$X$X&X$X|.{._.).F.D.V.V.N.N.h.a.a.a.7.3.2.:.:.=. . . . .} } } R R R R Y Y Y Y U Y Y U Y Y R R J J H H U Y Y Y Y Y R R R Q Q } } } } } }  . . .Q Q Q Q } ' ' ' R R R R R Y Y Y G H H F F B x x x a u r 8 1 , ; + + + @ @ @ @ $ - - - - - - $ % * @ @ @ @ @ @ @ . . . . . X X X . . . . . . . .     . .                                                                         o o o o . . . . . . . . . . . . . . X + + + + # + + + + + @ @ @ + + + + + @ @ @ * * * - - - ; - ; ; - - ; < 1 3 r r u u a x x b F F F H H J Y Y Y R R R Q } } } } } } } } } } } } } } } } Q Q Q ' ' ' R R R R R R R R R R Y Y Y R R R R R R T U Y Y Y U Y Y Y Y Y Y R R } }  . .-.;.:.2.7.i.i.p.j.j.N.N.V.V.D.F./._.{.{.[.|.|.$X@X|.{.(.D.V.N.j.a.a.i.7.7.i.a.a.a.s.g.h.j.j.j.j.N.V.V.V.A.[.tXKXxXFXGXpXOX[.{.`..X].|.|.$X$X$X#X$X$X$X$X|._.(.S.V.N.h.h.a.i.2.:.2.2.2.2.2.2.2.2.2.2.2.2.2.2.3.3.s.g.f.f.D.&XbXGXmXFXAXxXzXaX`.k.l.u.3.6.>.%.>.-.=.-...} Q  .=.%.Q Q Q R R R R R Y Y Y Y Y Y Y Y F F F H ",
"x x x x x x x x x x x x b b b b b b b b b b x x N B F H Y R R ' ' | } ~ %.4.y.1.d.Q.0XDXGXSXAXzXKXnX;XW.x.a.a.d.2.2.2.2.2.2.2.2.2.2.2.2.2.2.2.2.6.7.i.g.j.N.V.F.(.(._.{.|.|.$X$X&X&X&X&X>X>X<X<X,X&X[.@XeXLXGXxXGXmX:X].F.G.V.V.V.N.N.N.h.h.g.a.7.7.2.2.:.;.-.-.:.2.3.p.v.F._.{.$X$X&X&X$X|.{._.F.F.D.V.N.N.h.g.i.i.i.3.2.;.;.=. . . . . .} } } R R R Y Y Y Y Y H H H H U U U U H H H H U Y Y Y Y R R R R Q Q } } } } } }  . . . . .} } } } } } R R R R R Y Y Y J G H F F B b x x a u r 8 2 1 , $ $ $ $ $ - - - - ; - ; ; - - $ @ @ @ @ @ @ + + X X X X X X X . . . . . . . . .     . .                                                                         o o o o . . . . . . . . . . . . . . X + + + + + + + + + + + + + + + + + @ @ @ @ * * * - - - ; - : ; ; ; , 1 2 8 r r u u a x x b F F F H H J Y Y Y R R R Q } } } } } } } } } } } } } } } } Q Q Q ' ' ' ' R R R R R R R R R Y Y Y R R R R R R U U Y Y U U Y Y Y Y Y Y Y R } }  . .=.=.;.:.2.7.i.i.g.j.j.N.N.V.D.F._._.{.{.|.|.$X&X$X|.{.(.F.D.N.j.h.s.a.i.7.i.i.a.a.a.g.h.j.j.j.j.N.V.V.V.M.S.@XwXGXFXFXKXnX#XQ._..X}. X|.|.|.$X$X$X$X$X$X|.{._.(.D.D.N.j.h.a.i.7.3.3.2.2.2.2.2.2.2.2.2.2.2.2.3.3.6.7.3.y.p.n.@X<XGXFXFXFXGXJXhX:Xr.e.z.z.u.:. .} ;.:.-.....-.=.!  .} ! Q Q R R R R R Y Y Y Y Y Y F F F F ",
"x x x x x x x x B B B B B B N N B B B B b b b b N B F U R R } } ` R =.5.4.3.p.v.*XsXAXHXAXGXHXAXuX@Xr.6.7.d.4.1.2.2.2.2.2.2.:.:.;.:.:.:.2.2.2.2.3.i.a.h.N.V.D.F._.`.{. X$X$X$X&X-X%X&X>X<X<X>X>X-X|.#XaXGXAXAXAXhX1XQ.v.M.C.V.N.N.N.N.j.h.a.a.a.6.2.2.2.2.2.2.2.y.i.s.M.F._.|.$X&X&X&X$X|.{._.(.D.D.V.N.N.j.g.a.3.3.3.2.;.=.=.=. . . . .} } Q Q R R R R Y U H H F F F F H H H H H H H H U Y Y Y Y Y R R R Q Q } } } } } }  .}  . . . .} } } } } Q Q R R R Y Y Y J J H F F B B b x a u r e 2 1 , - $ - - - - ; ; - - ; - - - $ $ @ @ @ @ @ + + + + + + + + + . . . . . . . . . .     . .                                                                         o . o o . . o . . . . . . . . . . + + X X X + X + + + + + + + + + + + @ @ @ $ $ * * * - - - ; - < , , , 1 2 8 0 r r u u a x x b B F F H H J Y Y Y R R R Q } Q } } } } } } } } } } } } } } Q Q Q ' ' R R R R R R R R R R R Y Y Y Y R R R R Y U U Y Y U U U Y Y Y Y Y Y R Q } }  . . .=.=.:.2.3.7.a.s.h.j.N.N.V.D.F.)._.{. X$X&X*X$X$X|._.(.F.V.N.j.h.a.i.i.i.i.i.a.a.a.h.h.j.j.j.j.N.V.V.N.M.n.Q.wXdXGXGXGXnX2X~.].{.{. X|.|.$X$X$X$X$X$X$X|.{.{.(.F.D.V.m.h.g.s.7.7.3.2.2.2.2.2.2.2.2.2.2.2.2.2.<.,.,.2.3.i.c.M.8XdXDXGXFXFXAXHXiXOXb.u.u.i.6.<.;.;.=.=.-.>.-. . . . .} } Q Q Q R R R R Y Y Y Y F F F F ",
"x x x x x x x x B B B B B x x x B B B B F B F F F F J Y } }  . . .! 4.z.i.e.Q.3XFXFXSXzXzXHXBX,Xv.x.i.3.4.5.:.=.:.:.:.:.:.:.:.:.;.;.;.:.2.2.2.3.y.a.g.N.V.D.F.(.{.{. X$X$X&X&X&X=X=X&X>X>X>X&X$X{.>XbXFXFXZXZXVX|./.F.V.N.N.V.V.N.N.j.h.s.a.a.i.,.2.2.4.4.3.i.a.j.j.V.F._.|.$X#X;X#X$X|.{._.F.D.D.V.N.j.j.g.a.a.2.2.2.;.=.=.=. . . . .} } Q Q R R R R R Y H H Z B B b F F F F F F H H H U Y Y Y Y R R R R Q Q } } } } } }  .} }  . . .} } } Q Q Q Q Q R R Y Y Y J J H H F B B b x a u r r e 2 1 - - - - - - ; ; - - - - - * @ @ @ @ @ @ @ + + + # + + + + + . . . . . . . . . . o o . . . . o o                                                                 . . o . . . o o . . . . . . . . + + + . . . . . + + + + + + + + + + @ @ @ @ $ - * * * - - - ; - 1 1 1 1 2 8 8 r r r u i a x x b B F F H H J Y Y Y R R R R Q Q } } } } } } } } } } } } } } Q Q Q ' ' R R R R R R R R R R R Y Y Y Y Y R R Y Y Y U Y Y Y U U Y Y Y Y Y Y R R } } }  . . .=.;.2.2.3.7.7.a.g.h.N.N.V.V.D.F._._.|.$X&X$X$X$X{._.(.F.D.N.m.s.a.7.3.7.7.i.a.a.g.h.j.j.j.k.N.V.V.V.N.N.M.n.&XbXFXGXGXVXyX|.|.{.{. X%X|.|.@X$X#X&X&X$X|.|.`._.F.D.V.V.N.j.i.i.7.2.2.2.2.2.2.2.2.2.2.2.2.2.:.6.6.6.6.y.u.f.s./.rXAXzXzXAXFXLXMX;XW.p.u.i.8.3.2.;.=.=.=.>.-.=.=. . . .} } } } Q Q R R R R R F F F F ",
"x x x x x x x x b b b b x x x x B B F F F F H H Y Y R } }  .=.=.4.z.d.2.e.#XMXGXxXAXGXGXGXfX|.j.i.i.y.3.1.;.:.6.;.;.;.;.:.:.:.:.;.;.:.2.2.3.y.i.g.h.N.V.F.(._.{.|.|.|.$X$X&X&X>X#X>X>X>X&X$X[.%X+XMXGXZXAXKXhX~.A.F.F.D.V.V.V.V.j.j.h.s.a.a.i.i.:.:.:.4.3.i.s.h.N.V.F.`. X$X&X&X#X#X|.{._.).D.D.V.N.N.h.g.a.i.7.:.:.;.;.=. . . . . .} } Q R R R R R R R Y H Z Z b b b b b Z F F F F H H U Y Y Y Y R R R Q Q Q Q } }  . .}  . .}  . . .} }  .Q Q  .} Q R R Y Y Y Y J J H F F B b x a u r r e 2 1 - - - - - ; ; ; - - - - - * @ @ $ @ @ @ + + + + # # # + + X . . X X . . . . . . o . . . o o o o                                                                 . . . . o o o o X X . . X X X X X X X . . . . . + + + + + + + + + @ @ @ @ $ - - * * * - - - ; ; 1 1 1 2 8 8 9 r r r u i a x x b B F F H H J Y Y Y R R R R Q Q } } } } } } } } } } } } } } Q Q Q } } R R R R R R R R R R R Y Y Y Y Y Y Y Y Y Y Y Y Y J J J J Y Y Y Y Y Y R R } } } }  . .=.;.2.2.,.6.i.a.g.j.N.N.N.V.D.F.(._.{.|.|.$X$X|.|.{.(.F.V.m.m.s.i.7.7.7.i.i.a.a.g.h.j.j.j.N.V.V.V.C.B.B.H.A.@XbXFXAXAXGXtX>X[.].{. X|.|.$X$X#X&X&X$X$X$X{.{.(.F.F.V.N.N.s.s.i.3.2.2.2.2.2.2.2.2.2.2.2.2.4.4.2.,.,.2.3.u.f.a.n.+XmXGXFXSXSXFXGXbXOXe.y.u.i.7.7.4.;.=. .-.=.=.=. . . . .} } } } } R R R R G G H G ",
"a a a a a a a a x x x x b b b b B B F F H J Y Y } ' ' }  .=.;.2.4.7.b.~.wXDXGXAXSXFXGXVX-XG.g.7.i.3.3.3.3.2.:.-.;.;.;.:.:.:.2.2.:.2.2.3.3.i.a.a.N.N.V.F._.{.|.%X$X$X$X$X#X&X>X>X>X>X>X&X[.[.#X2XGXAXAXGXDXeX{.D.F.D.V.V.D.V.V.N.h.h.g.a.a.i.7.7.:.2.4.3.i.s.m.V.D.F._.{.$X&X&X&X#X$X{._.).F.D.V.N.m.h.g.a.i.3.2.-.-.=.=.=. . . .} } } Q R R R R R R R Y H F Z b b b b b b b Z Z F H H H Y Y Y Y Y R R R Q Q Q Q } }  . .}  .}  .} } }  . . .! !  . .Q Q R R R Y Y Y J H H F B b x a u r y 8 2 1 ; ; ; ; ; < < < : ; ; , ; ; - - $ @ @ @ + + + + + + + + + X . . X X X . . . . . . . . . . . . .                                                                 . . . . o o o o X X . . X X X X . X X X X + + + + + + + + + + + @ @ @ @ @ - - - * * * - - - ; ; < 1 1 2 8 8 r 9 r r u a a x x B F F F H H J Y Y Y R R R R R Q Q Q Q Q Q Q Q Q Q } } } } } Q Q Q } } R R R R R R R R R R R Y Y Y Y Y Y Y Y Y Y Y J J J H H J J J J Y Y Y R R Q Q R Q Q  . .=.=.;.:.6.7.i.a.h.j.N.N.V.D.F.F.(._._.|.$X$X$X$X|.{._.F.A.M.m.s.a.a.i.i.a.a.a.g.g.h.j.N.N.V.V.N.N.N.N.l.B.A.@XaXSXFXFXKXdX:X~.].{. X X$X$X$X$X&X$X$X$X|.|.{._.(.F.V.N.N.h.s.a.i.3.3.2.2.2.2.2.:.:.:.:.u.4.2.:.:.,.,.6.p.3.u.k.).3XMXGXSXFXFXHXZXrX'.z.6.6.6.3.4.;.=.-.-.=.=.=. . . . . . .} } } } Q R Y Y Y Y ",
"a a a a a a a a a a x x b F A A F F F H J Y Y R } } } }  .=.2.3.e.r.OXBXKXFXZXZXJXmXiX[.m.*.1.9.2.:.2.6.9.6.:.=.;.;.:.:.2.2.2.2.2.2.3.7.i.a.h.h.N.V.F.(.{.$X$X&X$X$X#X#X&X>X>X>X&X&X%X|.@X;XrXbXGXAXSXJXeXW.M.G.G.D.V.N.V.V.N.j.h.g.a.a.i.7.6.2.4.4.2.3.a.m.V.D.(._.{.$X$X&X$X$X|.{.(.F.D.V.V.N.m.h.a.i.i.3.:.-.=.=. . . . . . .} } Q Q R R R R R R R U H F n n B b B B b F F F H H H Y Y Y Y Y Y R R R Q Q Q Q Q Q  . .}  . . .} } }  . . .=.=. . .Q Q R R R Y Y Y J H H F F b a a u r e 2 1 , : ; ; ; ; , 1 1 : : < < , ; ; - $ @ @ + + X . . X X + + X X X . X X X X . . . . . . . . . . . .                                                                 o o . . . o . . X X . . X X X X . . X + + + + + + + + + + + + + @ @ @ @ * - - - * * * - - - ; ; , , 1 1 2 8 8 8 r r u a a x x B F F F H H J Y Y Y U R R R R Q Q Q Q Q Q Q Q Q Q } } } } } Q Q Q } } ' ' R R R R R R R R R Y Y Y Y Y Y Y Y Y Y Y J J H H H H J J J J Y Y Y R R Q R R Q }  . .=.=.;.2.3.i.a.a.g.h.N.V.V.D.F.F.(.(.{.|.&X#X#X$X|.{.(.(.F.D.V.m.h.s.a.a.a.a.a.g.g.h.j.N.m.m.h.j.N.N.j.V.N.m._.tXJXFXGXGXbXwX@X[.{.{.|.|.|.$X$X$X$X$X$X|.|.{._.(.D.V.N.N.N.h.a.a.i.3.:.:.:.:.:.:.:.:.6.2.2.2.2.2.:.,.<.2.u.f.u.v.@XhXFXFXZXAXGXGXfX#Xn.e.6.3.3.4.2.:.;.;.=.=.=. . . . . . . .} } } } Y Y Y Y ",
"a a a a a a a a i a a x B F K H K K K J J Y Y R  .} } }  .;.2.i.~.uXLXAXxXAXGXGXGXwXS.a.6.<.-.0.-.-.-.=.=.;.4.4.:.:.:.2.2.2.2.2.3.3.3.i.a.h.j.j.j.V.F._.|.$X$X@X@X#X#X>X>X>X>X>X|.{.`.].@XrXSXGXzXGXJX;XQ.(.G.N.N.V.V.V.m.h.k.k.h.g.a.i.i.7.2.2.4.3.3.i.p.M.D.F.{. X$X$X$X$X|.{._.(.F.D.V.N.N.N.h.s.i.y.3.2.-.=. .X. . . . .} } } } Q R R R R R R R Y H H F n n B B B B F F F F H H J Y Y Y Y Y Y R R R R Q Q Q Q Q }  .}  . . .} }  . . .=.>.>. . .Q Q R R R Y Y Y Y H H F F Z a a u r 8 2 1 , ; ; - ; ; , , , : ; , , ; - - $ @ + + + . . . . . . . . . . X X X X X X . . . . . . . . . . . .                                                                 o o o . . . . . X X . . . X X X . . X + + + # # + + + + + + + + @ @ @ * - - - ; * * * - - - ; ; ; , 1 1 2 2 8 8 r r u a a x x B B F F H H J Y Y Y Y R R R R Q Q Q Q Q Q Q Q Q Q } } } } } Q Q Q } } ' R R R R R R R R R R Y Y Y U Y Y Y Y Y Y Y J J H H H H J J J J Y Y Y R R R ' ' } }  .=.-.-.;.2.3.i.a.a.s.h.m.N.V.V.D.D.F.F.{.|.&X#X#X&X$X{.{._.(.G.D.V.m.h.i.a.a.a.a.g.g.g.h.h.h.k.d.k.m.V.D.V.B.B.C.W.0XKXxXAXKXCX1X[.{.{.{.{.|.$X$X$X$X$X$X$X$X|.{._.F.F.V.V.N.N.h.s.a.i.:.:.:.:.:.:.;.:.o.<.;.1.4.4.4.:.;.2.6.6.6.6.x.A.UXZXGXGXSXSXFXAX5XXXv.i.y.4.2.:.;.;.;.-.=.=. . . . . . . .} } } R R R R ",
"a a a a a x x x b b Z F F F F F H H F V G J Y R  .~ ! ;.-.<.U.3XSXFXGXHXHXGXSXmXZ.c.7.2.;.;.:.>.=.=.=.=.=.=.=.;.1.2.;.-.-.;.2.2.7.7.i.g.g.j.j.j.m.V.F._.{.|.$X&X%X&X:X0X0X:X&X|.{.$X$X+X9XKXGXzXGXdX$X(.D.D.D.V.V.V.N.N.N.j.j.k.j.g.a.7.7.6.7.3.3.i.s.m.V.F._.{.|.|.$X$X|.{._.^.).F.D.V.V.N.j.g.i.i.i.3.2.;.=.=... . .} } } } } R R R R R Y Y Y H H H H H H Y Y H H H H H H H H R R Y Y Y Y Y R Y Y R R R Q } Q  .}  . . .=. . .}  .>.:.:.:.:.:.=. .} } ' R R Y Y Y Y Y Y H F n a i u r r 9 9 8 8 2 1 , ; ; ; - , ; ; - - $ @ @ @ @ @ @ + + + O + + + + + + @ @ @ @ + + + X X . o o o o o o . . o o . . . . o o                 &               . . .   o             . . . . O . . . . . . . . X X X . . o o o + + + + + + + + + @ @ @ - - * * $ $ - - - - ; , : : < < 1 2 e e u u p a x x x b F F F H H H U U R R R R Q } } } Q Q Q Q } Q Q Q Q } } } } } } Q R R R R R R R R R R R Y Y U U Y J H F F b B B B J H F H H Y Y U Y Y Y Y Y Y Y Y R R Q Q Q  . .=.;.:.:.2.2.3.7.d.h.m.N.V.V.D.D.F.^.{.*X,X&X$X$X$X|.|.{._.(.D.N.j.j.h.s.a.i.7.7.7.a.a.a.g.h.j.N.N.j.N.V.V.V.D.).oXSXSXAXGXKXfX>X|._._.{. X[.[.[.%X$X$X$X$X$X|.{._.(.F.V.m.h.a.i.i.a.y.3.2.:.6.6.2.;.;.;.;.=.=.=.=.:.:.:.2.2.2.7.7.7.oXhXGXGXAXFXKXxXZX<XA.g.l.d.2.<.6.:.%.%. .| |  .} } } } } Q Q R R R R ",
"x x x x x x x N b Z F F F F F H G J J G F H R  .:.0.0.>.<.~.sXDXKXAXZXFXGXVX=Xr.p.i.7.2.;.=.=.>.=.;.=.=.=.=.=.=.2.:.;.;.;.2.2.3.3.i.a.h.j.B.C.C.V.F.`.{.|.$X&X>X,X>X>X:X<X>X&X&X X[.:XnXGXAXFXGXrX>X/.A.V.V.V.V.N.N.N.N.j.j.j.k.g.a.a.i.7.7.i.i.i.a.h.V.D.(._.{.$X$X$X$X|.{._.^.F.F.D.V.N.N.g.a.a.i.3.2.:.;.=.=. . .} } } } } } R R R R R Y Y U G H H H H H U Y H H H H H H H H R Y Y Y Y Y Y Y Y R R R R Q } Q  . . . .=.=.=. .Q  .=.;.:.:.2.:.=. .} } R R Y Y Y Y R R Y H F b a a u r r 9 8 9 0 8 2 1 ; ; - $ ; ; ; - - $ @ @ @ @ @ @ @ + + + + + + + + + @ + @ @ + + + X X . o . o o o o . . o o . . . . o o                                 . . .   o             . . . . . . . . . . . . . X X X X . . . . + + + + + + + + + @ @ @ * * - - - - - - - ; ; : : < 1 2 2 e r r u u p a x x x b F F F H H H U U Y Y R R R R Q Q Q Q Q Q } } Q Q Q } } } } } } Q } } R R R R R R R R R Y Y U U Y J J G F F B B V G H H H J Y E Y Y Y Y Y Y Y Y Y R R ' ' Q Q  . .-.-.;.;.;.2.3.9.s.h.N.N.V.V.D.D.F._.|.$X&X&X&X&X|.|.|.{._.G.C.C.N.j.h.a.a.i.i.i.g.g.g.g.h.j.N.N.N.V.V.V.V.M.D.G.OXfXGXAXZXGXhX>X{././.{. X$X$X$X$X$X$X$X$X|.{._._.(.F.V.N.h.s.a.a.i.2.;.-. . . .-.-.=.=.-.;.;.;.:.:.:.:.2.2.3.7.a.p.n.;XVXKXGXzXSXDXKXBXOXe.3.f.u.4.2.-.,.,.=.=. . . . .} } } Q R R R R ",
"x x x x x B B B F F F F F H H H ( J J Y R Q ! %.! %.,.r.3XCXGXFXxXHXGXSXaX[.p.&.2.:.:.;.;.=.=. .;.;.=.=.=.=.=.=.;.;.;.:.2.3.3.i.a.a.g.h.j.j.m.m.M.F._.|.@X#X>X<X<X>X>X&X&X&X$X$X[.0XnXFXGXGXSXdX].Q.A.M.V.V.N.m.N.N.j.j.j.h.g.g.a.i.i.7.7.i.i.d.a.h.V.D.F._.|.|.$X$X$X|.|.{._.^.D.D.V.N.N.h.a.i.7.3.2.:.;.=. . .} } } Q R R R R R R R Y Y U H H G G H H H H U U Y Y Y Y Y Y Y Y Y Y Y Y U Y Y Y Y R R R Q Q } }  . . . .=.-.=.=.-.:.2.7.7.7.7.7.;.=. .R R Y Y Y R R R R Y H F Z a a i u r r e e e 8 2 < ; ; - - ; ; - - - @ @ + @ @ @ @ @ + + + + + + + + + + + @ + + + + X . . . . . . o . . . o . . . o o o o                                 . . .   o               . . . . . . . . . . . . X X X X X X . . + + + + + + + + + @ @ @ * - - - ; - - - ; ; ; : , < 1 2 2 e r r i u a a x x x b B F F F H H U U Y Y Y R R R Q Q Q Q Q Q } } ' Q Q } } } } } } Q } } } Q R R R R R R R Y Y U Y Y H F F B b B N N b b B F F F H H Y Y Y Y Y Y Y Y R ' ' ' R Q }  . . .=.=.=.;.:.2.a.g.j.N.N.V.V.D.F.F.(.{.$X>X&X#X$X$X|.{._.F.V.N.N.N.j.g.a.a.a.a.h.h.h.h.h.j.j.N.N.V.V.V.V.m.M.D.A.|.rXFXGXGXJXCX1X@XQ._.{.|.|.[.|.|.|.$X$X$X X{.|.{.(.F.D.V.m.h.d.i.7.:. .Q Q Q Q Q Q  . .=.;.;.:.:.;.:.:.2.2.2.a.y.3.e.Q.tXGXGXGXFXGXGXDX:XQ.v.*.u.9.<...-.;.4. . . . . .} } } Q R R R ",
"x x x b B B F F F F F H H H Y Y ` Y Y ~ >.>.%.! ! o.Y.bXGXGXAXAXzXGXBX*Xb.2.1.u.=.=.=.=.=.=. . .;.;.;.=.=.=.=.;.;.;.:.2.3.i.a.a.h.j.j.j.g.s.p.p.v.S./.[.#X;X:X<X8X:X,X%X X|.@X#XqXMXFXAXFXGXeXQ.H.G.D.V.V.N.N.B.N.j.j.h.h.g.g.g.i.i.i.i.i.a.a.a.m.V.D.(._.|.$X$X&X$X$X|.{._.(.S.D.V.N.m.h.s.i.3.3.2.2.;.=. . .} } Q R R R Y Y Y R Y Y Y U H H H G G J H H H U U Y Y Y Y Y Y Y Y Y Y U U U U Y Y R R R R Q } } }  . . . .-.-.:.:.6.7.i.p.s.s.d.i.:.=. .R R Y Y R R R Q R R U H F x a a u r r e 8 1 1 1 : ; ; ; ; - - - - @ @ @ @ @ @ @ @ + + + + + + + + + + + + + + + + X . . . . . . . . . . . o . . . o o o o                                 . . .   o             o   . . . . . . . . . . . . X X X X X X X + + + + + + + + + @ @ @ - - - - - - - - ; ; ; ; ; : 1 1 2 e e r i i a a x x x b B F F F H H U U Y Y Y R R R } } Q Q Q Q R ' ' Q Q } } } } } } Q } } } Q R R R R R R R Y Y U Y Y F Z b b x x a x p x x b b b b b Y Y Y Y Y Y Y Y Y Y R R R R Q } } }  . . .=.-.:.i.a.h.j.N.N.V.V.D.D.F.(.{.$X#X@X&X$X$X|./.S.M.m.V.V.N.h.g.g.a.a.g.g.g.g.h.j.j.N.N.N.V.V.V.V.V.V.H.V.Q.wXSXFXAXHXVXaX#X{._.{.|.|.|.|.|.|.$X$X|. X$X|.{._.(.D.V.N.g.s.p.7.;.=.X. .R R Q Q  .=.-.;.;.;.;.;.;.:.:.:.3.u.u.3.2.r.1XVXFXFXSXZXDXLXnXE.Z.x.7.:.;.1.4.4.=.=.=. . . .} } Q Q Q R ",
"x x b B B F F F F F H H Y Y R R Y R ~ ~ %.=.,.<.Y.+XDXGXAXxXzXLXSXrX!.9.&.4.2.,.>.>.=.=. . ... .;.;.=.=.=.=.;.;.-.:.2.7.i.a.h.j.h.j.N.V.V.D.S.G._.{.$X#X>X<X<XwX0X<X*X%X|.$X:XrXGXAXAXGXSX;XQ.Z.C.C.D.D.V.V.N.N.j.j.j.h.g.a.a.a.7.i.i.i.a.a.a.g.V.D.(._.|.$X&X&X$X$X|.{._.(.F.A.V.N.m.h.s.a.7.2.2.2.;.=.=. .} Q } ' R R Y U U H U U U U U H H H G G H H H H U U Y Y Y Y Y Y Y Y Y Y U U U U Y Y R R R Q Q } } }  . . .=.=.-.;.:.2.3.i.s.h.s.i.3.:.:. .} R R R R R Q } } R Y H H x x a i r e e 8 , , , ; ; ; ; ; - - - - * @ @ @ @ @ @ + + + + + + + + + + + + + + + + X X . . . o . . . . . . . . o o o . . . .                                 . . .   o               o . . . . o o o o o . . . . . X + + + + + + + + + + + + + @ @ @ - - - - - - - - ; ; - - ; , 1 2 8 e r r u u p a x x x b B F F F H H U U Y Y Y R R R R } R R ' ' ' ' R R Q } } } } } } Q } } } Q R R R Y R R R Y Y U Y Y H H F B b x x x x N C C b b b n H H H U U U U J H H Y Y R R } } } }  . . .=.-.:.7.i.a.h.j.N.N.N.V.V.D.F._.{.$X&X$X&X&X$X|.{.(.F.D.D.V.N.h.h.g.g.a.a.a.s.g.h.h.j.N.N.N.V.V.V.V.V.N.C.D.W.#XnXGXzXFXSXaX>X|.{.}.XX X|.|.|.$X$X$X|.$X|.|.{._.(.D.D.N.N.N.g.a.3.2.:.X.X. . .=.=.-.-.=.=.-.=.;.;.;.;. .-.2.y.i.s.v.n.iXSXGXFXAXGXGXZXhX@Xb.y.z.z.:.} ;.=.=.=. . . .} } } Q Q ",
"b b b F F F F F F F J Y Y R Q Q T ~ >.=.! <.U.=XmXGXGXAXzXGXKXNX-Xn.,.;.4.9.-.} >.>.=.=.=.=.-.-.;.;.=.=.=.=.;.;.:.2.7.i.a.h.j.N.M.V.D.F.)._.}.}.$X&X>X<X<X<X>X>X>X&X$X|.@X:XdXDXFXGXGXbX;XQ.A.H.V.V.V.V.N.N.N.V.j.j.h.h.g.a.a.a.i.i.i.a.a.g.h.m.F.F._.|.$X$X$X&X$X|.{.(.F.D.D.V.N.N.h.g.a.i.2.:.:.;.-.=. .} } R R R R Y Y U H H U U H H H H J J H H H H H U Y Y Y Y Y Y U U Y Y Y Y Y U U Y R R R R Q Q } } }  .=.>.-.=.=.=.-.;.3.3.a.s.h.s.7.1.:.:.=.} ' R R R R R Q R R Y H F x x a u r e 2 2 2 1 , ; ; - - - ; - - - - - * * $ @ @ + + + O O + + + + + + + + + + X . . . o o o o . . . . . . . o o o . . . .                               o . . .   o       &       o o     o o     o o o o o . X X + + @ @ @ + + + + + + + + @ @ $ - - - ; - - - - ; - - - , 1 2 8 e r r u u u p a x x x b B F F F H H H U U U Y Y Y R R R R R R R R R R R Q } } } } } } Q } } } } R R R R R R R Y Y U Y Y J J J F F B b b N C C C B b n n F F F H H H H H F H H Y Y R R } } } }  . .=.-.-.2.7.i.g.h.j.N.N.N.V.V.D.(._.|.*X&X&X&X&X$X|.{._.F.D.V.m.m.h.h.h.a.a.a.a.g.g.h.h.N.N.N.N.N.N.N.N.V.V.C.C.W.#XdXFXAXGXGXbX<X[./.'. X|.|.$X$X$X$X|.$X|.|.|.{._.F.D.V.V.N.j.h.a.3.2.-.-.>.=.=. . .=. . .=.=.-.-.=.=.| ..-.6.i.u.u.z.F.$XnXGXHXzXFXLXGXmX>X).h.3.-.| 2.;.;.=.=. . .} } } Q Q ",
"b b F F F H H H G G J Y R Q }  .Q X.:.6.e.~.qXMXFXFXZXZXKXIX3XU.d.2.:.:.:.-. . .-.=.=.=.=.=.;.;.;.=.=.=.=.;.;.;.2.6.i.a.h.N.N.V.F.F.F.(._.{.|.|.&X>X>X<X>X>X&X$X$X|.[.#XwXbXSXAXZXGXhX[.S.G.G.N.V.V.V.N.N.j.N.N.j.j.h.g.a.a.a.a.i.a.a.g.h.N.V.D.(._.|.$X$X$X$X$X|.{.(.F.D.V.V.N.N.j.h.a.a.7.2.;.;.=.=. .} } R R Y Y Y Y Y U H H U U U H H H J J H H H H H Y Y Y Y Y Y Y Y U Y Y Y Y Y Y Y R R R R Q Q Q } }  . .=.=.=.=.=.=.;.:.i.a.a.s.h.s.i.2.;.=.=.} } ' R Q Y R R R Y H F n x x a u r e 2 1 2 2 < < ; ; ; - ; : : ; : ; ; ; - $ @ + + + + + + + + + + + + + X X X . . o o   o o o o . . . . . . o o o . . .                       o     o o . . .           & &             o o o o o o o o o . X + + @ @ @ @ @ + + + + + + + @ @ $ - - ; ; - - ; ; ; - - $ , 1 1 8 r y u u u u p a x x x b B F F F H H H U H U U Y Y Y R R R R R R R R R R Q } } } } } } Q } } Q Q R R R R R R R Y Y Y Y Y E Y H H F F b b N x x x b b b b b B B B B B F F Z F H Y Y Y R R } }  . . .=.=.=.;.2.7.i.g.g.j.N.N.V.V.V.D.(.{. X&X&X&X&X&X|.{._.(.F.F.V.N.N.j.j.a.a.a.a.s.g.g.h.N.N.N.N.N.N.N.N.F.m.N.H.G.A.[.sXSXGXGXFXbXwX@XQ.{.{.|.$X$X$X$X|.|.|.|.|.|._.(.F.Z.m.g.h.h.s.y.2.:.:.;.=. . . . . . . .=.-.-.=.-.:.:.,.-.=.;.7.z.f.p.!.8XSXGXGXGXAXGXKXsXOXr.8.8.2.2.:.;.=. . .} Q Q Q Q ",
"F F F F H H H H G G J Y R Q  . .>.=.;.b.%XhXGXGXDXFXFXGXmX;Xb.1.4.;.=.-.-. . .>.=.=.=.=.;.;.:.;.;.;.=.=.;.;.;.;.6.7.a.g.j.N.V.V.F.(._.{.|.$X&X&X>X>X>X<X<X,X&X$X{.{.$XwXMXKXGXxXKXiX~.S.C.V.V.D.V.V.B.B.k.k.j.j.j.j.h.g.a.a.i.i.a.a.a.h.N.V.D.G._.{.$X&X&X$X|.{.{._.(.D.V.V.N.N.j.j.g.a.i.3.:.=.=.=. .} Q R R Y U Y Y Y Y Y E J Y Y Y H H J H H F H H H H Y Y Y Y Y Y Y Y Y Y Y R Y Y Y Y R R R R Q Q Q } }  . .!  .=.=.=.;.:.9.d.p.a.a.s.p.i.2.;.=. . .} ' R R Y Y Y Y U H b b x x a u r 8 2 1 1 1 < < < , , , < < < < < 1 < < - $ @ @ + + + + + + + + + + + + X X X . . o     o o o o o . . . . . o o o . . .                       o   o o o . . .           & &             o o o o o o o o o . X + + @ @ @ @ @ @ + + + + + + + @ $ - - ; ; - - ; ; ; ; - - , , 1 2 r r r u u u p a x x x b B F F F H H H U Y Y Y Y Y R R R R R ' ' ' R R R Q } } } } } } Q Q Q R Q R R R R R R R Y Y Y Y Y Y Y Y Y H H F F B x x x b n n b x x b B B B B B F F H J Y U Y R Q }  . . . .=.=.=.;.2.i.a.a.h.j.V.V.N.N.V.D.(._.[.@X#X&X>X&X$X|._.(.F.D.V.N.N.N.p.s.s.s.s.s.s.g.N.N.N.N.N.N.N.N.v.M.V.N.V.D.(.^.dXmXAXAXFXDXrX$X_._.{.|.$X$X$X|.$X$X$X$X|.{.(.S.p.7.3.y.a.d.i.2.7.2.2.;.=. . .} Q Q  . .=.-.-.=.1.1.=.X.X...-.:.1.y.a.v.$XnXGXxXDXFXAXAXGXtXG.f.3.2.2.;.=. .} } Q Q Q R ",
"b B F G J Y Y U ~ T R ' }  .X.;.3.9.Q.dXGXFXZXLXAXGXLXuXW.6.:.6.-.-.-.-.=.=.=.=.>.=.=.=.=.;.;.:.-.-.-.;.:.2.7.i.a.g.j.N.N.V.V.D.(.(._.|.$X#X#X#X>X<X<X<X#X$X|.%X}.@XiXGXGXAXFXGX-X{.S.A.V.V.N.N.N.N.N.N.N.j.j.h.h.g.a.i.i.i.a.a.s.s.m.N.V.F.(./.|.|.$X$X$X|.{.`.(.F.F.D.V.N.N.N.a.a.i.7.2.:.;.;. . .} } ' ' R Y H H H J J J Y Y H H F F F H H H H H H H J J Y Y J J J J Y Y Y Y R R R R R R R R Q R Q Q } }  . .} Q Q Q ! =.;.:.a.a.a.a.a.i.2.2.-.=.=. . .} Q Q Y Y U H F B N N x x a i u r e 8 8 2 2 < < < , 1 ; : 2 2 1 , - * = * @ @ + X . . + + @ @ # + + + . . . . . . . . . . . . . . . . . . . . o                                           o . . . . .           o o o . . . . . . . . . . X + + # # + @ + + + + + + @ @ @ @ - - - - - - - - - - - ; ; 1 , 1 2 8 r r r u u u a x x x b b b b F F F F F Y Y Y Y Y Y Y Y Y Y Y Y R R R R R R R ' ' R R R } ' ' R R R R R R R R R R Y Y Y Y Y Y Y Y Y Y H H H H H H H H H H H F F F F F F K F F H J Y Y Y Y Y R Q  .=.=.;.1.2.2.3.7.i.a.a.s.h.N.N.V.D.D.F.{.|.$X&X&X&X&X&X|.{.{.(.F.V.N.j.N.j.h.a.a.a.i.7.a.s.g.h.j.N.N.N.N.N.N.V.V.D.D.D._.>XVXGXAXAXHXMX@X[.{.`.XX%X#XOX$X$X@X@X$X$X{._.(.F.M.c.s.a.g.h.d.i.2.:.;.-.=. .}  .=.;.;.;.;.-.=.=.=.>.>.>.>.>.o.-.4.z.a.v.>XCXzXAXSXSXFXGXbXUXd.d.7.2.;.=.=.>. .~ E E ",
"B F F H H J Y Y E R } .. . .=.6.r.3XJXFXZXGXGXFXLXfXOXr.,.:.:.:.=.-.-.=.=.=.=.=.>.=.=.=.=.-.;.-.=.-.;.:.2.3.i.a.g.h.N.N.V.D.F.F._.{.|.$X&X&X#X>X<X>X>X>X&X$X|.].@XhXKXZXzXGXDX0X{.F.A.M.V.N.N.N.N.N.N.j.j.h.h.g.g.a.a.i.i.a.g.g.h.m.V.D.F.).`.}.|.|.|.|.|.{._.^.F.F.D.V.V.N.m.h.a.a.7.7.2.;.;.-. . .} Q ' R Y Y J H H H H H H H J H H H H H H H F H H H H J J J J J J J Y Y Y Y R R R R R R R R Q R Q Q } }  . .} } } }  .=.-.:.a.i.i.a.a.i.7.6.=.=.=. . .} Q Q R R Y H F B B N x x a i u r e 8 8 2 1 < < < < 1 : < 2 2 1 , - - * * @ @ + + X X + + @ + + + + + . . . . . . . . . . . . . . . . . . . . o                                           o o . . . . o o     o o o . . . . . . . . . . . + + + + + + + + + + + + + + @ @ @ @ * - - - - - - - - ; ; ; 1 1 1 2 8 r r r u u u a x x x b b b b F F F F F Y Y Y Y Y R R R Y Y Y Y R R R R R R R R R R R R R R R R R R R R R R R R R Y Y Y Y Y Y Y Y Y Y H Y Y Y Y H J J H H H H H H H H H F F F H H H H H Y Y R Q  .=.=.;.;.:.2.2.3.7.i.i.s.s.h.N.V.V.D.D.(._.|.$X$X&X&X&X|.|.{._.(.D.V.N.N.j.h.g.a.a.a.a.a.a.a.g.h.j.N.N.N.N.N.V.V.V.V.D.F.{.;XpXGXGXFXvXCX;X~. XXX{.[.>X%X$X|.$X$X$X|.{._.(.F.M.m.m.m.m.a.i.3.2.;.-. . .}  .=.;.;.;.-.-.=.=.=.=.=.=.=.=.-.=.%.4.1.8.r.@XhXDXGXFXAXDXDXSXhX[.e.&.*.4...[ =. .} R ",
"F F F H H Y Y R J ] >.>.! =.r.[.VXSXAXKXHXlXmXGX3X~.q. .=.:.>.! =.=.=.=.=.=.=.=.;.;.=.=.=.=.-.-.=.;.2.3.i.a.a.g.N.N.N.V.D.F.(.{. X|.$X&X&X>X>X>X<X>X&X$X|.[.@XOXmXSXFXAXDXBX<XQ.F.M.M.V.V.N.N.N.j.j.j.j.h.h.g.g.a.a.a.i.a.a.j.j.N.V.D.F.(._. X$X|.|.|.{.{._.^.S.F.D.V.V.N.h.s.s.i.i.7.2.2.;.-.-. .} Q Q R R Y Y J J H H H H H H G G H H H H H H F F F H H H J J G J J J Y Y Y Y R R R R R R R R Q R Q Q } }  . . . . ...-.-.:.:.7.3.2.2.2.2.2.:. . . . . . .} } Q R R U H F B b x x a i u r e 8 8 2 1 < < < 1 1 : < 1 2 1 , ; - * * @ @ + + + + + + + + + + + X . . . . . . . . . . . . . . . . . . . o o                                         o o . X . . . . . . . . . . . . . . . . . . . X X + + + + X + + + + + + + + + + + @ @ @ * - - - - - - - ; ; ; 1 1 1 2 8 r r r u u u a x x x b b b b F F F F F U U R R R Q Q Q R R R R R Y Y Y R R R R R R R R R R R R R R R R R R R R R Y Y Y Y Y Y Y Y Y Y H Y Y Y Y Y Y Y Y Y Y Y Y Y Y Y Y U H H H H F Z Z H Y Y R Q  .=.=.=.=.;.:.2.6.7.7.a.s.g.N.N.V.V.D.D.F.(.{.|.|.$X&X$X$X|.{._.(.F.D.N.N.j.h.g.s.a.a.i.a.a.a.a.s.h.h.N.N.N.N.N.N.V.V.C.M.W.@XfXGXGXAXGXmX0X@X].{. X X X|.|.|.$X$X$X$X|.{._.F.D.V.N.N.h.g.a.3.2.;.-. . . . .=.=.-.-.-.=.=.=.=.=.=.;.=.5.%.%.;.;.-.,.<.H.*XmXGXAXAXFXFXGXmX>XS.a.1.=...:.=. .} ",
"G J J Y Y Y R ' |  .%.&.9.!.wXSXFXGXAXxXAXGXfX@Xe.6.:.;.1.>.=.} =.=. . . . . . .;.;.=.=.=. . ...;.2.3.d.k.j.j.j.N.V.D.F.(._.{.|.|.$X$X&X&X&X#X#X>X>X*X|.[.@XwXBXHXxXZXKXCX@Xn.F.V.V.V.V.V.N.j.N.j.j.j.h.g.g.a.a.i.a.i.a.a.g.j.j.N.V.F.(.{.{.$X$X$X|.{.{._.(.F.F.D.V.V.N.h.g.s.a.7.7.2.2.;.-.=.=.} } Q R R R Y Y J H H H H H H H F F F F F F F F F F F F H G G G H H H Y Y Y Y Y R R R R R R R R Q R Q Q } }  . .=.-.;.:.6.7.7.7.7.2.:.=.=.=.=.=. . . . . . . .} Q Q R Y H F B b x x a i u r e 8 8 2 1 < < < 1 1 < 1 1 2 1 ; ; - @ @ @ @ @ @ + $ + + + + + . . . . . . . . . . . . . . . . . . . . . . o o                                       o . . X X + + + O O O . O O O + X X X X X X X X X + + + + X . . + + + + + + + + + + + @ @ @ @ * - - - - ; ; ; : 1 1 2 2 8 8 r r u u u a x x x x b b b F F F F F U U R Q } } Q Q R R R R R R R R R R R R R R R R R R R R R R R R R R R R R Y Y Y Y Y Y Y Y Y Y H Y Y U Y U U U U R R R R R R R R R R Y U H H Z Z H U Y R Q  . .=. .=.=.-.;.:.2.6.i.a.s.h.N.N.V.V.V.V.D.(._.{.|.$X$X$X$X$X|._.(.F.V.V.N.j.h.h.g.a.i.i.i.i.i.a.a.s.j.j.j.N.N.N.N.N.B.V.D.F.|.wXSXGXzXGXDXqXOX].}.).{.{.|.|.|.$X$X&X$X|.{._.F.D.V.N.N.j.h.a.7.2.-... . . . .=.=.-.-.=.=.=.=.=.=.=.=.5.;. ...-. .=.;.3.x.oXyXFXGXFXSXSXGXGXbXOXr.7.*.4.2.=. .",
"G J E E Y Y R ' >.%.=.e.-XCXGXAXZXGXGXFXSXsX/.;.;.;.;.;.=.=.-.<. . . . . . . . .=.=.=. . . .=.-.2.3.i.h.j.N.V.V.V.D.F.(.{.{.|.$X$X$X$X&X&X$X$X$X%X X X|.#XrXmXGXxXGXKXsX[.A.V.C.C.C.V.V.N.N.N.N.j.j.h.h.g.a.a.a.7.i.i.a.g.j.N.N.D.D.(.{.|.|.$X$X|. X{._.F.F.F.D.V.V.N.N.h.s.a.i.2.2.2.:.;.=. . .} Q R R R Y Y H J H H H H F F F B B F F F F F F F F F H H H J J H H U Y Y Y Y R R R R R R R R R Q R Q Q } }  . .1.2.3.i.i.d.a.s.7.2.;.-. .-.>.=. . . . . . . .} Q Q R Y H F B b x x a i r r e 8 2 2 1 < < < 1 1 1 1 1 1 < ; - $ @ @ @ @ @ @ $ $ @ @ + + + . . . . . . . . . . . . . . . . . . . . . . . o                                       . X X + + + + + + + + + + + + + X X + + + X X X X X + + + X . . + + + + + + + + + + + + @ @ @ @ - - - - - ; , 1 1 1 2 2 8 e r r u u u a x x x x b b b F F F H H H U R Q } } ! ! } } } Q R R R R R R } } } ' R R R R R R R R R R R R R R R Y Y Y Y Y Y U U J J J Y Y Y U U U Y Y R R R R R R Q Q } } R R Y H H H H U Y R Q }  . . . . .=.-.;.:.:.7.i.a.g.j.N.N.N.N.V.D.D.F._.{.|.|.$X$X$X|.{._._.D.D.V.N.N.h.h.g.a.i.i.i.i.i.i.i.h.h.h.h.j.N.N.N.V.D.V.V.A.Q.0XCXFXAXFXKXdXOXQ.}./._.{.|.|.$X$X&X$X$X|.{.(.F.D.V.V.V.N.s.i.2.-.-. . . . . . . .=.-.=.=. . . .=.=.;.=. ..... .=.&.,.:.2.b.#XbXGXKXFXAXAXAXSXtX/.p.5.1.=.=.",
"H J Y Y U T R } %.9.~.aXSXGXHXxXIXDXFXMX=X<.;.4.;.;.%.=.>.-...}  . . . . . . . .=. . .} }  .=.:.3.y.a.j.N.V.D.D.D.F._.{.|.|.$X$X$X$X$X$X$X|.|.|.}.].~.;XaXSXFXFXGXDXrX].A.D.C.N.B.N.N.N.N.j.j.B.j.h.h.g.g.a.a.a.i.i.a.a.h.N.V.V.F.(.{.|.$X$X$X$X{.{._.F.F.D.D.V.V.N.N.j.g.a.i.7.2.2.:.;.=. . . .} Q R R Y Y J H J H H H F F B B B B B F F H H H H H H H H J Y Y Y Y Y Y Y R R R R R R R R R R R Q R Q Q } }  . .1.1.4.y.i.a.a.h.3.2.=. . .-.-.-. . . . . . .} } Q R R U H F B b x x a i u r e 8 2 2 1 < < < 1 1 1 2 1 1 < ; - $ @ @ @ @ @ @ - - @ @ + + + X X X . . . . . . . . . . . . . . . . . . . . o                                       X X + + + + + + + + + + + + + + + + + + + + + + . . X + + X . . + + + + + + + + + + + @ @ @ @ @ - - - - ; , , 1 1 1 2 2 8 e 9 r u u u a x x x b b b b B F F H H H H Y R Q } ! ! } } } } } Q R R ' } } } } } ' ' R R R R R R R R R R R R R R Y Y Y Y U U U H H J Y Y Y Y Y Y Y Y R R R R R R R R } } Q R R R Y Y U Y Y R R } }  . . . .=.-.;.:.:.7.7.i.a.h.j.N.N.V.V.C.V.D.F._.{.{.{.|.|.|.|.{.{.(.F.D.V.V.N.h.g.a.a.a.i.i.i.i.i.a.a.a.a.g.h.j.N.V.V.V.N.V.A./.=XVXDXGXGXGXnX<X@X].].{.{.|.|.$X$X&X&X$X|.{._.(.F.D.D.V.m.i.2.=.=.=.=. .} } }  .X.} } } Q Q Q } } =.=.......=.;.;...-.1.3.d.!.qXFXHXGXFXSXJXLXdX8Xq.<...! ",
"Y Y Y E U R ..-.r.=XMXGXAXZXAXGXVXCXtXr.=.%.4.:. . . . .>...} T Q Q  . . . . . ...} } R Q  .:.3.a.s.j.N.V.D.F.(.(._.{.|.|.|.$X$X|.|.$X$X|.{.{._._.[.;XpXGXGXFXAXIX:X!.A.G.C.V.V.N.N.N.N.N.j.j.j.h.h.g.g.a.a.a.a.a.a.a.h.N.V.D.F.(._.|.$X$X$X|. X{._.^.S.V.V.V.N.N.N.j.j.g.a.7.7.2.:.;.=. . .} } } R R Y Y Y J H Y H H H F F B B x B B F F H H H J J H Y U Y Y Y Y Y Y Y R R R R R R R R R R R R Q R Q Q } }  . .=.;.;.:.2.3.7.7.1.;.=.} } ..=.=.=.=. . . .} Q Q R R Y H F B B N x x a i u r e 8 2 2 1 < < < 1 2 2 2 2 1 , ; - $ - - - - @ * * * $ @ @ + + X + + . . . . . . . . . . . . . . . . . . . . o                                       X X + + + + + @ + + X X X X X X + + + + + + + + . . . X + + + . + + + + + + + + + + + + @ @ @ @ - - - ; ; , 1 1 2 1 2 2 8 8 9 9 u u u a x x x b b b b F F F H F H G J Y R Q Q ! } } } } } } Q Q R ' ' } } ' ' R R R R R R R R R R R R R R R Y Y Y Y U U H H H J Y Y Y Y Y Y Y Y R R R R R R R R R R R R R R R R Y Y R R ' } } }  . .=.=.;.;.:.:.2.3.i.a.g.h.j.j.V.V.V.V.V.D.(.(._._._.{.{.{.{.{._.(.(.F.D.V.N.j.g.s.a.a.i.i.i.i.i.i.i.a.a.s.g.g.N.N.N.V.V.V.A.S.#XhXDXZXAXGXDXqX$X|.]._.{.|.|.$X*X&X&X$X|.{._._.(.(.D.M.s.2.;.-.;.=. .} R Q Q ~ Y Y U H H U U U }  . .=.=.;.-.-. .=.:.4.4.6.n.@XcXDXKXDXSXFXGXGX:X~.r...",
"Y R Y T T } 0.t.bXSXHXHXPXGXFXFXFXE.<.5.5.2. .|  .} R R R Q X.>.Q Q  . . . . . ...} ' R Q =.2.y.h.h.N.V.D.F.(._._.{.{.[.[.|.$X$X|.|.|.|.{.{._._.{.>XdXGXAXAXFXGX@X].F.C.B.j.V.D.V.N.N.V.V.N.g.g.h.g.g.a.a.a.a.a.s.s.h.j.N.D.F.(._.{.|.$X$X|.{.{.{._.(.D.V.N.N.N.N.j.j.h.a.i.7.6.:.;.;.=. . .} } Q R R Y Y Y H H Y H H H F B B b x x b B F F H H U E E Y Y Y R R Y R R R R R R R R R R R R R R R Q R Q Q } }  . . . . . . .-.-.;.y.2.-.......=.=.-.=. . . .} Q Q R Y U H F B N N x x a i u r e 8 2 2 1 < < < 1 2 2 2 1 1 ; ; $ $ - - - - @ * * * $ @ @ + + + + + . . . . . . . . . . . . . . . . . . . . o                                       . X X + + + + + X X X . . . . . + + + + X X X X . . . X + + + + + + + @ @ @ + + + + + + @ @ @ $ - - - ; , , 1 2 2 1 2 2 8 8 9 9 u u u a x x x b b b b F F F F F G G G J Y R Q Q } } } } } R R Q R R R ' ' R R R } } } R R R R R R R R R R R Y Y Y Y U U H H H J Y Y Y Y Y U Y Y R R R R R R Y Y U Y Y R R R Q Q R R R R ' } } }  .=.=.=.;.:.:.2.2.2.3.i.a.g.h.h.v.M.V.V.V.D.F.(.).(._._.{.{.{.{.{._._.(.F.D.V.N.h.h.g.a.a.a.i.i.i.i.i.i.a.a.a.a.j.j.N.C.V.V.V.D.n.@XdXFXHXAXFXGX,X$X[./._.{. X|.*X&X&X&X$X|.|.{._._.).D.s.7.2.:.:.=. .} R R Q Q K F Z Z Z Z Z F Y R ! %.%.>.=.} 2.=.X.X.-.:.y.l.].rXGXzX7XxXGXJXKXnXOXr.",
"E H ' E ] K.UXDXAXFXFXFXGXGXBX5X9.9.:.-.=.=. .=. . . .} Q Q } Q  . .} } } }  . .R R !  .;.3.a.h.N.V.F.(._._.{.{.{.{.|.|.|.|.{.{. X].[._.`._.W.@X9XDXGXZXGXKXtX XD.D.V.V.V.N.N.N.N.j.j.j.j.h.s.a.a.a.a.i.i.a.a.a.h.h.j.N.D.F._._.|.|.|.|.{.{._.(.F.F.D.V.V.V.N.N.h.s.a.i.7.2.:.;.=. . . .} Q R R Y Y Y Y Y Y Y Y H H H F F B B B b B B B B B F F B F H Y Y Y Y Y Y Y Y Y Y Y Y Y Y R R R Y Y Y Y R R Q Q } } Q Q Q } }  . . . . .=.=.=.=.=.;.;.;. . . . . . .} } R R Y H F b x x a a a u u r r r e 2 8 8 8 2 2 < < < ; ; ; ; - - - - - - $ @ + + @ @ @ @ + + + + X X + + X + + + . . . . o       . . . . o                                             o               o . . . . o o . . . + + + X X . o o o o o . X + + @ + + + . X + + @ @ * * @ @ * - ; ; < 1 1 1 2 2 8 8 r r u u u a a x x x x x b B B B B F F F H H H H U U Y Y Y Y Y Y Y Y R R R R Q } } } } } } } } } } } ' R R Y Y Y Y Y Y Y J G H H H H H H H H H J Y Y Y Y Y Y Y Y Y Y Y Y U U U U Y Y R R R R R R R Y R } }  . .-.-.;.:.2.2.3.i.i.a.a.h.j.N.N.N.N.N.N.V.D.D.F.(.{.{. X|.|._._.(.F.D.V.N.N.N.j.h.a.a.i.i.i.i.i.i.i.i.a.j.j.N.N.N.N.N.N.V.V.G.-XCXGXAXFXDXcX+X~.(.`.{.].{.{.|.|.|.|.|.|.{.{.{._.(.M.N.N.6.:. .} Y E U U Y H H H H F F F Y Y Y R Q  . . .-. . .}  .=.;.2.,.b.oXuXGXGXAXGXFXFXFXFX",
"E H Y Y t.yXSXKXAXGXGXFXAXvXOXr.9.:.;.=.=.=.=.=. . . .} Q Q } Q  . .} } } }  . .Q }  .-.2.i.g.N.N.V.F.(._.{.{.{.{.{.|.|.|.|.{.{.{./.[._.`.`./.,XmXKXGXAXAXmX#XS.D.D.V.V.V.N.N.N.N.j.j.j.j.j.s.a.a.a.i.i.i.a.a.a.h.j.N.V.D.F._.{.|.|.|.|.{.{._.(.F.F.D.V.V.V.N.N.h.s.a.i.7.2.:.;.=. . . .} Q R R Y Y Y Y Y J J Y H H H F F B B B B B F B B b B F B F H Y Y Y Y Y Y Y Y Y Y Y R Y R R R R Y Y Y Y R R Q Q } } Q Q Q } }  . . . . .=.=.=.=.=.;.;.;. . . . . . .} } R R Y H F b x x a a a u u r r r e 2 8 8 8 2 2 < < < ; ; ; ; - - - - - - $ @ + + @ @ @ @ + + + + X + + X X X + + . . . . o       . . . . o                                             o o             o . . . . o o . . . + + + X X . o o o o   . X + + @ + + + . + + + @ @ * * @ @ * - ; ; < 1 1 1 2 2 8 8 r r u u u a a x x x x x b B B B B F F F H H H H U U Y Y Y Y Y Y Y Y R R R R Q } } } } } } } } } } } ' R R Y Y Y Y Y Y Y J G H H H H H H H H H J Y Y Y Y Y Y Y Y Y Y Y Y U U U U Y Y R R R R R R R R R } }  . .-.-.;.:.:.2.3.i.i.a.a.h.j.N.N.N.N.N.N.V.D.D.F.(._.{. X|.|.{._.(.F.D.V.N.N.N.j.h.a.a.i.i.i.i.i.i.i.i.a.j.j.N.N.N.N.N.N.V.N.m.Q.rXAXAXFXGXDXaX@X(.).`.].{.{.|.|.|.|.|.|.{.{.{.{.(.V.N.N.p.8.,. .R U H H Y Y U H H H H H Y Y Y R Q  . . .-. .} }  .=.;.2.:.6.e.~.pXZXAXGXGXGXFXFX"
};
