/* XPM */
static char *e5131a7f69f2426ecdb1641d4ac25a640vaXVeQ7rRYTCxH1[] = {
/* columns rows colors chars-per-pixel */
"563 562 256 2 ",
"   c #180302",
".  c #15020E",
"X  c #280302",
"o  c #330401",
"O  c #3C0402",
"+  c #3B0804",
"@  c #380A12",
"#  c #3F2000",
"$  c #430401",
"%  c #4B0301",
"&  c #450A01",
"*  c #4B0D01",
"=  c #49090A",
"-  c #520D01",
";  c #560902",
":  c #4E1101",
">  c #481205",
",  c #541401",
"<  c #591601",
"1  c #561902",
"2  c #5C1A01",
"3  c #58160A",
"4  c #510F13",
"5  c #621D01",
"6  c #691E01",
"7  c #651602",
"8  c #741C01",
"9  c #660E03",
"0  c #652102",
"q  c #6B2301",
"w  c #6C2706",
"e  c #722601",
"r  c #7A2601",
"t  c #742902",
"y  c #7B2C01",
"u  c #76290A",
"i  c #7E3102",
"p  c #7C3208",
"a  c #742814",
"s  c #5E2204",
"d  c #822E01",
"f  c #862B03",
"g  c #843201",
"h  c #8B3501",
"j  c #8D3902",
"k  c #873607",
"l  c #913601",
"z  c #943B01",
"x  c #9A3D01",
"c  c #973B08",
"v  c #90310E",
"b  c #A43D02",
"n  c #AC2A09",
"m  c #981604",
"M  c #9C4102",
"N  c #984405",
"B  c #984D0B",
"V  c #A24302",
"C  c #AC4401",
"Z  c #A54A02",
"A  c #A84A07",
"S  c #B44B00",
"D  c #B94E00",
"F  c #B24802",
"G  c #A95504",
"H  c #BF5500",
"J  c #BC5200",
"K  c #B75A04",
"L  c #AD5416",
"P  c #BB6503",
"I  c #B86712",
"U  c #B15E27",
"Y  c #C15700",
"T  c #C25601",
"R  c #C35900",
"E  c #C45B00",
"W  c #C75F00",
"Q  c #C65D01",
"!  c #C65A01",
"~  c #CA5D01",
"^  c #C65B07",
"/  c #CB5307",
"(  c #C46401",
")  c #C86000",
"_  c #CA6200",
"`  c #CB6001",
"'  c #CD6200",
"]  c #CD6201",
"[  c #CF6501",
"{  c #CE6400",
"}  c #CD6501",
"|  c #CD6401",
" . c #C46B00",
".. c #CE6A01",
"X. c #C8680A",
"o. c #D16701",
"O. c #D06602",
"+. c #D06502",
"@. c #D16601",
"#. c #D26900",
"$. c #D36A01",
"%. c #D26802",
"&. c #D16800",
"*. c #D46B00",
"=. c #D66D00",
"-. c #D56B00",
";. c #D96E01",
":. c #DA6D0A",
">. c #D66A08",
",. c #CC7302",
"<. c #CB7804",
"1. c #D57301",
"2. c #DC7301",
"3. c #D47B02",
"4. c #DE7A01",
"5. c #DD730A",
"6. c #D5790B",
"7. c #D67817",
"8. c #C97017",
"9. c #E16E03",
"0. c #E17601",
"q. c #E37C01",
"w. c #EA7D01",
"e. c #E47B0A",
"r. c #E5770A",
"t. c #E47913",
"y. c #CF7626",
"u. c #E57923",
"i. c #C55225",
"p. c #D48302",
"a. c #DD8302",
"s. c #DD8B02",
"d. c #DC840B",
"f. c #DD8B0B",
"g. c #D48608",
"h. c #DB9507",
"j. c #DA8815",
"k. c #DA941B",
"l. c #CD8A0B",
"z. c #E68301",
"x. c #E98501",
"c. c #E58B02",
"v. c #EB8B01",
"b. c #E3840A",
"n. c #E38B0B",
"m. c #EB8C0A",
"M. c #EA830A",
"N. c #F18E02",
"B. c #F28705",
"V. c #E59303",
"C. c #ED9301",
"Z. c #ED9A02",
"A. c #E4940B",
"S. c #EB930A",
"D. c #EC9B0B",
"F. c #E59B08",
"G. c #F19401",
"H. c #F39B01",
"J. c #F99D02",
"K. c #F2940A",
"L. c #F39C0A",
"P. c #F99807",
"I. c #E48C13",
"U. c #E78916",
"Y. c #E99715",
"T. c #F49A17",
"R. c #F38C16",
"E. c #EDA202",
"W. c #ECA30B",
"Q. c #EAA809",
"!. c #F4A301",
"~. c #F9A402",
"^. c #F5AB01",
"/. c #FAAC01",
"(. c #F3A30A",
"). c #F3AB0B",
"_. c #FBA70A",
"`. c #F5B301",
"'. c #FBB302",
"]. c #FCBB02",
"[. c #F7B908",
"{. c #EBA715",
"}. c #F3A313",
"|. c #F8A919",
" X c #F8B619",
".X c #EAB612",
"XX c #DA9925",
"oX c #DA882A",
"OX c #E79626",
"+X c #EB9229",
"@X c #DBA634",
"#X c #DCA427",
"$X c #EAA628",
"%X c #FBA626",
"&X c #FDB827",
"*X c #EAA734",
"=X c #F9AC35",
"-X c #E8B738",
";X c #FBB737",
":X c #E8B827",
">X c #DBA50C",
",X c #FCC302",
"<X c #FDCC01",
"1X c #F7C608",
"2X c #FCD406",
"3X c #F8C717",
"4X c #FBD718",
"5X c #EAC916",
"6X c #FCC727",
"7X c #FCD728",
"8X c #FEC737",
"9X c #FBD735",
"0X c #EBC72F",
"qX c #FCE434",
"wX c #FAE019",
"eX c #E9B847",
"rX c #F8B948",
"tX c #F7BA53",
"yX c #ECAE45",
"uX c #E8A242",
"iX c #FBC84B",
"pX c #FBD648",
"aX c #F7C957",
"sX c #FCD657",
"dX c #EDC84B",
"fX c #FBE75A",
"gX c #FCEC51",
"hX c #FED766",
"jX c #FEDA78",
"kX c #FACD63",
"lX c #FFE769",
"zX c #FEF569",
"xX c #FFEB74",
"cX c #FFEC7B",
"vX c #FFE477",
"bX c #FFF576",
"nX c #FFDC84",
"mX c #FFE686",
"MX c #FFF383",
"NX c #FFFC8C",
"BX c #FFF987",
"VX c #FFEB97",
"CX c #FFFC94",
"ZX c #FFFC9C",
"AX c #FFF598",
"SX c #FFFCA4",
"DX c #FFFCAB",
"FX c #FFF6A3",
"GX c #FFFDB3",
"HX c #FFFDBC",
"JX c #FEF7BA",
"KX c #FFEFA0",
"LX c #FEFEC2",
"PX c #FFFFCB",
"IX c #FFFFD4",
"UX c #FCFFEC",
/* pixels */
"H H H H H H Y Y Y Y R R R R R R R R R R E E E E Q Q Q Q Q Q Q Q ~ ~ ~ ~ ~ ~ ) ) ) ' ' ' ' ' ' ' ) ) ' ' ' ' ' ' ' ' ' ' ' ' ' ' ' ' ' ' ' ' ' ' ' ' ' ' ' ' ' ' ' ' ' ' ' ' ' ' ' ' ' ' ' ' ' ' ' ' ' ' ' ' ' ' { { { { { { { { ' ' ' ' ' ' ' ' ' ' ' ' ' ' ' ' ' ' ' ' ' ' ' ' ' ' ' ' ' ' ' ' ' ' ' ' ' ' ' ' ' ' ' ' ' ' ' ' ' ' ' ' ' ' ' ' ) ) ) ) ) ~ ~ ~ ) ) ) ~ ) ) ) ) ~ ~ ~ ~ ) ) ) ~ ~ ) ) ) ) ~ ~ ~ ) ) ~ ~ ~ ~ ~ ~ ~ ~ ~ ~ ~ ~ ~ ~ ~ ~ ~ ~ ~ ~ ~ ~ ~ ~ ~ ~ ~ ~ ~ ~ ) ) ) ) ) ) ) ) ) ) ) ) ~ ~ ~ ~ ) ) ) ) ) ) ) ) ~ ~ ~ ~ ) ) ) ) ) ) ) ) ) ) ) ) Q Q Q Q Q Q ) Q ) ) ) Q Q Q Q Q Q Q Q Q Q Q Q Q Q Q Q Q Q Q Q Q Q Q Q Q Q Q Q Q Q Q Q Q Q Q Q Q Q Q Q Q Q Q Q Q Q Q Q Q Q Q Q Q Q Q Q Q Q Q Q Q Q Q Q Q Q Q Q Q Q Q Q Q Q Q Q Q Q Q Q Q Q Q Q Q Q Q Q Q Q Q Q Q Q Q Q Q Q Q Q Q Q Q Q Q Q Q Q Q Q Q Q Q Q Q Q Q Q Q Q Q Q Q Q Q Q Q Q Q Q Q Q Q Q Q Q Q Q Q Q Q E E E E E E E E E E E E E E E E E E E E E E E E E E E E E E E E R R R R R R R R R R R R R R R R R R R R R R R R R R R R R R R R R R R R R Y Y Y Y Y Y Y Y Y Y Y H H H H H H J J J J J J J J J J J J J J D D D D D D S S S S S S S S S F F F F F C C C C C C C C C C V V V b b b b b b ",
"H H H H H H Y Y Y Y R R R R R R R R R R E E E E Q Q Q Q Q Q Q Q ~ ~ ~ ~ ~ ~ ) ) ) ' ' ' ' ' ' ' ' ' ' ' ' ' ' ' ' ' ' ' ' ' ' ' ' ' ' ' ' ' ' ' ' ' ' ' ' ' ' ' ' ' ' ' ' ' ' ' ' ' ' ' ' ' ' ' ' ' ' ' ' ' ' ' { { { { { { { { ' ' ' ' ' ' ' ' ' ' ' ' ' ' ' ' ' ' ' ' ' ' ' ' ' ' ' ' ' ' ' ' ' ' ' ' ' ' ' ' ' ' ' ' ' ' ' ' ' ' ' ' ' ' ' ' ' ' ' ' ' ' ' ' ' ' ' ' ' ' ' ' ' ' ' ' ' ' ' ' ' ' ' ' ' ' ' ' ) ) ~ ~ ~ ~ ~ ~ ~ ~ ~ ~ ~ ~ ~ ~ ~ ~ ~ ~ ~ ~ ~ ~ ~ ~ ~ ~ ~ ~ ~ ~ ) ) ) ) ) ) ) ) ' ' ) ' ~ ~ ~ ~ ) ) ) ) ' ' ) ' ~ ~ ~ ~ ) ) ) ) ) ) ) ) ) ) ) ) Q Q Q Q Q Q ) ) ) ) ) Q Q Q Q ) Q Q Q Q Q Q Q Q Q Q Q Q Q Q Q Q Q Q Q Q Q Q Q Q Q Q Q Q Q Q Q Q Q Q Q Q Q Q Q Q Q Q Q Q Q Q Q Q Q Q Q Q Q Q Q Q Q Q Q Q Q Q Q Q Q Q Q Q Q Q Q Q Q Q Q Q Q Q Q Q Q Q Q Q Q Q Q Q Q Q Q Q Q Q Q Q Q Q Q Q Q Q Q Q Q Q Q Q Q Q Q Q Q Q Q Q Q Q Q Q Q Q Q Q Q Q Q Q Q Q Q Q Q Q Q Q E E E E E E E E E E E E E E E E E E E E E E E E E E E E E E E E E E E E E E E E E E E E E E E E R R R R R R R R R R R R R R R R R R R R R R Y Y Y Y Y Y Y Y Y Y Y Y H H H H J H J J J J J J J J J J J J D D D D D D S S S S S S S S S S F F F F C C C C C C C C C C C C V b b b b b b ",
"H H H H H H Y Y Y Y R R R R R R R R R E E E E E Q Q Q Q Q Q Q Q ~ ~ ~ ~ ~ ) ) ) ) ) ' ' ' ' ' ' ' ' ' ' ' ' ' ' { { { { { { { { ' ' ' ' ' ' ' ' ' ' ' ' ' ' ' ' { { { { { { { { { { { { { { { { { { { { { { { { { { { { { { { { ' ' ' ' ' ' ' ' ' ' ' ' ' ' ' ' ' ' ' ' ' ' ' ' ' ' ' ' ' ' ' ' ' ' ' ' ' ' ' ' ' ' ' ' ' ' ' ' ' ' ' ' ' ' ' ' ' ' ' ' ' ' ' ' ' ' ' ' ' ' ' ' ' ' ' ' ' ' ' ' ' ' ' ' ' ' ' ' ' ) ~ ~ ~ ~ ~ ~ ~ ~ ) ~ ~ ~ ~ ~ ~ ~ ~ ~ ~ ~ ) ) ~ ~ ~ ~ ~ ~ ~ ~ ) ) ) ) ) ) ~ ~ ' ' ' ' ' ' ) ) ) ) ~ ~ ' ' ' ' ) ) ) ) ) ) ) ) ) ) ) ) ) ) ) ) ) ) ) ) ) ) ) ) ) ) ) ) Q Q Q Q ) ) ) Q Q Q Q Q Q Q Q Q ) Q Q Q Q Q ) ) Q Q Q Q ) Q Q Q Q Q ) ) Q Q Q Q ) Q Q Q Q Q ) ) Q Q Q Q ) Q Q Q Q Q ) ) Q Q Q Q ) Q Q Q Q Q ) ) Q Q Q Q ) Q Q Q Q Q ) ) Q Q Q Q ) Q Q Q Q Q Q Q Q Q Q Q Q Q Q Q Q Q ) ) Q Q Q Q ) Q Q Q Q Q Q Q Q Q Q Q Q Q Q Q Q Q Q Q Q Q Q Q Q Q Q Q Q Q Q Q Q Q Q Q Q Q Q Q Q Q Q Q Q Q Q Q Q Q Q Q Q Q Q Q Q Q Q Q E E E E E E E E E E E E E E E E R R R R R R R R E E E R R R R R R R R R R R R R R R Y Y Y Y Y Y Y Y Y Y H H H H H H H J J J J J J J J J D D D D D D D S S S S S S S S S S F F F F C C C C C C C C C C C C V b b b b b ",
"H H H H H H Y Y Y Y R R R R R R R R E E E E Q Q Q Q Q Q Q Q Q Q ~ ~ ~ ~ ) ) ) ) ) ' ' ' ' ' ' ' ' ' ' ' { { { { { { { { { { { { ' ' ' ' ' ' ' ' ' ' ' ' ' ' ' ' { { { { { { { { { { { { { { { { { { { { { { { { { { { { { { { { ' ' ' ' ' ' ' ' ' ' ' ' ' ' ' ' ' ' ' ' ' ' ' ' ' ' ' ' ' ' ' ' ' ' ' ' ' ' ' ' ' ' ' ' ' ' ' ' ' ' ' ' ' ' ' ' ' ' ' ' ' ' ' ' ' ' ' ' ' ' ' ' ' ' ' ' ' ' ' ' ' ' ' ' ' ' ' ' ' ) ) ~ ~ ~ ~ ) ~ ) ) ~ ~ ~ ~ ~ ~ ~ ~ ~ ~ ~ ~ ~ ~ ~ ~ ~ ~ ~ ~ ~ ' ) ) ) ~ ~ ~ ~ ' ' ' ' ' ) ) ) ~ ~ ~ ~ ' ' ' ' ) ) ) ) ) ) ) ) ) ) ) ) ) ) ) ) ) ) ) ) ) ) ) ) ) ) ) ) ) Q Q Q ) ) ) Q Q Q Q Q Q Q Q Q ) Q Q Q Q Q Q Q Q Q Q Q ) Q Q Q Q Q Q Q Q Q Q Q ) Q Q Q Q Q Q Q Q Q Q Q ) Q Q Q Q Q Q Q Q Q Q Q ) Q Q Q Q Q Q Q Q Q Q Q ) Q Q Q Q Q Q Q Q Q Q Q ) Q Q Q Q Q Q Q Q Q Q Q Q Q Q Q Q Q Q Q Q Q Q Q ) Q Q Q Q Q Q Q Q Q Q Q Q Q Q Q Q Q Q Q Q Q Q Q Q Q Q Q Q Q Q Q Q Q Q Q Q Q Q Q Q Q Q Q Q Q Q Q Q Q Q Q Q Q Q Q Q Q Q Q Q Q Q Q Q Q Q Q Q Q Q Q Q Q Q Q E E E E E E E E E E E E E E R R E E E R R R R R R R R R R Y Y Y Y Y Y Y Y Y Y H H H H H H H J J J J J J J D D D D D D S D S S S S S S S S S F F F C C C C C C C C C C C C V b b b b b ",
"H H H H H H Y Y Y Y R R R R R R E E E E Q Q Q Q Q Q Q Q Q Q Q ) ~ ~ ) ' ) ) ' ' ' ' ' ' ' ' ' ' ' { { { { { { { { { { { { { { { { { { { { { { { { { { { O.O.{ { { { { { { { { { { { { { { { { { { { { { { { { { { { { { { { { { { { { { { { { { { { { { { { { { { { { { { { { { { { { { { { { { ' ' ' ' ' ' ' ' ' ' ' ' ' ' ' ' ' ' ' ' ' ' ' ' ' ' ' ' ' ' ' ' ' ' ' ' ' ' ' ' ' ' ' ' ' ' ' ' ' ' ' ' ' ' ' ' ' ' ) ~ ~ ~ ) ) ~ ~ ~ ~ ~ ~ ~ ~ ) ) ) ) ) ) ) ) ) ~ ~ ~ ) ) ) ) ' ' ' ' ' ' ' ' ' ' ' ' ' ' ' ' ' ' ' ' ' ' ' ' ) ) ) ) ) ) ) ) ) ) ) ) ) ) ) ) ) ) ) ) ) ) ) ) ) ) ) ) ) ) ) Q Q Q Q Q Q Q Q ) Q Q Q Q Q Q ) ) Q Q Q Q Q Q Q Q Q Q Q Q Q Q Q Q Q Q Q Q ) ) ) ) Q Q Q Q Q Q Q Q Q Q Q Q Q Q Q Q Q Q Q Q Q Q ) ) Q Q Q Q Q Q Q Q Q Q Q Q Q Q Q Q Q Q Q Q ) ) ) ) ) ) ) ) ) ) ) ) Q Q Q Q Q Q Q Q Q Q Q Q Q Q ) ) Q Q Q Q Q Q ) ) Q Q Q Q Q Q Q Q Q Q Q Q Q Q Q Q Q Q Q Q Q Q Q Q Q Q Q Q Q Q Q Q Q Q Q Q Q Q Q Q Q Q Q Q Q Q Q Q Q Q Q Q Q Q Q Q Q Q Q Q Q Q Q Q Q Q Q Q Q Q Q Q E E E E E E E E E E E E E R R R R R R R R R R R R Y Y Y Y Y Y Y H H H H H H H H J J J J J J D D D D D D S S S S S S S S F S S F S S C C C C C C C C C C C V b b b b b ",
"H H H H H H Y Y Y Y R R R R R R E E E Q Q Q Q Q Q Q Q Q Q Q ) ) ) ) ) ) ) ' ' ' ' ' ' ' ' ' ' ' { { { { { { { { { { { { { { { { { { { { { { { { { { { { O.O.{ { { { { { { { { { { { { { { { { { { { { { { { { { { { { { { { { { { { { { { { { { { { { { { { { { { { { { { { { { { { { { { { { { { { { { { { { { { { { { { { { { ' ' ' ' ' ' ' ' ' ' ' ' ' ' ' ' ' ' ' ' ' ' ' ' ' ' ' ' ' ' ' ' ' ' ' ' ' ' ' ' ' ' ) ) ~ ) ) ) ) ) ) ) ' ' ) ) ' ' ' ' ' ' ' ' ' ' ' ' ' ' ' ' ' ' ' ' ' ' ' ' ' ' ' ' ' ' ' ' ' ' ' ' ' ' ' ' ) ) ) ) ) ) ) ) ) ) ) ) ) ) ) ) ) ) ) ) ) ) ) ) ) ) ) ) ) ) ) ) ) ) ) ) ) ) ) ) ) ) ) ) ) ) ) ) ) ) ) ) ) ) ) ) ) ) ) ) ) ) ) ) ) ) ) ) ) ) ) ) ) ) ) ) ) ) ) ) ) ) ) ) ) ) ) ) ) ) ) ) ) ) ) ) ) ) ) ) ) ) ) ) ) ) ) ) ) ) ) ) ) ) ) ) ) ) ) ) ) ) ) ) ) ) ) ) ) ) ) ) ) ) ) ) ) ) ) ) ) ) ) ) Q Q Q Q Q Q ) ) Q Q Q Q Q Q Q Q Q Q Q Q ) Q Q Q Q Q Q Q ) ) Q Q Q Q Q Q Q Q Q Q Q Q ~ ~ Q Q Q Q Q Q Q Q Q Q Q Q Q Q Q Q Q Q Q Q Q Q Q Q Q Q Q Q Q Q Q Q Q Q Q Q Q ^ ^ E ^ ^ ^ ^ E E E E E E E E E E R R R R R R R R R R Y Y Y Y Y Y Y H H H H H J J J J J J J D D D D D S S D S S S S S S S S S S S C C C C C C C C C C C V b b b b b ",
"H H H H H H Y Y Y Y R R R R R R E E Q Q Q Q Q Q Q Q Q Q ) ) ) ) ) ) ) ) ' ' ' ' ' ' ' ' ' ' { { { { { { { O.O.O.O.O.O.O.O.O.O.O.O.O.O.O.O.O.O.O.{ { { { { { { { O.O.O.O.O.O.O.O.O.O.O.O.O.O.O.O.O.O.O.O.O.O.O.O.{ { { { { { { { { { { { { { { { { { { { { { { { { { { { { { { { { { { { { { { { { { { { { { { { { { { { { { { { ' ' ' ' ' ' ' ' ' ' ' ' ' ' ' ' ' ' ' ' ' ' ' ' ' ' ' ' ' ' ' ' ' ' ' ' ' ' ' ' ' ' ' ' ) ) ) ) ) ) ) ) ' ' ' ) ' ' ' ' ' ' ' ' ' ' ' ' ' ' ' ' ' ' ' ' ' ' ' ' ' ' ' ' ' ' ' ' ' ' ' ' ' ' ' ' ) ) ) ) ) ) ) ) ) ) ) ) ) ) ) ) ) ) ) ) ) ) ) ) ) ) ) ) ) ) ) ) ) ) ) ) ) ) ) ) ) ) ) ) ) ) ) ) ) ) ) ) ) ) ) ) ) ) ) ) ) ) ) ) ) ) ) ) ) ) ) ) ) ) ) ) ) ) ) ) ) ) ) ) ) ) ) ) ) ) ) ) ) ) ) ) ) ) ) ) ) ) ) ) ) ) ) ) ) ) ) ) ) ) ) ) ) ) ) ) ) ) ) ) ) ) ) ) ) ) ) ) ) ) ) ) ) ) ) ) ) ) ) ) ) ) ) ) ) ) ) ) ) ) ) ) ) ) ) ) Q Q ) ) ) ) Q Q Q Q Q Q ) ) ) Q Q Q Q Q Q Q Q Q Q Q Q Q Q Q Q Q Q Q Q Q Q Q Q Q Q Q Q Q Q Q Q Q Q Q Q Q Q Q Q Q Q Q Q Q Q Q Q Q Q Q Q Q Q Q Q Q Q Q Q Q Q Q E E E E E E R R R R R R R R R R Y Y Y Y Y Y Y H H H J J J J J J J J D D D D D D D D S S S S S S S S S F C C C C C C C C C C V b b b b b x ",
"H H H H H H Y Y Y Y R R R R R R E Q Q Q Q Q Q Q Q Q Q ) ) ) ) ) ) ) ) ~ ' ' ' ' ' ' ' ' ' { { { { { { { O.O.O.O.O.O.O.O.O.O.O.O.O.O.O.O.O.O.O.O.{ { { { { { { { O.O.O.O.O.O.O.O.O.O.O.O.O.O.O.O.O.O.O.O.O.O.O.O.{ { { { { { { { { { { { { { { { { { { { { { { { { { { { { { { { { { { { { { { { { { { { { { { { { { { { { { { { ' ' ' ' ' ' ' ' ' ' ' ' ' ' ' ' ' ' ' ' ' ' ' ' ' ' ' ' ' ' ' ' ' ' ' ' ' ' ' ' ' ' ' ' ) ) ) ' ) ) ) ) ' ' ' ' ' ' ' ' ' ' ' ' ' ' ' ' ' ' ' ' ' ' ' ' ' ' ' ' ' ' ' ' ' ' ' ' ' ' ' ' ' ' ' ' ) ) ) ) ) ) ) ) ) ) ) ) ) ) ) ) ) ) ) ) ) ) ) ) ) ) ) ) ) ) ) ) ) ) ) ) ) ) ) ) ) ) ) ) ) ) ) ) ) ) ) ) ) ) ) ) ) ) ) ) ) ) ) ) ) ) ) ) ) ) ) ) ) ) ) ) ) ) ) ) ) ) ) ) ) ) ) ) ) ) ) ) ) ) ) ) ) ) ) ) ) ) ) ) ) ) ) ) ) ) ) ) ) ) ) ) ) ) ) ) ) ) ) ) ) ) ) ) ) ) ) ) ) ) ) ) ) ) ) ) ) ) ) ) ) ) ) ) ) ) ) ) ) ) ) ) ) ) ) ) ) ) ) ) ) ) Q Q Q Q Q Q ) ) ) ) Q Q Q Q Q Q Q Q Q Q Q Q Q Q Q Q Q Q Q Q Q Q Q Q Q Q Q Q Q Q Q Q Q Q Q Q Q Q Q Q Q Q Q Q Q Q Q Q Q Q Q Q Q Q Q Q Q Q Q Q Q Q Q Q E E E E E R R R R R R R R R R R Y Y Y Y Y Y H H H J J J J J J J J D J D D D D D S S S S S S S S F F C C C C C C C C C C V b b b b b x ",
"H H H H Y Y Y Y Y R R R R E E E E Q Q Q Q Q Q Q Q ) Q ) ) ) ) ) ) ' ' ' ' ' ' ' { { { { { { { { O.O.O.O.%.%.%.O.O.O.O.O.%.%.%.%.%.%.%.%.%.%.%.%.%.%.%.%.%.%.%.%.%.%.%.%.%.%.O.O.O.O.O.O.%.%.%.%.O.O.O.O.O.O.O.O.O.O.O.O.O.O.O.O.O.O.O.O.O.O.O.O.O.O.O.O.O.O.O.O.{ { { { { { { { { { { { { { { { { { { { { { { { { { { { { { { { { { { { { { { { { { { { { { { { { { { { { { { { { { { { { { { { { { { { { { { { { ' ' ' ' ' ' ' ' ' ' ' ' ' ' ' ' ' ' ' ' ' ' ' ' ' ' ' ' ' ' ' ' ' ' ' ' ' ' ' ' ' ' ' ' ' ' ' ' ' ' ' ' ' ' ' { ) _ _ _ ) ) ) ) ) ) ) ) ) ) ) ) ) ) ) ) ) ) ) ) ) ) ) ) ) ) ) ) ) ) ) ) ) ) ) ) ) ) ) ) ) ) ) ) ) ) ) ) ) ) ) ) ) ) ) ) ) ) ) ) ) ) ) ) ) ) ) ) ) ) ) ) ) ) ) ) ) ) ) ) ) ) ) ) ) ) ) ) ) ) ) ) ) ) ) ) ) ) ) ) ) ) ) ) ) ) ) ) ) ) ) ) ) ) ) ) ) ) ) ) ) ) ) ) ) ) ) ) ) ) ) ) ) ) ) ) ) ) ) ) ) ) ) ) ) ) ) ) ) ) ) ) ) ) ) ) ) ) ) ) ) ) ) ) ) ) ) ) ) ) ) ) ) ) ) ) ) ) ) ) ) ) ) ) ) ) ) ) ) ) ) ) ) ) ) Q Q Q Q Q Q Q Q Q Q Q Q Q Q ) Q ) ) ) ) Q Q Q Q Q Q Q Q Q Q Q Q Q Q Q Q Q Q Q Q Q Q Q Q Q Q E E R R R R R R R R R Y Y Y Y H H H H H J J J J J J J J D D D D S D S S S S S S S S S F C C C C C C C C V V V b b b b b x ",
"H H H H Y Y Y Y Y R R R R E E E E Q Q Q Q Q Q Q ) ) ) ) ) ) ) ) ' ' ' ' ' ' ' ' { { { { { { { { O.O.O.O.%.%.%.O.%.%.%.%.%.%.%.%.%.%.%.%.%.%.%.%.%.%.%.%.%.%.%.%.%.%.%.%.%.%.%.%.%.%.%.%.%.%.%.%.O.O.O.O.O.O.O.O.O.O.O.O.O.O.O.O.O.O.O.O.O.O.O.O.O.O.O.O.O.O.O.O.{ { { { { { { { { { { { { { { { { { { { { { { { { { { { { { { { { { { { { { { { { { { { { { { { { { { { { { { { { { { { { { { { { { { { { { { { { { ' ' ' ' ' ' ' ' ' ' ' ' ' ' ' ' ' ' ' ' ' ' ' ' ' ' ' ' ' ' ' ' ' ' ' ' ' ' ' ' ' ' ' ' ' ' ' ' ' ' ' ' ' ' { { _ _ _ _ ) ) ) ) ) ) ) ) ) ) ) ) ) ) ) ) ) ) ) ) ) ) ) ) ) ) ) ) ) ) ) ) ) ) ) ) ) ) ) ) ) ) ) ) ) ) ) ) ) ) ) ) ) ) ) ) ) ) ) ) ) ) ) ) ) ) ) ) ) ) ) ) ) ) ) ) ) ) ) ) ) ) ) ) ) ) ) ) ) ) ) ) ) ) ) ) ) ) ) ) ) ) ) ) ) ) ) ) ) ) ) ) ) ) ) ) ) ) ) ) ) ) ) ) ) ) ) ) ) ) ) ) ) ) ) ) ) ) ) ) ) ) ) ) ) ) ) ) ) ) ) ) ) ) ) ) ) ) ) ) ) ) ) ) ) ) ) ) ) ) ) ) ) ) ) ) ) ) ) ) ) ) ) ) ) ) ) ) ) ) ) ) ) ) Q Q Q Q Q Q Q Q ) ) Q Q Q Q ) ) ) ) ) Q Q Q Q ) Q Q Q Q Q Q Q Q Q Q Q Q Q Q Q Q Q Q Q Q Q Q Q E R R R R R R R R R R Y Y Y Y H H H H H J J J J J J J J D D D D S S S S S S S S S S S C C C C C C C C V V V b b b b b x ",
"H H H H Y Y Y Y Y R R R R E E E E Q Q Q Q Q ) ) ) ) ) ) ) ) ) ) ' ' ' ' ' ' ' ' { { { { { { { { O.O.%.%.%.%.%.%.%.%.%.%.%.%.%.%.%.%.%.%.%.%.%.%.%.%.%.%.%.%.%.%.%.%.%.%.%.%.%.%.%.%.%.%.%.%.%.%.%.%.%.%.%.%.%.%.%.%.%.%.%.%.%.%.O.O.O.O.O.O.O.O.O.O.O.O.O.O.O.O.O.O.O.O.O.O.O.O.O.O.O.O.O.O.O.O.O.O.O.O.O.O.O.O.{ { { { { { { { { { { { { { { { { { { { { { { { { { { { { { { { { { { { { { { { { { { { { { { { { { { ' ' ' ' ' ' ' ' ' ' ' ' ' ' ' ' ' ' ' ' ' ' ' ' ' ' ' ' ' ' ' ' ' ' ' ' ' ' ' ' ' ' ' ' ' ' ' ' ' ' ' ' ' { { { _ _ _ _ _ ) { { { { { ) ) ) ) ) ) ) ) ) ) ) ) ) ) ) ) ) ) ) ) ) ) ) ) ) ) ) ) ) ) ) ) ) ) ) ) ) ) ) ) ) ) ) ) ) ) ) ) ) ) ) ) ) ) ) ) ) ) ) ) ) ) ) ) ) ) ) ) ) ) ) ) ) ) ) ) ) ) ) ) ) ) ) ) ) ) ) ) ) ) ) ) ) ) ) ) ) ) ) ) ) ) ) ) ) ) ) ) ) ) ) ) ) ) ) ) ) ) ) ) ) ) ) ) ) ) ) ) ) ) ) ) ) ) ) ) ) ) ) ) ) ) ) ) ) ) ) ) ) ) ) ) ) ) ) ) ) ) ) ) ) ) ) ) ) ) ) ) ) ) ) ) ) ) ) ) ) ) ) ) ) ) ) ) ) ) ) ) ) ) ) ) ) ) ) ) ) ) ) ) ) ) ) ) ) ) ) Q ) ) Q Q Q Q Q Q Q Q Q Q Q Q Q Q Q Q Q Q Q Q Q Q Q Q E E E R R R R R R R R Y Y Y Y Y H H H H J J J J J J J J D S S S D S S S S S S S S S C C C C C C C C V V C V b b b b x ",
"H H H H Y Y Y Y Y R R R R E E E E Q Q Q Q Q ) ) ) ) ) ) ) ) ) ) ' ' ' ' ' ' ' { { { { { { { O.O.%.%.%.%.%.%.%.%.%.%.%.%.%.%.%.%.%.%.%.%.%.%.%.%.%.%.%.%.%.%.%.%.%.%.%.%.%.%.%.%.%.%.%.%.%.%.%.%.%.%.%.%.%.%.%.%.%.%.%.%.%.%.%.%.O.O.O.O.O.O.O.O.O.O.O.O.O.O.O.O.O.O.O.O.O.O.O.O.O.O.O.O.O.O.O.O.O.O.O.O.O.O.O.O.{ { { { { { { { { { { { { { { { { { { { { { { { { { { { { { { { { { { { { { { { { { { { { { { { { { { { ' ' ' ' ' ' ' ' ' ' ' ' ' ' ' ' ' ' ' ' ' ' ' ' ' ' ' ' ' ' ' ' ' ' ' ' ' ' ' ' ' ' ' ' ' ' ' ' ' ' ' ' { { { { _ _ _ _ ) { { { { { _ ) ) ) ) ) ) ) ) ) ) ) ) ) ) ) ) ) ) ) ) ) ) ) ) ) ) ) ) ) ) ) ) ) ) ) ) ) ) ) ) ) ) ) ) ) ) ) ) ) ) ) ) ) ) ) ) ) ) ) ) ) ) ) ) ) ) ) ) ) ) ) ) ) ) ) ) ) ) ) ) ) ) ) ) ) ) ) ) ) ) ) ) ) ) ) ) ) ) ) ) ) ) ) ) ) ) ) ) ) ) ) ) ) ) ) ) ) ) ) ) ) ) ) ) ) ) ) ) ) ) ) ) ) ) ) ) ) ) ) ) ) ) ) ) ) ) ) ) ) ) ) ) ) ) ) ) ) ) ) ) ) ) ) ) ) ) ) ) ) ) ) ) ) ) ) ) ) ) ) ) ) ) ) ) ) ) ) ) ) ) ) ) ) ) ) ) ) ) ) ) ) ) ) ) ) ) ) ) ) ) ) ) ) ) ) ) ) Q Q Q Q Q Q Q Q Q Q Q Q Q Q Q Q Q E E E E E R R R R R R Y Y Y Y H H H H H J J J J J J J D D S S D D S S S S S S S S C C C C C C C C V V C V b b b b x ",
"H H H H Y Y Y Y Y R R R R E E E E Q Q Q Q ) ) ) ) ) ) ) ) ) ) ) ' ' ' ' ' { { { { { { { O.O.O.O.%.%.%.%.%.%.%.%.%.%.%.%.%.%.%.%.%.%.%.%.%.%.%.%.%.%.%.%.%.%.%.%.%.%.%.%.%.%.%.%.%.%.%.%.%.%.%.%.%.%.%.%.%.%.%.%.%.%.%.%.%.%.%.%.%.%.%.%.%.%.%.%.O.O.O.O.O.O.O.O.O.O.O.O.O.O.O.O.O.O.O.O.O.O.O.O.O.O.O.O.O.O.O.O.{ { { { { { { { { { { { { { { { { { { { { { { { { { { { { { { { { { { { { { { { { { { { { { { { { { { { { { ' ' ' ' ' ' ' ' ' ' ' ' ' ' ' ' ' ' { { { { { { { { { { { { { { { { { { { { { { { { { { { { { { { { { { { { { { _ _ _ _ _ _ { _ _ _ _ _ _ _ _ _ _ _ _ _ _ _ ) ) ) _ ) ) ) ) ) ) ) ) ) ) ) ) ) ) ) ) ) ) ) ) ) ) ) ) ) ) ) ) ) ) ) ) ) ) ) ) ) ) ) ) ) ) ) ) ) ) ) ) ) ) ) ) ) ) ) ) ) ) ) ) ) ) ) ) ) ) ) ) ) ) ) ) ) ) ) ) ) ) ) ) ) ) ) ) ) ) ) ) ) ) ) ) ) ) ) ) ) ) ) ) ) ) ) ) ) ) ) ) ) ) ) ) ) ) ) ) ) ) ) ) ) ) ) ) ) ) ) ) ) ) ) ) ) ) ) ) ) ) ) ) ) ) ) ) ) ) ) ) ) ) ) ) ) ) ) ) ) ) ) ) ) ) ) ) ) ) ) ) ) ) ) ) ) ) ) ) ) ) ) ) ) ) ) ) ) ) ) ) ) ) ) ) ) ) ) ) ) ) ) ) ) ) ) ) ) ) ) ) ) Q Q Q Q Q Q Q Q Q Q Q E E E E E E R R R R Y Y Y Y H H H H J J J J J J J J D S D D S S S S S S S S S C C C C C C C C C C V b b b b b ",
"H H H H Y Y Y Y Y R R R R E E E E Q Q Q Q Q ) ) ) ) ) ) ) ) ) ) ' ' ' ' { { { { { { { O.O.O.O.O.%.%.%.%.%.%.%.%.%.%.%.%.%.%.%.%.%.%.%.%.%.%.%.%.%.%.%.%.%.%.%.%.%.%.%.%.%.%.%.%.%.%.%.%.%.%.%.%.%.%.%.%.%.%.%.%.%.%.%.%.%.%.%.%.%.%.%.%.%.%.%.%.O.O.O.O.O.O.O.O.%.%.%.%.%.%.%.%.%.%.%.%.%.%.%.%.O.O.O.O.O.O.O.O.O.O.O.O.O.O.O.O.O.O.O.O.O.O.O.O.O.O.O.O.O.O.O.O.O.O.O.O.O.O.O.O.{ { { { { { { { { { { { { { { { { { { { { { { { { { { { { { { { { { { { ' { { { { { { { { { { { { { { { { { { { { { { { { { { { { { { { { { { { { { { { { { { { { { { { { { { { _ _ _ _ _ _ _ _ { { { { _ _ _ _ ) _ _ _ ) ) { { { { ) _ ) ) { { { { { { ) ) ) ) { ) ) ) { { { { ) ) ) ) _ ) ) ) { { { { ) ) { { ) _ _ _ ) ) { { { { ) _ ) ) { { { { { { ) ) ) ) { ) ) ) { { { { ) ) ) ) _ ) ) ) { { { { ) ) ) { ) ) ) ) ) ) ) ) { { ) ) ) ) { { ) ) ) ) ) ) ) ) ) ) ) ) ) ) ) ) ) ) ) ) ) ) ) ) ) ) ) ) ) ) ) ) ) ) ) ) ) ) ) ) ) ) ) ) ) ) ) ) ) ) ) ) ) ) ) ) ) ) ) ) ) ) ) ) ) ) ) ) ) ) ) ) ) ) ) ) ) ) ) ) ) ) ) ) ) ) ) ) ) ) ) ) ) ) ) ) ) ) ) ) Q Q Q Q Q Q Q Q Q Q Q Q E E E R R R R R Y Y Y H H H H H J J J J J J D D D D S S S S S S S S C C C C C C C C C C C V b b b b b ",
"H H H H Y Y Y Y Y R R R R E E E E Q Q Q Q Q Q Q ) ) ) ) ) ) ) ) ' ' ' { { { { { { { O.O.O.O.%.%.%.%.%.%.%.%.%.%.%.%.%.%.%.%.%.%.%.%.%.%.%.%.%.%.%.%.%.%.%.%.%.%.%.%.%.%.%.%.%.%.%.%.%.%.%.%.%.%.%.%.%.%.%.%.%.%.%.%.%.%.%.%.%.%.%.%.%.%.%.%.%.%.%.%.%.%.%.%.%.%.%.%.%.%.%.%.%.%.%.%.%.%.%.%.%.%.O.O.O.O.O.O.O.O.O.O.O.O.O.O.O.O.O.O.O.O.O.O.O.O.O.O.O.O.O.O.O.O.O.O.O.O.O.O.O.O.{ { { { { { { { { { { { { { { { { { { { { { { { { { { { { { { { { { { { { { { { { { { { { { { { { { { { { { { { { { { { { { { { { { { { { { { { { { { { { { _ _ { { { { _ _ { { _ _ _ _ _ _ _ _ _ _ _ _ _ _ _ _ _ { { _ ) ) ) { { { { _ ) ) ) { ) _ { _ _ ) { { { { ) ) ) ) { { _ _ { { { { ) ) ) _ { _ ) ) ) ) _ { { _ ) ) ) { { { { _ ) ) ) { ) _ { _ _ ) { { { { ) ) ) ) { { _ _ { { { { ) ) ) _ { { ) ) ) ) ) ) ) ) ) ) ) ) { { { _ ) ) _ { ) ) ) ) ) ) ) ) ) ) { { _ ) ) ) ) ) ) ) ) ) ) ) { ) ) ) ) ) ) ) ) ) ) ) ) ) ) ) ) ) ) ) ) ) ) ) ) ) ) ) ) ) ) ) ) ) ) ) ) ) ) ) ) ) ) ) ) ) ) ) ) ) ) ) ) ) ) ) ) ) ) ) ) ) ) ) ) ) ) ) ) ) ) ) ) ) ) ) ) ) Q Q Q Q Q Q Q Q Q Q Q Q E E R R R R Y Y Y Y H H H H J J J J J J D D D D D S S S S S S S C C C C C C C C C C V b b b b b b ",
"H H H H Y Y Y Y Y R R R R E E E E Q Q Q Q Q Q Q ) ) ) ) ) ) ) ) ' ' ' { { { { { { O.O.O.O.%.%.%.%.%.%.%.%.%.%.%.%.%.%.%.%.%.%.%.%.%.%.%.%.%.%.%.%.%.%.%.%.%.%.%.%.%.%.%.%.%.%.%.%.%.%.%.%.%.%.%.%.%.%.%.%.%.%.%.%.%.%.%.%.%.%.%.%.%.%.%.%.%.%.%.%.%.%.%.%.%.%.%.%.%.%.%.%.%.%.%.%.%.%.%.%.%.%.%.O.O.O.O.O.O.O.O.O.O.O.O.O.O.O.O.O.O.O.O.O.O.O.O.O.O.O.O.O.O.O.O.O.O.O.O.O.O.O.O.{ { { { { { { { { { { { { { { { { { { { { { { { { { { { { { { { { { { { { { { { { { { { { { { { { { { { { { { { { { { { { { { { { { { { { { { { { { { { { { { _ _ _ { { { _ _ { _ _ _ _ _ _ _ _ _ _ _ _ _ _ _ _ { { { _ ) ) ) { { { { _ ) ) ) { ) _ { { _ _ _ { { { ) ) ) _ _ { _ _ { { { { ) ) ) _ { { ) ) ) ) { { { _ ) ) ) { { { { _ ) ) ) { ) _ { { _ _ _ { { { ) ) ) _ _ { _ _ { { { { ) ) ) _ { _ ) ) ) ) ) ) ) ) ) ) ) ) { { _ _ ) ) { { ) ) ) ) ) ) ) ) ) ) { { { ) ) ) ) ) ) ) ) ) ) ) { ) ) ) ) ) ) ) ) ) ) ) ) ) ) ) ) ) ) ) ) ) ) ) ) ) ) ) ) ) ) ) ) ) ) ) ) ) ) ) ) ) ) ) ) ) ) ) _ ) ) ) ) ) ) ) ) ) ) ) ) ) ) ) ) ) ) ) ) ) ) ) ) ) ) ) ) ) ) ) Q Q Q Q Q Q Q Q Q Q Q E R R R R Y Y Y Y Y H H H J J J J J J J D D D D S S S S S S S S C C C C C C C C C V b b b b b b ",
"J J H H H Y Y Y Y R R R R E E E E E E E ~ ~ ~ ~ ~ ~ ) ) ' ' ' ' ' ' ' ' { { O.O.O.O.O.O.%.%.%.%.%.%.%.%.*.*.*.*.-.*.*.*.-.-.-.-.-.-.-.*.*.-.-.-.-.-.-.-.-.-.-.-.-.-.*.*.*.*.*.*.*.*.*.*.*.*.*.*.%.%.%.%.%.%.%.%.%.%.%.%.%.%.%.%.%.%.%.%.%.%.%.%.%.%.%.%.%.%.%.%.%.%.%.%.%.%.%.%.%.%.%.%.%.%.%.%.%.%.%.%.%.%.%.%.%.%.%.%.%.%.%.%.O.O.O.O.O.O.O.O.O.O.O.O.O.O.O.O.O.O.O.O.O.O.O.O.O.O.O.O.O.O.O.O.O.O.O.O.O.O.O.O.O.O.O.O.O.O.O.O.{ { { { { { { { { { { { { { { { { { { { { { { { { { { O.O.O.O.O.O.O.O.O.O.O.O.O.O.O.O.O.O.O.O.O.{ { { { { { { { { { { { { { { { { { { { { { { { { { { { { { { { _ _ _ _ { { { { _ _ _ _ { { { { { { { { { { { { { { { { { { { { { { { { { { { { { { { { { { { { { { { { { { { { { { { { { { { { { { { { { { { { { { { { { { { { { { { { { { { { { { { { { { { { { { { { { { { { { { { { { { { { { { { { { { { { { { { { { { { { { { { { { { { { { { { { { { { { { { ' { ' { ' { ' ' ' ' ' ' ' ' ' { ' { ' { ' { ' { ' { ' { ' ' ' ' ' ' ' ' ' ' ' ' ' ' ' ' ' ' ' ' ' ' ' ' ' ' ' ' ' ' ' ' ' ' ' ' ' ' ' ' ) ) ) ) ) ~ ~ ~ ~ ~ Q Q Q Q Q Q E R R Y Y Y Y H H H H H J J J J J J D D D D D S S S S F C C C C C C C C C C C b b b b x x ",
"J J H H H Y Y Y Y R R R R E E E E E E E ~ ~ ~ ~ ~ ~ ) ) ' ' ' ' ' ' ' ' { { O.O.O.O.O.O.%.%.%.%.%.%.%.*.*.*.*.*.-.-.-.-.-.-.-.-.-.-.-.-.-.-.-.-.-.-.-.-.-.-.-.-.-.-.-.-.-.-.-.-.*.*.*.*.*.*.*.*.%.%.%.%.%.%.%.%.%.%.%.%.%.%.%.%.%.%.%.%.%.%.%.%.%.%.%.%.%.%.%.%.%.%.%.%.%.%.%.%.%.%.%.%.%.%.%.%.%.%.%.%.%.%.%.%.%.%.%.%.%.%.%.%.%.%.%.%.%.%.%.%.O.O.O.O.O.O.O.O.O.O.O.O.O.O.O.O.O.O.O.O.O.O.O.O.O.O.O.O.O.O.O.O.O.O.O.O.O.O.O.O.{ { { { { { { { { { { { { { { { { { { { { { { { { { O.O.O.O.O.O.O.O.O.O.O.O.O.O.O.O.O.O.O.O.O.O.{ { { { { { { { { { { { { { { { { { { { { { { { { { { { { { { { { { { { { { { { { { { { { { { { { { { { { { { { { { { { { { { { { { { { { { { { { { { { { { { { { { { { { { { { { { { { { { { { { { { { { { { { { { { { { { { { { { { { { { { { { { { { { { { { { { { { { { { { { { { { { { { { { { { { { { { { { { { { { { { { { { { { { { { { { { { { { { { { { { { { { { { { { { { { { { { { { { { { { { { { { { { { { { { { ' ' ' ' ' ' ' ' ' ' ' ' ' ' ' ' ' ' ' ' ' ' ' ' ' ' ' ' ' ' ' ' ' ' ' ' ' ' ' ' ) ) ) ~ ~ ~ ~ ~ Q Q Q Q Q Q E E R R Y Y Y Y H H H H H J J J J J D D D D D S S S S S C C C C C C C C C C C b b b b x x ",
"J J J J H H Y Y Y Y R R R R E E E E E E ~ ~ ~ ~ ~ ~ ) ) ' ' ' ' ' ' ' ' { O.O.O.O.O.O.%.%.%.%.%.%.%.*.*.*.*.-.-.-.-.-.-.-.-.-.-.-.-.-.-.-.-.-.-.-.-.-.-.-.-.-.-.-.-.-.-.-.-.-.-.*.*.*.*.*.*.*.*.*.*.-.-.*.*.-.-.%.%.%.%.%.%.%.%.%.%.%.%.%.%.%.%.%.%.%.%.%.%.%.%.%.%.%.%.%.%.%.%.%.%.%.%.%.%.%.%.%.%.%.%.%.%.%.%.%.%.%.%.%.%.%.%.%.%.%.%.%.%.%.%.O.O.O.O.O.O.O.O.O.O.O.O.O.O.O.O.O.O.O.O.O.O.O.O.O.O.O.O.O.O.O.O.O.O.O.O.O.O.O.O.O.O.O.O.O.O.O.O.{ { { { { { { { O.O.O.O.O.O.O.O.O.O.O.O.O.O.O.O.O.O.O.O.O.O.O.O.O.O.O.O.O.O.O.O.{ { { O.O.O.O.O.O.O.O.O.O.O.O.O.{ { { { { { { { { { { { { { { { { { { { { { { { { { { { { { { { { { { { { { { { { { { { { { { { { { { { { { { { { { { { { { { { { { { { { { { { { { { { { { { { { { { { { { { { { { { { { { { { { { { { { { { { { { { { { { { { { { { { { { { { { { { { { { { { { { { { { { { { { { { { { { { { { { { { { { { { { { { { { { { { { { { { { { { { { { { { { { { { { { { { { { { { { { { { { { { { ' ' ' ' ' ' ' ' ' ' ' ' ' ' ' ' ' ' ' ' ' ' ' ' ' ' ' ' ' ' ' ' ' ' ' ' ' ' ' ' ' ' ) ) ~ ~ ~ ~ Q Q Q Q Q Q E E R R R Y Y Y Y Y H H H H J J J J J D D D D S S S S S S S S S C C C C C C C b b b b b x ",
"J J J J H H H Y Y Y R R R R R E E E E E ~ ~ ~ ~ ~ ~ ) ) ' ' ' ' ' ' ' { { O.O.O.O.O.%.%.%.%.%.%.*.*.*.*.*.-.-.-.-.-.-.-.-.-.-.-.-.-.-.-.-.-.-.-.-.-.-.-.-.-.-.-.-.-.-.-.-.-.-.-.*.*.*.*.*.*.*.*.*.*.*.*.*.*.-.-.%.%.%.%.%.%.%.%.-.*.*.*.*.*.*.*.-.-.-.-.-.-.-.-.*.*.*.*.-.-.-.-.%.%.%.%.%.%.%.%.%.%.%.%.%.%.%.%.%.%.%.%.%.%.%.%.%.%.%.%.%.%.%.%.O.O.O.O.O.O.O.O.O.O.O.O.O.O.O.O.O.O.O.O.O.O.O.O.O.O.O.O.O.O.O.O.O.O.O.O.O.O.O.O.O.O.O.O.O.O.O.O.{ { { { { { { { O.O.O.O.O.O.O.O.O.O.O.O.O.O.O.O.O.O.O.O.O.O.O.O.O.O.O.O.O.O.O.O.{ { O.O.O.O.O.O.O.O.O.O.O.O.O.O.{ { { { { { { { { { { { { { { { { { { { { { { { { { { { { { { { { { { { { { { { { { { { { { { { { { { { { { { { { { { { { { { { { { { { { { { { { { { { { { { { { { { { { { { { { { { { { { { { { { { { { { { { { { { { { { { { { { { { { { { { { { { { { { { { { { O.O.{ { { { { { { { { { { { { { { { { { { { { { { { { { { { { { { { { { { { O.O.O.O.O.O.O.O.{ { { { { { { { { { { { { { { { { { { { O.{ { { { { { { { { { { { { { { { { { { ' ' ' ' ' ' ' ' ' ' ' ' ' ' ' ' ' ' ' ) ) ~ ~ ~ ) Q Q Q Q Q Q Q R R R R Y Y Y Y H H H H H J J J J J D D D D S S S S S S S S C C C C C C C b b b b b c ",
"J J J J H H H H Y Y Y R R R R R E ! ! ! ~ ~ ~ ~ ~ ~ ) ) ' ' ' ' ' ' { { O.O.O.O.%.%.%.%.%.%.%.%.*.*.-.-.-.-.-.-.-.-.-.-.-.-.-.-.-.-.-.-.-.-.-.-.-.-.-.-.-.-.-.-.-.-.-.-.-.-.-.-.-.-.-.-.-.-.-.-.-.-.-.-.-.-.-.-.-.-.-.-.-.-.-.-.-.-.*.*.*.*.*.*.*.*.*.*.-.-.-.-.*.*.*.*.*.*.*.*.%.%.%.%.%.%.%.%.%.%.%.%.%.%.%.%.%.%.%.%.%.%.%.%.%.%.%.%.%.%.%.%.%.%.%.%.%.%.%.%.%.%.%.%.%.%.%.%.%.%.%.%.%.%.%.%.%.%.%.%.%.%.%.%.O.O.O.O.O.O.O.O.O.O.O.O.O.O.O.O.{ { { { { { { { O.O.O.O.O.O.O.O.O.O.O.O.O.O.%.%.O.O.O.O.O.O.O.O.O.O.O.O.O.O.O.O.O.O.O.O.O.O.O.O.O.O.O.O.O.O.O.O.{ { { { { { { { { { { { { { { { { { { { { { { { { { { { { { { { { { { { { { { { { { { { { { { { { { { { { { { { { { { { { { { { O.O.O.O.O.O.O.O.{ { { { { { { { { { { { { { { { { { { { { { { { O.O.O.O.O.O.O.O.O.O.O.O.O.O.O.O.O.O.O.O.O.O.O.O.O.O.O.O.O.O.O.O.O.O.O.O.O.O.O.O.O.O.O.O.O.O.O.O.O.O.O.O.O.O.O.O.O.O.O.O.O.O.O.O.O.O.O.O.O.O.O.O.{ { { { { { { { O.O.O.O.O.O.O.O.O.O.O.O.O.O.O.O.O.O.O.O.O.O.O.O.O.O.O.O.O.O.O.O.O.O.O.O.O.O.O.O.{ { { { { { { { { { { { { { ' ' ' ' ' ' ' ) ) ~ ) ) ) Q ) Q Q Q E E R R R R Y Y Y Y H H H H J J J J D D D D S S S S S S S S C C C C C C C b b b b b x ",
"D D J J J H H H Y Y Y Y R R R R E ! ! ! ~ ~ ~ ~ ~ ~ ) ) ' ' ' ' ' { { { O.O.O.O.%.%.%.%.%.%.%.%.*.*.-.-.*.-.-.-.-.-.-.-.-.-.;.2.-.-.-.-.-.-.-.-.-.-.-.-.;.-.-.-.-.-.-.-.-.-.-.-.-.-.-.-.-.-.-.-.-.-.-.-.-.-.-.-.-.-.-.-.-.-.-.-.-.-.*.*.*.*.*.*.*.*.*.*.-.-.-.-.*.*.*.*.*.*.*.*.-.-.-.-.*.*.*.*.-.-.-.-.-.-.*.*.%.%.%.%.%.%.%.%.%.%.%.%.%.%.%.%.%.%.%.%.%.%.%.%.%.%.%.%.%.%.%.%.%.%.%.%.%.%.%.%.%.%.%.%.%.%.%.%.O.O.O.O.O.O.O.O.O.O.O.O.O.O.O.O.O.O.O.O.O.O.O.O.O.O.O.O.O.O.O.O.O.O.O.O.O.%.%.%.O.O.O.O.O.O.O.O.O.O.O.O.O.O.O.O.O.O.O.O.O.O.O.O.O.O.O.O.O.O.O.O.O.O.O.O.O.O.O.O.O.O.O.O.O.O.O.O.O.O.O.O.O.O.O.O.O.O.O.O.O.O.O.O.O.O.O.O.O.O.O.O.O.O.O.O.O.O.O.O.O.O.O.O.O.O.O.O.O.O.O.O.O.O.O.O.O.O.O.O.O.O.O.O.O.O.O.O.O.O.O.O.O.O.O.O.O.O.O.O.O.O.O.O.O.O.O.O.O.O.O.O.O.O.O.O.O.O.O.O.O.O.O.O.O.O.O.O.O.O.O.O.O.O.O.O.O.O.O.O.O.O.O.O.O.O.O.O.O.O.O.O.O.O.O.O.O.O.O.O.O.O.O.O.O.O.O.O.O.O.O.O.O.O.O.O.O.O.O.O.{ { { { { { { { O.O.O.O.O.O.O.O.O.O.O.O.O.O.O.O.O.O.O.O.O.O.O.O.O.O.O.O.O.O.O.O.O.O.O.O.O.O.O.O.O.O.O.O.O.O.O.O.{ { { { { { ' ' ' ' ' ' ' ' ) ) ) ) ) ) ) Q Q Q E E E R R R R R Y Y Y H H H J J J J J D D D D S S S S S S S C C C C C C C C b b b b x ",
"D D D J J H H H Y Y Y Y R R R R E ! ! ! ~ ~ ~ ~ ~ ~ ) ) ' ' ' ' { { { O.O.O.O.O.%.%.%.%.%.%.-.*.-.-.-.-.-.-.-.-.1.1.-.1.-.-.-.-.-.-.-.-.-.-.-.-.-.-.-.-.;.;.-.;.-.-.-.-.-.-.-.-.-.-.-.-.-.-.-.-.-.-.-.-.-.-.-.-.-.-.-.-.-.-.-.-.-.-.-.-.-.-.-.-.-.-.-.-.-.-.-.-.-.-.-.-.-.-.-.-.-.-.-.-.*.*.*.*.-.-.-.-.-.-.-.-.%.%.%.%.%.%.%.%.%.%.%.%.%.%.%.%.%.%.%.%.%.%.%.%.%.%.%.%.%.%.%.%.%.%.%.%.%.%.%.%.%.%.%.%.%.%.%.%.%.%.%.%.%.%.%.%.O.O.O.O.O.O.O.O.O.O.O.O.O.O.O.O.O.O.O.O.O.O.O.O.O.O.O.O.%.%.%.%.%.%.%.%.%.%.%.%.%.%.%.%.%.%.%.%.O.O.O.O.O.O.O.O.O.O.O.O.O.O.O.O.O.O.O.O.O.O.O.O.O.O.O.O.O.O.O.O.O.O.O.O.O.O.O.O.O.O.O.O.O.O.O.O.O.O.O.O.O.O.O.O.O.O.O.O.O.O.O.O.O.O.O.O.O.O.O.O.O.O.O.O.O.O.O.O.O.O.O.O.O.O.O.O.O.O.O.O.O.O.O.O.O.O.O.O.O.O.O.O.O.O.O.O.O.O.O.O.O.O.O.O.O.O.O.O.O.O.O.O.O.O.O.O.O.O.O.O.O.O.O.O.O.O.O.O.O.O.O.O.O.O.O.O.O.O.O.O.O.O.O.O.O.O.O.O.O.O.O.O.O.O.O.O.O.O.O.O.O.O.O.O.O.O.O.O.O.O.O.O.O.O.O.O.O.O.O.O.O.O.O.O.O.O.O.O.O.O.O.O.O.O.%.%.O.O.O.O.O.O.O.O.O.O.O.O.O.O.%.%.O.O.O.O.O.O.O.O.O.O.O.O.%.%.%.%.O.O.O.{ { { { { { { ' ' ' ' ' ' ) ) ) ) ) ) Q Q Q Q E E R R R R Y Y Y Y H H H H J J J D D D D S S S S S S C S C C C C C C C b b b b b ",
"D D D J J J H H Y Y Y Y R R R R E ! ! ! ~ ~ ~ ~ ~ ~ ) ) ' ' ' ' { { { O.O.O.O.%.%.%.%.%.%.*.-.*.-.-.-.-.-.-.-.-.2.2.2.2.1.-.-.1.2.;.2.2.2.2.2.2.-.-.-.-.;.;.-.-.-.-.-.-.-.-.-.-.-.-.-.-.-.-.-.-.-.-.-.-.-.-.-.-.-.-.-.-.-.-.-.-.-.-.-.-.-.-.-.-.-.-.-.-.-.-.-.-.-.-.-.-.-.-.-.-.-.-.-.-.*.*.*.*.-.-.-.-.-.-.-.-.%.%.%.%.%.%.%.%.%.%.%.%.%.%.%.%.%.%.%.%.%.%.%.%.%.%.%.%.%.%.%.%.%.%.%.%.%.%.%.%.%.%.%.%.%.%.%.%.%.%.%.%.%.%.%.%.O.O.O.O.O.O.O.O.O.O.O.O.O.O.O.O.O.O.O.O.O.O.O.O.O.O.O.O.%.%.%.%.%.%.%.%.%.%.%.%.%.%.%.%.%.%.%.%.O.O.O.O.O.O.O.O.O.O.O.O.O.O.O.O.O.O.O.O.O.O.O.O.O.O.O.O.O.O.O.O.O.O.O.O.O.O.O.O.O.O.O.O.O.O.O.O.O.O.O.O.O.O.O.O.O.O.O.O.O.O.O.O.O.O.O.O.O.O.O.O.O.O.O.O.O.O.O.O.O.O.O.O.O.O.O.O.O.O.O.O.O.O.O.O.O.O.O.O.O.O.O.O.O.O.O.O.O.O.O.O.O.O.O.O.O.O.O.O.O.O.O.O.O.O.O.O.O.O.O.O.O.O.O.O.O.O.O.O.O.O.O.O.O.O.O.O.O.O.O.O.O.O.O.O.O.O.O.O.O.O.O.O.O.O.O.O.O.O.O.O.O.O.O.O.O.O.O.O.O.O.O.O.%.%.%.%.%.%.%.%.O.O.O.O.O.O.O.O.O.O.O.O.O.O.%.%.O.O.O.O.O.O.O.O.O.O.O.O.O.O.%.%.%.%.%.%.%.%.%.%.O.O.O.O.%.%.%.%.O.O.O.O.{ { { { { { ' ' ' ' ' ' ) ) ) ) ) ) Q Q Q Q Q E R R R R Y Y Y Y Y H H H J J J D D D D D S S S S S C C S C C C C C C b b b b b ",
"S S D D D J J H H H H Y Y R R R E E E E E ~ ~ ~ ~ ~ ~ ) ' ' ' { ' ' { { O.O.O.O.%.%.%.%.%.*.*.*.*.-.-.-.-.-.-.-.-.-.-.-.-.-.-.-.-.1.1.1.-.-.-.-.-.-.-.-.-.-.-.1.1.1.1.-.-.-.-.1.-.-.-.-.-.-.-.-.-.-.-.-.-.-.-.-.-.-.-.-.-.-.-.-.-.-.-.-.-.-.-.-.-.-.-.-.-.-.-.-.-.-.-.*.*.*.*.*.*.*.*.*.*.*.*.*.*.*.*.*.*.*.*.*.%.%.%.%.%.%.%.%.%.%.%.%.%.%.%.%.%.%.%.%.%.%.%.%.%.%.%.%.%.%.%.%.%.%.%.%.%.%.%.%.%.%.%.%.%.%.%.%.O.O.O.O.O.O.O.O.O.O.O.O.O.{ { { { { { { { { { { { { { { { { { { O.O.O.O.O.O.O.O.O.O.O.O.O.O.O.O.O.O.O.O.O.O.O.O.O.O.O.O.O.O.O.O.O.O.O.O.O.O.O.O.O.O.O.O.O.O.O.O.{ { { { { { { { O.O.O.O.+.+.+.+.O.O.O.O.O.O.O.O.O.O.O.O.O.O.O.O.{ { { { { { { { O.O.O.O.O.O.O.O.O.O.O.O.O.O.O.O.O.O.O.O.O.O.O.O.O.O.O.O.O.O.O.O.O.O.O.O.O.O.O.O.O.O.O.O.O.O.O.O.O.O.O.O.O.O.O.O.%.%.%.%.%.%.%.%.%.%.%.%.%.%.%.%.O.O.O.O.O.O.O.O.O.O.O.O.%.%.%.%.O.O.O.O.O.O.O.O.%.%.%.%.%.%.O.O.O.O.O.O.%.%.%.%.%.%.%.%.%.%.%.%.%.%.%.%.%.O.O.O.%.%.%.%.%.%.%.%.%.%.%.%.%.%.%.%.%.%.%.%.%.%.%.%.%.%.%.%.%.%.%.%.%.%.%.%.%.%.%.%.%.%.%.%.%.%.%.%.%.%.%.%.O.O.O.O.O.O.O.{ { { { { ) ) ) ) ) ) Q Q Q Q Q E E R R R R Y Y Y Y H H H J J J J D D D D S S S S S S S S F F C C C C C C C C b ",
"S S D D J J J H H H H Y Y R R R E E E E E ~ ~ ~ ~ ~ ~ ) ' ' ' { ' ' { { O.O.O.O.%.%.%.%.%.*.*.*.-.-.-.-.-.-.1.1.-.-.2.2.2.2.1.1.2.2.2.2.1.1.1.1.-.-.;.;.-.-.-.-.1.1.-.-.-.-.-.-.-.-.-.-.-.-.-.-.-.-.-.-.-.-.-.-.-.-.-.-.-.-.-.-.-.-.-.-.-.-.-.-.-.-.-.-.-.-.-.-.-.-.-.-.-.-.-.-.*.*.*.*.*.*.*.*.*.*.*.*.*.*.*.*.%.%.%.%.%.%.%.%.%.%.%.%.%.%.%.%.%.%.%.%.%.%.%.%.%.%.%.%.%.%.%.%.%.%.%.%.%.%.%.%.%.%.%.%.%.%.%.%.O.O.O.O.O.O.O.O.O.O.O.O.O.O.{ { { { { { { { { { { { { { { { { { O.O.O.O.O.O.O.O.O.O.O.O.O.O.O.O.O.O.O.O.O.O.O.O.O.O.O.O.O.O.O.O.O.O.O.O.O.O.O.O.O.O.O.O.O.O.O.O.{ { { { { { { { O.O.O.O.+.+.+.+.O.O.O.O.O.O.O.O.O.O.O.O.O.O.O.O.{ { { { { { { { O.O.O.O.O.O.O.O.O.O.O.O.O.O.O.O.O.O.O.O.O.O.O.O.O.O.O.O.O.O.O.O.O.O.O.O.O.O.O.O.O.O.O.O.O.O.O.O.O.O.O.O.O.O.O.O.%.%.%.%.%.%.%.%.%.%.%.%.%.%.%.%.O.O.O.O.O.O.O.O.%.%.%.%.%.%.%.%.%.%.%.%.%.%.%.%.%.%.%.%.%.%.%.%.%.%.%.%.%.%.%.%.%.%.%.%.%.%.%.%.%.%.%.%.%.%.%.%.%.%.%.%.%.%.%.%.%.%.%.%.%.%.%.%.%.%.%.%.%.%.%.%.%.%.%.%.%.%.%.%.%.%.%.%.%.%.%.%.%.%.%.%.%.%.%.%.%.%.%.%.O.O.O.O.O.O.O.O.{ { { { ) ) ) ) ) ) ) Q Q Q Q Q E R R R R R Y Y Y Y H H J J J J J D D D S S S S S S S S S F F F S S F C F S J ",
"S D D J J J J J H H H Y Y Y R R E E E E E ~ ~ ~ ~ ~ ) ) ' ' ' { ' { { { O.O.%.%.%.%.%.%.*.*.-.-.-.-.-.-.-.-.1.2.-.-.1.1.2.2.2.2.2.2.2.2.1.-.-.-.1.-.;.;.-.-.-.-.;.;.-.-.-.-.-.-.1.1.1.1.-.-.-.-.-.-.-.-.-.-.-.-.-.-.-.-.-.-.-.-.-.-.-.-.-.-.-.-.-.-.-.-.-.-.-.-.-.-.-.-.-.-.-.-.*.*.*.*.*.*.*.*.*.*.*.*.*.*.*.*.%.%.%.%.%.%.%.%.%.%.%.%.%.%.%.%.%.%.%.%.%.%.%.%.%.%.%.%.%.%.%.%.%.%.%.%.%.%.%.%.%.%.%.%.%.%.%.%.O.O.O.O.O.O.O.O.O.O.O.O.O.O.O.O.O.O.O.O.O.O.O.O.O.O.O.O.O.O.O.O.O.O.O.O.O.O.O.O.O.O.O.O.O.O.O.O.O.O.O.O.O.O.O.O.O.O.O.O.O.O.O.O.O.O.O.O.O.O.O.O.O.O.O.O.O.O.O.O.{ { { { { { { { O.O.O.O.+.+.+.+.O.O.O.O.O.O.O.O.O.O.O.O.O.O.O.O.{ { { { { { { { O.O.O.O.O.O.O.O.O.O.O.O.O.O.O.O.O.O.O.O.O.O.O.O.O.O.O.O.O.O.O.O.O.O.O.O.O.O.O.O.O.O.O.O.O.O.O.O.O.O.O.%.%.%.%.%.%.%.%.%.%.%.%.%.%.%.%.%.%.%.%.%.%.%.%.%.%.%.%.%.%.%.%.%.%.%.%.%.%.%.%.%.%.%.%.%.%.%.%.%.%.%.%.%.%.%.%.%.%.%.%.%.%.%.%.%.%.%.%.%.%.%.%.%.%.%.%.%.%.%.%.%.%.%.%.%.%.%.%.%.%.%.%.%.%.%.%.%.%.%.%.%.%.%.%.%.%.%.%.%.%.%.%.%.%.%.%.%.%.%.%.%.%.%.%.%.%.%.%.%.%.%.%.%.O.O.O.O.{ { { { _ _ ) ) ) ) ) ) Q Q Q Q Q E E R R R R Y Y Y Y Y H H J J J J D D J J J S S S S S S S S S D D S S J Q O.",
"S S D D J J J J H H H Y Y Y R R E E E E E ~ ~ ~ ~ ~ ) ) ' ' ' { { { { { O.O.%.%.%.%.%.%.*.*.-.-.-.-.-.-.1.-.2.2.2.2.2.2.2.2.2.2.2.2.2.2.2.2.2.2.2.2.2.2.-.-.-.-.2.2.2.2.-.-.-.-.1.2.2.1.-.-.-.-.-.-.-.-.-.-.-.-.-.-.-.-.-.-.-.-.-.-.-.-.-.-.-.-.-.-.-.-.-.-.-.-.-.-.-.-.-.-.-.-.*.*.*.*.*.*.*.*.*.*.*.*.*.*.*.*.*.*.*.*.-.-.-.-.-.-.-.-.*.*.*.*.%.%.%.%.%.%.%.%.%.%.%.%.%.%.%.%.%.%.%.%.%.%.%.%.%.%.%.%.%.%.%.%.O.O.O.O.O.O.O.O.O.O.O.O.O.O.O.O.O.O.O.O.O.O.O.O.O.O.O.O.O.O.O.O.O.O.O.O.O.O.O.O.O.O.O.O.O.O.O.O.O.O.O.O.O.O.O.O.O.O.O.O.O.O.O.O.O.O.O.O.O.O.O.O.O.O.O.O.O.O.O.O.{ { { { { { { { O.O.O.O.+.+.+.+.O.O.O.O.O.O.O.O.O.O.O.O.O.O.O.O.{ { { { { { { { O.O.O.O.O.O.O.O.O.O.O.O.O.O.O.O.O.O.O.O.O.O.O.O.O.O.O.O.O.O.O.O.O.O.O.O.O.O.O.O.O.O.O.O.O.O.O.O.O.O.O.%.%.%.%.%.%.%.%.%.%.%.%.%.%.%.%.%.%.%.%.%.%.%.%.%.%.%.%.%.%.%.%.%.%.%.%.%.%.%.%.%.%.%.%.%.%.%.%.%.%.%.%.%.%.%.%.%.%.%.%.%.%.%.%.%.%.%.%.%.%.%.%.%.%.%.%.%.%.%.%.%.%.%.%.%.%.%.%.%.%.%.%.%.%.%.%.%.%.%.%.%.%.%.%.%.%.%.%.%.%.%.%.%.%.%.%.%.%.%.%.%.%.%.%.%.%.%.%.%.%.%.%.%.O.O.O.O.O.{ { { _ _ _ ) ) ) ) ) Q Q Q Q Q Q E E R R R R Y Y Y Y H H J J J J J J J J J J D D D D D D J J J J H H ) %.5.",
"D S S S D J J J J H H H Y Y Y R E E E E E ~ ~ ~ ~ ~ ~ ) ' ' ' { { { { O.%.O.%.%.%.%.%.-.-.-.-.-.-.-.-.-.-.2.2.2.2.2.2.2.2.2.2.2.2.2.2.2.2.2.2.2.2.2.2.2.2.2.2.2.2.2.2.2.2.2.2.2.2.2.;.-.-.-.2.2.2.2.-.-.1.1.-.-.-.-.-.-.-.-.-.-.-.-.-.-.-.-.-.-.-.-.-.-.-.-.-.-.-.-.-.-.-.-.-.-.-.-.-.-.-.-.-.-.-.-.-.-.-.-.-.-.*.*.*.*.*.*.*.*.-.-.*.*.*.*.*.*.%.%.%.%.%.%.%.%.%.%.%.%.%.%.%.%.%.%.%.%.%.%.%.%.%.%.%.%.%.%.%.%.%.%.%.%.%.%.%.%.%.%.O.O.O.O.O.O.O.O.O.O.O.O.O.O.O.O.O.O.O.O.O.O.O.O.O.O.O.O.O.O.O.O.O.O.O.O.O.O.O.O.O.O.O.O.O.O.O.O.O.O.O.O.O.O.O.O.O.O.O.O.O.O.O.O.O.O.O.O.O.O.{ { { { { { { { O.O.+.+.O.O.O.O.O.O.O.O.O.O.O.O.O.O.O.O.O.O.O.O.{ { { { { { { { O.O.O.O.O.O.O.O.O.O.O.O.O.O.O.O.O.O.O.O.O.O.O.O.O.O.O.O.O.O.O.O.O.O.O.O.O.O.O.O.O.O.O.O.O.O.O.O.O.O.O.%.%.%.%.%.%.%.%.%.%.%.%.%.%.%.%.%.%.%.%.%.%.%.%.%.%.%.%.%.%.%.%.%.%.%.%.%.%.%.%.%.%.%.%.%.%.%.%.%.%.%.%.%.%.%.%.%.%.%.%.%.%.%.%.%.%.%.%.%.%.%.%.%.%.%.%.%.%.%.%.%.%.%.%.%.%.%.%.%.%.%.%.%.%.%.%.%.%.%.%.%.-.-.*.*.*.*.*.*.*.*.*.*.-.-.-.-.*.*.*.*.*.*.*.*.%.%.%.%.%.%.%.%.%.%.%.O.O.{ { { { { _ _ ) ) ) ) Q Q Q Q Q Q Q Q E E R R R R Y Y H H H J J J J J J J J J J J J J J J H J J J E ) :.2.5.",
"J D S S D J J J J J H H Y Y Y Y E E E E E ~ ~ ~ ~ ~ ~ ) ' ' ' { { { { O.%.%.%.%.%.%.%.*.-.-.-.-.-.-.-.-.2.2.;.2.2.2.2.2.2.2.2.2.2.2.2.2.2.2.2.2.2.2.2.2.2.2.2.2.2.2.2.2.2.2.2.2.2.2.;.;.-.-.2.2.1.2.2.-.1.1.1.1.-.-.-.-.-.-.-.1.1.1.-.-.2.1.2.;.-.;.;.;.-.-.1.1.-.-.-.-.-.-.-.-.-.-.-.-.-.-.-.-.-.-.-.-.-.-.-.-.*.*.*.*.*.*.*.*.-.-.*.*.*.*.*.*.-.-.-.-.*.*.*.*.-.-.-.-.*.*.*.*.%.%.%.%.%.%.%.%.%.%.%.%.%.%.%.%.%.%.%.%.%.%.%.%.%.%.%.O.O.O.O.O.O.O.O.O.O.O.O.O.O.O.O.O.O.O.O.O.O.O.O.O.O.O.O.O.O.O.O.O.O.O.O.O.O.O.O.O.O.O.O.O.O.O.O.O.O.O.O.O.O.O.O.O.O.O.O.O.O.O.O.O.O.O.O.O.{ { { { { { { { O.O.+.+.O.O.O.O.O.O.O.O.O.O.O.O.O.O.O.O.O.O.O.O.{ { { { { { { { O.O.O.O.O.O.O.O.O.O.O.O.O.O.O.O.O.O.O.O.O.O.O.O.O.O.O.O.O.O.O.O.O.O.O.O.O.O.O.O.O.O.O.O.O.O.O.O.O.O.O.%.%.%.%.%.%.%.%.%.%.%.%.%.%.%.%.%.%.%.%.%.%.%.%.%.%.%.%.%.%.%.%.%.%.%.%.%.%.%.%.%.%.%.%.%.%.%.%.%.%.%.%.%.%.%.%.%.%.%.%.%.*.*.*.*.*.*.-.-.%.%.%.%.%.%.%.*.*.*.-.-.*.*.*.*.*.*.-.-.*.*.*.*.*.*.*.-.*.*.*.*.-.-.-.-.-.-.-.-.-.-.-.-.-.-.-.-.-.-.-.-.-.-.-.-.*.*.*.%.%.%.%.%.%.%.%.%.O.O.{ { { { { _ ) ) ) ) ) ) ~ Q Q Q Q Q E E E R R R R R Y Y H H H Y J J J J J J J J J J J H Y H H R [ :.5.1.2.",
"^ Y D S D D D D J J H H H Y Y Y E E E E Q ~ ~ ~ ~ ~ ~ ) ' ' ' { { { O.O.%.%.%.%.%.%.-.-.-.-.-.-.-.-.-.-.2.2.2.2.2.2.2.2.2.2.2.2.2.2.2.2.2.2.2.2.2.2.2.2.2.2.2.2.2.2.2.2.2.2.2.2.2.2.2.2.2.2.2.2.1.1.2.2.;.;.2.-.2.2.2.2.2.2.2.2.;.-.-.1.-.-.1.1.-.-.;.-.1.1.1.1.-.-.-.-.-.-.-.-.-.-.-.-.-.-.-.-.-.-.-.-.-.-.-.-.-.-.-.-.-.-.-.-.-.-.-.-.-.-.-.-.-.-.-.-.*.*.*.*.-.-.-.-.*.*.*.*.%.%.%.%.%.%.%.%.%.%.%.%.%.%.%.%.%.%.%.%.%.%.%.%.%.%.%.%.O.O.O.O.O.O.O.O.O.O.O.O.O.O.O.O.O.O.O.O.%.%.%.%.%.%.%.%.O.O.O.O.O.O.O.O.O.O.O.O.O.O.O.O.O.O.O.O.O.O.O.O.O.O.O.O.O.O.O.O.O.O.O.O.O.O.O.O.{ { { { { { { { O.O.+.+.+.+.O.+.O.O.O.O.O.O.O.O.O.O.O.O.O.O.O.O.{ { { { { { { { O.O.O.O.O.O.O.O.O.O.O.O.O.O.O.O.O.O.O.O.O.O.O.O.O.O.O.O.O.O.O.O.O.O.O.O.O.O.O.O.O.O.O.O.O.O.O.O.O.O.O.%.%.%.%.%.%.%.%.%.%.%.%.%.%.%.%.%.%.%.%.%.%.%.%.%.%.%.%.%.%.%.%.%.%.%.%.%.%.%.%.%.%.%.%.%.%.%.%.%.%.%.%.%.%.%.%.%.%.%.%.%.*.*.*.*.-.-.-.-.%.%.%.%.%.%.*.*.*.-.-.-.*.*.*.*.*.-.-.-.*.*.*.*.*.-.-.-.*.*.*.*.-.-.-.-.-.-.-.-.-.-.-.-.-.-.-.-.-.-.-.-.-.-.-.-.*.*.*.*.*.%.%.%.%.%.%.%.O.O.O.{ { { { { ) _ ) ) ) ) ) Q Q Q Q Q Q Q E E R R R R Y Y Y Y Y Y J H J J J J J J J H Y H H R Q { :.5.5.1.2.",
"X.^ J D D D D D J J H H H Y Y Y E E E E E ~ ~ ~ ~ ~ ~ ) ' ' ' { { { O.O.%.%.%.%.%.%.-.-.-.-.-.-.-.-.-.-.;.2.2.2.2.2.2.2.2.2.2.2.2.2.2.2.2.2.2.2.2.2.2.2.2.2.2.2.2.2.2.2.2.2.2.2.2.2.2.2.2.2.2.2.1.2.2.;.;.;.;.-.2.2.2.2.2.2.2.2.;.1.1.1.-.-.1.-.-.-.;.2.2.1.1.1.-.-.-.-.-.-.-.-.-.-.-.-.-.-.-.-.-.-.-.-.-.-.-.-.-.-.-.-.-.-.-.-.-.-.-.-.-.-.-.-.-.-.-.-.*.*.*.*.-.-.-.-.*.*.*.*.%.%.%.%.%.%.%.%.%.%.%.%.%.%.%.%.%.%.%.%.%.%.%.%.%.%.%.%.O.O.O.O.O.O.O.O.O.O.O.O.O.O.O.O.O.O.O.O.%.%.%.%.%.%.%.%.O.O.O.O.O.O.O.O.O.O.O.O.O.O.O.O.O.O.O.O.O.O.O.O.O.O.O.O.O.O.O.O.O.O.O.O.O.O.O.O.{ { { { { { { { +.O.+.+.+.+.+.+.O.O.O.O.O.O.O.O.O.O.O.O.O.O.O.O.{ { { { { { { { O.O.O.O.O.O.O.O.O.O.O.O.O.O.O.O.O.O.O.O.O.O.O.O.O.O.O.O.O.O.O.O.O.O.O.O.O.O.O.O.O.O.O.O.O.O.O.O.O.O.O.%.%.%.%.%.%.%.%.%.%.%.%.%.%.%.%.%.%.%.%.%.%.%.%.%.%.%.%.%.%.%.%.%.%.%.%.%.%.%.%.%.%.%.%.%.%.%.%.%.%.%.%.%.%.%.%.%.%.%.%.%.*.*.*.*.*.-.-.-.%.%.%.%.%.%.*.*.*.*.-.-.*.*.*.*.*.-.-.-.*.*.*.*.-.-.-.-.-.-.-.-.-.-.-.-.-.-.-.-.-.-.-.-.-.-.-.-.-.-.-.-.-.-.-.-.-.-.*.*.*.*.%.%.%.%.%.%.%.O.O.{ { { { { { { ) ) ) ) ) ) Q Q Q Q Q Q Q E R R R R Y Y Y Y Y Y Y Y H H H H H H H H R H J R { 5.2.2.2.2.2.",
"O.O.] E J S D J D D D J T Y T E E E E ! ~ ~ ~ ~ ~ ) ) ' ' ' { { O.O.O.O.O.*.*.*.*.*.*.*.;.;.:.;.;.;.2.2.2.2.2.2.2.2.2.2.2.2.2.2.2.2.2.2.2.2.2.2.2.2.2.2.2.2.2.2.2.2.2.2.2.2.2.2.2.2.2.2.2.2.2.2.2.2.2.2.2.2.2.2.2.2.2.;.;.;.2.2.;.;.;.;.;.;.;.;.;.;.;.;.;.;.;.;.;.;.;.;.;.;.;.;.;.;.;.;.;.;.;.;.;.;.;.;.;.;.;.;.-.-.-.-.-.-.-.-.*.*.*.*.*.*.*.*.*.*.*.*.*.*.*.*.*.*.*.*.*.*.*.*.*.*.*.*.*.*.*.*.*.*.*.*.*.*.*.*.O.O.*.*.*.O.O.O.O.O.O.O.O.O.*.*.O.O.O.O.O.O.O.O.*.*.*.*.*.*.*.O.O.O.*.*.*.*.*.*.O.O.O.O.O.O.O.O.O.O.O.O.O.O.O.O.O.O.O.O.O.O.O.O.O.O.O.O.O.O.O.O.O.O.O.O.O.O.O.O.O.O.O.O.O.O.O.O.O.O.O.O.O.O.O.O.O.O.O.O.O.O.O.O.O.O.O.O.O.O.O.O.O.O.O.O.O.O.O.O.O.O.O.O.O.O.O.O.O.O.O.O.O.O.O.O.O.O.O.O.O.O.O.O.O.O.O.O.O.O.O.O.O.O.O.O.O.O.O.O.O.O.O.O.O.O.O.O.%.*.*.*.O.O.O.O.%.*.*.*.O.O.%.%.*.*.*.*.*.*.*.*.*.*.*.*.*.*.*.*.*.*.*.*.*.*.*.*.*.*.*.*.*.*.*.*.*.*.*.*.*.*.*.*.*.*.*.*.*.*.*.*.*.*.*.*.*.*.*.*.*.-.*.-.*.-.*.-.-.-.-.-.-.-.-.-.-.-.-.-.-.-.-.-.-.-.1.1.-.-.-.-.-.-.-.-.-.-.-.-.-.-.-.-.-.-.-.-.-.-.-.-.-.-.-.-.-.*.*.*.*.*.*.*.*.*.*.*.*.*.O.%.O.{ { { { ' ' ' ' ' ) ) ~ ~ ~ ~ ~ ~ ~ E E E E E E E T T T T T T Y Y Y Y T T Y ^ D Y Q O.2.2.2.1.2.2.2.",
"{ O.[ ~ Y J D D D D J J T Y Y T E E E E ! ~ ~ ~ ~ ~ ) ' ' ' { { O.O.O.O.O.*.*.*.*.*.*.*.;.;.:.;.;.2.2.2.2.2.2.2.2.2.2.2.2.2.2.2.2.2.2.2.2.2.2.2.2.2.2.2.2.2.2.2.2.2.2.2.2.2.2.2.2.2.2.2.2.2.2.2.2.2.2.2.2.2.2.2.2.2.2.2.;.;.2.;.;.;.;.;.;.;.;.;.;.;.;.;.;.;.;.;.;.;.;.;.;.;.;.;.;.;.;.;.;.;.;.;.;.;.;.;.;.;.;.;.-.-.-.-.-.-.-.;.*.*.*.*.*.*.*.*.*.*.*.*.*.*.-.-.*.*.*.*.*.*.*.*.*.*.*.*.*.*.*.*.*.*.*.*.*.*.*.*.O.O.%.O.*.%.O.O.O.O.O.O.*.O.*.*.%.O.O.O.O.O.*.*.*.*.*.*.*.*.*.%.O.O.*.*.*.*.*.*.O.O.O.O.O.O.O.O.O.O.O.O.O.O.O.O.O.O.O.O.O.O.O.O.O.O.O.O.O.O.O.O.O.O.O.O.O.O.O.O.O.O.O.O.O.O.O.O.O.O.O.O.O.O.O.O.O.O.O.O.O.O.O.O.O.O.O.O.O.O.O.O.O.O.O.O.O.O.O.O.O.O.O.O.O.O.O.O.O.O.O.O.O.O.O.O.O.O.O.O.O.O.O.O.%.%.%.%.%.%.%.%.O.O.O.%.*.*.*.O.O.%.*.*.%.O.O.O.O.*.*.*.O.O.O.O.O.*.*.*.O.O.%.%.*.*.*.*.*.*.*.*.*.*.*.*.*.*.*.*.*.*.*.*.*.*.*.*.*.*.*.*.*.*.*.*.*.*.*.*.*.*.*.*.-.-.-.-.-.-.-.-.-.-.-.-.-.-.-.-.-.-.-.-.-.-.-.-.-.-.-.-.-.-.-.-.-.-.-.-.-.-.-.-.-.1.1.1.-.-.-.-.-.-.-.-.-.-.-.-.-.-.-.-.-.-.-.-.-.-.-.-.-.-.-.-.-.-.-.*.*.*.*.*.*.*.*.*.*.*.*.*.O.O.{ { { { ' ' ' ' ' ) ) ~ ~ ~ ~ ~ ~ E E E E E E E E E E E T E Y Y Y Y Y Y Y T Y E O.-.2.2.4.4.2.2.2.",
"' { O.[ ~ E J D D D J J J T Y Y T E E E ! ! ~ ~ ~ ~ ) ' ' ' ' { O.O.O.O.O.*.*.*.*.*.*.*.;.;.:.;.2.2.2.2.2.2.2.2.2.2.2.2.2.2.2.2.2.2.0.2.0.0.2.2.2.2.2.2.2.2.2.2.2.2.2.2.2.2.2.2.2.2.2.2.2.2.2.2.2.2.2.2.2.2.2.2.2.2.2.2.2.2.2.2.2.;.;.;.2.2.2.2.;.;.;.;.;.;.;.;.;.;.;.;.2.2.2.2.;.;.;.;.;.;.;.;.;.;.;.;.;.;.;.;.-.-.-.-.-.;.;.;.-.-.;.;.-.-.-.-.-.-.-.-.-.-.-.-.*.*.*.*.*.*.*.*.*.*.*.*.*.*.*.*.*.*.*.*.*.*.*.*.*.*.*.*.*.*.*.*.*.*.*.*.*.*.*.*.*.%.O.O.O.O.O.O.O.O.*.*.*.*.*.%.O.O.O.%.O.O.%.O.O.O.O.O.O.O.O.O.O.O.O.O.O.O.O.O.O.O.O.O.O.O.O.O.O.O.O.O.O.O.O.O.O.O.O.O.O.O.O.O.O.O.O.O.O.O.O.O.O.O.O.O.O.O.O.O.O.O.O.O.O.O.O.O.O.O.O.O.O.O.O.O.O.O.O.O.O.O.O.O.O.O.O.O.O.O.O.O.O.O.O.O.O.O.O.O.O.O.O.O.O.O.O.O.%.%.%.%.%.%.%.%.O.O.*.*.*.*.O.O.O.O.*.*.*.*.O.O.*.*.*.*.*.*.*.*.*.*.*.*.*.*.*.*.*.*.*.*.*.*.*.*.*.*.*.*.*.*.*.*.*.*.*.*.*.*.*.*.*.*.*.*.*.*.*.*.*.*.*.*.*.*.*.*.-.-.-.-.-.-.-.-.-.-.-.-.-.-.-.-.;.;.;.;.-.-.-.-.-.-.-.-.-.-.-.-.;.;.-.-.-.-.-.-.-.-.1.1.-.-.-.-.-.-.1.1.-.-.-.-.2.2.2.2.2.2.1.2.1.1.2.2.2.2.2.2.-.-.-.-.-.-.*.*.*.*.*.*.*.*.*.%.O.O.O.O.{ { { { ' ' ' ' ) ~ ~ ~ ~ ~ ~ ~ E E E E E E E E E T T E T T Y E T Y T J ~ O.:.2.1.2.4.0.2.2.2.",
"{ { { O.O.~ Y J D D D D J J T Y Y T T E E ! ~ ~ ~ ~ ) ) ' ' ' { O.O.O.O.O.*.*.*.*.*.*.;.;.:.:.2.2.2.2.2.2.2.2.2.2.2.2.2.2.2.2.2.2.2.0.0.0.0.2.2.2.2.2.2.2.2.2.2.2.2.2.2.2.2.2.2.2.2.2.2.2.2.2.2.2.2.2.2.2.2.2.2.2.2.2.2.2.2.2.2.2.2.2.;.2.2.2.;.;.2.2.2.2.2.2.2.;.;.;.;.2.2.2.2.;.;.;.;.;.;.;.;.;.;.;.;.;.;.;.;.;.;.;.;.;.;.;.;.-.-.;.;.;.-.-.-.-.-.-.-.-.-.-.-.*.*.*.*.*.*.*.*.*.*.*.*.*.*.*.*.*.*.*.*.*.*.*.*.*.*.*.*.*.*.*.*.*.*.*.*.*.*.*.*.*.%.O.O.O.O.O.%.O.O.O.%.*.*.*.%.O.O.O.%.O.O.O.O.O.O.O.O.O.O.O.O.O.O.O.O.O.O.O.O.O.O.O.O.O.O.O.O.O.O.O.O.O.O.O.O.O.O.O.O.O.O.O.O.O.O.O.O.O.O.O.O.O.O.O.O.O.O.O.O.O.O.O.O.O.O.O.O.O.O.O.O.O.O.O.O.O.O.O.O.O.O.O.O.O.O.O.O.O.O.O.O.O.O.O.O.O.O.O.O.O.O.O.O.O.O.O.O.%.%.%.%.%.%.%.%.O.O.*.*.*.*.O.O.O.O.*.*.*.*.O.O.*.*.*.*.*.*.*.*.*.*.*.*.*.*.*.*.*.*.*.*.*.*.*.*.*.*.*.*.*.*.*.*.*.*.*.*.*.*.*.*.*.*.*.*.*.-.*.*.-.-.-.-.*.*.-.-.-.-.-.-.-.-.-.-.-.-.-.-.-.-.-.-.-.-.-.;.-.-.-.-.-.-.-.-.-.-.-.-.;.;.-.-.-.-.-.-.;.;.2.2.2.2.-.-.2.1.2.2.2.2.2.2.2.2.2.2.2.2.2.2.1.2.2.2.2.2.2.2.;.;.;.;.;.-.-.-.-.-.-.*.*.*.*.*.%.O.O.O.O.{ { { ' ' ' ' ] ) ) ) ~ ~ ~ ~ ~ E E E E E E E ^ ^ T T E E Y Y Y Y E E >.:.5.5.2.2.2.4.2.2.2.",
"O.{ { O.O.O.~ E D D D D D J T T Y Y Y E E E ~ ! ~ ~ ~ ) ' ' ' ' O.O.O.O.%.*.*.*.*.*.-.-.;.;.2.2.2.2.2.2.2.2.2.2.2.2.2.0.0.2.2.0.2.2.2.2.2.2.2.2.0.0.0.0.2.2.2.2.2.2.2.2.2.2.2.2.2.2.2.2.2.2.2.2.2.2.2.2.2.2.2.2.2.2.2.2.2.2.2.2.2.2.2.2.2.2.2.2.2.2.;.;.2.2.2.2.;.;.;.;.2.2.2.2.;.;.;.;.;.;.;.;.;.;.;.;.;.;.;.;.;.;.;.;.;.;.;.;.-.;.;.;.-.-.-.-.-.-.-.-.-.-.-.-.*.*.*.*.*.*.*.*.*.*.*.*.*.*.*.*.*.*.*.*.*.*.*.*.*.*.*.*.*.*.*.*.*.*.*.*.*.*.*.*.*.*.O.O.O.O.*.*.O.O.*.*.*.*.O.O.O.O.O.O.O.O.%.%.O.O.O.O.O.O.O.O.%.%.%.%.O.O.%.%.%.%.%.%.O.O.O.%.%.%.%.%.O.O.O.%.O.O.O.O.O.O.O.O.O.O.O.O.O.O.O.O.O.O.O.O.O.O.O.O.O.O.O.O.O.O.O.O.O.O.O.O.O.O.O.O.O.O.O.O.O.O.O.O.O.O.O.O.O.O.O.O.%.%.%.%.O.O.%.%.%.%.%.%.%.%.%.%.%.%.%.%.%.%.%.%.O.*.*.*.O.O.O.O.O.%.*.*.*.*.*.O.*.*.*.*.*.*.*.*.*.*.*.*.*.*.*.*.*.*.*.*.*.*.*.*.*.*.*.*.*.*.*.*.-.-.-.-.-.-.-.-.*.*.-.-.-.-.-.-.-.-.-.-.-.-.-.-.-.-.-.-.-.-.-.-.-.-.-.-.-.-.-.-.;.;.;.;.;.;.;.;.1.-.-.-.-.-.-.1.2.2.2.2.2.2.2.1.2.2.2.2.2.2.2.2.2.2.2.2.2.2.2.2.2.2.2.2.2.2.2.2.2.2.2.2.2.2.2.2.2.2.2.;.;.;.;.;.;.;.;.;.*.*.*.*.%.%.%.%.%.O.O.O.' ' ' ' ' ' ) ) ~ ~ ~ ~ ~ ~ ~ E ^ ~ ^ ^ ^ ^ T T T E T T J Y ' >.5.5.2.5.2.4.2.1.4.4.4.",
"%.O.{ { O.O.O.] Y T D D D D J T Y Y T E E E E ~ ~ ~ ~ ) ) ' ' ' O.O.O.O.%.*.*.*.*.*.-.-.;.;.2.2.2.2.2.2.2.2.2.2.2.2.0.0.0.0.0.0.2.2.2.2.2.2.2.2.0.0.0.0.2.2.2.2.2.2.2.2.2.2.2.2.2.2.2.2.2.2.2.2.2.2.2.2.2.2.2.2.2.2.2.2.2.2.2.2.2.2.2.2.2.2.2.2.2.2.2.2.2.2.2.2.2.2.2.2.2.2.2.2.2.2.2.2.;.;.2.2.;.;.;.;.;.;.;.;.;.;.;.;.;.;.;.;.;.;.;.;.;.;.;.;.;.;.;.;.-.-.-.-.*.*.*.*.*.*.*.*.*.*.*.*.*.*.*.*.*.*.*.*.*.*.*.*.*.*.*.*.*.*.*.*.*.*.*.*.*.*.*.*.*.*.*.*.*.*.*.*.O.O.*.*.*.*.O.O.O.O.O.O.O.O.*.*.O.%.O.O.O.O.O.O.%.%.%.%.O.O.%.%.%.%.%.%.O.O.O.%.%.%.%.%.O.O.%.%.O.O.O.O.O.O.O.O.O.O.O.O.O.O.O.O.O.O.O.O.O.O.O.O.O.O.O.O.O.O.O.O.O.O.O.O.O.O.O.O.O.O.O.O.O.O.O.O.%.%.O.O.O.O.O.O.%.%.%.%.O.O.%.%.%.%.%.%.%.%.%.%.%.%.%.%.%.%.%.%.*.*.*.*.*.*.*.*.*.*.*.*.*.*.*.*.*.*.*.*.*.*.*.*.*.*.*.*.*.*.*.*.*.*.*.*.*.*.*.*.*.*.*.*.*.*.*.*.-.-.-.-.-.-.-.-.*.*.-.-.-.-.-.-.-.-.-.-.-.-.-.-.-.-.-.-.-.-.-.-.;.;.;.;.;.;.;.;.;.;.;.;.;.;.;.;.2.2.2.2.1.1.2.2.2.2.2.2.2.2.2.1.2.2.2.2.2.2.2.2.2.2.2.2.2.2.2.2.2.2.2.2.2.2.2.2.2.2.2.2.2.2.2.2.2.2.2.2.2.2.;.;.;.;.;.;.-.*.*.*.*.%.%.%.%.%.%.O.{ ' ' ' ' ' ] ' ) ) ~ ~ ~ ~ ~ ~ ^ ~ ^ ^ ^ T ^ T T T Y Y Y ~ >.5.5.5.2.2.5.2.2.2.4.4.4.",
"%.%.%.%.O.O.O.[ ~ ! Y D D D D J T Y Y Y E E E ~ ~ ~ ~ ~ ) ' ' ' O.O.O.O.%.*.*.*.-.-.-.;.;.2.2.2.2.2.2.2.2.0.2.2.0.0.0.0.0.0.0.0.0.0.0.0.0.0.0.0.0.0.0.0.0.0.0.0.0.0.0.0.2.2.0.0.0.0.2.2.2.2.2.2.2.2.2.2.2.2.2.2.2.2.2.2.2.2.2.2.2.2.2.2.2.2.2.2.2.2.2.2.2.2.2.2.2.2.2.2.2.2.2.2.2.2.2.2.;.;.;.2.;.;.;.;.;.;.;.;.;.;.;.;.;.;.;.;.;.;.;.;.;.;.;.;.-.-.;.-.-.-.-.-.*.*.*.*.*.*.*.*.*.*.*.*.*.*.*.*.*.*.*.*.*.*.*.*.*.*.*.*.*.*.*.*.*.*.*.*.*.*.*.*.*.*.*.*.*.*.*.*.O.%.*.*.%.O.O.O.O.O.%.O.*.*.*.*.*.*.*.*.*.*.O.O.*.*.*.*.O.O.O.*.*.*.*.*.O.O.O.%.*.*.*.*.O.O.O.O.*.*.*.*.O.O.*.*.*.*.*.*.*.%.O.%.%.%.%.%.%.%.%.%.%.%.%.%.%.%.%.%.%.*.*.*.O.O.O.*.O.O.*.%.*.*.*.*.*.*.*.*.O.*.O.O.*.*.*.*.O.O.O.*.%.%.%.%.%.%.%.%.%.%.%.%.%.%.%.%.*.*.*.*.*.*.*.*.*.*.*.*.*.*.*.*.*.*.*.*.*.*.*.*.*.*.*.*.*.*.*.*.*.*.*.*.*.*.*.*.*.*.*.*.*.*.*.*.-.-.-.-.-.-.-.-.-.-.;.;.-.-.-.-.-.-.-.-.2.2.1.1.-.-.-.-.1.-.1.1.;.;.;.;.;.;.;.;.;.;.;.;.;.;.;.;.2.2.2.2.-.1.-.-.2.2.2.2.2.2.2.2.2.2.2.2.2.2.2.2.2.2.2.2.2.2.2.2.2.2.2.2.2.2.2.2.2.2.2.2.2.2.1.1.2.2.2.2.2.2.2.2.2.2.;.;.;.;.-.-.*.*.*.%.%.%.%.%.{ { { ' ' ' ' ' ) ) ) ~ ~ ~ ~ ~ ~ ~ ^ ^ E T T Y Y Y Y E ' >.2.2.2.2.2.2.2.2.5.5.4.4.4.",
"%.*.*.%.%.O.{ ' >.] E J D D D J T Y Y Y E E E ~ ~ ~ ~ ~ ) ' ' ' O.O.O.O.%.*.*.*.-.-.-.;.;.2.2.2.2.2.2.2.2.0.2.2.0.0.0.0.0.0.0.0.0.0.0.0.0.0.0.0.0.0.0.0.0.0.0.0.0.0.0.0.2.0.0.0.0.0.0.0.2.2.2.2.2.2.2.2.2.2.2.2.2.2.2.2.2.2.2.2.2.2.2.2.2.2.2.2.2.2.2.2.2.2.2.2.2.2.2.2.2.2.2.2.2.2.2.2.;.;.;.;.;.;.;.;.;.;.;.;.;.;.;.;.;.;.;.;.;.;.;.;.;.;.;.;.-.-.-.-.-.-.-.-.*.*.*.*.*.*.*.*.*.*.*.*.*.*.*.*.*.*.*.*.*.*.*.*.*.*.*.*.*.*.*.*.*.*.*.*.*.*.*.*.*.*.*.*.*.*.*.*.O.%.*.*.O.O.O.O.%.%.*.*.*.*.*.*.*.*.*.*.*.*.O.O.*.*.*.*.O.O.O.%.*.*.*.*.O.O.O.%.*.*.*.*.O.O.O.O.*.*.*.*.O.O.%.*.*.*.*.*.*.%.%.%.%.%.%.%.%.%.%.%.%.%.%.%.%.%.%.%.*.*.*.*.O.O.O.*.O.O.*.*.*.*.*.*.*.*.*.*.*.*.O.O.*.*.*.*.O.O.O.%.%.%.%.%.%.%.%.%.%.%.%.%.%.%.%.%.*.*.*.*.*.*.*.*.*.*.*.*.*.*.*.*.*.*.*.*.*.*.*.*.*.*.*.*.*.*.*.*.*.*.*.*.*.*.*.*.*.*.*.*.*.*.*.*.-.-.-.-.-.-.-.-.-.-.;.;.-.-.-.-.-.-.-.-.2.2.1.1.2.2.2.2.2.2.2.2.;.;.;.;.;.;.;.;.;.;.;.;.;.;.;.;.2.2.2.2.-.-.-.-.2.2.2.2.2.2.2.2.2.2.2.2.2.2.2.2.2.2.2.2.2.2.2.2.2.2.2.2.1.1.2.1.2.2.2.2.2.2.2.2.2.2.2.2.2.2.2.2.2.2.2.;.;.;.;.-.-.-.*.*.%.%.%.%.{ { { ' ' ' ' ' ' ) ) ~ ~ ~ ~ ~ ~ ~ ^ ^ E T Y Y Y J Y ~ :.5.2.-.2.2.2.2.2.2.5.r.2.4.4.",
"-.-.-.%.%.%.%.O.' O.O.~ Y D D D Y T Y Y T E E ~ ~ ~ ~ ) ) ' ' ' +.+.O.*.*.*.*.-.-.;.;.;.;.2.2.2.2.2.2.2.0.0.0.0.0.0.0.0.0.0.0.0.0.0.0.0.0.0.0.0.0.0.0.0.0.0.0.0.0.0.0.0.0.0.0.0.0.0.0.0.0.2.2.2.2.2.2.2.2.2.2.2.0.2.0.2.2.2.2.2.2.2.2.2.2.2.2.2.2.2.2.2.2.2.2.2.2.2.2.2.2.2.2.2.2.2.2.2.2.2.2.2.2.2.2.2.2.;.;.;.2.;.;.;.2.;.;.;.2.2.;.;.;.;.;.;.;.;.;.;.;.;.;.;.;.;.;.;.;.;.;.;.-.-.-.-.-.-.-.-.-.-.-.-.-.-.-.-.*.*.-.-.*.*.*.*.*.*.*.*.*.*.*.*.*.*.*.*.*.*.*.*.*.*.*.*.*.*.*.*.*.*.*.*.*.*.*.*.*.*.*.*.*.*.*.*.%.*.*.*.O.O.%.%.*.*.*.*.*.*.*.*.*.*.*.*.*.*.*.*.O.O.O.O.O.O.O.O.O.O.O.O.O.O.O.O.O.O.O.O.O.O.O.O.O.O.O.O.O.O.O.O.O.O.O.O.O.O.O.O.O.O.*.*.%.O.O.O.*.*.*.*.*.*.*.*.%.*.*.*.O.O.O.%.%.%.%.%.%.%.%.%.*.*.-.-.*.*.*.*.*.*.*.*.*.*.*.*.*.*.*.*.*.*.*.*.*.*.-.-.-.-.-.-.-.-.-.-.-.-.-.-.-.-.-.-.-.-.-.-.;.;.-.-.-.-.-.-.;.;.;.;.;.;.;.;.;.;.;.;.;.;.;.;.-.-.-.-.2.2.2.2.2.2.2.2.2.2.2.2.;.2.2.2.2.2.2.2.2.2.2.2.2.2.2.2.2.2.2.2.2.2.2.2.2.2.2.2.1.1.2.2.2.1.2.2.2.2.2.2.2.2.2.2.2.2.2.2.2.1.2.2.2.2.2.4.4.4.4.4.4.4.2.4.0.0.2.2.2.2.2.2.2.2.2.2.;.;.;.-.-.-.-.-.*.%.%.%.O.O.O.O.{ { ' ' ) ) ) ~ ~ ~ ~ ~ ~ ^ E E E E E Y J E O.:.2.2.2.2.2.2.2.2.2.5.5.5.4.4.0.",
"-.-.-.%.%.%.%.%.O.O.[ ] ~ Y J D D J Y T T E E ~ ~ ~ ~ ~ ) ' ' ' +.O.O.*.*.*.*.-.;.;.;.;.2.2.2.2.2.2.2.2.0.0.0.0.0.0.0.0.0.0.0.0.0.0.0.0.0.0.0.0.0.0.0.0.0.0.0.0.0.0.0.0.0.0.0.0.0.0.0.0.0.0.2.2.0.0.0.0.2.2.0.0.0.0.0.0.2.2.2.2.2.2.2.2.2.2.2.2.2.2.2.2.2.2.2.2.2.2.2.2.2.2.2.2.2.2.2.2.2.2.2.2.2.2.2.2.2.2.;.;.2.2.;.;.2.2.;.;.2.2.;.;.;.;.;.;.;.;.;.;.;.;.;.;.;.;.;.;.;.;.;.;.-.-.-.-.-.-.-.;.-.-.-.-.-.-.-.-.*.*.-.-.*.*.*.*.*.*.*.*.*.*.*.*.*.*.*.*.*.*.*.*.*.*.*.*.*.*.*.*.*.*.*.*.*.*.*.*.*.*.*.*.*.*.*.*.O.*.*.*.O.O.O.%.*.*.*.*.*.*.*.*.*.*.*.*.*.*.*.*.%.*.%.O.*.*.*.*.*.*.*.*.*.*.%.%.%.%.%.%.O.O.%.%.%.%.%.%.O.O.%.*.O.O.O.*.*.*.*.O.*.*.*.*.O.O.O.O.*.*.*.*.*.*.*.*.O.*.*.*.O.O.O.%.%.%.%.%.%.%.%.%.-.-.-.-.*.*.*.*.*.*.*.*.*.*.*.*.*.-.*.*.*.*.*.*.*.*.-.-.-.-.-.-.-.-.-.-.-.-.-.;.-.-.-.-.-.-.-.-.;.;.-.-.-.-.-.-.;.;.;.;.;.;.;.;.;.;.;.;.;.;.;.;.1.-.-.-.2.2.2.2.2.2.2.2.2.2.2.2.2.2.2.2.2.2.2.2.2.2.2.2.2.2.2.2.2.2.2.2.2.2.2.2.1.2.2.2.2.2.2.2.1.1.2.2.2.2.2.2.2.2.2.2.2.2.2.2.2.2.2.2.2.2.2.2.2.4.4.2.4.4.4.4.0.0.0.0.2.2.2.2.2.2.2.;.2.;.;.;.-.-.-.-.*.*.%.%.O.O.O.O.{ { ' ' ' ' ) ) ~ ~ ~ ~ ^ ^ E E Y Y Y Y T ) >.:.2.2.2.1.2.2.2.2.2.5.5.5.4.4.4.",
"-.-.*.*.%.%.%.%.%.O.{ { O.] E J D D T Y T T E E E ~ ~ ~ ) ] ' ' O.O.O.%.*.*.*.-.;.;.;.2.2.2.2.2.2.2.2.2.0.0.0.0.0.0.0.0.0.q.q.q.0.0.0.0.0.q.0.0.q.q.q.q.q.q.q.q.0.0.0.0.0.0.0.0.0.0.0.0.0.0.0.0.0.0.0.0.2.2.2.2.0.0.0.0.2.2.2.2.2.2.0.2.2.2.2.2.2.2.2.2.2.2.2.2.2.2.2.2.2.2.2.2.2.2.2.2.2.2.2.2.2.2.2.2.2.2.2.2.2.2.2.2.2.;.;.;.2.2.2.2.;.;.;.;.;.;.;.;.;.;.;.;.;.;.;.;.;.;.;.;.-.-.-.-.-.;.;.;.;.;.-.-.-.-.-.-.*.*.*.-.-.*.*.*.*.*.*.*.*.*.*.*.*.*.*.*.*.*.*.*.*.*.*.*.*.*.*.*.*.*.*.*.*.*.*.*.*.*.*.*.*.*.*.*.*.*.*.*.*.*.*.*.*.*.*.*.*.*.*.*.*.*.*.*.*.*.*.*.O.O.O.O.*.*.*.*.%.*.O.O.*.O.%.*.*.*.*.*.O.O.O.O.*.*.*.*.O.O.O.O.O.O.*.*.*.*.O.O.*.*.*.*.*.*.*.*.*.*.*.*.*.*.*.*.*.*.*.*.*.*.*.*.%.%.%.%.%.%.%.%.*.*.-.-.*.*.*.*.*.*.*.*.*.*.*.*.-.-.-.-.-.-.-.-.-.-.-.;.-.;.-.-.-.-.-.-.-.;.;.;.;.;.-.-.-.-.-.-.;.;.;.;.;.;.;.;.;.;.;.;.;.;.;.;.;.;.;.;.;.;.2.2.2.2.-.2.2.2.2.2.2.2.2.2.2.2.2.2.2.2.2.2.2.2.2.2.2.2.2.2.2.2.2.2.1.2.2.2.1.2.2.2.1.2.2.2.2.2.2.2.2.2.2.2.2.2.2.2.2.2.2.2.2.4.4.4.4.4.2.2.4.4.4.4.4.4.0.0.0.4.0.4.0.0.0.0.2.2.0.0.2.2.2.2.2.2.2.;.-.-.-.-.-.-.%.%.%.%.O.O.{ { { ' ' ' ' ) ~ ~ ~ ~ ^ ^ E Y Y H Y E { >.:.5.2.2.1.2.2.2.2.2.2.5.5.5.2.2.2.",
"-.-.-.-.-.%.%.%.-.%.{ O.>.O.~ Y D D D J Y E E E E E ~ ~ ~ ) ' ' +.O.O.%.*.*.*.-.;.;.2.2.2.2.2.2.2.2.2.0.0.0.0.0.q.q.q.q.q.q.q.q.q.q.q.q.q.q.q.q.q.q.q.q.q.q.q.q.0.0.0.0.0.0.0.0.0.0.0.0.0.0.0.0.0.0.0.0.0.0.0.0.0.0.0.0.0.2.2.2.0.2.0.0.0.0.2.2.2.2.2.2.2.2.2.2.2.2.2.2.2.2.2.2.2.2.2.2.2.2.2.2.2.2.2.2.2.2.2.2.2.2.2.2.;.;.;.2.2.2.2.2.2.;.;.;.;.;.;.;.;.;.;.;.;.;.;.;.;.;.;.;.;.;.;.;.;.;.;.;.;.;.-.-.-.-.-.-.-.-.*.-.-.-.*.*.*.*.*.*.*.*.*.*.*.*.*.*.*.*.*.*.*.*.*.*.*.*.*.*.*.*.*.*.*.*.*.*.*.*.*.*.*.*.*.*.*.*.*.*.*.*.*.*.*.*.*.*.*.*.*.*.*.*.*.*.*.*.*.*.O.O.O.O.%.*.*.*.O.O.O.O.%.O.*.*.*.*.*.*.O.O.O.O.*.*.*.*.O.O.O.O.O.O.*.*.*.*.O.O.*.*.*.*.*.*.*.*.*.*.*.*.*.*.*.*.*.*.*.*.*.*.*.*.-.-.-.*.*.*.*.*.*.*.-.-.*.*.*.*.*.*.*.*.*.*.*.*.-.-.-.-.-.-.-.-.-.-.;.;.-.-.-.-.;.;.;.;.;.;.;.;.;.;.-.-.-.-.-.-.;.;.;.;.;.;.;.;.;.;.;.;.;.;.;.;.;.;.;.;.;.;.2.2.2.2.2.2.2.2.2.2.2.2.2.2.2.2.2.2.2.2.2.2.2.2.2.2.2.2.2.2.2.2.2.2.1.1.1.1.2.2.2.2.2.2.2.2.2.2.2.2.2.2.2.2.4.4.4.4.4.4.4.4.4.4.4.4.4.4.4.0.0.0.0.0.0.0.0.0.0.0.0.0.0.0.0.0.0.0.0.0.2.2.2.2.2.2.2.2.2.2.-.-.-.-.*.%.%.%.O.O.{ { { { { ' ' ' ~ ~ ~ ~ ^ ^ E Y Y Y ~ ' >.:.2.5.1.2.2.2.2.2.4.2.4.2.0.0.2.2.4.",
"=.-.-.-.-.-.-.%.*.%.%.%.O.{ ' ] E T D D T E E Y E E E ~ ~ ) ] ' +.+.O.O.*.*.*.-.;.;.2.2.2.2.2.2.0.0.0.0.0.0.q.q.q.q.q.q.q.q.q.q.q.q.q.q.q.q.q.q.q.q.q.q.q.q.q.q.q.q.q.q.q.q.q.q.0.0.0.0.0.0.0.0.0.0.0.0.0.0.0.0.0.0.0.0.0.0.0.0.0.0.0.0.2.2.2.2.0.2.2.2.0.2.2.2.2.2.2.2.2.2.2.2.2.2.2.2.2.2.2.2.2.2.2.2.2.2.2.2.2.2.2.2.2.2.2.2.2.2.2.;.2.2.2.;.;.;.;.;.;.;.;.;.;.;.;.;.;.;.;.;.;.;.;.;.;.;.;.;.;.-.-.-.-.-.-.-.-.;.;.-.-.-.-.-.-.-.-.-.-.-.-.-.*.*.*.*.*.*.*.*.*.*.*.*.*.*.*.*.*.*.*.*.*.*.*.*.*.*.*.*.*.*.*.*.*.*.*.*.*.*.*.*.*.*.*.*.*.*.*.*.*.*.*.*.*.*.*.*.O.O.O.O.%.%.%.O.O.O.O.O.O.O.O.O.*.%.O.O.O.O.*.*.*.*.O.O.O.O.*.*.O.*.*.*.O.O.O.O.*.*.*.*.*.*.*.*.*.*.*.*.*.*.*.*.*.*.*.*.*.*.*.*.-.-.*.*.*.*.*.*.-.-.-.-.-.-.-.-.-.-.-.-.-.-.-.-.-.-.-.-.-.-.-.-.-.-.-.-.;.-.-.-.;.;.;.;.;.;.;.;.;.;.;.;.;.;.;.;.;.;.;.;.;.;.;.;.;.;.;.;.;.;.;.;.2.2.2.2.2.2.2.2.2.1.1.1.1.1.1.2.2.2.2.2.2.2.2.2.2.2.2.2.2.2.2.2.2.2.2.2.2.2.2.2.2.2.2.2.2.2.2.2.2.2.4.4.4.4.4.4.4.4.4.4.4.4.4.4.4.4.4.4.0.0.0.0.0.q.0.0.q.q.q.q.q.q.q.q.q.q.q.q.q.q.q.0.0.0.0.0.0.0.0.2.2.2.2.2.2.2.2.-.-.-.*.%.%.%.%.%.O.{ { { { ' ' ) ~ ~ ~ ^ E E Y Y Y Q O.=.2.2.2.2.2.2.2.2.2.2.2.2.4.4.4.4.0.0.0.",
"=.=.=.-.-.-.-.-.%.*.*.%.{ { O.>.O.^ J D J Y T Y E E E E ~ ' ] ' +.+.O.O.*.*.-.-.;.;.2.2.2.2.2.2.0.0.0.0.q.q.q.q.q.q.q.q.q.q.q.q.q.q.q.q.q.q.q.q.q.q.q.q.q.q.q.q.q.q.q.q.q.q.q.q.q.q.0.0.0.0.0.0.0.0.0.0.0.0.0.0.0.0.0.0.0.0.0.0.0.0.0.0.0.0.0.0.0.0.0.0.0.0.0.0.0.0.2.2.2.2.2.2.2.2.2.2.2.2.2.2.2.2.2.2.2.2.2.2.2.2.2.2.2.2.2.2.2.2.2.2.2.2.2.2.2.2.2.2.2.2.2.2.;.;.;.;.;.;.;.;.;.;.;.;.;.;.;.;.;.;.;.;.;.;.;.;.;.;.;.-.;.-.-.-.-.-.-.-.-.-.-.-.*.*.*.*.*.*.*.*.*.*.*.*.*.*.*.*.*.*.*.*.*.*.*.*.*.*.*.*.*.*.*.*.*.*.*.*.*.*.*.*.*.*.*.*.*.*.*.*.*.*.*.*.*.*.*.*.*.*.*.*.*.*.*.*.*.*.*.*.*.*.*.*.*.*.*.*.*.*.*.*.*.*.*.*.*.*.*.*.*.*.*.*.*.*.*.*.*.*.*.*.*.*.*.*.*.*.*.*.*.*.*.*.*.*.*.*.*.*.*.*.-.-.*.*.*.*.*.*.-.-.-.-.-.-.-.-.-.-.-.-.-.-.-.-.-.-.-.-.-.-.-.-.;.;.;.;.;.;.;.;.;.;.;.;.;.;.;.;.;.;.;.;.;.;.;.;.;.;.;.;.;.;.;.;.2.2.;.;.;.;.;.;.2.2.2.2.2.2.2.2.2.1.2.1.1.1.1.1.2.2.2.1.2.2.2.2.2.2.2.2.2.2.2.2.2.2.2.2.2.2.2.2.4.4.4.4.2.4.4.4.2.2.4.4.4.4.0.0.0.0.0.0.0.0.0.0.0.0.0.0.0.0.0.0.q.q.q.q.q.q.q.q.q.q.q.q.q.q.q.q.q.q.q.q.q.q.q.q.0.0.0.2.2.2.2.2.2.2.2.2.-.-.*.*.%.%.%.%.O.O.{ { ' ' ' ~ ~ ~ ^ ^ Y Y T Y E ' -.2.2.2.2.2.2.2.2.2.2.2.2.4.4.4.4.4.0.0.0.",
":.=.=.-.-.-.-.-.%.-.-.%.%.O.%.>.>.^ ^ Y J J J Y Y E E E ~ ~ ' ' O.+.O.O.*.*.-.-.-.;.2.2.2.2.2.2.0.0.0.q.q.q.q.q.q.q.q.q.q.q.z.z.q.q.q.q.q.q.q.q.q.q.q.q.q.q.q.q.q.q.q.q.q.q.q.q.q.q.q.q.q.q.0.0.q.0.q.q.q.q.q.q.0.0.0.0.0.0.0.0.0.0.0.0.0.0.0.0.0.0.0.0.0.0.0.0.0.0.0.0.2.2.2.2.2.2.2.2.2.2.2.2.2.2.2.2.2.2.2.2.2.2.2.2.2.2.2.2.2.2.2.2.2.;.2.2.2.;.;.;.2.2.2.2.;.;.;.;.;.;.;.;.;.;.;.;.;.;.;.;.;.;.;.;.;.;.;.;.;.;.;.;.-.-.-.-.-.-.-.-.-.-.-.-.-.-.*.*.-.-.-.-.-.-.*.*.-.-.-.-.-.-.-.-.-.-.-.-.*.*.*.*.*.*.*.*.*.*.*.*.*.*.*.*.*.*.*.*.*.*.*.*.*.*.*.*.*.*.*.*.*.*.*.*.*.*.*.*.*.*.*.*.*.*.*.*.*.*.*.*.*.*.*.*.*.*.*.*.*.*.*.*.*.*.*.*.*.*.*.*.*.*.*.*.*.*.*.*.*.*.*.*.*.*.*.*.*.*.*.*.*.*.*.*.-.-.-.-.-.-.-.-.-.-.-.-.-.-.-.-.-.-.-.-.-.-.-.-.-.-.;.;.-.-.-.-.;.;.;.;.;.;.;.;.;.;.;.;.;.;.;.;.;.;.;.;.;.;.;.;.;.;.2.2.2.2.2.2.2.2.2.2.2.2.2.2.2.2.2.2.2.2.2.2.2.1.1.1.1.2.2.2.2.2.2.2.2.1.1.1.2.2.2.2.2.0.0.0.2.2.2.2.2.2.2.2.2.2.4.4.0.0.0.0.4.4.4.0.0.0.0.0.0.0.0.0.0.0.0.0.0.0.0.0.0.0.0.0.q.q.q.q.q.q.q.q.q.q.q.q.q.q.q.q.q.q.q.q.q.q.q.q.0.0.0.0.0.2.2.2.2.2.2.2.1.-.*.*.%.%.%.%.O.O.{ { ' ' ) ~ ~ ^ ^ ^ Y Y Y Q O.>.2.2.1.1.1.2.2.2.2.2.5.2.4.4.4.4.0.0.0.0.0.",
":.=.=.-.-.-.-.-.%.%.-.-.-.*.%.O.O.O.O.! J D J Y Y E E E ~ ~ ' ' O.+.O.O.*.*.-.-.-.-.;.2.2.2.2.2.0.0.0.q.q.q.q.q.q.z.z.z.q.z.z.z.q.q.z.z.z.z.q.q.q.q.q.q.q.q.q.q.q.q.q.q.q.q.q.q.q.q.q.q.q.q.q.q.0.0.q.q.q.q.q.q.0.0.0.0.q.0.0.0.0.0.0.0.0.0.0.0.0.0.0.0.0.0.0.0.0.0.0.0.0.2.2.2.2.2.2.2.2.2.2.2.2.2.2.2.2.2.2.2.2.2.2.2.2.2.2.2.2.2.2.2.2.2.2.2.2.2.;.;.;.2.2.2.;.;.;.;.;.;.;.;.;.;.;.;.;.;.;.;.;.;.;.;.;.;.;.;.;.;.;.-.-.-.-.-.-.-.-.-.-.-.-.-.-.-.-.-.-.-.-.-.-.-.-.-.-.-.-.-.-.-.-.-.-.-.-.-.*.*.*.*.*.*.*.*.*.*.*.*.*.*.*.*.*.*.*.*.*.*.*.*.*.*.*.*.*.*.*.*.*.*.*.*.*.*.*.*.*.*.*.*.*.*.*.*.*.*.*.*.*.*.*.*.*.*.*.*.*.*.*.*.*.*.*.*.*.*.*.*.*.*.*.*.*.*.*.*.*.*.*.*.*.*.*.*.*.*.*.*.*.*.*.*.-.-.-.-.-.-.-.-.-.-.-.-.-.-.-.-.-.-.-.-.-.-.-.-.-.-.-.;.-.-.-.-.;.;.;.;.;.;.;.;.;.;.;.;.;.;.;.;.;.;.;.;.;.;.;.;.;.;.2.2.2.2.2.2.2.2.2.2.2.2.2.2.2.2.2.2.2.2.2.2.1.2.2.1.2.2.2.2.2.2.2.2.2.1.1.1.2.2.2.2.2.2.0.0.0.0.0.0.0.0.0.0.4.4.0.4.4.0.0.0.4.0.0.0.0.0.0.0.0.0.0.0.0.0.0.0.q.q.q.q.q.q.q.q.q.q.q.q.q.q.z.z.q.z.z.z.q.q.q.q.q.z.q.q.q.q.q.q.q.0.0.0.0.2.2.2.2.2.2.2.-.-.-.*.%.%.%.%.O.O.O.O.' ] ~ ~ E E E E Y Y E { 2.5.2.-.2.2.1.2.2.2.2.2.2.5.4.4.4.0.0.0.4.0.0.",
":.:.-.-.;.;.;.;.-.-.-.-.-.-.*.*.O.O.O.+.~ E J D T T T ! ~ ~ ~ ~ ' O.O.%.%.%.*.;.-.;.2.2.2.2.5.2.0.0.q.q.q.q.z.z.z.z.z.z.z.z.z.z.z.z.z.z.z.z.z.z.z.z.z.q.q.q.q.q.q.q.q.q.q.q.q.q.q.q.q.q.q.q.q.q.q.q.q.q.q.q.q.q.0.q.q.q.q.0.0.0.q.q.q.q.q.0.0.0.0.0.0.0.0.0.0.0.4.4.4.4.4.4.2.2.4.4.2.2.4.2.2.2.2.2.2.2.2.2.2.2.2.2.2.2.2.1.2.2.2.2.2.2.2.2.2.2.2.2.2.2.2.2.2.2.2.;.;.;.;.;.;.;.;.;.;.;.;.;.;.;.;.;.;.;.;.;.;.;.;.;.;.;.-.-.-.-.-.-.-.-.-.-.-.-.*.*.*.*.*.*.*.*.*.*.*.*.*.*.*.*.*.*.*.*.*.*.*.*.*.*.*.*.*.*.*.*.*.*.*.*.*.*.*.*.*.*.*.*.*.*.*.*.*.*.*.*.*.*.*.*.*.*.*.*.*.%.O.O.*.*.*.*.*.*.*.*.*.*.*.*.*.*.*.*.*.*.*.*.*.*.*.*.*.*.*.*.*.*.*.*.*.*.*.*.*.*.*.*.*.*.*.*.*.*.*.*.*.*.*.*.*.*.*.*.*.*.*.*.*.-.-.-.*.*.*.*.*.-.-.-.-.-.-.-.-.-.-.-.;.;.;.;.;.;.;.;.;.;.;.;.;.;.;.;.;.;.;.;.;.;.;.;.2.2.2.2.2.2.2.2.2.2.2.2.2.2.2.2.2.2.2.2.2.2.2.2.2.2.2.2.2.2.2.2.2.2.2.2.2.2.2.2.2.2.2.2.2.2.2.2.0.0.2.0.0.0.0.0.0.0.0.0.0.0.0.0.0.0.0.0.0.0.0.q.0.0.0.0.q.q.q.q.0.0.0.0.q.q.q.q.q.q.q.q.q.q.q.q.q.q.q.q.z.z.z.z.z.z.z.z.z.z.z.z.z.z.z.z.z.z.q.q.q.q.q.0.0.0.0.0.2.2.2.2.2.2.;.;.*.*.O.O.O.O.O.+.O.O.~ ~ ~ E Y J R ) %.-.2.2.2.2.1.1.1.1.4.2.4.4.4.4.4.4.4.4.4.4.4.4.4.",
";.2.;.;.;.;.;.;.-.-.-.-.-.-.-.-.*.*.*.O.' ~ Y J J T Y E ! ~ ~ ~ ' O.O.O.%.%.*.-.;.;.2.2.2.2.2.0.0.0.q.q.q.q.z.z.z.z.z.z.z.z.z.z.z.x.z.z.z.z.z.z.z.z.z.z.z.z.z.z.z.z.z.z.z.z.q.q.q.q.q.q.q.q.q.q.q.q.q.q.q.q.q.q.q.q.q.q.q.0.0.0.q.q.q.q.q.q.0.0.0.0.0.0.0.0.0.0.0.0.4.4.4.4.2.2.4.4.0.2.4.4.2.2.2.2.2.2.2.2.2.2.2.2.2.2.2.2.2.2.2.2.2.2.2.2.2.2.2.2.2.2.2.2.2.2.2.2.;.;.;.;.;.;.;.;.;.;.;.;.;.;.;.;.;.;.;.;.;.;.;.;.;.;.;.-.-.-.-.-.;.;.-.-.-.-.*.*.*.*.*.*.*.*.*.*.*.*.*.*.*.*.*.*.*.*.*.*.*.*.*.*.*.*.*.*.*.*.*.*.*.*.*.*.*.*.*.*.*.*.*.*.*.*.*.*.*.*.*.*.*.*.*.*.*.*.*.*.O.O.*.*.*.*.*.*.*.*.*.*.*.*.*.*.*.*.*.*.*.*.*.*.*.*.*.*.*.*.*.*.*.*.*.*.*.*.*.*.*.*.*.*.*.*.*.*.*.*.*.*.*.*.*.*.*.*.*.*.*.*.*.-.-.-.*.*.*.*.*.-.-.-.-.-.-.-.-.-.-.-.;.;.;.;.;.;.;.;.;.;.;.;.;.;.;.;.;.;.;.;.;.;.;.;.2.2.2.2.2.2.2.2.2.2.2.2.2.2.2.2.2.2.2.2.2.2.2.2.2.2.2.2.2.2.2.2.2.2.2.2.2.2.2.2.4.4.4.2.2.2.4.4.0.0.0.0.0.0.0.0.0.0.0.0.0.0.0.0.0.0.0.0.0.0.q.q.0.0.q.q.q.q.q.q.q.q.q.q.q.q.q.q.q.q.q.q.q.q.z.z.z.z.z.z.z.z.z.z.z.z.z.z.z.z.z.z.z.z.z.z.z.z.z.z.q.q.q.q.0.0.0.0.2.2.2.2.2.2.;.;.*.*.O.O.O.O.O.] ] ~ ~ E Y Y Y R ) { -.-.2.-.2.2.1.1.1.1.4.2.4.4.4.4.4.4.4.4.4.4.4.4.4.",
";.;.;.;.;.;.;.;.;.;.-.-.-.-.-.-.-.*.*.>.O.+.~ E J D D Y E ! ~ ~ ' ' O.O.O.*.*.;.;.;.2.2.2.2.5.0.0.0.0.q.q.z.z.z.z.z.x.x.x.x.x.x.x.x.x.z.x.x.x.x.x.x.x.x.z.z.z.z.z.z.z.z.z.z.z.z.z.z.q.q.q.q.q.q.z.z.q.q.q.q.q.q.q.q.q.q.q.q.q.q.q.q.q.q.q.q.q.q.q.q.0.0.0.0.0.0.0.0.0.0.4.4.4.4.0.0.0.0.4.4.4.4.2.2.4.2.2.2.2.2.2.2.2.2.2.2.2.2.2.2.2.2.2.2.2.2.2.2.2.2.2.2.2.2.2.2.2.2.;.2.2.2.2.2.;.2.;.2.;.;.;.;.;.;.;.;.;.;.;.;.-.;.;.;.-.-.-.-.-.;.;.-.-.-.-.-.-.-.;.;.;.;.-.-.-.-.-.-.-.-.-.-.-.-.-.-.-.-.-.-.-.-.-.-.-.-.-.-.-.-.-.-.-.-.*.*.*.*.*.*.*.*.*.*.*.*.*.*.*.*.*.*.*.*.*.*.*.*.*.*.*.*.*.*.*.*.*.*.*.*.*.*.*.*.*.*.*.*.*.*.*.*.*.*.*.*.*.*.*.*.*.*.*.*.*.*.*.*.*.*.*.*.*.*.*.*.-.-.-.-.-.-.-.-.-.-.-.-.-.-.-.-.-.-.-.-.-.-.-.-.;.;.;.;.-.-.-.-.;.;.;.;.;.;.;.;.;.;.;.;.;.;.;.;.2.2.2.2.;.;.;.;.2.2.2.2.2.2.2.2.2.2.2.2.2.2.2.2.2.2.2.2.2.2.2.2.2.2.2.2.2.2.2.2.2.2.2.2.2.2.2.2.4.4.2.2.2.2.2.4.0.4.4.0.0.0.0.0.0.0.0.0.0.0.0.0.0.0.0.q.0.0.q.q.q.q.q.q.q.q.q.q.q.q.q.q.z.z.z.z.q.q.z.z.z.z.z.z.z.z.z.z.x.x.x.x.z.z.z.z.x.x.x.x.z.x.z.z.z.x.x.x.z.q.q.q.0.0.0.0.2.2.2.2.2.2.;.;.-.*.O.O.O.O.+.] ~ ~ ~ Y J Y E ) -.-.;.2.-.1.2.2.1.4.1.1.2.4.4.4.4.4.4.4.4.4.4.4.4.4.4.",
"2.2.2.2.2.2.2.2.;.;.;.;.;.;.-.-.-.-.*.:.>.>.O.' T T D D Y ! ! ~ ~ ' O.O.O.*.*.;.;.2.2.2.2.2.0.0.q.q.q.q.z.z.z.x.x.x.x.x.x.x.x.x.x.x.x.x.x.x.x.x.x.x.x.x.x.x.z.x.z.z.z.z.z.z.z.z.z.z.z.z.z.q.q.q.z.z.z.q.q.q.q.q.q.q.q.q.q.q.q.q.q.q.q.q.q.q.q.q.q.q.q.q.q.q.q.0.q.q.q.0.0.0.0.4.0.0.0.0.4.4.4.4.4.2.4.4.4.4.2.2.2.2.2.2.2.2.2.2.2.2.2.2.2.2.2.2.2.2.2.2.2.2.2.2.2.2.2.2.;.2.2.2.2.2.2.2.;.;.;.;.2.2.;.;.;.;.;.;.;.;.;.-.;.;.;.;.;.;.;.;.;.;.;.;.-.-.-.-.;.;.;.;.-.-.-.-.-.-.-.-.-.-.-.-.-.-.-.-.-.-.-.-.-.-.-.-.-.-.-.-.-.-.-.-.*.*.*.*.*.*.*.*.*.*.*.*.*.*.*.*.*.*.*.*.*.*.*.*.*.*.*.*.*.*.*.*.*.*.*.*.*.*.*.*.*.*.*.*.*.*.*.*.*.*.*.*.*.*.*.*.*.*.*.*.*.*.*.*.*.*.*.*.*.*.*.*.-.-.-.-.-.-.-.-.-.-.-.-.-.-.-.;.-.-.-.-.-.-.-.;.;.;.;.;.;.;.;.;.;.;.;.;.;.;.;.;.;.;.;.;.;.;.;.;.2.2.2.2.;.;.;.;.2.2.2.2.2.2.2.2.2.2.1.1.2.2.2.2.2.2.2.1.2.1.1.2.2.2.2.2.2.2.2.2.2.2.2.2.4.4.4.4.4.4.4.4.4.4.4.0.0.0.0.0.0.0.0.0.0.0.0.0.e.e.e.q.q.q.q.q.0.q.q.q.q.q.q.q.q.q.q.z.q.q.q.z.z.z.z.z.z.z.z.z.z.z.z.z.x.x.z.x.x.x.x.x.x.x.x.x.x.x.x.x.x.x.x.x.x.x.x.x.z.z.q.q.q.0.0.0.2.2.2.2.2.2.;.-.-.*.O.O.O.O.' ~ ~ ~ E Y Y E { >.=.2.2.2.2.2.2.2.4.4.4.4.2.4.4.4.4.4.4.4.4.4.4.4.4.4.4.",
";.;.;.;.2.2.2.2.;.;.;.;.;.;.;.;.-.-.-.-.:.>.>.O.] E T D J Y E ! ~ ' ' O.O.O.*.;.;.2.2.2.2.2.0.q.q.q.q.w.z.z.x.x.x.x.x.x.x.x.x.x.x.x.x.x.x.x.x.x.x.x.x.x.x.x.x.x.x.x.x.x.x.x.x.x.x.x.z.z.z.z.z.z.z.z.z.z.z.z.z.z.z.q.q.q.q.q.q.q.q.q.q.q.q.q.q.q.q.q.q.q.q.q.q.q.q.0.0.0.q.0.0.0.0.0.0.0.0.0.0.4.4.0.0.0.2.2.2.2.4.4.2.2.2.2.2.2.2.2.2.2.2.2.2.2.2.2.2.2.2.2.2.2.2.2.2.2.2.2.2.2.2.2.2.2.2.2.2.;.;.;.2.2.;.;.;.;.;.;.;.;.;.;.;.;.;.;.;.;.;.;.;.;.-.-.-.-.-.-.-.-.-.-.-.-.-.-.-.-.-.-.-.-.-.-.-.-.-.-.-.-.-.-.-.-.-.-.-.-.-.-.-.-.*.*.*.*.*.*.*.*.*.*.*.*.*.*.*.*.*.*.*.*.*.*.*.*.*.*.*.*.*.*.*.*.*.*.*.*.*.*.*.*.*.*.*.*.*.*.*.*.*.*.*.*.*.*.*.*.*.*.*.*.*.*.*.*.-.-.-.-.-.-.-.-.-.-.-.-.-.-.-.-.-.;.;.;.-.;.;.;.-.;.;.;.-.;.;.;.;.;.;.;.;.;.;.;.;.;.;.;.;.;.;.;.;.;.;.;.2.2.2.2.2.2.2.2.2.2.2.2.2.2.2.2.2.2.2.2.1.1.2.2.2.2.2.2.2.2.2.2.2.2.2.2.2.2.2.2.4.4.4.4.4.4.4.4.4.4.4.4.0.0.0.0.0.0.0.0.0.0.0.q.q.q.q.q.q.q.q.0.q.q.q.q.q.q.q.q.q.q.w.q.q.q.q.z.z.z.z.z.z.z.z.z.z.z.z.z.z.z.z.x.x.x.x.x.x.x.x.x.x.x.x.x.x.x.x.x.x.x.x.x.x.x.x.x.x.c.x.x.x.z.z.z.q.q.0.0.0.2.2.2.2.2.;.-.-.*.%.O.O.' ~ ~ ~ E Y Y ~ { =.2.-.;.2.2.1.1.2.2.4.4.4.4.4.4.4.4.4.4.4.4.4.4.4.4.4.4.4.",
"2.2.2.2.2.2.2.2.2.2.;.;.2.2.;.;.;.-.-.;.;.:.>.>.>.+.E T J J Y E ! ~ ' ' O.O.>.;.;.2.2.2.2.0.0.q.q.q.q.z.z.z.x.x.x.x.x.v.v.v.v.x.v.v.x.x.x.x.x.x.x.x.x.x.x.x.x.x.x.x.x.x.x.x.x.x.x.x.x.x.z.z.z.z.z.z.z.z.z.z.z.z.z.z.z.z.z.q.q.q.q.q.q.z.q.q.q.q.q.q.q.q.q.q.q.q.q.q.q.q.q.q.0.0.0.0.0.0.0.0.0.0.0.0.0.0.4.4.0.0.4.4.4.2.2.2.2.2.2.2.2.2.2.2.2.2.2.2.2.2.2.2.2.2.2.2.2.2.2.2.2.2.2.2.2.2.2.2.2.2.;.2.2.2.2.;.;.;.2.2.;.;.;.;.;.;.;.;.;.;.;.;.;.;.;.;.;.;.;.;.;.;.;.;.;.-.;.;.;.;.;.;.;.;.-.-.-.-.;.;.;.-.;.;.;.;.-.-.-.-.;.;.;.-.*.*.*.*.*.*.*.*.*.*.*.*.*.*.*.*.*.*.*.*.*.*.*.*.*.*.*.*.*.*.*.*.*.*.*.*.*.*.*.*.*.*.*.*.*.*.*.*.*.*.*.*.*.*.*.*.*.*.*.*.*.*.*.*.-.-.-.-.-.-.-.-.;.;.-.-.-.-.-.-.;.;.;.;.;.;.;.;.;.;.;.;.;.;.;.;.;.;.;.;.;.;.;.;.;.;.;.;.;.;.;.;.;.;.;.;.2.2.2.2.2.2.2.2.2.2.2.2.2.2.2.2.2.2.2.2.2.2.2.2.2.2.2.2.2.2.2.2.2.2.2.2.2.2.2.2.4.4.4.4.4.4.4.0.0.0.0.0.0.0.0.0.0.0.0.0.q.q.q.q.q.q.q.q.e.q.q.q.w.q.e.q.q.q.z.q.q.q.z.z.z.z.z.z.z.z.z.z.z.z.z.z.z.z.z.z.x.x.x.x.x.x.x.x.x.x.x.x.x.x.x.x.v.v.x.x.x.x.x.x.x.x.x.x.x.x.x.x.x.x.z.z.q.q.0.0.0.0.2.2.2.2.;.-.*.*.O.O.' ~ ~ ! E Y Y Q { :.=.=.-.-.2.2.2.2.2.2.4.4.4.4.4.4.4.4.4.4.4.4.4.4.4.4.4.4.4.",
"2.2.2.2.2.2.2.2.2.2.2.2.2.2.2.2.2.2.;.;.;.;.=.>.>.>.+.! Y J Y E ! ~ ~ ' O.O.>.:.;.2.2.2.0.0.q.q.q.q.w.z.x.x.x.x.x.x.x.v.v.v.v.x.v.v.v.v.x.x.x.x.x.x.x.x.x.x.x.x.x.x.x.x.x.x.x.x.x.x.x.x.x.x.x.x.x.x.z.z.z.z.z.z.z.z.z.z.z.z.z.z.z.z.q.z.q.q.q.q.q.q.q.q.q.q.q.q.q.q.q.q.q.q.0.0.q.q.q.0.0.0.0.q.0.0.0.0.0.4.4.4.2.2.4.4.2.2.2.2.2.2.2.2.2.2.2.2.2.2.2.2.2.2.2.2.2.2.2.2.2.2.2.2.2.2.2.2.2.2.2.2.2.2.2.2.2.2.;.;.2.2.2.;.;.;.;.;.;.;.;.;.;.;.;.;.;.;.;.;.;.;.;.;.;.;.-.-.-.-.-.-.-.;.-.-.-.-.-.-.;.;.-.-.-.-.-.-.-.-.-.-.;.;.-.-.*.*.*.*.*.*.*.*.*.*.*.*.*.*.*.*.*.*.*.*.*.*.*.*.*.*.*.*.*.*.*.*.*.*.*.*.*.*.*.*.*.*.*.*.*.*.*.*.*.*.*.*.*.*.*.*.*.*.*.*.*.*.*.*.-.-.-.-.-.-.-.-.;.-.-.-.-.;.;.;.-.-.;.;.;.;.;.;.-.-.;.;.;.;.;.;.;.;.;.;.;.;.;.;.;.;.;.;.;.;.;.;.2.2.2.2.2.2.2.2.2.2.2.2.2.2.2.2.2.2.2.2.2.1.1.1.2.2.2.2.2.2.2.2.2.2.2.2.4.4.2.2.2.2.4.4.4.4.0.0.0.0.0.0.0.0.0.0.q.q.q.q.q.q.0.0.q.q.q.q.q.q.q.q.q.q.q.q.q.q.q.q.z.z.z.z.q.z.z.z.z.z.z.z.z.z.x.x.z.z.z.z.x.x.x.x.x.x.x.x.x.x.x.x.x.x.x.x.x.x.x.x.x.x.x.x.v.v.x.x.x.x.x.x.x.x.x.x.x.x.x.z.z.q.q.0.0.0.2.2.2.2.;.-.*.%.O.' ' ~ ! E Y E ) O.=.:.2.;.2.2.2.2.2.4.4.2.4.4.4.4.4.4.4.4.4.4.4.4.4.4.4.4.q.4.4.",
"2.2.2.2.2.2.2.2.2.2.2.2.2.2.2.2.2.2.2.2.2.;.-.*.%.>.>.+.E T Y E E ~ ~ ' +.O.>.:.;.2.2.2.0.0.q.q.q.q.z.z.x.x.x.v.x.x.v.v.v.v.x.v.v.v.v.v.v.x.x.x.v.v.v.v.v.x.x.x.x.x.x.x.x.x.x.x.x.x.x.x.x.x.x.x.x.x.x.z.z.z.z.z.z.z.z.z.z.z.z.z.z.z.z.z.q.q.q.q.q.q.q.q.q.q.q.q.q.q.q.q.q.q.q.q.q.q.q.q.0.0.0.0.q.q.0.0.0.0.4.4.2.4.4.4.2.2.2.2.2.2.2.2.2.2.2.2.2.2.2.2.2.2.2.2.2.2.2.2.2.2.2.2.2.2.2.2.2.2.2.2.2.2.2.2.2.2.2.;.2.2.2.2.;.;.;.;.;.;.;.;.;.;.;.;.;.;.;.;.;.;.;.;.;.;.-.-.-.-.-.-.-.-.-.-.-.-.-.-.;.;.-.-.-.-.-.-.-.-.-.-.;.;.-.-.*.*.*.*.*.*.*.*.*.*.*.*.*.*.*.*.*.*.*.*.*.*.*.*.*.*.*.*.*.*.*.*.*.*.*.*.*.*.*.*.*.*.*.*.*.*.*.*.*.*.*.*.*.*.*.*.*.*.*.*.*.*.*.-.-.-.-.-.-.-.-.-.;.;.-.-.-.-.;.;.-.-.-.;.;.;.;.;.-.-.-.;.-.-.;.;.;.;.;.;.;.;.;.;.;.;.;.;.;.;.;.;.2.2.2.2.2.2.2.2.2.2.2.2.2.2.2.2.2.2.2.2.2.1.1.1.2.2.2.2.2.2.2.2.2.2.2.4.4.2.2.2.4.4.4.4.4.0.0.0.0.0.0.0.0.0.0.0.q.q.q.q.q.q.0.q.q.q.q.q.q.q.q.z.q.q.q.q.z.q.q.q.z.z.z.z.z.z.z.z.z.z.z.z.x.x.x.x.x.x.x.x.x.x.x.x.x.x.x.x.x.x.x.x.x.x.x.x.v.v.v.v.v.v.v.v.v.v.v.v.x.x.x.x.v.v.x.x.x.x.x.z.z.q.q.q.0.0.2.2.2.2.;.-.>.>.O.' ~ ~ E E Y ~ %.5.5.2.2.2.5.5.2.1.2.4.4.4.4.4.4.4.4.4.4.4.4.4.4.4.4.4.4.4.4.4.4.",
"2.2.2.2.2.2.2.2.2.2.2.2.2.2.2.2.2.2.2.2.2.2.2.;.:.*.*.O.O.' T J E ! ~ ' +.O.>.>.=.;.2.2.0.0.q.q.z.z.x.x.x.v.x.v.v.v.v.v.v.v.v.v.v.v.v.v.v.v.v.v.v.v.x.x.x.x.x.x.x.v.v.v.x.x.x.x.x.x.x.x.x.x.x.x.x.x.x.x.x.x.x.x.x.x.x.x.x.x.z.x.z.z.z.z.z.z.z.z.z.z.q.q.q.q.q.q.q.q.q.q.q.q.q.q.q.q.q.q.q.q.q.q.q.q.0.0.0.0.0.0.4.4.4.4.4.4.2.2.0.0.0.2.2.2.2.2.2.2.2.2.2.2.2.2.2.2.2.2.2.2.2.2.2.2.2.2.2.2.2.2.2.2.2.2.;.;.;.;.2.;.;.;.2.;.;.;.;.;.;.;.;.;.;.;.;.;.;.;.;.;.;.;.;.;.;.;.;.;.;.;.;.;.;.;.;.;.;.;.;.;.;.;.;.;.;.;.-.-.-.-.-.-.-.-.-.-.-.-.-.-.-.-.;.;.-.-.-.-.-.-.*.*.*.*.*.*.*.*.*.*.*.*.*.*.*.*.*.*.*.*.*.*.*.*.*.*.*.*.*.*.*.*.-.-.-.-.-.-.-.-.-.-.-.-.-.-.-.-.-.-.-.-.-.-.-.-.;.;.;.;.;.;.;.;.;.;.;.;.;.;.;.;.;.;.;.;.;.;.;.;.;.;.;.;.2.2.2.2.2.2.2.;.2.2.2.2.2.2.2.2.2.2.2.2.2.2.2.2.2.2.2.2.2.2.2.2.4.2.2.2.2.2.2.2.4.4.4.4.4.4.4.4.4.4.4.4.0.0.0.0.0.0.0.0.q.q.q.q.q.q.q.q.q.q.q.q.q.q.q.q.z.z.z.z.z.z.z.z.z.z.z.z.z.z.z.z.z.z.z.z.x.x.x.x.x.x.x.x.x.x.x.x.x.x.x.x.x.x.x.x.x.x.x.x.x.x.v.v.x.v.v.v.v.v.v.v.v.v.v.v.C.C.C.C.C.C.C.C.C.v.v.x.x.x.x.x.z.z.q.q.0.0.0.2.2.2.-.*.*.O.O.' ~ E E Y %.%.*.-.;.2.2.2.5.2.2.2.4.0.0.0.4.4.4.4.4.4.4.4.4.4.4.4.4.q.q.q.4.4.4.",
"2.2.2.2.2.2.2.2.2.2.2.2.2.2.2.2.2.2.2.2.2.2.2.2.;.-.*.*.>.O.~ E Y T E ~ ' O.O.>.=.;.2.2.0.0.q.q.z.x.x.v.v.v.v.v.v.N.v.v.v.v.C.C.v.C.C.v.v.v.v.v.v.v.v.v.v.v.x.x.v.v.v.v.v.v.x.x.x.x.x.x.x.x.x.x.x.x.x.x.x.x.x.x.x.x.x.x.x.x.x.x.z.z.z.z.z.z.z.z.z.z.q.q.q.q.q.q.q.q.q.q.q.q.q.q.q.q.q.q.q.q.q.q.q.q.q.0.0.0.0.0.0.0.4.4.4.4.2.2.2.0.0.0.2.2.2.2.2.2.2.2.2.2.2.2.2.2.2.2.2.2.2.2.2.2.2.2.2.2.2.2.2.2.2.2.2.2.;.;.2.2.2.2.;.;.;.;.;.;.;.;.;.;.;.;.;.;.;.;.;.;.;.;.;.;.;.;.;.;.;.;.;.;.;.;.;.;.;.;.;.;.;.;.;.;.;.;.-.-.-.-.-.-.-.-.-.-.-.;.-.-.-.-.;.;.-.-.-.-.-.-.-.-.-.-.-.-.-.-.-.-.-.-.-.-.-.-.*.*.-.-.-.-.-.-.-.-.-.-.-.-.-.-.-.-.-.-.-.-.-.-.-.-.-.-.-.-.-.-.-.-.-.-.-.-.-.;.;.;.;.;.;.;.;.;.;.;.;.;.;.;.;.;.;.;.;.;.;.;.;.;.;.;.;.;.2.2.2.2.2.2.2.2.2.2.2.2.2.2.2.2.2.2.2.2.2.2.2.2.2.2.2.2.2.2.2.2.4.4.2.2.2.2.2.2.4.4.4.4.4.4.4.4.4.4.0.0.0.0.0.0.0.0.0.0.q.q.q.q.q.q.q.q.q.q.q.q.q.q.q.q.z.q.z.z.z.z.z.z.z.z.z.z.z.x.x.x.x.z.x.x.x.x.x.x.x.x.x.x.x.x.x.x.x.x.x.x.v.v.x.x.x.x.v.v.x.x.v.v.v.v.v.v.v.v.v.v.v.v.C.C.C.C.C.C.C.C.C.C.v.v.v.v.x.x.x.x.x.z.z.q.q.0.0.2.2.2.;.*.O.O.' ~ E E E ~ %.-.-.2.2.2.2.2.2.4.4.4.4.0.0.0.0.4.4.4.4.4.4.4.4.4.0.0.4.q.q.q.4.4.4.",
"2.2.2.2.2.2.2.2.2.2.2.2.2.2.2.2.2.2.2.2.2.2.2.2.2.;.-.-.=.*.O.' T Y T E ~ +.O.>.>.;.2.2.0.q.q.z.z.x.v.v.v.v.v.N.G.G.G.G.C.C.C.C.C.C.G.G.v.v.v.v.C.C.C.C.C.C.v.v.v.v.v.v.v.v.v.v.v.x.x.x.x.x.x.x.x.x.x.x.x.x.x.x.x.x.x.x.x.x.x.x.x.x.z.z.z.z.z.z.z.z.z.z.z.z.z.z.z.z.z.q.q.q.q.q.q.q.q.q.q.q.q.q.q.q.q.q.q.q.0.0.0.0.0.0.4.4.4.4.0.0.0.0.2.2.2.2.2.2.2.2.2.2.2.2.2.2.2.2.2.2.2.2.2.2.2.2.2.2.2.2.2.2.2.2.2.2.2.2.2.2.2.2.;.;.;.;.2.2.2.2.;.;.;.;.;.;.;.;.;.;.;.;.;.;.;.;.;.;.;.;.;.;.;.;.;.;.;.;.;.;.;.;.;.;.;.;.-.-.-.-.-.-.-.-.-.-.;.;.-.-.-.-.;.;.;.;.;.;.-.-.-.-.-.-.-.-.-.-.-.-.-.-.-.-.-.-.-.-.-.-.-.-.-.-.-.-.-.-.-.-.-.-.;.;.-.-.-.-.-.-.;.;.;.;.-.-.-.-.-.-.-.-.-.;.;.;.;.;.;.;.;.;.;.;.;.;.;.;.;.;.;.;.2.2.;.;.2.2.2.2.2.2.;.;.2.2.2.2.2.2.2.2.2.2.2.2.2.2.2.2.2.2.2.2.2.2.2.2.2.2.2.2.2.2.2.4.4.4.2.4.4.4.2.0.4.4.4.4.4.4.4.4.0.0.0.0.0.0.0.0.0.0.q.q.q.q.q.q.q.q.q.q.q.q.q.q.q.q.q.q.z.z.z.z.z.z.z.z.z.z.z.z.x.x.x.x.x.x.x.x.x.x.x.x.x.x.x.x.x.x.x.x.x.x.x.x.v.v.v.v.v.v.v.v.v.v.v.v.C.C.C.C.C.C.C.C.C.C.C.C.C.C.C.C.C.C.C.C.C.C.v.v.v.x.x.x.z.z.z.q.q.0.2.2.2.2.;.*.O.' ~ E Y E ' *.-.-.2.2.2.2.2.2.4.4.4.4.0.0.0.0.4.4.4.4.4.4.4.4.4.4.4.4.q.q.q.q.4.4.4.",
"2.2.2.2.2.2.2.2.2.2.2.2.2.2.2.2.2.2.2.2.2.2.2.2.2.2.;.;.;.;.*.*.' ~ E E ~ ' O.>.>.:.2.2.0.q.z.z.x.x.v.N.v.v.N.G.G.G.G.G.G.G.C.C.G.G.G.G.G.G.G.C.G.G.G.C.C.C.C.G.v.v.v.v.v.v.v.v.v.v.v.v.v.v.x.x.v.v.v.x.x.x.x.x.x.x.x.x.x.x.x.x.x.x.x.x.x.x.x.x.z.z.z.z.z.z.z.z.z.z.z.z.z.z.q.q.z.q.q.q.q.q.q.q.q.q.q.q.q.q.q.q.0.0.0.0.0.0.0.4.0.0.0.0.0.0.2.2.2.2.2.2.2.2.2.2.2.2.2.2.2.2.2.2.2.2.2.2.2.2.2.2.2.2.2.2.2.2.2.2.2.2.2.2.;.;.;.;.2.2.2.2.;.;.;.;.;.;.;.;.;.;.;.;.;.;.;.;.;.;.;.;.;.;.;.;.;.;.;.;.;.;.;.;.;.;.;.;.;.;.;.;.;.;.;.;.;.;.;.;.;.;.;.;.;.;.;.;.;.;.-.-.-.-.-.-.-.-.-.-.-.-.-.-.-.-.-.-.-.-.-.-.-.-.-.-.-.-.-.-.-.-.-.-.-.-.-.-.;.-.-.-.;.;.;.;.-.-.-.-.;.;.;.;.;.;.;.;.;.;.;.;.;.;.;.;.;.;.;.;.;.;.2.2.;.;.;.;.2.2.2.2.2.2.;.;.2.2.2.2.2.2.2.2.2.2.2.2.2.2.2.2.2.2.2.2.2.2.2.2.2.2.2.2.2.2.4.4.4.4.4.4.0.0.0.0.0.0.4.0.4.0.0.0.0.0.0.0.0.0.0.0.q.q.q.q.q.q.q.q.q.q.q.q.z.q.q.q.q.z.z.q.z.z.z.z.z.z.z.z.x.z.x.x.x.x.x.x.x.x.x.x.x.x.x.x.x.x.x.x.x.x.x.x.x.x.x.v.v.v.v.v.v.v.v.v.v.C.v.C.C.C.C.C.C.C.C.C.C.C.C.C.C.C.C.C.G.G.G.G.G.C.C.v.v.v.x.x.x.z.z.q.0.0.2.2.2.2.=.*.O.' ~ E ~ { *.2.2.2.2.2.2.2.4.4.4.4.0.0.0.0.0.0.4.4.4.4.4.4.4.4.4.4.4.q.q.q.q.q.4.4.4.",
"2.2.2.2.2.2.2.2.2.2.2.2.2.2.2.2.2.2.0.2.2.2.2.2.2.2.2.2.2.2.;.-.>.O.~ E E ~ +.>.>.;.2.2.0.q.z.z.z.x.v.v.v.N.G.G.P.P.G.G.G.G.G.G.G.G.G.G.G.C.C.C.C.C.C.C.C.C.C.C.C.C.C.C.C.C.C.C.C.C.C.C.v.v.v.v.v.v.v.v.v.v.x.x.x.x.x.x.x.x.x.x.x.x.x.x.x.x.x.x.x.x.x.x.x.z.z.z.z.z.z.z.z.z.z.z.z.q.q.q.q.q.q.q.q.q.q.q.q.q.q.q.q.q.0.0.0.0.0.0.0.0.0.0.0.0.0.0.0.2.2.2.0.2.2.2.0.0.2.2.2.2.2.2.2.2.2.2.2.2.2.2.2.2.2.2.2.2.2.2.2.2.2.2.2.2.2.2.2.2.;.;.;.;.2.2.;.;.;.;.;.;.;.;.;.;.;.;.;.;.;.;.;.;.;.;.;.;.;.;.;.;.;.;.;.;.;.;.;.;.;.;.;.;.;.;.;.;.;.;.;.;.;.;.-.-.;.;.;.-.-.-.-.-.-.-.-.-.-.-.-.-.-.-.-.-.-.-.-.-.-.-.-.-.-.-.-.-.-.-.-.-.-.-.;.-.-.-.-.-.-.-.-.-.-.-.-.-.-.-.;.;.;.;.;.;.;.;.;.;.;.;.;.;.;.;.;.;.;.;.2.2.2.2.;.;.;.;.;.;.;.;.2.2.2.2.2.2.2.2.2.2.2.2.2.2.2.2.2.2.2.2.2.2.2.2.2.2.2.2.2.2.0.0.4.4.2.2.2.2.0.4.0.0.0.0.0.0.0.0.0.0.0.q.q.q.0.q.q.q.q.q.q.q.q.q.q.q.q.q.q.q.q.q.z.z.z.q.z.z.z.z.z.z.z.x.x.x.x.x.x.x.x.x.x.x.x.x.x.x.c.x.x.x.x.x.x.x.v.v.v.v.v.v.v.v.v.v.v.C.v.C.C.C.C.C.C.C.C.C.C.C.C.C.C.C.C.C.C.C.C.C.G.G.G.G.H.H.G.H.G.G.C.C.C.v.x.x.x.x.z.q.0.0.0.2.2.;.*.O.' ~ E ~ O.;.2.;.2.1.2.2.2.4.4.4.0.0.0.0.0.0.0.0.4.4.4.4.4.4.4.4.4.4.4.4.q.q.q.q.4.4.4.",
"2.2.0.0.0.0.0.2.2.2.0.0.2.0.0.0.2.2.0.0.2.4.4.4.2.2.2.2.2.2.2.2.:.>.' E E E ~ ' %.*.2.2.0.0.q.z.x.x.v.v.N.N.G.G.P.P.P.P.P.P.H.H.G.G.G.G.G.G.G.G.G.C.C.C.G.G.C.C.C.C.C.C.C.C.C.C.C.C.C.C.C.C.C.v.v.v.v.v.v.v.v.v.x.x.x.x.x.x.x.x.x.x.x.x.x.x.x.x.x.x.x.x.x.z.z.z.z.z.z.z.z.z.z.z.z.z.z.q.q.q.q.q.q.q.q.q.q.q.q.q.q.q.0.0.0.0.0.0.0.0.0.0.0.0.0.0.0.0.0.0.0.0.0.0.0.0.2.2.2.2.2.2.2.2.2.2.2.2.2.2.2.2.2.2.2.2.2.2.2.2.2.2.2.2.2.2.2.2.2.2.2.2.2.2.2.2.2.2.;.;.2.2.;.;.;.;.;.;.;.;.;.;.;.;.;.;.;.;.;.;.;.;.;.;.;.;.;.;.;.;.;.;.;.;.;.;.;.;.;.;.;.;.-.-.;.;.-.-.-.-.-.-.-.-.-.-.-.-.-.-.-.-.-.-.;.;.;.;.;.;.;.-.-.-.-.-.-.-.-.-.-.-.;.;.;.;.;.;.;.;.;.;.;.;.;.;.;.;.;.;.;.;.;.;.;.;.;.;.;.;.;.;.;.;.;.;.;.;.2.2.2.2.2.2.2.2.2.2.2.2.2.2.2.2.2.2.2.2.2.2.2.2.2.2.2.2.2.2.2.2.2.2.2.2.2.2.2.2.2.0.0.0.4.4.2.4.0.4.0.0.0.0.0.0.e.e.0.0.0.0.0.0.q.q.q.q.q.q.q.q.q.q.q.q.q.q.z.z.q.z.z.z.z.z.z.z.z.z.z.z.z.x.x.x.x.x.x.x.x.x.c.c.x.x.x.x.x.c.x.x.x.x.x.x.v.v.v.v.v.v.v.v.v.v.v.v.C.C.C.C.C.C.C.C.C.C.C.C.C.C.C.G.G.G.G.H.H.H.H.H.H.H.H.H.H.H.H.H.G.G.G.C.G.C.v.x.x.x.z.q.q.0.2.2.;.*.O.' ~ E ~ { -.2.2.;.2.2.4.4.0.0.0.4.0.0.0.0.0.0.0.0.q.q.q.q.q.q.4.4.4.4.4.4.q.q.q.q.q.q.q.",
"2.2.0.0.0.2.2.2.2.0.0.0.2.2.2.2.0.0.0.0.0.0.0.0.2.2.0.0.0.2.2.2.;.:.>.O.~ E E ~ O.*.;.2.2.0.q.z.x.x.v.N.G.G.G.P.P.H.H.H.P.P.P.P.H.H.H.H.H.G.G.G.G.G.G.G.G.G.G.G.G.G.C.C.C.C.C.C.C.C.C.C.C.C.C.C.C.v.C.v.v.v.v.v.v.v.v.v.x.x.x.x.x.x.x.x.x.x.x.x.x.x.x.x.x.x.x.x.x.x.z.z.z.z.z.z.z.z.z.z.z.q.z.z.q.q.q.q.q.q.q.q.q.q.q.q.q.q.0.0.0.0.0.0.0.0.0.0.0.0.0.0.0.0.0.0.0.0.0.0.2.2.2.2.2.2.2.2.2.2.2.2.2.2.2.2.2.2.2.2.2.2.2.2.2.2.2.2.2.2.2.2.2.2.2.2.2.2.2.2.;.;.;.2.;.;.;.;.;.;.;.;.;.;.;.;.;.;.;.;.;.;.;.;.;.;.;.;.;.;.;.;.;.;.;.;.;.;.;.;.;.;.;.;.-.-.;.;.-.-.-.-.;.;.;.-.-.-.-.-.;.;.-.-.-.-.-.-.;.-.;.;.-.-.-.-.-.-.;.;.-.-.-.-.;.;.;.;.;.;.;.;.;.;.;.;.;.;.;.;.;.;.;.;.;.;.;.;.;.;.;.;.;.;.;.;.;.;.;.;.;.2.2.2.2.2.2.2.2.2.2.2.2.2.2.2.2.2.2.2.2.2.2.2.2.2.2.2.2.2.2.2.2.2.2.2.2.2.2.2.2.0.2.2.4.2.4.4.0.0.0.0.0.0.0.0.e.e.e.q.0.0.q.q.q.q.q.q.q.q.q.q.q.q.q.q.q.z.z.z.z.z.z.z.z.z.z.z.z.z.z.x.x.x.x.x.x.x.x.x.c.c.c.x.x.x.x.x.x.x.x.x.x.x.v.v.v.v.v.v.v.C.C.C.C.C.C.C.C.C.C.C.C.C.C.C.C.C.G.G.C.C.H.H.H.H.H.H.H.H.H.H.H.H.H.H.H.H.H.H.H.H.G.G.G.C.v.x.x.x.z.q.e.0.2.2.-.%.' ~ E ~ O.:.2.2.2.2.0.0.0.0.q.q.0.0.q.q.q.q.q.q.0.0.q.q.q.q.q.q.q.q.q.q.4.q.q.q.q.q.q.q.q.",
"2.2.0.0.0.2.2.2.2.0.0.0.2.2.4.2.0.0.0.0.0.0.0.0.2.2.0.0.0.0.0.0.-.2.5.:.' E E ~ O.*.;.2.2.0.q.z.x.v.N.G.G.G.H.H.H.H.H.H.H.H.P.P.H.H.H.H.H.H.G.G.H.H.G.G.G.G.G.G.G.C.G.G.C.C.C.C.C.C.C.C.C.C.C.C.v.v.C.C.C.v.v.v.v.v.v.v.v.v.x.x.x.x.v.x.x.x.x.x.x.x.x.x.x.x.x.x.x.x.z.z.z.z.z.z.z.z.z.z.z.z.z.z.q.q.q.q.q.q.q.q.q.q.q.q.q.q.q.q.0.0.0.0.0.0.0.0.0.0.0.0.0.0.0.0.0.0.0.0.2.2.2.2.0.2.2.2.2.2.2.2.2.2.2.2.2.2.2.2.2.2.2.2.2.2.2.2.2.2.2.2.2.2.2.2.2.2.2.2.;.;.;.;.;.2.;.2.;.2.;.2.;.2.;.2.;.2.;.;.;.;.;.;.;.;.;.;.;.;.;.;.;.;.;.;.;.;.;.;.;.;.;.;.-.-.;.;.-.-.-.-.-.;.;.-.-.-.;.;.;.;.-.;.-.-.-.-.-.-.-.-.-.-.-.-.-.-.;.;.-.-.-.-.;.-.;.-.;.-.;.-.;.-.;.-.;.;.;.;.;.;.;.;.;.;.;.;.;.;.;.;.;.;.;.;.;.2.;.2.;.2.2.2.2.2.2.2.2.2.2.2.2.2.2.2.2.2.2.2.2.2.2.2.2.2.2.2.2.2.2.2.2.2.2.0.2.2.2.2.2.2.2.2.4.4.4.4.0.0.0.0.0.0.0.0.e.e.e.q.q.q.q.q.q.q.q.q.q.q.q.q.q.q.q.q.q.z.z.z.z.z.z.z.x.x.x.z.z.x.x.x.x.x.x.x.x.x.x.c.x.x.x.x.x.x.x.x.v.v.x.x.v.v.v.v.v.v.v.v.v.v.v.C.C.C.C.C.C.C.C.C.C.C.C.C.C.C.C.C.Z.Z.H.H.H.H.H.H.H.H.H.H.H.H.H.H.J.J.J.H.H.H.H.G.C.C.v.x.x.x.z.q.q.r.2.;.*.O.' ~ ~ O.2.r.5.2.0.w.q.q.q.q.q.q.q.q.q.q.q.q.q.q.0.0.q.q.q.q.q.q.q.q.q.q.4.q.q.q.q.q.q.q.q.",
"2.2.2.4.4.4.4.0.4.4.4.4.0.0.0.0.0.0.0.0.0.0.0.q.0.0.0.0.0.0.0.0.2.2.2.2.5.>.~ Y ' ' %.2.0.q.z.x.v.v.N.G.H.H.J.J.J.J.!.!.!.!.H.H.(.L.L.L.L.P.L.P.H.H.G.G.G.G.G.P.H.H.H.H.H.H.C.C.G.G.G.C.C.C.G.G.G.G.G.G.N.v.v.v.v.v.v.v.v.v.v.v.v.v.v.v.v.v.x.v.v.v.x.x.x.x.x.x.z.z.x.z.z.z.z.z.z.z.z.z.z.z.w.z.q.z.q.q.q.q.q.q.q.q.q.q.q.q.q.q.q.q.0.0.0.0.0.0.0.0.0.0.0.0.0.0.0.0.0.0.0.0.0.0.0.2.2.2.2.2.2.2.0.0.0.0.0.0.0.0.0.0.0.0.0.0.2.;.2.2.2.2.;.;.;.;.2.2.2.2.;.;.;.;.;.;.;.;.;.;.;.;.;.;.;.;.;.;.;.;.;.;.;.;.;.;.;.;.;.;.;.;.;.;.;.;.;.-.-.-.-.-.-.-.-.-.-.-.-.-.1.1.-.-.-.-.-.-.-.-.-.-.-.-.-.-.-.-.>.>.>.>.>.>.>.>.:.:.:.:.>.>.>.:.-.-.-.-.-.-.-.-.-.-.-.-.-.-.-.-.;.;.;.;.;.;.;.;.;.;.;.;.;.;.;.;.2.1.2.1.2.1.2.1.2.2.2.2.2.2.2.2.2.2.2.2.2.2.2.2.2.2.2.2.2.2.2.2.2.2.2.2.4.4.4.4.2.2.2.4.4.4.4.0.0.0.0.0.0.0.0.0.0.0.0.0.0.0.q.0.q.q.q.q.q.q.q.q.q.q.q.q.z.q.q.z.z.z.z.z.z.z.z.x.x.x.x.x.x.x.x.x.x.x.v.x.v.x.v.x.v.x.v.v.v.v.N.v.v.v.v.v.v.v.v.v.v.v.v.C.C.C.C.C.C.C.C.C.C.Z.Z.Z.Z.Z.Z.Z.Z.Z.Z.Z.H.H.H.H.H.P.P.P.P.H.H.J.J.J.J.J.J.J.J.J.J.J.H.H.C.C.v.v.x.x.z.q.e.r.;.-.%.+.] ~ ;.;.2.2.0.0.0.q.q.q.q.q.q.q.q.q.q.q.q.q.q.q.q.q.q.q.q.q.q.q.q.q.q.q.q.q.q.q.q.q.q.q.q.",
"2.2.4.4.4.4.0.0.4.4.4.0.0.0.0.0.0.0.0.0.0.q.q.q.q.q.q.0.0.0.0.0.0.2.2.0.5.:.O.~ E ~ %.2.2.1.q.x.v.v.N.G.H.J.J.!.!.!.!.(.!.!.!.!.!.!.(.!.!.H.H.H.H.H.H.H.H.H.H.H.H.H.Z.Z.H.H.H.Z.C.C.G.C.C.C.C.C.C.C.G.C.C.C.v.C.C.C.v.C.v.C.v.v.v.v.v.x.v.x.x.x.x.x.x.x.x.x.x.x.x.x.x.x.x.z.z.z.z.z.z.z.z.z.z.z.z.z.q.z.q.z.q.q.q.q.q.q.q.q.q.q.q.q.q.q.0.0.q.q.0.q.0.q.0.0.0.0.0.0.0.4.0.4.2.2.2.2.2.2.2.2.2.2.2.2.2.2.2.2.2.2.2.2.2.2.2.2.2.2.2.2.2.2.2.2.2.2.2.2.2.2.2.2.2.2.2.2.2.2.2.2.2.2.2.2.2.2.2.2.2.2.;.2.;.2.;.2.;.2.;.;.;.2.;.2.;.;.2.2.2.2.2.2.2.2.-.-.;.;.;.;.2.;.;.;.-.-.;.;.-.-.-.-.-.-.-.-.-.-.>.>.>.>.>.>.>.>.:.:.:.:.>.>.>.;.;.;.-.-.-.-.-.-.2.2.2.2.2.2.2.2.;.;.;.;.;.;.;.;.;.;.;.;.;.;.;.2.2.2.2.2.2.2.2.2.2.2.2.2.2.2.2.2.2.2.2.2.2.2.2.2.2.2.2.2.0.2.2.2.2.2.2.2.0.4.2.2.2.2.0.4.0.4.0.0.0.0.0.0.0.0.0.0.q.0.q.0.0.0.q.0.q.q.q.q.q.q.q.q.q.q.q.q.q.q.w.z.z.z.z.z.z.x.x.x.x.x.x.x.c.c.x.x.x.x.x.x.x.x.x.x.x.v.v.v.v.v.v.v.v.v.v.v.v.v.v.C.C.C.C.C.C.C.C.C.C.C.C.Z.Z.Z.Z.Z.Z.Z.Z.Z.Z.Z.Z.H.J.J.J.J.J.J.H.H.J.J.J.J.!.!.!.~.~.~.~.~.!.J.H.H.Z.C.C.v.x.x.z.q.0.r.:.%.~ ~ +.-.2.2.0.0.0.q.q.q.q.q.q.q.q.q.q.q.q.q.q.q.q.q.q.q.q.q.q.q.q.q.q.q.q.q.q.q.q.q.q.q.q.q.q.",
"4.4.4.4.4.0.0.0.0.0.q.0.0.q.0.0.0.0.q.q.q.q.q.q.q.q.q.q.q.q.q.q.0.0.0.0.r.r.:.>.~ ~ ' %.2.2.q.M.m.m.N.G.H.H.H.!.(.(.(.).).^.^.!.!.E.!.!.!.!.!.!.!.!.!.!.!.!.H.H.H.E.Z.Z.Z.Z.Z.Z.Z.Z.Z.Z.Z.C.C.C.C.C.C.C.C.C.C.C.C.C.C.C.C.C.C.C.C.C.C.C.v.v.v.c.c.c.v.v.c.c.c.c.c.c.c.c.x.x.x.x.x.x.z.x.z.z.z.z.z.z.z.z.z.z.z.z.z.z.z.z.z.a.q.4.4.4.4.4.4.4.4.4.4.4.4.4.4.4.4.4.4.4.4.4.4.4.4.4.4.4.4.4.4.4.4.4.4.4.2.2.2.2.1.1.2.2.1.1.1.1.1.1.1.1.1.1.1.1.1.1.1.1.1.1.1.1.1.1.1.1.1.1.1.1.1.1.1.1.1.1.1.1.1.1.1.1.1.1.1.1.1.1.1.1.1.1.1.1.1.1.2.;.;.;.2.;.;.;.;.;.;.;.;.;.;.;.;.;.;.;.;.;.;.;.;.;.;.;.;.;.;.;.;.;.-.;.;.;.;.;.;.;.;.;.;.;.;.;.;.;.;.;.;.;.;.;.;.;.;.;.;.;.;.;.2.2.2.2.2.2.;.2.2.2.;.;.;.2.2.2.;.2.;.;.;.;.;.;.2.2.2.2.2.2.2.2.2.2.2.2.0.2.0.2.0.2.0.0.0.0.0.0.2.2.0.0.0.0.0.2.0.0.0.0.0.0.0.0.0.0.0.0.q.0.q.q.q.q.q.q.q.q.q.q.q.q.w.w.w.w.w.w.w.w.w.w.w.w.w.w.M.z.z.z.M.M.M.M.x.x.x.x.x.x.x.x.c.c.c.c.c.c.m.m.m.m.m.m.m.m.m.m.C.C.C.C.C.C.C.C.C.C.C.Z.C.Z.Z.C.G.P.P.P.P.G.P.G.P.H.H.P.P.P.P.J.!.!.!.!.!.!.!.!.!.!.!.!.!.!.^./.~.~.~.!.!.!.!.H.H.H.C.C.v.x.z.q.0.2.-.+.~ +.-.0.0.0.0.q.q.q.z.z.z.z.z.z.z.z.q.q.q.q.q.q.q.q.q.q.q.q.q.q.q.q.q.q.q.q.q.q.q.q.q.q.q.q.q.",
"4.4.4.4.0.0.0.0.0.0.q.q.q.q.0.q.q.q.q.q.q.q.q.q.q.q.q.q.q.q.q.q.q.q.q.q.w.e.r.r.2.{ Q ' ;.0.w.z.m.m.K.G.P.L.(.(._._.).).^./././.^.^.^.^.^.^.!.!.!.!.!.!.!.!.!.!.H.H.H.H.H.Z.H.H.H.H.H.H.C.G.C.C.Z.Z.Z.C.C.C.C.C.C.C.C.C.C.C.C.C.C.C.C.C.v.v.v.c.v.c.v.v.v.c.c.c.c.c.c.c.c.c.c.c.x.x.x.x.z.z.z.z.z.z.z.z.z.z.z.z.z.z.z.z.z.a.q.z.q.4.q.4.4.4.4.4.4.4.4.4.4.4.4.4.4.4.4.4.4.4.4.4.4.4.4.4.4.4.1.1.4.4.2.2.2.2.1.1.2.2.1.1.1.1.1.1.1.1.1.1.1.1.1.1.1.1.1.1.1.1.1.1.1.1.1.1.1.1.1.1.1.1.1.1.1.1.1.1.1.1.1.1.1.1.1.1.1.1.1.1.1.1.1.1.;.;.;.;.;.;.;.;.;.;.;.;.;.;.;.;.;.;.;.;.;.;.;.-.;.;.;.;.;.;.;.;.;.;.;.;.;.;.;.;.;.;.;.;.;.;.;.;.;.;.;.;.;.;.;.;.;.;.;.;.;.;.;.;.2.2.2.2.2.2.2.2.2.2.2.2.2.2.2.2.2.2.2.2.2.2.2.2.2.2.2.2.2.2.2.2.2.2.2.2.2.2.2.2.2.2.2.2.2.0.0.2.2.2.0.4.2.4.0.4.0.2.0.2.0.0.0.0.0.0.0.0.0.0.0.q.q.q.q.q.q.q.q.q.q.w.w.w.q.q.q.q.w.w.q.z.z.z.z.z.M.z.M.x.z.x.x.x.x.x.x.x.x.x.x.x.c.c.c.c.v.v.m.m.v.v.m.m.m.m.C.C.C.C.C.C.C.C.C.C.C.Z.Z.Z.Z.Z.Z.H.P.P.P.P.P.P.P.P.P.P.P.J.P.P.J.J.!.!.!.!.!.!.!.!.!.^.^.^.^./././.^././.).).!.(.!.H.Z.C.C.v.x.z.q.0.-.~ ' -.0.r.0.q.q.q.q.z.z.z.z.z.z.z.z.z.z.z.z.z.z.z.z.z.z.z.z.q.q.q.q.q.q.q.q.q.q.q.q.q.q.z.z.q.q.q.",
"0.0.0.0.0.0.0.q.0.q.0.0.q.q.q.q.q.q.q.q.q.q.q.q.q.q.q.z.z.w.z.z.z.z.z.w.w.w.w.q.e.2.' ' O.-.0.M.v.v.G.H.J.!.).).).).).`.'.'.'./././.^.^.^.^.~.~.~.!.~.~.~.!.~.J.H.H.H.P.P.P.L.L.L.L.P.P.P.P.P.P.K.G.G.G.G.G.G.G.C.C.C.C.C.C.C.C.v.v.N.v.N.v.m.v.v.v.m.m.v.v.v.v.x.x.M.x.M.x.M.x.x.x.z.x.M.x.M.M.M.e.e.M.e.e.e.e.e.e.e.e.e.e.e.e.e.e.e.r.e.r.r.r.r.r.e.e.r.r.r.r.r.r.r.r.r.r.r.r.r.r.5.r.5.5.5.5.r.r.r.r.r.r.5.5.r.r.5.5.2.5.5.2.2.2.2.2.2.2.2.2.2.2.2.2.2.2.2.2.:.:.:.:.:.:.:.:.:.:.:.:.:.:.:.:.:.:.:.:.:.:.:.:.:.:.:.:.:.:.:.:.:.:.:.:.:.:.:.:.:.:.:.:.:.:.:.:.:.1.=.=.=.=.=.=.=.=.=.=.=.=.=.-.-.-.;.-.-.1.2.1.2.1.;.1.;.1.2.1.1.1.=.1.1.1.1.1.=.1.=.1.=.1.=.1.1.1.1.1.1.1.1.1.1.1.1.1.1.1.1.1.1.1.2.1.2.1.2.1.2.2.2.2.2.2.2.2.2.2.2.2.2.2.2.2.2.2.2.4.2.2.5.5.5.2.2.2.4.4.4.4.5.4.4.4.4.4.4.5.4.4.4.4.4.4.4.4.4.4.4.4.4.4.4.z.a.a.z.z.a.z.z.z.z.z.z.z.z.z.z.z.z.z.x.c.x.x.c.c.c.c.c.c.c.c.x.v.x.x.v.v.v.v.v.v.v.v.v.v.N.N.G.G.G.G.G.G.G.G.G.G.G.G.G.H.H.H.H.H.P.P.H.H.J.J.J.J.J.J.J.J.J.J.J.~.!.!.!.!.!.^.^.^.^././././.`.`.`./././.^.).^.(.(.Z.Z.C.C.m.x.z.0.*.O.' *.0.e.e.0.q.q.z.z.z.z.x.z.x.x.x.x.x.z.z.z.z.z.z.z.z.z.z.z.z.z.q.q.q.q.q.q.q.q.q.q.z.z.z.z.q.z.z.",
"0.0.0.0.0.0.0.q.q.q.q.q.q.q.q.q.q.q.q.q.q.q.w.w.z.z.z.z.z.z.z.z.x.x.x.z.z.z.w.w.w.q.0.*.) ~ ;.M.x.v.P.J.~.~./.`.`.`.`.`.].'.'.'.'././././././././.~._.~.~.~.~.~.J.J.J.J.L.P.P.P.P.P.P.P.P.P.P.P.G.G.P.G.P.P.G.G.G.G.G.G.G.G.G.G.N.N.N.N.N.N.N.N.N.B.B.B.v.v.v.v.v.v.v.v.v.v.x.M.x.x.x.x.x.z.z.M.M.e.M.M.w.w.e.e.e.e.e.e.e.e.e.e.e.e.e.e.e.e.e.e.e.r.e.e.e.r.r.r.r.r.r.r.r.r.r.r.r.r.r.r.r.0.0.0.r.r.r.r.r.r.0.0.0.0.0.0.0.0.0.0.0.0.0.0.0.0.0.0.2.2.2.2.2.2.2.0.;.:.:.:.:.:.;.;.:.:.:.:.:.:.:.:.:.:.:.:.:.:.:.:.:.:.:.:.:.:.:.:.:.5.:.:.:.:.:.:.:.:.:.=.:.:.:.:.:.1.:.-.;.-.-.-.;.-.;.=.-.-.-.-.;.;.;.;.-.1.2.2.2.2.;.;.;.;.2.2.:.1.:.=.2.1.:.1.5.1.2.1.2.1.2.1.1.1.1.1.1.1.1.1.1.1.1.1.1.1.1.1.2.2.2.2.2.2.2.1.2.2.2.2.2.2.2.2.2.2.2.1.2.2.2.2.5.2.5.5.5.2.4.4.5.2.1.4.4.4.4.4.4.4.4.4.4.4.4.4.4.4.4.4.4.4.4.4.4.4.4.z.a.a.a.z.a.a.z.z.z.z.z.z.c.c.z.c.c.c.c.c.c.c.c.c.c.c.x.x.v.v.c.c.v.v.v.v.v.v.v.v.N.v.N.v.N.v.G.G.G.G.G.G.G.G.G.G.G.P.P.P.P.H.H.H.H.H.H.H.H.H.H.H.J.J.J.J.~.!.!.~.~.~.~.!.!.!.!.^.^.^.^././././.`.`.`.`.`.'.'.`.`./.^.).(.!.Z.C.C.m.x.4.2.) O.2.0.0.e.e.M.z.z.z.x.x.x.x.x.x.x.x.x.x.x.z.z.z.z.z.z.z.z.z.z.z.z.z.z.q.q.z.z.q.q.q.q.z.z.z.z.q.q.z.",
"0.0.0.0.0.0.q.0.q.q.q.q.q.q.q.q.q.q.q.z.w.z.z.z.z.z.z.z.z.x.x.x.x.x.x.x.x.x.z.z.z.z.w.0.*.' *.0.z.N.H.~.~./.'.].].].].].].].].].'.'.'.'.'.'.'.'././././././.~.~.~.~.~.~.~.~.~.~.J.J.J.J.J.J.J.J.J.J.H.H.H.H.P.P.P.P.P.P.G.G.G.G.G.G.G.G.N.N.N.N.N.N.N.N.N.N.N.N.v.v.v.v.v.v.v.v.x.x.x.x.x.x.x.x.x.x.x.x.x.x.z.z.x.x.z.z.w.w.w.w.w.w.w.w.w.w.w.w.q.q.q.q.q.q.q.q.q.q.q.q.0.0.q.q.0.0.0.0.0.0.0.0.0.0.0.0.0.0.0.0.0.0.0.0.0.0.0.0.0.0.0.0.0.0.0.0.0.0.0.0.0.0.2.0.0.;.;.;.9.9.9.9.9.;.;.;.;.;.0.0.9.;.;.;.9.9.;.;.;.;.;.;.;.;.;.;.;.;.;.;.;.;.9.;.;.;.;.;.;.;.;.;.;.;.;.;.9.;.;.;.9.;.9.;.;.;.;.;.;.9.;.;.;.;.9.9.;.;.;.;.9.9.9.;.9.;.9.;.;.;.;.;.9.;.9.;.9.;.9.2.;.2.2.2.2.2.2.2.2.2.2.2.2.2.2.2.0.0.0.0.9.0.9.2.9.0.0.0.0.0.0.0.0.0.0.0.0.0.0.0.0.0.0.0.0.0.0.0.0.0.0.0.0.0.q.q.q.q.q.q.q.q.q.0.q.q.q.q.q.q.q.q.q.q.q.q.q.q.q.q.z.z.z.z.z.z.z.z.x.x.x.x.x.x.x.x.x.x.x.x.x.x.x.x.v.v.v.v.v.v.N.v.v.v.v.v.v.v.N.G.G.C.G.G.G.G.G.G.G.G.G.G.G.P.G.G.G.P.P.P.P.H.P.H.H.E.E.E.!.!.!.!.!.!.^.^.^.^.^.^.)._.)._.).).[.[.`.`.`.[.`.'.`.].].].].'.'.`./.).(.L.S.m.m.z.1.=.%.2.e.M.b.z.M.x.x.x.x.x.x.x.x.x.x.x.x.x.x.x.x.x.z.z.z.z.z.z.z.z.z.z.z.z.q.z.z.z.q.q.q.q.z.z.z.z.q.q.q.",
"0.0.0.0.q.q.q.q.q.q.q.q.q.q.q.q.q.z.z.z.z.z.z.z.z.z.z.z.x.x.x.x.x.x.v.v.x.x.x.x.v.x.z.z.q.2.*.%.w.N.P.~.~./.'.].].].].].].].].].].].].].].`.`.`.`.`.`.`.`./.^.^././././.~.~.!.!.!.!.!.!.~.J.J.J.J.J.J.H.H.H.H.H.H.G.G.G.G.G.C.G.G.G.G.G.G.C.G.C.v.C.N.C.v.v.v.v.v.v.v.v.x.v.v.v.x.c.x.c.x.c.x.x.x.x.x.x.x.x.x.x.z.z.z.z.z.z.z.z.z.z.z.z.q.q.q.q.q.q.q.q.q.q.q.q.0.0.0.0.0.0.0.0.0.0.0.0.0.0.0.0.0.0.0.0.0.0.0.0.0.2.2.2.2.2.2.2.2.2.2.2.2.2.2.2.2.2.2.2.2.2.2.2.2.2.2.2.2.2.2.2.2.2.2.2.2.2.2.2.2.2.2.2.2.2.2.2.;.;.;.2.2.2.2.;.9.9.;.;.;.;.9.9.;.;.;.9.9.;.;.;.;.;.;.;.;.;.;.;.9.9.9.;.;.;.;.;.;.;.9.;.9.;.9.9.9.;.9.;.9.9.9.9.9.9.9.;.9.;.9.;.9.9.9.9.9.9.9.9.9.;.0.2.0.;.9.;.0.2.0.;.9.9.0.0.0.0.9.0.9.0.9.0.9.0.0.0.0.0.0.0.0.0.0.0.0.0.0.0.0.0.0.0.0.0.0.0.0.q.0.0.0.q.q.q.q.q.q.q.q.q.q.q.q.q.q.q.q.q.w.w.w.w.w.w.w.w.w.q.z.z.z.z.z.z.z.z.x.x.x.x.x.x.x.x.x.x.x.x.x.x.v.v.v.v.v.v.v.N.N.v.v.v.v.v.C.C.C.C.C.C.C.C.C.C.C.C.C.G.C.G.G.H.H.H.H.H.H.H.H.H.H.H.!.E.E.E.(.!.!.!.).).^.^.^.^.^.^.).).).[.[.[.[.[.`.`.`.`.`.].].].].].].].].'././.~.L.K.m.M.w.;.{ 0.4.q.x.m.m.m.x.v.v.v.v.v.v.v.v.x.x.x.x.x.x.x.x.z.z.z.z.z.z.z.z.z.z.z.z.z.z.z.z.z.z.q.q.z.z.z.z.q.q.q.",
"q.q.q.q.q.q.q.q.q.q.q.q.q.z.q.q.z.z.z.z.z.z.z.z.x.x.x.x.x.v.v.v.v.v.v.v.v.v.v.N.v.v.v.v.M.z.2.;.*.M.T.L.~.'.].,X].,X,X,X,X].].].].,X,X[.[.[.[.[.[.[.[.[.`.`.`.`.^.^./.^.^.^.^.^.!.E.E.E.E.E.E.E.H.H.H.H.H.H.Z.Z.Z.Z.Z.Z.Z.C.C.C.H.H.G.C.C.C.C.C.C.C.C.C.C.C.C.C.C.C.C.v.v.c.c.c.c.c.c.c.c.c.c.c.x.x.x.x.x.x.x.x.x.x.x.z.z.z.z.z.z.z.z.z.z.z.z.z.z.q.z.4.4.4.4.4.q.q.q.q.4.4.4.4.4.4.4.4.4.4.4.4.4.4.4.4.4.4.4.4.1.1.1.4.4.1.4.1.1.1.1.1.1.1.1.1.1.1.1.1.1.1.1.1.1.1.1.1.1.1.1.1.1.1.1.1.1.1.1.1.1.1.1.1.1.1.1.1.2.2.2.2.2.2.2.2.2.2.2.2.2.2.2.2.2.2.2.2.;.;.;.2.2.;.;.;.;.;.;.;.2.2.2.2.2.2.2.2.:.:.;.:.;.:.;.:.;.:.;.:.;.:.;.:.;.;.;.;.;.;.;.;.;.2.;.2.;.;.;.;.2.2.0.2.9.2.9.2.0.2.0.2.9.;.9.2.0.2.2.2.2.2.0.2.0.2.0.2.0.2.2.2.0.2.2.0.0.0.0.0.0.0.0.0.0.0.0.0.0.0.0.q.0.q.0.q.0.0.0.q.0.q.q.q.q.q.q.q.q.q.q.q.q.q.q.q.q.z.z.z.z.z.M.x.M.x.x.M.x.x.x.x.x.x.m.m.x.x.x.x.x.c.c.c.m.m.m.m.m.m.m.m.A.V.V.V.V.V.V.F.F.F.F.S.S.S.S.V.Z.Z.Z.Z.Z.Z.Z.Z.E.E.W.E.E.E.E.E.(.(.(.(.(.).).).).).).).).).).)./.`.'.].`.].].].].].].].].,X,X,X,X,X,X,X].].].].'.H.G.K.w.%.*.q.x.x.x.x.x.x.v.v.v.v.v.v.v.v.v.v.x.x.x.x.x.x.x.x.x.x.x.x.x.x.z.z.z.z.z.z.q.q.z.z.z.z.q.q.z.z.z.z.q.q.q.",
"q.q.q.q.q.q.q.q.q.q.q.q.z.z.q.z.z.z.z.z.z.z.z.x.x.x.x.x.x.v.v.v.v.v.v.v.v.v.N.G.G.G.G.G.N.v.x.q.;.5.x.L._.].].,X<X2X<X2X<X<X<X1X<X1X1X1X1X1X1X1X].[.].[.[.[.`.[.`.`.`.`././.^.^././././.^.^.^.^.!.!.!.!.!.!.J.H.H.H.H.H.Z.Z.Z.Z.C.C.C.C.C.C.C.C.C.C.C.C.C.v.v.v.C.C.v.v.v.c.c.c.c.c.c.c.c.c.c.c.x.c.c.c.c.x.z.z.x.x.z.z.z.z.z.z.a.a.a.a.z.z.z.z.z.z.z.z.a.a.a.a.z.z.z.z.4.4.4.4.4.4.4.4.4.4.4.4.4.4.q.q.q.q.q.q.4.4.4.4.4.4.4.4.4.4.4.4.4.4.4.4.4.4.4.4.4.4.4.4.1.1.1.1.4.4.1.1.1.1.1.1.1.1.1.1.1.1.1.1.1.1.1.1.1.1.1.1.1.1.1.1.2.2.2.1.2.2.2.1.1.1.1.1.1.1.1.1.1.1.1.1.1.1.1.1.1.1.1.1.1.1.1.1.;.;.;.;.-.;.-.-.;.:.;.:.:.;.:.;.5.2.2.2.5.2.5.2.2.2.2.2.2.2.2.2.2.2.0.2.0.2.0.2.0.2.0.2.0.2.0.2.2.2.2.2.1.1.2.2.2.2.2.2.2.2.2.2.1.1.1.1.2.1.4.4.4.4.4.4.4.4.4.4.4.4.4.4.4.4.4.4.4.4.q.4.q.q.q.q.b.e.e.e.b.b.b.b.z.z.z.z.z.z.z.z.z.z.z.z.z.z.z.z.x.x.x.x.x.x.x.c.m.m.m.m.m.m.S.S.m.m.m.m.V.V.V.V.S.F.V.F.S.S.S.S.C.F.Z.F.Z.Z.Z.Z.Z.Z.Z.Z.Z.Z.Z.Z.!.E.!.!.!.!.!.!.(.(.(.).).).)./.).^.^.^.^.^.`.`.'.'.].].'.].].].].].].,X,X,X,X,X<X1X1X,X,X].].'.~.~.P.z.2.;.q.M.x.v.v.v.v.v.C.C.C.v.v.C.v.v.v.v.x.x.x.x.x.c.x.x.x.x.x.x.x.x.x.z.z.z.z.z.z.q.q.z.z.z.z.z.z.z.q.q.q.q.q.",
"q.q.q.q.q.q.q.q.q.q.q.q.q.z.z.z.z.z.z.z.z.x.x.x.x.x.x.v.v.v.v.N.v.v.v.C.G.G.G.G.G.G.G.P.P.G.G.K.M.2.4.Z.[.1X<X2X2X2X<X2X<X<X<X<X<X<X<X,X,X,X,X,X].].].].].`.`.'.'.'.'.'././././.!.!.!.!.!.!.!.!.H.H.H.H.H.H.H.H.P.P.P.P.H.H.G.P.G.G.G.P.G.G.G.G.G.G.G.G.G.N.N.N.C.C.v.v.v.v.v.m.v.v.v.v.v.x.v.v.x.v.v.x.x.x.x.x.x.x.x.x.x.z.z.z.z.z.z.z.z.z.z.z.q.z.z.q.z.q.q.q.q.q.q.q.q.0.0.0.q.q.0.0.0.0.0.0.2.2.2.2.2.2.2.2.2.2.2.2.2.2.2.2.0.0.0.0.0.0.5.2.2.2.2.2.2.2.2.2.2.2.2.2.2.2.2.2.2.2.2.2.0.0.0.0.2.2.2.2.2.2.2.2.2.2.2.2.2.2.2.2.1.1.1.1.1.1.1.1.1.1.1.1.1.1.1.1.1.1.1.1.2.1.1.1.1.1.1.1.1.1.1.1.1.1.1.1.1.1.1.1.1.1.1.1.1.1.1.1.1.1.1.1.1.1.2.1.1.1.1.1.1.1.1.1.2.2.2.2.2.2.;.2.2.2.2.2.2.2.2.2.4.4.4.4.4.4.4.4.4.4.4.4.4.4.4.4.4.4.4.4.4.q.q.q.q.4.q.4.q.4.q.4.4.4.4.a.q.4.q.a.z.a.z.z.q.z.q.z.b.b.b.b.b.b.z.z.z.z.z.z.z.z.z.z.x.x.x.x.c.c.x.x.x.v.v.v.v.v.v.v.c.c.c.c.c.c.c.c.v.c.V.C.C.C.C.C.C.C.C.C.G.G.G.G.G.G.G.G.P.G.H.H.H.H.J.J.J.~.~.~.~.~.~.~.~.~.~.~././././././.'.'.'.'.'.].].].].].].].].,X,X,X,X,X,X<X<X<X<X<X<X2X2X2X2X<X<X1X,X]./.!.v.4.1.q.B.K.C.C.C.C.C.C.G.G.C.C.C.C.C.C.v.v.v.v.v.x.x.c.c.c.c.x.x.c.x.x.x.x.z.z.z.z.z.z.z.z.z.z.z.z.z.z.z.z.z.z.z.",
"q.q.q.q.q.q.q.q.q.q.q.q.z.z.z.z.z.z.z.z.x.x.x.x.x.v.v.v.v.N.N.v.N.G.G.G.G.G.G.G.H.H.H.H.J.H.H.L.P.v.a.h.^.1X2X4X2X2X2X2X2X2X2X2X2X2X<X<X<X<X<X<X,X,X,X,X,X,X].].].].].].].'.'.`.'.'./././././.~.~._._._.~.~._._.H.H.H.P.P.P.P.H.P.P.P.P.P.P.G.G.G.G.G.G.G.C.G.C.C.C.S.S.S.V.v.V.m.m.m.m.m.m.m.m.x.x.x.c.x.c.x.c.x.c.x.z.x.x.x.z.x.z.x.z.x.z.z.z.z.z.z.z.z.a.z.q.z.z.q.q.q.q.4.4.q.4.q.4.4.4.4.4.e.e.z.z.z.z.z.z.e.q.e.e.q.q.q.e.1.2.5.5.4.2.5.2.e.e.e.e.e.e.e.e.0.e.0.e.0.e.0.e.1.1.1.1.2.4.2.4.2.1.2.1.2.4.2.4.1.1.1.1.1.1.1.1.1.3.1.3.1.1.1.1.1.3.1.1.1.1.1.1.6.6.1.1.1.1.1.1.1.1.1.1.1.1.1.1.1.1.1.1.1.1.1.1.4.3.4.3.4.3.4.4.4.4.4.4.4.4.4.4.4.4.4.4.5.4.5.4.4.0.0.0.0.0.0.0.0.0.0.0.0.0.0.4.1.1.3.1.1.3.1.4.4.4.4.4.4.4.4.4.4.4.4.4.4.4.4.4.4.4.4.4.4.4.4.4.q.4.4.a.4.a.a.a.z.z.z.z.z.z.z.z.z.z.z.z.z.z.z.z.z.z.z.x.z.x.z.z.x.x.x.x.x.x.x.x.x.x.x.x.x.x.x.x.v.C.C.C.C.C.C.C.C.C.C.C.C.C.C.C.G.G.P.P.P.H.H.H.P.H.H.H.J.J.J.J.P.J.J.J.J.J.J.J.J.J.J.~.~.~.~.~.~.^././././.'.'.'.'.].].].].].].].].,X,X,X,X,X<X<X<X<X<X<X<X<X2X2X2X2X1X2X3X1X].'.V.p.z.N.N.G.P.H.H.H.H.H.H.H.H.G.G.G.G.C.C.C.v.v.v.v.v.x.x.x.c.c.c.c.c.x.x.x.x.z.z.z.z.z.z.z.z.z.z.z.z.z.z.z.z.z.z.z.",
"q.q.q.q.q.q.q.q.q.q.q.z.z.z.z.z.x.x.x.x.x.x.x.x.x.v.v.v.v.v.v.v.G.G.G.G.G.H.H.H.H.H.H.H.!.!.!./.~.~.E.h.>X1X4X7XqXqXqXwXwXwXwX4X2X2X2X<X<X<X<X<X,X,X,X,X,X].].].`.`.`.`.`.`.^.^.^.^.^.^.^.^.^.E.E.E.E.E.E.E.E.E.Z.Z.Z.Z.Z.Z.Z.Z.Z.Z.Z.Z.V.V.V.V.V.V.V.V.V.V.V.V.V.V.A.A.A.A.A.h.A.h.h.h.s.s.s.s.s.s.s.s.s.s.s.s.s.s.s.s.s.s.s.s.s.s.s.s.s.s.f.f.d.s.s.s.d.d.d.d.d.d.d.d.d.d.d.d.d.d.d.d.d.d.d.d.3.3.3.3.p.p.p.p.3.3.3.3.3.3.3.3.g.g.g.g.d.g.p.p.3.<.3.<.3.<.3.3.<.<.<.<.<.<.3.<.3.3.3.3.3.3.3.3.3.3.3.3.3.3.3.3.3.3.3.3.3.3.3.3.3.3.1.1.1.1.1.3.1.3.1.1.1.1.1.1.1.1.1.1.1.1.1.1.1.1.1.1.1.1.1.1.1.1.1.1.1.1.1.1.1.1.1.1.1.1.1.1.1.1.1.1.1.1.1.1.1.1.1.1.1.1.1.1.1.1.1.1.1.1.1.1.1.1.1.1.1.1.1.1.4.4.4.4.4.4.4.4.4.4.4.4.4.4.4.4.4.4.4.4.4.4.4.4.q.q.q.q.q.q.q.q.z.z.z.z.z.z.z.z.x.x.x.x.x.z.z.z.x.z.x.x.x.x.x.x.x.x.x.x.x.x.x.x.v.v.M.v.v.v.v.v.N.N.N.N.N.N.N.N.v.x.v.v.v.v.N.v.G.G.G.G.G.G.N.G.C.C.C.C.G.G.H.H.H.H.J.J.J.J.J.J.J.J.J.J.J.~.~.~._.~.~._./._._./.'.`.'.`.'.].].].].].].].].,X,X,X,X1X1X1X<X<X2X2X2X2X2X2X4X4X4X4X7XwX7X7X7X7X3X[.E.h.s.Z._.~.H.J.J.H.H.H.H.H.H.H.G.G.G.C.C.C.C.C.C.C.v.v.v.x.v.c.c.c.c.c.c.c.x.x.z.z.z.z.z.z.z.z.z.z.z.z.z.z.z.z.z.z.z.",
"q.q.q.q.q.q.q.q.q.z.z.z.z.z.z.z.x.x.x.x.x.x.x.x.v.v.v.v.v.v.v.N.G.G.G.G.H.H.P.H.H.!.!.!.^.^./.'.'.].].Q..X0XgXgXfXlXfXfXgXgXqXqX9X9X9X7X7X7X7X7X7X7X7X7X7X6X6X7X6X6X6X6X6X0X0X0X0X0X0X0X0X:X:X:X0X0X:X:X:X:X0X0X0X0X0X0X0X8X0X8X;X;X8X8X0X0X;X;X;X;X;X;X;X;X;X;X;X;XrXrXrXrXrXrXrXrXrXrXrXrXrXrXrXrXrXrXrXrXrXrXrXrXrXrXrXrXrXrXtXrXrXrXtXtXtXtXtXtXtXtXtXtXtXtXtXtXtXtXtXtXtXtXtXtXtXtXtXtXtXtXaXaXaXaXaXaXaXaXaXaXaXaXaXaXaXaXtXtXtXtXtXtXtXtXtXaXtXtXtXaXtXtXtXtXtXtXtXtXtXtXtXtXtXtXtXtXtXtXtXtXtXtXtXtXtXtXtXtXtXtXtXtXtXtXtXtXtXtXtXtXtXtXtXtXtXtXtXtXtXtXtXrXrXrXrXyXyXyXyXyXyXyXyXyXyXyXyXyXyXyXyXyXyXyXyXyXyXyXyXyXyXyX*X*X*X*X*X*X*XuX*X*X*X*X*X*X*X*X*X*X*X*X*X*X*X*X*X*X*X*X*X*X*X*XOXOXOXOXOXOXOXOXXXXXXXXXXXXXXXXXOXOXOXOXOXOXOXOXOXXXOXXXOXXXOXXXXXk.k.k.k.k.k.k.k.k.k.k.k.k.k.k.k.j.j.j.j.j.j.j.j.j.j.j.j.f.f.f.j.j.j.j.j.j.j.j.j.j.f.f.f.f.j.f.n.A.A.A.A.A.A.A.Y.Y.A.A.A.A.A.A.A.A.A.A.F.F.F.F.F.F.F.F.F.F.F.F.W.W.W.W.W.W.W.W.W.).).).).).).)..X.X.X.X.X.X[.[.[.[.[.[.1X1X1X1X3X3X3X3X3X3X4X4X4X4X4X7X7X7XqXqXqXqXqXqXqXqX7X[.h.E.^././././.~.!.!.!.!.H.H.H.H.H.H.G.G.C.C.C.C.C.C.v.v.v.v.v.v.c.c.c.c.c.c.x.x.z.z.z.z.z.z.z.z.z.z.z.z.z.z.z.z.z.z.z.",
"q.q.q.q.q.q.q.q.z.z.z.z.z.z.z.x.x.x.x.x.x.x.x.x.v.v.v.v.v.N.N.N.G.G.G.P.G.H.H.H.!.(.)././.'.].].].<X2X3X9XfXbXCXSXGXDXDXZXCXNXBXBXBXBXBXMXMXMXMXBXMXMXMXMXbXMXMXMXMXMXMXMXMXMXMXNXNXNXNXCXCXCXNXCXCXCXCXCXCXCXCXCXCXCXCXCXCXCXCXCXCXCXCXCXCXZXZXZXZXZXZXZXZXZXZXSXSXSXSXSXSXSXSXSXSXDXDXDXDXDXDXDXDXDXDXGXGXGXGXGXGXGXGXGXGXGXGXGXGXGXGXGXGXGXGXGXGXGXGXHXHXHXHXHXHXHXHXHXHXHXHXHXHXHXHXHXHXHXHXHXHXHXHXHXHXHXHXHXHXHXHXHXHXHXHXHXHXHXHXHXHXHXHXHXHXHXHXHXHXHXHXHXHXHXHXHXHXHXHXLXLXLXLXLXLXLXLXHXHXHXHXHXHXHXHXHXHXHXHXHXHXHXHXLXLXLXLXLXLXLXLXLXLXHXHXHXHXHXHXHXHXHXHXHXHXHXHXGXGXGXGXHXHXHXHXHXHXHXHXHXHXHXHXJXJXJXJXJXJXJXJXGXGXGXGXGXGXGXGXDXGXGXGXDXDXDXGXDXDXDXDXDXDXDXDXDXDXDXDXDXDXDXDXDXSXFXFXFXFXFXFXFXFXFXFXFXFXFXFXFXFXKXKXKXKXVXVXVXVXVXVXVXVXVXVXVXVXVXVXVXVXVXVXVXVXVXVXVXVXVXVXmXmXmXmXmXmXmXmXmXvXvXvXjXjXjXjXjXjXjXjXhXhXhXhXkXkXkXkXkXkXkXkXaXaXaXaXaXaXaXaXdXaXaXdXdXdXdXdXdXdXdXdXdXdXdXdXdXdXdXdXdXdXdX0X0X0X0X0X0X0X-X0X0X0X0X0X0X0X0X0X0X0X-X0X0X0X0X0X0X0X0X0X0X0X0X0X6X7X7X6X0X0X7X7X7X7X9X9X9X9XpXgXgXgXgXgXgXqX7X.XQ.[.3X].'.].'./././.!.!.!.!.H.H.H.H.H.G.C.C.C.C.C.C.C.C.v.v.v.v.x.x.x.c.c.c.c.x.z.z.z.z.z.z.z.z.z.z.z.z.z.z.z.z.z.z.q.",
"q.q.q.q.q.q.q.q.z.z.z.z.z.z.x.x.x.x.x.x.x.x.x.x.v.v.v.v.v.G.N.G.G.G.G.G.H.P.H.H.!.!.^./.'.'.].,X,X<X<X4XpXbXDXLXIXIXPXLXHXGXDXDXSXSXSXSXSXSXSXSXSXSXSXZXZXZXZXZXZXZXZXZXZXSXSXSXSXSXSXSXSXSXSXSXZXZXZXZXZXZXZXZXSXSXSXSXSXSXSXSXSXSXSXSXSXSXSXSXSXSXSXSXSXSXDXDXDXDXDXDXDXDXDXDXGXGXGXGXGXGXGXGXGXGXGXGXGXGXGXHXGXGXGXGXHXHXHXHXGXGXGXGXGXGXGXGXGXGXGXGXGXHXHXHXHXHXHXHXHXHXHXHXHXHXHXHXHXHXHXHXHXLXLXLXLXLXLXLXHXLXHXHXHXHXHXHXHXHXHXGXGXHXGXGXGXGXGXGXGXGXGXHXHXHXLXHXLXHXHXHXHXHXHXHXHXHXHXHXLXHXHXHXHXHXHXHXHXHXHXHXHXHXHXHXLXLXLXLXLXLXLXLXLXLXLXLXLXLXLXHXHXHXHXHXHXHXHXHXLXLXLXLXLXLXLXLXLXLXPXLXPXLXLXLXPXPXPXPXPXPXPXPXLXHXHXHXHXHXHXHXHXHXHXHXHXHXHXHXLXLXLXLXLXLXLXLXLXLXLXLXLXLXLXHXLXHXHXHXHXHXHXHXHXHXHXHXHXHXHXHXLXLXHXLXHXHXHXHXLXLXLXLXLXLXLXLXHXHXHXHXHXHXHXHXHXHXHXHXHXHXHXHXHXGXGXGXGXGXGXGXGXGXGXGXGXGXDXDXDXDXDXDXDXDXDXDXDXDXDXDXDXDXSXSXSXSXSXSXSXSXSXSXSXSXSXSXSXSXSXSXSXSXZXZXZXZXZXCXZXCXCXCXCXCXCXNXNXBXBXBXBXBXBXBXBXBXBXBXBXBXBXBXBXMXMXMXMXMXMXMXMXMXbXbXbXbXbXbXbXzXzXzXzXzXzXzXzXzXzXbXbXbXcXbXbXbXbXBXNXBXfX9X9X3X1X1X,X].'.]././.^.!.!.!.!.H.H.H.H.H.G.G.G.C.C.C.C.C.v.v.v.v.x.x.x.c.c.c.x.x.x.z.z.z.z.z.z.z.z.z.z.z.z.z.z.z.z.q.q.",
"q.q.q.q.q.q.q.z.z.z.z.z.z.z.z.x.x.x.x.x.x.v.v.v.v.v.v.v.v.C.G.C.G.G.G.H.H.J.H.!.!.^././.'.'.].,X<X<X2X4XqXcXLXUXIXIXHXDXDXGXDXFXZXZXCXCXCXCXCXNXNXNXNXNXNXNXBXNXCXCXCXCXCXCXCXCXCXCXCXCXCXCXZXCXNXNXNXNXNXNXNXNXNXNXNXNXNXNXNXNXNXNXNXNXNXNXCXCXCXCXCXCXCXCXCXCXCXCXCXCXCXCXCXCXCXCXCXCXCXCXCXCXCXCXCXCXCXCXCXCXCXCXCXCXCXCXCXCXNXNXNXNXNXNXNXNXNXNXNXNXNXCXCXCXCXNXNXNXNXNXNXNXCXCXCXCXCXCXCXCXCXCXCXCXCXCXCXCXCXCXCXCXCXCXCXCXCXCXCXCXCXCXCXCXCXCXCXCXCXCXCXCXCXCXZXCXZXCXZXCXZXCXZXCXZXCXZXCXCXCXZXCXZXCXZXZXZXZXZXZXZXCXZXZXZXZXZXZXZXZXZXZXZXZXZXZXZXZXZXZXSXSXSXSXSXSXSXSXSXSXSXSXSXSXSXSXDXDXDXDXDXDXDXSXDXSXDXSXDXDXDXDXDXDXDXDXDXDXDXDXDXDXDXDXDXDXDXGXGXGXGXDXGXGXGXGXGXGXGXGXGXGXGXGXGXGXGXGXGXGXGXGXGXGXGXGXGXGXGXGXGXGXGXGXHXHXHXHXGXGXGXGXGXHXHXHXHXHXHXHXHXHXHXHXHXHXHXHXHXHXHXHXGXGXGXGXGXGXGXGXGXGXGXGXGXGXGXGXGXGXGXGXGXGXGXGXGXGXGXGXGXHXHXHXHXHXGXHXHXHXGXGXGXGXGXGXGXGXGXGXGXGXGXGXGXGXHXHXGXGXGXGXGXGXDXDXDXDXDXDXDXDXDXDXGXGXGXDXGXGXGXGXHXLXLXLXLXLXLXHXHXHXHXHXHXHXGXGXGXGXGXDXDXDXDXDXDXGXGXGXGXHXHXGXDXGXLXIXUXIXCXgXqX4X2X<X,X].].].'.'./.^.^.!.!.!.!.H.H.H.H.C.C.C.C.C.C.C.C.v.v.v.v.v.v.x.x.x.x.x.x.x.x.x.x.z.z.z.z.z.z.z.z.z.z.z.q.q.z.",
"q.q.q.q.q.q.q.q.z.z.z.z.z.z.z.x.x.x.x.x.x.v.v.v.v.v.v.v.C.C.C.C.G.G.H.H.H.H.J.!.~.^./.'.'.].].,X<X<X2X4XqXcXLXUXIXJXBXbXcXcXcXMXxXzXlXlXlXfXfXfXfXfXfXfXfXfXfXfXfXfXfXfXfXfXsXsXsXsXsXsXsXsXsXsXsXsXsXsXsXsXsXsXsXsXsXsXsXsXsXsXsXsXsXsXsXsXsXsXsXsXsXsXsXsXsXsXsXsXsXsXaXaXaXaXaXaXaXaXaXaXaXaXaXaXiXiXaXaXaXaXdXdXiXiXiXdXdXdXdXdXdXdXdXiXdXdXiXiXiXiXaXaXaXaXaXiXiXiXiXiXiXiXaXaXaXaXaXaXaXiXaXaXaXaXaXaXaXaXaXaXaXaXaXaXaXaXdXdXdXdXrXrXeXeXeXeXeXeXeXeXeXeXeXeXeXeXeXeXeXeXeXeXdXdXeXeXeXeXdXdXdXdXdXdXdXdXaXdXaXdXdXdXdXdXaXaXaXaXaXaXaXaXaXaXaXaXaXaXaXaXaXaXaXaXaXaXkXkXhXhXhXhXhXhXhXhXhXhXhXjXjXvXvXvXhXjXvXvXvXvXvXvXvXvXvXvXjXjXjXjXvXvXvXvXcXcXcXmXmXmXmXmXmXmXmXmXmXmXmXmXmXmXmXmXmXmXmXmXmXmXmXmXmXmXmXmXmXmXmXmXmXmXVXVXVXVXVXVXVXAXVXAXAXAXAXAXAXZXZXZXZXFXFXFXZXZXZXFXFXFXFXFXFXFXFXFXSXSXSXSXZXZXZXZXZXZXZXSXSXSXSXSXSXSXSXSXSXDXDXDXDXDXDXDXDXDXDXDXDXDXDXDXSXSXSXSXSXSXSXSXSXDXDXDXDXDXDXDXSXSXSXSXSXSXSXSXSXSXSXSXSXSXDXDXDXDXDXDXDXDXDXGXGXGXGXGXGXGXGXGXGXDXDXDXDXDXDXDXGXGXGXGXGXGXGXGXDXGXHXHXHXHXLXHXHXHXIXUXUXUXSXfXqX4X2X<X1X,X].].'.'./.^.^.^.!.!.!.H.H.H.H.H.G.C.C.C.C.C.C.v.v.v.v.v.v.x.x.x.x.x.x.x.x.x.x.z.z.z.z.z.z.z.z.z.z.z.q.q.z.",
"q.q.q.q.q.q.q.q.z.z.z.z.z.z.x.x.x.x.x.v.x.v.v.v.v.v.v.v.C.C.C.C.G.G.G.H.H.J.J.!.~././.'.'.].].,X1X2X2XwXqXbXGXPXLXMX0X5X9XqXqXqXqXqXqX7X7XwXwXwX5X5X5X5X5X5X5X5X5X5X5X1X5X.X.X.X.X.X.X.X.X.X.X.X.X).).).).).).).W.W.W.W.W.W.W.W.W.W.W.W.W.W.W.W.D.D.D.D.D.D.D.D.Y.Y.Y.Y.Y.A.Y.Y.Y.Y.Y.Y.A.A.A.A.f.f.f.f.f.f.f.f.n.n.n.n.n.n.n.n.n.n.b.b.b.b.I.I.d.d.d.d.d.d.d.d.d.d.d.d.d.d.d.d.d.d.d.d.d.g.d.g.d.d.6.6.6.6.d.d.6.6.6.6.6.6.6.6.6.6.6.6.6.1.6.1.,.,.,.,.,.,.,.,.,.,.,.,.,.,.,.,.<.<.<.,.<.,.,.,.6.6.6.6.6.6.6.6.6.6.6.6.6.6.6.6.6.6.6.6.6.6.6.6.6.6.6.6.6.6.6.6.6.6.6.6.6.6.6.6.6.6.6.6.6.6.6.6.g.g.g.g.g.j.j.j.Y.Y.Y.Y.Y.Y.Y.Y.I.I.Y.Y.I.Y.I.I.k.I.I.I.I.I.I.I.j.j.j.f.j.f.j.j.j.f.j.j.j.j.j.j.j.j.j.j.j.j.j.j.j.j.j.j.j.j.j.k.k.k.k.k.k.k.k.k.Y.k.Y.k.OXY.OXOXOXOXOXOXOXOXOXOX$X$X*X*X*X*X*X*X*X*X*X*X*X*X*X*X=X=X=X=X=X=X;X;X-X-X-X-XrXrXrXrXrXrXrXrXrXrXrXiXiXiXiXiXiXiXiXiXsXsXsXsXsXsXsXsXsXsXsXsXsXsXsXsXfXlXlXfXlXlXlXlXlXxXxXxXxXxXlXlXxXxXxXxXxXxXxXxXbXbXbXbXbXbXbXzXzXzXzXzXzXzXzXbXzXbXbXbXbXbXbXbXbXbXbXbXBXNXBXNXCXAXGXIXUXUXZXfXqXwX2X<X1X,X1X].`.`././.^.^.!.!.!.!.H.Z.H.Z.C.C.C.C.C.C.C.C.v.v.v.v.v.x.x.x.x.x.x.x.x.x.x.z.z.z.z.z.z.z.z.z.z.z.q.z.z.",
"q.q.q.q.q.q.q.q.z.z.z.z.z.x.x.x.x.x.x.v.v.v.v.v.v.v.v.v.C.C.C.C.G.H.H.H.H.J.!.!.~././.'.].].].,X1X2X4XwXqXzXDXLXGXbX5X>X>X2X4X2X4X4X4X4X4X2X2X2X2X2X2X2X2X2X2X<X,X,X,X,X].].].].].].].].].].'.'././././.~.~.~.~.~.~.~.~.~.~.J.J.J.J.J.J.H.J.H.H.P.P.P.P.P.G.G.G.G.G.G.G.v.v.v.v.N.N.N.N.N.N.N.N.N.N.G.N.N.N.N.N.x.x.x.x.x.x.x.x.M.M.M.M.M.M.M.M.M.M.M.M.M.M.M.M.e.M.M.M.e.b.e.e.e.e.e.e.e.e.e.e.e.e.e.e.e.e.e.e.e.e.e.e.r.e.e.e.t.t.t.t.t.r.r.r.t.t.t.t.t.t.t.t.t.r.t.r.t.r.t.r.r.r.r.r.r.r.r.r.r.r.r.r.r.r.r.r.r.r.r.r.r.r.r.r.r.r.r.r.r.r.r.r.r.r.r.r.r.r.r.r.0.2.0.0.0.0.0.0.0.5.0.2.0.0.0.0.0.4.0.4.0.4.0.4.1.1.1.1.2.1.2.2.2.2.1.1.1.1.2.2.1.1.1.1.1.1.1.2.4.4.4.4.4.4.4.4.4.4.4.4.4.4.4.4.0.0.0.0.0.0.0.0.q.q.0.q.q.q.q.4.4.q.z.z.z.z.z.z.q.z.z.q.q.z.z.a.a.a.a.a.a.a.z.z.a.a.a.a.a.a.a.a.a.a.a.a.a.a.a.a.z.z.a.a.z.z.z.a.s.s.s.s.s.h.s.h.A.f.A.f.A.A.A.A.V.V.V.V.V.V.V.V.V.V.F.F.F.F.F.F.h.>X>X>XQ.>X>X>X>X>X>X>XQ.Q.Q.Q.{.{.{.{.{.{.{..X.X.X.X.X.X.X:X.X.X.X5X5X5X5X5X5X5X5X5X5X5X4X4X7X9X9XqXqXqXqXqXqXgXgXgXgXgXfXfXfXdXkXVXLXUXIXCXfXqXwX2X<X<X1X1X].].`.`././.^.!.!.!.!.H.H.H.Z.C.G.C.C.C.C.C.C.v.v.v.v.v.x.x.x.x.x.x.x.x.x.x.z.z.z.z.z.z.z.z.z.z.z.q.z.z.",
"q.q.q.q.z.z.z.q.z.z.z.z.z.x.x.x.x.x.v.v.v.v.v.v.v.v.v.C.C.G.C.G.G.H.H.H.H.J.!.!.~././.'.].].].1X1X2X2XwXqXzXDXLXSXBXqXQ.h.h.`.].1X3X3X4X2X2X2X2X2X2X2X2X<X<X1X1X1X,X,X].].].].].].].].].].'.'.'.'.].'.'.'././././././.^./.^.!.!.!.!.!.!.!.!.!.!.!.!.!.J.J.H.H.H.H.H.H.H.H.G.H.H.C.C.C.C.G.G.G.C.c.c.c.c.x.x.x.x.v.v.v.v.v.v.v.v.x.x.x.x.x.x.x.x.z.z.z.z.z.z.z.z.q.q.q.q.q.q.q.4.4.4.4.4.0.4.0.4.4.4.4.4.4.4.4.4.4.4.4.4.2.2.2.2.4.2.5.2.2.2.2.2.2.2.2.2.2.2.2.1.1.1.5.2.2.1.2.1.1.1.1.1.2.1.2.2.2.2.2.2.2.2.2.2.2.2.2.2.2.2.2.2.2.2.2.2.2.2.2.2.:.;.2.2.2.2.2.2.2.2.2.2.2.2.2.2.2.2.2.2.2.1.2.1.1.1.1.1.2.1.2.1.2.4.2.1.2.4.2.2.4.4.4.4.4.4.4.4.0.0.0.0.0.0.0.0.4.4.1.1.1.1.4.4.4.4.4.4.4.4.4.4.4.4.4.4.4.4.4.4.4.4.4.4.4.4.4.q.4.4.4.a.4.4.a.a.4.4.a.a.a.a.z.z.a.a.a.a.a.a.a.a.x.c.x.c.c.c.x.c.c.c.c.c.c.c.c.c.c.c.c.c.c.c.c.c.c.c.v.v.m.m.m.m.m.m.m.m.S.S.S.S.C.C.C.C.C.C.C.C.H.Z.H.H.H.H.H.H.L.(.L.(.(.(.(.(.H.E.(.!.(.(.(.(.^.^.^.^.^.^.^.^.^.^.`.).).[.[.[.].[.].,X,X1X,X,X,X,X1X<X<X<X2X2X2X2X4X4X4X4X4X7XqX9X7X9X9X6X6X.X>X-XvXGXIXPXMXgXqXwX2X2X2X1X1X[.].`.`./././.!.!.!.!.H.H.H.Z.G.G.C.C.C.C.C.C.v.v.v.v.v.x.x.x.x.x.x.x.x.x.x.z.z.z.z.z.z.z.z.z.z.z.z.z.z.",
"q.q.q.q.z.z.z.z.z.z.z.z.x.x.x.x.x.x.v.v.v.v.v.v.v.v.C.C.C.G.G.G.G.H.H.H.J.J.!.!.~././.'.].].].,X<X2X2XwXqXzXDXLXGXBXgX3XE.p.a.C.^.`.[.[.1X1X1X<X,X,X,X,X,X,X].].].].].].].].].].].'.'.'./././././.^.^.^.^.^.!.!.!.^.E.!.E.E.E.E.E.E.E.Z.Z.Z.Z.Z.Z.Z.Z.Z.Z.Z.C.C.C.C.C.C.C.C.C.V.C.C.C.C.C.V.v.c.C.C.C.C.v.v.v.v.c.c.c.c.c.c.x.x.z.z.z.z.z.z.z.z.c.c.x.x.x.x.z.z.z.z.z.z.z.z.z.z.a.a.a.4.4.4.4.4.z.z.4.4.4.4.4.4.4.4.4.4.4.4.4.4.4.4.4.4.4.4.4.4.4.4.4.4.4.4.4.4.4.4.4.4.4.4.4.4.4.4.4.4.4.4.4.4.2.2.2.2.2.2.2.2.2.2.2.2.2.2.2.2.2.2.2.2.2.2.2.2.2.2.2.2.2.2.2.2.2.2.2.2.2.2.2.2.2.2.2.2.2.1.1.2.2.1.2.2.2.2.2.2.1.1.1.1.1.1.1.1.1.1.1.1.2.2.1.1.1.2.2.2.2.2.2.2.4.4.2.2.5.5.5.4.4.4.5.4.5.4.0.4.4.4.4.4.5.4.5.4.0.4.0.e.r.e.0.e.z.a.z.a.q.a.z.a.z.z.z.a.z.z.z.z.z.z.z.z.z.z.z.z.a.a.4.a.a.a.z.a.z.a.z.a.z.z.z.z.c.c.c.c.c.c.c.c.x.x.x.x.v.v.v.v.v.v.v.v.v.K.K.v.G.G.G.G.G.G.G.G.C.C.C.C.C.C.G.G.G.G.P.H.H.H.H.H.J.J.~.~.~.~._._.~.^./././././././././.'.'.'.].].].].].].].,X,X,X,X,X,X,X<X<X<X<X<X<X2X2X2X2X4X4X4X3X3X3X X).h.h.Q.0XxXSXPXLXBXgXqXwX2X2X2X1X1X].].`.`././.^.!.!.!.!.H.H.H.H.H.C.C.C.C.C.C.C.v.v.v.v.v.x.x.x.x.x.x.x.x.x.x.z.z.z.z.z.z.z.z.z.z.z.z.z.z.",
"q.q.q.q.z.z.z.z.z.z.z.z.x.x.x.x.x.x.v.v.v.v.v.v.v.v.C.C.C.C.G.G.G.H.H.H.J.J.~.!.~././.'.'.].].,X<X<X2X4XqXzXGXPXLXAXsX9X&XK.4.1.c.C.J._./.'.].].].].].1X].1X1X1X,X,X,X,X,X,X,X].].].[.[.[.`.[.[.^.).).).^.^.).^.).).).).^.^.(.(.(.(.(.!.W.E.E.Z.D.D.Z.Z.Z.Z.Z.Z.Z.Z.Z.Z.C.C.C.C.C.C.C.C.C.C.C.C.c.c.c.c.c.c.c.c.v.v.m.m.v.v.v.x.v.v.v.c.c.c.x.x.z.z.z.z.z.z.a.a.z.z.a.a.a.a.a.a.4.4.4.4.4.4.4.4.4.4.4.4.4.4.4.4.4.4.4.4.4.4.4.4.4.4.4.4.4.4.4.4.4.4.4.4.4.4.4.4.4.4.1.4.1.4.4.4.1.4.1.4.1.1.1.1.2.2.1.1.1.2.2.2.2.2.2.2.2.2.2.2.2.2.2.2.2.2.2.2.2.2.2.2.2.2.2.2.2.2.2.2.;.;.;.;.2.2.2.2.2.2.5.5.5.5.5.5.5.5.5.5.5.5.5.5.5.5.5.5.2.2.2.2.2.2.2.2.r.5.5.5.r.r.r.r.2.2.2.2.2.2.2.2.2.2.2.2.2.2.2.2.2.2.2.2.2.2.2.2.5.5.5.2.0.4.0.4.e.4.4.4.0.4.4.4.4.4.4.4.4.4.4.4.q.4.q.a.z.a.z.a.z.z.z.z.x.x.x.x.x.c.x.c.x.c.c.c.x.c.c.c.c.c.c.c.c.c.c.c.c.c.c.v.v.v.v.C.C.V.V.C.c.V.V.V.V.V.V.V.C.Z.Z.Z.Z.Z.Z.H.H.H.H.J.J.J.J.J.J.J.!.!.!.!.~.!.!.!.!.^.^.^././.^././././.'.'.'.'.].].].].].].].,X,X,X1X1X,X<X<X<X<X<X<X<X1X1X3X[. X[.).C.s.s.h.3X9XzXZXLXLXNXgXqXwX2X2X2X<X1X].].].`./././.!.!.!.!.H.H.H.H.H.H.C.C.C.C.C.C.C.C.v.v.v.x.x.x.x.x.x.x.x.x.x.z.z.z.z.z.z.z.z.z.z.z.z.q.z.",
"q.q.q.z.z.z.z.z.z.z.z.x.x.x.x.x.x.x.v.v.v.v.v.v.v.v.C.G.C.G.G.G.G.H.H.H.J.J.~.!.~././.'.'.].].,X<X<X2X2X7XzXGXPXHXAXfX9X;X%Xm.2.=.4.x.G.P.~.~././.'.'.'.].].].].].].].].].].].`.`.`.`.`.`.`.`.^.).).).).).).(.(.(.(.(.(.(.!.!.!.(.(.(.D.Z.Z.Z.Z.Z.Z.Z.Z.Z.C.C.C.C.C.C.C.C.C.C.C.v.v.v.v.v.v.v.v.m.m.m.v.x.x.x.x.x.x.x.x.x.x.x.x.x.x.x.x.x.x.z.z.x.x.x.x.x.z.z.z.z.z.z.z.z.z.z.q.z.z.z.z.z.q.q.q.q.q.q.0.q.q.q.q.q.0.q.q.q.0.0.0.4.4.4.4.4.4.0.0.2.2.2.2.4.2.2.2.2.2.2.2.2.2.2.2.2.2.2.2.2.2.2.2.2.2.2.2.2.2.2.2.2.2.2.2.2.2.2.2.2.2.2.2.2.2.2.2.2.2.2.2.2.2.2.2.2.2.5.2.;.;.;.2.:.;.;.;.;.:.;.;.5.5.5.5.5.5.:.:.:.:.:.:.5.5.:.:.5.5.5.5.5.5.2.2.2.2.;.;.;.2.0.2.2.2.2.2.2.2.2.2.0.0.0.0.0.0.0.0.0.0.0.0.0.0.0.0.0.0.0.0.0.0.0.0.0.q.0.q.0.0.0.0.0.q.q.q.q.q.q.q.q.z.z.z.z.z.z.z.z.z.q.q.z.z.z.z.z.z.z.z.z.z.z.x.x.x.x.x.x.x.x.x.c.c.v.c.v.v.v.v.v.C.C.C.C.C.C.C.C.C.C.C.C.Z.Z.Z.C.V.Z.Z.Z.Z.Z.Z.H.H.H.H.H.H.H.H.!.!.!.!.!.!.!.!.!.!.^.^.^./././././.'.'.'.'.'.`.`.[.[.[.[.[.[.[.[.1X1X1X1X1X1X1X,X,X,X].].].[.[._._.J.c.3.3.C. X3X9XzXCXLXLXBXpXqX4X2X<X<X1X1X].].`.'././.^.!.!.!.!.H.H.H.H.H.H.C.C.C.C.C.C.C.C.v.v.v.x.x.x.x.x.x.x.x.x.x.z.z.z.z.z.z.z.z.z.z.z.q.q.z.",
"q.q.q.q.q.z.z.z.z.z.z.z.x.x.x.x.x.x.x.v.v.v.v.v.v.v.C.G.C.G.G.G.G.H.H.H.J.J.!.!./././.'.].].].,X<X<X2X2X7XzXSXHXGXMXgX7X6X XJ.v.1.-.1.z.x.v.G.~.!.~././././.'.'.`.'.'.'.'.'.'.'.'.'.'.'././././././././.~.~.~.~.~.~.~.~.~.J.J.J.J.J.J.H.H.H.H.H.H.H.H.H.P.P.P.P.G.K.K.K.K.K.K.K.K.K.K.K.K.B.B.B.B.v.B.v.v.M.M.M.M.M.B.B.B.M.M.M.x.x.x.x.x.x.x.x.x.x.x.x.w.w.w.w.w.w.w.w.w.w.w.w.w.w.w.w.q.q.q.q.w.w.w.q.q.q.q.q.q.q.0.0.0.0.0.0.0.0.0.0.0.0.0.0.0.0.0.0.0.0.0.0.0.0.0.0.0.0.0.0.0.0.0.0.0.0.0.0.0.0.0.0.0.0.2.2.0.0.2.2.2.0.0.0.2.2.2.0.0.2.2.2.2.2.2.2.2.2.;.;.9.9.9.9.9.9.9.9.9.9.9.9.9.9.9.9.0.0.0.0.0.0.9.9.0.0.0.0.9.9.9.9.9.9.9.9.9.9.9.9.0.0.0.0.0.0.9.0.0.0.0.0.0.0.0.0.0.0.0.0.0.0.0.0.0.0.0.0.0.0.0.0.0.0.0.0.0.0.0.q.q.q.q.q.q.q.w.q.q.q.q.q.w.w.w.w.q.q.z.z.w.w.z.z.w.w.w.z.z.z.z.x.x.z.z.x.z.z.z.x.x.x.x.x.x.x.x.x.v.v.v.v.v.v.v.v.N.v.N.v.N.C.G.G.G.C.C.C.C.C.C.C.C.C.H.Z.H.H.H.Z.Z.Z.Z.Z.Z.E.E.E.E.E.E.!.E.!.E.!.E.^.^.^.^.^.^.^.^.^.`.`.`.`.`.`.[.[.[.[.`.[.].[.[.[.[.[.].].].].].].].'.'./.!.J.J.c.4.1.a.C._. X7XqXzXCXLXLXNXgX9X4X2X2X<X<X,X].].].`././.^.!.!.!.!.H.H.H.H.H.H.C.C.G.C.C.C.C.v.v.v.x.x.x.x.x.x.x.x.x.x.x.x.z.z.z.z.z.z.z.q.q.q.q.q.q.",
"q.q.q.q.q.z.z.z.z.z.z.z.x.x.x.x.x.x.x.v.v.v.v.v.v.v.C.G.C.G.G.G.G.H.H.H.J.J.!.!.~././.'.'.].].,X<X<X2X2X7XfXSXGXSXbXqX4X4X].^.Z.x.2.O.-.0.z.x.N.P.H.J.!.!.!.!./.^.^././././././././././././././.~.~.~.~.~.~.~.!.!.~.!.!.J.J.J.J.J.H.J.J.J.J.H.H.H.H.H.H.P.P.P.G.G.K.G.G.G.K.K.K.N.N.N.K.K.B.B.B.N.B.B.v.v.v.M.M.x.x.B.B.B.B.M.M.x.x.x.x.x.x.x.x.x.x.x.x.w.w.w.w.w.w.w.w.w.w.w.w.w.w.w.w.q.q.q.q.w.w.w.w.0.0.0.0.0.0.0.0.0.0.r.r.r.r.r.0.r.0.0.0.0.0.0.0.0.0.0.0.0.0.0.0.0.0.0.0.0.0.0.0.0.0.0.0.2.2.2.2.2.2.2.2.2.2.2.2.2.2.2.2.2.2.2.2.2.2.2.2.2.2.2.2.2.2.;.;.;.;.9.;.;.;.9.;.;.;.9.;.9.;.;.;.0.0.0.0.0.0.2.2.0.0.0.0.0.2.2.2.0.0.0.0.0.0.0.0.0.0.0.0.0.0.0.0.0.0.0.0.0.0.0.0.0.0.0.0.0.0.0.0.0.0.0.0.0.0.q.0.q.q.0.0.q.q.q.q.q.q.q.q.q.q.q.q.q.q.q.q.q.w.w.w.w.q.w.z.w.q.w.z.w.w.w.w.z.z.z.z.z.z.z.x.z.x.z.x.x.x.x.x.x.x.x.x.v.v.v.v.v.N.N.N.N.N.N.N.N.N.N.N.G.G.G.G.C.G.G.G.G.G.G.G.G.G.H.H.Z.Z.Z.Z.E.E.E.E.E.E.E.E.!.!.!.!.E.^.^.^.^.^.^.^.^.^.`.`.`.`.`.`.`.`.`.`.`.'.`.`.`.`.[.`.[.`.`.`.`.^.^.!.!.H.G.v.z.4.1.4.c.H._. X7XqXzXZXPXLXNXpX9X4X2X<X<X,X,X].].].`././.^.!.!.!.!.H.H.H.H.G.H.C.C.G.C.C.C.C.v.v.v.x.x.x.x.x.x.x.x.x.x.x.x.z.z.z.z.z.z.z.z.q.q.q.q.z.",
"q.q.q.q.q.q.z.z.z.z.z.z.x.x.x.x.x.x.v.v.v.v.v.v.v.v.C.G.C.G.G.G.G.H.H.H.H.J.!.!.~././.'.'.].].,X,X<X2X2X7XgXZXDXZXzXqXwX2X,X`.!.R.t.O.' %.-.5.b.M.m.K.G.H.H.H.H.H.!.~.~._._._._._._.~.~.~.~.~.~.!.^.!.!.!.!.!.!.!.!.!.!.H.H.H.H.!.!.E.E.H.H.Z.Z.H.Z.Z.Z.Z.Z.Z.C.C.C.C.C.C.C.C.C.C.C.C.C.v.v.v.v.v.C.v.v.v.v.v.v.x.x.x.x.x.x.x.x.x.x.x.x.x.x.x.x.x.z.z.z.z.z.z.z.z.z.q.z.q.q.q.q.e.e.e.e.e.q.e.q.e.q.0.0.0.0.0.0.0.0.0.0.0.0.0.0.4.4.4.4.4.4.5.2.4.4.5.2.1.1.5.1.5.2.5.2.5.2.5.2.2.2.2.2.2.2.2.1.1.1.1.1.1.1.1.1.1.1.1.1.1.1.1.1.1.1.1.1.1.1.1.1.1.1.1.1.1.1.1.2.1.1.2.1.2.1.2.1.2.1.2.1.2.1.2.1.1.1.1.1.1.1.1.1.1.1.1.1.1.1.1.1.1.1.1.1.2.1.2.1.2.1.2.1.2.1.2.1.1.1.1.2.5.2.2.2.5.2.5.2.5.5.5.5.2.4.4.4.4.4.4.4.4.4.4.4.0.0.0.4.4.4.4.4.4.0.0.0.4.4.4.4.e.e.e.e.e.a.z.z.z.z.z.z.z.z.z.z.b.z.z.z.b.z.b.x.x.b.x.z.M.x.M.c.x.c.m.c.x.v.v.v.v.v.v.v.B.N.N.N.N.N.N.N.N.N.K.K.S.K.K.K.K.K.K.K.K.K.K.K.H.H.H.H.K.L.L.L.L.L.L.(.(.(.(.!.!.!.!.!.!.!.^.^.^.^.^./././././././././././././././.^.^./.^.!.!.!.E.Z.C.C.v.z.4.%.=.1.z.C.(.[.3X7XqXzXZXPXLXNXpX9X4X2X<X<X,X].].].].'./.^.^.!.!.!.!.H.H.H.H.G.H.C.C.G.C.C.C.C.v.v.v.v.v.x.x.x.x.x.x.x.x.x.x.z.z.z.z.z.z.z.z.z.z.z.z.z.",
"q.q.q.q.q.q.z.q.z.z.z.z.x.x.x.x.x.x.v.v.v.v.v.v.v.v.C.G.C.G.G.G.G.H.H.H.H.J.!.!.~././.'.'.].].,X,X<X<X2X4XgXZXDXZXzXqXwX2X<X].^.T.U.e.=.) Q O.5.r.e.M.m.v.C.C.C.H.H.L.L.L.L.(.(.L.J.J.J.J.~.~.~.!.!.!.!.!.!.!.!.!.!.!.H.H.H.H.H.E.E.E.Z.H.Z.Z.Z.Z.Z.Z.Z.Z.C.C.C.C.C.C.C.C.C.C.C.C.C.C.C.C.C.C.C.v.v.C.v.v.c.v.v.c.c.c.x.x.x.x.x.x.x.x.x.x.z.x.x.x.z.z.z.z.z.z.z.z.z.q.z.q.z.e.e.e.e.e.e.e.e.e.e.e.e.e.q.0.0.0.4.0.4.0.4.0.0.0.4.4.4.4.4.4.4.5.5.4.4.5.2.1.1.5.5.5.5.2.1.2.2.5.5.2.1.2.1.2.1.2.1.1.1.1.1.1.1.1.1.1.1.1.1.1.1.1.1.1.1.1.1.1.1.1.1.1.1.1.1.1.1.1.1.1.1.1.1.1.1.1.1.1.1.1.1.1.1.1.1.1.1.1.1.1.1.2.2.1.1.1.1.1.1.1.1.1.1.2.1.1.1.2.1.1.1.1.1.1.1.2.1.1.1.2.2.2.2.2.2.2.4.2.4.2.4.5.4.4.4.4.4.4.4.4.4.4.4.4.4.0.4.0.4.4.4.4.4.4.4.0.4.4.4.4.4.e.4.e.4.4.4.z.z.z.z.z.z.z.z.z.z.b.z.z.z.b.b.b.b.b.b.z.z.M.M.c.m.c.c.m.c.x.x.x.x.x.v.v.v.v.v.m.v.v.v.C.C.m.m.m.m.S.S.S.S.S.S.S.S.S.S.K.K.K.K.K.L.L.L.L.L.L.L.L.L.L.L.(.L.!.!.!.!.!.!.!.~.!.!.!.!.(.!.(.~.~.~.~.~.~.~.~.~.~.~.~.~.~.J.J.H.C.C.V.m.x.4.-.{ %.1.z.C.!.).[.3X7XqXzXZXPXLXNXpX7X4X2X<X<X,X].].].`.`./.^.^.!.!.!.!.H.H.H.H.G.G.C.C.G.C.C.C.C.v.v.v.v.v.x.x.x.x.x.x.x.x.x.x.z.z.z.z.z.z.z.z.z.z.z.z.z.",
"q.q.q.z.q.z.z.z.z.z.z.z.x.x.x.x.x.x.v.v.v.v.v.v.v.v.C.G.C.G.G.G.G.H.H.H.J.J.!.!.~.^./.'.'.].].,X,X,X<X2X7XfXSXGXZXzXqX4X4X1X[.`.L.K.m.q.=.) ) { -.2.0.z.x.v.v.C.C.C.C.Z.H.H.H.H.H.H.H.H.H.H.!.!.!.H.J.J.H.H.H.H.H.H.P.H.P.P.P.P.P.H.H.H.H.H.H.H.G.G.G.G.G.C.G.G.C.C.C.C.C.G.C.C.v.v.v.v.v.v.v.v.v.v.v.v.v.v.v.v.v.v.v.v.v.x.x.x.x.x.x.x.z.x.z.x.z.z.z.z.z.z.z.z.z.q.q.q.q.q.q.q.q.q.q.w.q.q.q.q.q.q.q.0.q.0.q.0.q.0.q.0.0.0.0.0.0.0.0.0.0.0.0.2.0.0.0.0.0.2.0.0.0.0.0.0.0.2.0.2.0.2.0.2.0.2.0.2.2.2.2.2.2.2.2.2.2.2.2.2.2.2.2.2.2.2.2.2.2.2.2.2.2.2.2.2.2.2.2.2.2.2.2.2.2.2.2.2.2.2.2.2.2.2.2.2.2.2.2.2.2.2.2.2.2.2.2.2.2.2.2.2.2.2.2.2.2.2.2.2.2.2.2.2.2.2.2.2.2.2.2.2.2.2.2.2.2.2.2.2.2.2.2.4.2.4.0.0.0.4.0.0.0.0.0.q.q.0.0.0.0.q.0.q.0.q.0.q.q.q.q.q.q.q.q.q.q.q.q.q.q.q.z.z.z.z.z.z.z.z.z.z.z.z.z.x.x.x.x.x.x.x.x.x.x.x.x.x.c.c.c.c.c.c.c.c.v.v.v.C.C.C.C.C.C.C.C.C.C.C.C.C.C.Z.C.Z.Z.Z.Z.Z.G.P.P.H.P.H.H.H.H.H.H.J.J.H.H.H.H.J.J.J.J.J.L.L.!.!.L._._._.L.~.~.~.~.~.~.!.J.J.J.J.J.P.G.P.G.N.x.m.M.e.2.*.O.O.1.e.m.D.(.[.3X4X7XqXlXZXPXLXBX9X7X4X2X<X<X,X].].].`.'./.^.^.!.!.!.!.H.H.H.H.H.H.C.C.C.C.C.C.C.v.v.v.v.v.x.x.x.x.x.x.x.x.x.x.z.z.z.z.z.z.z.q.z.z.z.z.q.",
"q.q.q.z.q.z.z.z.z.z.z.z.x.x.x.x.x.x.v.v.v.v.v.v.v.v.G.G.C.G.G.G.G.H.H.H.J.J.J.!.~.^./.`.'.].].,X,X,X<X2X4XfXSXGXZXzXqX4X4X1X[.[.!.H.c.z.q.2.' E ' O.;.2.q.z.x.x.v.v.v.C.C.C.Z.Z.H.H.H.H.H.H.H.H.H.H.H.H.P.P.H.H.P.P.P.P.G.P.L.P.H.H.H.H.G.G.G.G.G.G.G.G.G.G.G.G.C.C.C.C.G.C.C.C.v.v.v.v.v.v.v.v.v.v.v.v.v.v.v.v.v.v.x.x.x.x.x.x.x.x.x.x.x.x.x.z.z.z.z.z.z.z.z.z.w.w.q.q.q.q.q.q.q.q.q.q.q.q.q.q.q.q.q.0.q.q.q.q.q.q.q.q.0.0.r.0.0.0.0.0.0.0.0.0.0.0.0.0.0.0.0.0.0.0.0.0.0.0.0.0.0.0.0.0.0.0.0.0.0.0.0.0.2.0.0.0.0.0.2.2.2.2.2.2.2.0.0.0.0.0.2.2.;.;.;.;.;.;.;.;.2.2.0.2.;.2.9.2.9.2.;.2.0.2.0.2.9.2.9.9.9.9.9.9.0.;.9.;.0.9.0.0.2.2.2.2.2.2.2.2.2.2.2.2.2.2.2.2.2.2.2.2.2.2.2.2.2.2.2.2.0.2.2.4.0.0.0.0.0.0.0.0.0.0.0.0.0.0.0.0.0.q.0.q.0.q.q.q.q.q.q.q.q.q.q.q.q.q.q.q.q.q.z.z.z.z.z.z.z.z.z.z.z.z.z.x.z.x.x.x.x.x.x.x.x.x.x.v.c.c.c.c.c.c.c.c.c.V.v.V.C.C.C.C.C.C.C.C.C.C.C.C.Z.Z.Z.Z.Z.Z.Z.Z.G.G.P.H.H.H.H.H.H.H.J.J.J.J.J.J.J.J.J.J.J.J.H.H.H.H.H.H.L.L.L.L.J.J.J.J.H.H.H.H.P.G.G.G.N.N.v.x.M.b.0.*.' ~ %.2.e.m.S.Z.^.].<X4X4XqXfXCXLXHXBXqX4X2X<X<X1X,X].].].`././.^.^.!.!.!.!.H.H.H.H.H.H.C.C.C.C.C.C.C.v.v.v.v.v.x.x.x.x.x.x.x.x.x.x.z.z.z.z.z.z.z.q.z.z.z.z.q.",
"q.q.q.z.q.z.z.z.z.z.z.z.x.x.x.x.x.x.v.v.v.v.v.v.v.C.G.G.C.G.G.G.G.H.H.H.J.J.!.!.!.^./.`.'.'.].].1X1X<X<X4XfXZXGXZXzX7X2X2X<X,X]./.J.C.c.x.e.-.~ ! ~ +.-.;.0.0.q.z.z.z.x.x.v.v.v.G.G.G.G.G.G.H.H.H.Z.Z.Z.Z.Z.H.H.H.H.H.H.G.H.H.H.H.Z.Z.Z.Z.C.C.C.H.H.G.C.C.C.C.C.C.C.C.C.C.C.C.C.C.C.v.v.v.v.v.v.m.m.m.m.x.x.c.x.x.x.x.x.x.x.x.x.x.x.x.x.x.x.x.x.x.x.x.x.z.z.z.z.z.z.z.z.z.z.q.q.q.z.z.z.q.q.q.q.q.q.0.0.0.0.0.0.q.q.0.0.0.0.0.0.0.4.4.4.4.4.4.4.4.4.2.2.2.4.1.1.2.2.2.2.2.2.2.2.2.2.2.2.2.2.2.2.2.2.2.2.2.2.2.2.2.2.2.2.2.2.2.2.2.2.2.2.2.2.2.2.2.2.2.2.2.2.2.2.2.2.2.2.;.;.2.2.2.2.;.;.2.2.2.2.2.2.2.2.2.2.0.2.0.2.2.2.0.2.2.2.2.2.2.2.2.2.2.2.2.2.2.2.2.2.2.2.2.2.2.2.2.2.2.2.2.2.2.2.2.2.2.2.2.2.0.4.4.4.0.0.0.0.0.0.0.0.0.0.q.q.0.q.0.q.0.q.0.q.q.q.q.q.q.q.q.q.q.q.q.q.z.z.w.w.w.z.z.z.z.z.z.z.z.x.x.x.x.x.x.x.x.x.x.x.x.x.x.x.x.x.x.v.x.v.v.v.v.v.v.v.v.v.v.v.v.C.C.C.C.C.C.C.C.C.C.C.G.G.G.G.G.G.H.H.H.H.H.H.H.H.H.H.H.H.H.J.J.J.H.H.H.H.H.H.H.H.H.H.H.H.Z.Z.Z.Z.Z.Z.C.C.C.C.v.x.x.x.z.q.0.2.*.+.~ +.;.e.M.m.H.!.`.,X2X2X4XqXfXCXHXHXbX9X4X2X2X<X<X1X,X].`.'././.^.^.!.!.!.!.H.H.H.H.H.H.C.C.C.C.C.C.C.v.v.v.v.v.x.x.x.x.x.x.x.x.x.x.z.z.z.z.z.z.z.q.q.z.z.z.q.",
"q.q.q.z.q.z.z.z.z.z.z.z.x.x.x.x.x.x.v.v.v.v.v.v.v.C.G.G.C.G.G.G.G.H.H.H.J.J.!.!.!.^.^./.'.'.].].,X,X<X1X7XfXZXGXZXzXwX2X2X<X,X,X/.~.H.C.x.q.5.:.T ! ~ +.%.-.;.2.0.0.q.z.z.x.x.x.N.N.N.N.G.G.G.G.C.C.C.Z.C.C.C.C.C.C.C.C.G.G.G.H.Z.Z.Z.C.C.C.C.C.H.H.C.C.C.C.C.C.C.C.C.C.C.C.C.C.C.C.v.v.v.v.v.v.m.m.m.m.m.c.x.c.x.x.x.c.m.c.x.c.x.x.x.x.x.x.x.x.x.x.x.x.z.z.z.z.z.z.z.z.z.z.q.z.q.z.z.z.q.4.q.q.q.q.q.4.0.q.0.4.q.4.q.0.0.4.0.4.4.4.4.4.4.4.4.4.4.2.2.2.2.2.1.1.1.1.2.1.2.1.2.2.2.1.2.1.2.1.2.2.2.2.2.2.2.2.2.2.2.2.2.2.2.2.2.2.2.2.2.2.2.2.2.2.2.2.2.2.2.2.2.2.2.2.2.2.;.;.2.2.2.2.;.;.;.2.2.2.2.2.2.2.2.2.2.2.2.2.2.2.2.2.2.2.2.1.2.2.2.2.2.2.2.2.2.2.2.2.2.2.2.1.2.2.5.1.5.1.5.2.5.2.5.4.5.2.2.2.4.4.4.4.0.4.0.4.0.4.0.4.0.0.0.q.0.0.0.q.q.q.q.q.q.q.q.q.q.q.q.q.z.z.z.z.z.z.z.z.z.z.z.z.z.z.z.z.z.x.x.x.x.x.x.x.x.x.x.x.x.x.v.x.x.x.x.v.v.v.v.v.v.v.v.v.v.v.v.v.v.v.C.C.C.C.G.G.G.G.G.G.G.G.C.C.C.G.G.H.H.Z.H.Z.Z.H.Z.H.H.H.H.H.H.H.H.H.H.H.H.H.H.H.H.H.H.H.Z.Z.Z.C.C.C.C.C.v.x.x.x.z.q.4.2.-.*.O.+.%.;.0.q.x.G.!.^.].<X2X2X4XqXgXNXHXGXbXqX4X2X<X<X<X1X].].`.'././.^.^.!.!.!.!.H.H.H.H.H.H.C.C.C.C.C.v.v.v.v.v.v.v.x.x.x.x.x.x.x.x.x.x.z.z.z.z.z.z.z.q.q.z.z.z.q.",
"q.z.z.z.z.z.z.z.z.z.x.x.x.x.x.x.x.x.v.v.v.v.v.v.v.v.G.G.G.G.G.G.H.H.H.H.J.!.!.!.!.^./.'.'.'.].].,X,X<X1X3XfXSXDXZXlX4X2X2X<X,X].'.^.H.C.v.x.q.2.*.+.! ! ~ +.>.>.2.2.5.0.w.w.q.z.z.x.x.v.v.v.N.N.C.C.C.C.G.G.G.G.G.G.G.G.G.G.G.G.C.C.C.C.C.C.C.C.C.C.C.C.C.C.C.C.C.C.C.C.C.C.C.C.v.C.v.v.v.v.v.v.v.x.x.v.v.c.x.c.x.x.x.x.x.x.x.x.x.x.x.x.x.x.x.z.z.z.z.z.z.z.z.z.z.z.z.z.z.z.z.z.q.z.q.q.q.q.q.q.0.q.0.q.0.q.0.q.0.q.0.q.0.4.0.4.4.4.4.4.2.2.2.4.4.4.2.2.2.2.2.2.2.2.2.2.2.2.2.2.2.2.2.2.2.2.2.2.2.2.2.2.2.2.2.2.2.2.2.2.2.2.2.2.2.2.2.2.2.2.2.2.2.2.2.2.2.2.2.2.2.2.2.2.2.2.2.2.2.2.2.2.2.2.2.2.2.2.2.2.2.2.2.2.2.2.2.2.2.2.2.2.2.2.2.2.2.2.2.2.2.2.2.2.2.2.2.2.2.2.2.2.2.2.2.2.0.4.2.2.2.2.2.2.2.4.0.4.0.4.0.0.0.0.0.0.0.e.0.e.q.q.q.q.0.q.q.q.q.q.q.q.q.q.q.q.q.q.q.q.q.z.q.q.z.z.z.z.z.z.z.z.x.x.x.x.x.x.x.x.x.x.x.x.x.x.x.x.x.x.x.x.x.x.x.x.v.v.v.v.v.v.v.v.v.v.v.C.v.C.C.C.C.C.C.C.C.C.C.C.C.C.G.G.G.H.G.H.H.Z.Z.H.H.H.H.H.H.H.G.G.H.H.G.G.G.G.G.C.C.C.C.C.C.C.v.v.x.x.x.x.x.z.0.q.r.r.:.*.~ ) O.*.;.0.z.v.C.Z.!.`.].,X<X2X4X7XgXNXGXGXBXqX4X2X<X,X,X,X].].'.`./.^.^.!.!.!.!.H.J.H.H.H.H.Z.C.C.C.C.C.C.C.v.v.v.x.x.x.x.x.x.x.x.x.x.x.x.z.z.z.z.z.z.z.z.z.z.z.z.z.",
"q.q.z.z.z.z.z.z.z.z.x.x.x.x.x.x.x.x.v.v.v.v.v.v.v.v.G.G.G.G.G.G.H.H.H.J.H.J.!.!.!.^././.'.'.].].].,X<X1X3XfXSXGXZXlX4X2X2X<X,X,X'.).!.Z.C.c.z.0.2.-.] ! ! ~ +.>.*.-.;.2.5.0.w.w.q.z.z.x.x.x.x.v.v.v.v.v.v.v.v.v.G.N.N.N.N.N.N.N.C.C.C.C.G.G.G.G.C.C.C.G.G.G.G.G.C.G.C.C.v.v.v.v.v.v.v.v.v.v.v.v.x.x.x.x.x.x.x.x.x.x.c.x.x.x.x.c.x.x.z.z.z.z.z.z.z.z.z.z.z.q.q.z.z.z.z.z.z.z.q.q.q.q.q.q.q.q.q.q.q.q.0.0.0.0.0.0.0.0.0.0.0.0.0.0.0.0.0.2.2.2.2.2.0.2.2.2.2.2.2.2.2.2.2.2.2.2.2.2.2.2.2.2.2.2.2.2.2.2.2.2.2.2.2.2.2.2.2.2.2.2.2.2.2.2.2.2.2.2.2.2.2.2.2.2.2.2.2.2.2.2.2.2.2.2.2.2.2.2.2.2.2.2.2.2.2.2.2.2.2.2.2.2.2.2.2.2.2.2.2.2.2.2.2.2.2.2.2.2.2.2.2.2.2.2.2.2.2.2.2.2.2.2.2.2.0.0.2.0.2.2.2.2.2.0.0.0.0.0.0.0.0.0.0.0.0.0.0.q.q.q.q.q.0.q.q.q.q.q.q.q.q.q.q.q.q.q.q.q.q.z.q.z.z.z.z.z.z.z.z.z.x.x.x.x.x.x.x.x.x.x.x.x.x.x.x.x.x.x.x.x.x.x.x.x.v.v.v.v.v.v.v.v.C.C.C.C.C.C.C.C.C.C.C.C.C.C.C.C.C.C.C.C.C.C.C.G.C.C.C.C.C.C.C.G.G.G.G.C.C.C.C.C.C.C.C.C.C.C.v.v.v.v.x.x.x.x.z.q.q.0.0.2.;.>.%.' ~ ' *.;.0.q.x.x.C.Z.^.`.].,X<X2X2X7XgXNXGXGXBX9X4X<X<X1X,X,X].].'.'./.^.^.!.!.!.!.H.J.H.H.H.H.H.C.C.C.C.C.C.C.v.v.v.x.x.x.x.x.x.x.x.x.x.x.x.z.z.z.z.z.z.z.z.z.z.q.z.z.",
"q.q.q.z.z.z.z.z.z.z.x.x.x.x.x.x.x.x.v.v.v.v.v.v.v.v.G.G.C.G.G.G.H.H.H.J.H.!.!.!.!.^././.'.'.].].].].<X1X6XfXSXGXZXlX4X2X2X<X,X,X]./.!.H.C.C.x.q.0.0.-.] ! ! ! ~ ' O.>.:.;.2.2.0.0.q.q.z.z.z.z.x.x.x.x.x.x.x.v.v.v.v.v.v.v.v.v.v.v.v.v.v.v.v.C.C.C.v.v.v.v.v.v.v.v.v.v.v.v.v.v.v.v.v.v.v.v.v.x.x.x.x.x.x.x.x.x.x.c.c.c.c.x.c.c.c.z.z.z.z.z.z.z.z.z.z.z.q.z.z.z.z.z.z.z.z.q.q.q.q.q.q.q.q.q.q.q.q.q.0.q.0.0.0.0.q.0.0.0.0.0.0.0.0.0.0.0.2.2.2.0.0.0.0.0.0.2.2.2.2.2.2.2.2.2.2.2.2.2.2.2.2.2.2.2.2.2.2.2.2.2.2.2.2.2.2.2.2.2.2.2.2.2.2.2.2.2.2.2.2.2.2.2.2.2.2.2.2.2.2.2.2.2.2.2.2.2.2.2.2.2.2.2.2.2.2.2.2.2.2.2.2.2.2.2.2.2.2.2.2.2.2.2.2.2.2.2.2.2.2.2.2.2.2.2.2.2.2.2.2.2.2.2.2.0.0.0.0.0.0.2.2.0.0.0.0.0.0.0.0.0.0.0.0.0.0.0.0.0.0.q.q.0.q.q.q.q.q.q.q.q.q.q.q.q.q.q.q.q.z.z.z.z.z.z.z.z.z.z.z.z.z.z.z.x.x.x.x.x.x.x.x.x.x.x.x.x.x.x.x.x.x.x.x.v.v.v.v.v.v.v.v.C.C.C.C.v.C.C.C.C.C.C.C.C.C.C.C.C.C.C.C.C.C.C.C.C.C.C.C.C.C.C.C.C.C.C.C.C.C.C.v.v.v.v.v.v.v.x.c.x.x.x.z.z.q.0.0.2.2.;.-.%.] ~ ~ ' O.;.0.w.z.v.v.H.H.^.`.].1X<X2X2X4XgXNXGXDXBX9X4X<X1X1X,X,X].'.'././.^.^.!.!.!.!.H.J.H.H.H.G.G.C.C.C.C.C.C.C.v.v.v.v.v.x.x.x.x.x.x.x.x.x.x.z.z.z.z.z.z.z.z.z.z.q.q.z.",
"q.q.q.z.z.z.z.z.z.z.x.x.x.x.x.x.x.x.v.v.v.v.v.v.v.v.G.G.C.G.G.G.H.H.H.H.H.J.!.!.!.^././.'.'.'.].].].1X1X3XfXSXGXZXlX4X2X2X<X,X,X].'.^.!.H.C.x.z.0.0.2.:.+.~ T Y ~ ' >.>.*.-.;.2.2.0.0.q.q.q.q.z.z.x.x.x.x.x.x.x.v.v.v.v.x.v.v.v.v.v.v.v.v.v.v.v.v.v.v.v.v.v.v.v.v.v.v.v.v.v.x.x.v.v.x.x.x.x.x.x.x.x.x.x.x.x.x.x.c.x.x.x.x.x.x.x.z.z.z.z.z.z.z.z.z.z.z.z.z.z.q.q.q.z.z.z.q.q.q.q.q.q.q.q.q.q.q.q.0.0.0.0.0.0.0.0.0.0.0.0.0.0.0.0.0.0.0.2.2.0.0.0.0.0.0.0.2.2.2.2.2.2.2.2.2.2.2.2.2.2.2.2.2.2.2.2.2.2.2.2.2.2.2.2.2.2.2.2.2.2.2.2.2.2.2.2.2.2.2.2.2.2.2.2.2.2.2.2.2.2.2.2.2.2.2.2.2.2.2.2.2.2.2.2.2.2.2.2.2.2.2.2.2.2.2.2.2.2.2.2.2.2.2.2.2.2.2.2.2.2.2.2.2.2.2.2.2.2.2.2.2.2.2.2.0.0.0.0.0.0.0.2.0.0.0.0.0.0.0.0.0.0.0.0.0.0.0.0.0.q.0.q.q.q.q.q.q.q.q.q.q.q.q.q.q.q.q.q.q.z.z.z.z.z.z.z.z.z.z.z.z.z.z.z.z.x.x.x.x.x.x.x.x.x.x.x.x.x.x.x.c.x.x.x.x.v.v.v.v.v.v.v.v.v.v.C.v.v.v.C.v.v.C.v.C.C.C.C.C.C.C.C.C.C.C.C.C.C.C.C.C.C.C.C.v.v.v.v.v.v.v.v.x.v.c.c.x.x.x.x.z.z.q.q.q.0.2.2.2.;.-.O.~ ~ ~ ' %.;.2.0.M.x.v.G.H.!./.'.].<X<X2X2X4XgXNXGXGXBX9X4X<X1X,X,X,X].'.'././.^.!.!.!.!.!.H.J.H.H.H.G.G.C.C.C.C.C.C.C.v.v.v.v.v.x.x.x.x.x.x.x.x.x.x.z.z.z.z.z.z.z.z.z.z.q.q.z.",
"q.q.q.q.z.z.z.z.z.z.x.x.x.x.x.x.x.x.v.v.v.v.v.v.v.v.C.G.C.G.G.G.G.H.H.H.H.!.!.!.!.^././.`.'.'.].].].1X1X3XfXSXGXZXfX4X2X2X<X,X,X].'.^.!.H.C.v.x.q.0.2.;.;.%.~ T T ~ ' O.%.*.*.-.;.2.2.0.0.0.0.q.q.z.z.z.z.z.x.x.x.x.x.x.v.v.v.v.x.x.x.x.x.x.v.v.v.v.v.v.v.v.v.v.v.v.v.x.v.v.v.v.x.x.x.x.x.x.x.x.x.x.x.x.x.x.x.x.x.x.x.x.x.x.x.z.z.z.z.z.z.z.q.q.q.z.q.z.z.z.z.q.q.q.q.q.q.q.q.q.q.q.q.q.q.q.q.q.0.q.0.0.0.0.0.0.0.0.0.0.0.0.0.0.0.0.0.2.2.2.0.0.0.0.0.0.2.2.2.2.2.2.2.2.2.2.2.2.2.2.2.2.2.2.2.2.2.2.2.2.2.2.2.2.2.2.2.2.2.2.2.2.2.2.2.2.2.2.2.2.2.2.2.2.2.2.2.2.2.2.2.2.2.2.2.2.2.2.2.2.2.2.2.2.2.2.2.2.2.2.2.2.2.2.2.2.2.2.2.2.2.2.2.2.2.2.2.2.2.2.2.2.2.2.2.2.2.2.2.2.2.2.2.2.0.0.0.2.0.0.0.0.2.2.0.0.0.0.0.0.0.0.0.0.0.0.0.0.0.0.0.0.q.q.q.q.q.q.q.q.q.q.q.q.q.q.q.q.q.q.z.z.z.z.z.z.z.z.z.z.z.z.z.z.z.z.z.x.x.x.x.x.x.x.x.x.x.x.x.x.x.x.x.x.x.x.v.x.x.x.x.v.v.v.v.v.v.v.v.v.v.v.v.v.v.v.v.C.C.C.C.C.C.C.v.v.C.v.v.C.v.v.v.v.v.x.x.x.x.x.x.c.x.x.c.x.z.z.z.z.q.q.0.4.2.2.2.;.*.*.O.~ ~ ~ O.-.2.2.0.q.z.v.G.G.J.!./.].,X<X<X2X2X4XgXNXGXGXBX9X3X<X1X,X,X].].`.'././.^.!.!.!.!.!.H.J.H.H.H.C.G.C.C.C.C.C.C.C.v.v.v.v.v.x.x.x.x.x.x.x.x.x.x.z.z.z.z.z.z.z.z.z.z.q.z.z.",
"q.q.q.q.z.z.z.z.z.z.x.x.x.x.x.x.x.x.v.v.v.v.v.v.v.v.C.G.C.G.G.G.G.G.H.H.J.J.!.!.!.!.^././.'.'.'.].].<X1X3XfXSXDXZXfX4X<X<X<X,X,X].'.^.!.H.G.v.x.M.q.2.;.;.;.%.' Y Y E ~ ' O.O.%.*.;.;.2.2.2.2.0.q.0.q.q.q.q.z.z.z.z.x.x.x.x.x.x.x.x.x.x.x.x.x.x.x.x.x.x.x.x.x.x.x.x.x.x.x.x.x.x.x.x.x.x.x.x.x.x.x.x.x.x.x.x.x.x.x.x.x.x.x.x.x.z.z.z.z.z.z.z.q.q.z.z.q.q.z.z.z.z.q.q.q.q.q.q.q.q.q.q.q.q.q.q.q.q.0.q.0.0.0.0.q.q.0.0.0.0.0.0.0.0.0.0.0.2.2.2.0.0.0.0.0.0.2.2.2.2.2.2.2.2.2.2.2.2.2.2.2.2.2.2.2.2.2.2.2.2.2.2.2.2.2.2.2.2.2.2.2.2.2.2.2.2.2.2.2.2.2.2.2.2.2.2.2.2.2.2.2.2.2.2.2.2.2.2.2.2.2.2.2.2.2.2.2.2.2.2.2.2.2.2.2.2.2.2.2.2.2.2.2.2.2.2.2.2.2.2.2.2.2.2.2.2.2.2.2.2.2.2.2.2.0.0.0.2.0.0.0.0.2.2.0.0.0.0.0.0.0.0.0.0.0.0.0.0.0.0.q.0.q.q.q.q.q.q.q.q.q.q.q.q.q.q.q.q.q.z.z.z.q.q.z.z.z.z.z.z.z.z.z.z.z.z.z.z.z.z.x.x.x.x.x.x.x.x.x.x.x.x.x.x.x.x.x.x.x.x.x.x.x.v.v.v.x.v.x.v.x.v.v.v.v.v.v.v.v.C.v.C.v.v.v.v.v.v.v.v.v.x.x.c.x.x.x.x.x.x.x.x.x.x.x.z.z.q.4.4.0.4.2.1.2.;.>.O.+.' ~ ! ~ ' *.2.2.0.q.z.x.v.G.H.J.!.'.].,X<X<X2X2X4XpXNXGXGXBX9X3X1X,X,X,X].].[.`././.^.!.!.!.!.!.!.J.H.H.H.C.C.C.C.C.C.C.C.C.v.v.v.v.v.x.x.x.x.x.x.x.x.x.x.z.z.z.z.z.z.z.z.z.z.q.q.z.",
"q.q.q.q.z.z.z.z.z.z.x.x.x.x.x.x.x.x.v.v.v.v.v.v.v.v.C.G.C.G.G.G.G.G.H.H.J.J.!.!.!.!.^./././.'.'.].].,X1X3XfXSXDXCXfX4X<X<X1X,X,X].'./.!.H.H.G.v.v.M.q.0.2.;.;.-.~ E Y Y ! ' ' ' O.O.*.;.;.2.2.2.2.4.4.0.0.q.q.q.q.q.z.z.z.x.x.x.x.x.x.x.x.x.x.x.x.x.x.x.x.x.x.x.x.x.x.x.x.x.x.x.x.x.x.x.x.x.x.x.x.x.x.x.x.x.x.x.x.x.x.x.x.x.z.z.z.z.z.z.z.z.z.z.z.z.q.q.z.z.q.q.q.q.q.q.q.q.q.q.q.q.q.q.q.q.q.q.q.q.q.0.q.q.q.0.0.0.0.0.0.0.0.0.0.0.0.2.2.2.0.0.0.2.0.0.2.2.2.2.2.2.2.2.2.2.2.2.2.2.2.2.2.2.2.2.2.2.2.2.2.2.2.2.2.2.2.2.2.2.2.2.2.2.2.2.2.2.2.2.2.2.2.2.2.2.2.2.2.2.2.2.2.2.2.2.2.2.2.2.2.2.2.2.2.2.2.2.2.2.2.2.2.2.2.2.2.2.2.2.2.2.2.2.2.2.2.2.2.2.2.2.2.2.2.2.2.2.2.2.2.2.2.2.0.0.2.2.2.2.2.2.2.2.0.0.0.0.0.0.0.0.0.0.0.0.0.0.0.0.0.0.0.q.q.q.q.q.q.q.q.q.q.q.q.q.q.q.q.q.z.z.q.q.q.z.z.z.z.z.z.z.z.z.z.z.z.z.z.z.z.x.x.x.x.x.x.x.x.x.x.x.x.x.x.x.x.x.x.x.x.x.x.x.x.x.x.x.x.x.x.x.x.x.x.v.v.v.v.v.v.v.x.x.x.x.x.x.x.x.c.x.x.x.x.x.x.x.z.z.z.z.z.z.q.q.4.4.4.1.2.2.2.-.*.*.+.] ~ ~ ~ ~ { -.2.2.0.q.z.x.v.N.P.H.!.^.'.].,X<X<X<X<X4XpXNXGXGXBX9X3X,X,X].,X].].`.'././.^.!.!.!.!.!.H.J.H.H.Z.C.C.C.C.C.C.C.C.C.v.v.v.v.v.x.x.x.x.x.x.x.x.x.x.z.z.z.z.z.z.z.z.z.z.z.z.z.",
"q.q.q.q.z.z.z.z.z.z.x.x.x.x.x.x.x.x.v.v.v.v.v.v.v.v.C.G.C.G.G.G.G.G.H.H.J.J.!.!.!.^.^./././.'.'.].].1X1X3XfXSXDXCXfX4X<X<X1X,X].].]./.!.!.H.G.N.x.x.M.w.0.2.;.-.>.' T T T ~ ' ' ' ' O.*.*.-.;.;.1.1.2.2.2.4.0.q.q.q.q.q.q.z.z.z.z.z.x.x.x.x.x.x.x.x.x.x.x.x.x.x.x.x.x.x.x.x.x.x.x.x.x.x.x.x.x.x.x.x.x.x.x.x.x.x.x.x.x.x.x.z.z.z.z.z.z.z.z.z.z.z.z.q.q.q.z.q.q.q.q.q.q.q.q.q.q.q.q.q.q.q.q.q.q.q.q.q.q.0.0.q.q.q.0.0.0.0.0.0.0.0.0.0.0.2.2.2.0.0.2.2.0.0.2.2.2.2.2.2.2.2.2.2.2.2.2.2.2.2.2.2.2.2.2.2.2.2.2.2.2.2.2.2.2.2.2.2.2.2.2.2.2.2.2.2.2.2.2.2.2.2.2.2.2.2.2.2.2.2.2.2.2.2.2.2.2.2.2.2.2.2.2.2.2.2.2.2.2.2.2.2.2.2.2.2.2.2.2.2.2.2.2.2.2.2.2.2.2.2.2.2.2.2.2.2.2.2.2.2.2.2.0.0.2.2.2.2.2.2.2.2.0.0.0.0.0.0.0.0.0.0.0.0.0.0.0.0.0.0.0.q.q.q.q.q.q.q.q.q.q.q.q.q.q.q.q.q.z.z.q.q.q.q.z.z.z.z.z.z.z.z.z.z.z.z.z.z.z.z.x.x.x.x.x.x.x.x.x.x.x.x.x.x.x.x.x.x.x.x.x.x.x.x.x.x.x.x.x.x.x.x.x.x.x.x.x.x.x.x.x.x.x.x.c.x.x.x.x.x.x.x.x.x.z.z.z.q.q.q.4.4.4.4.2.1.1.2.2.;.-.*.O.+.] ~ ! ! ~ +.-.2.2.2.0.q.x.B.N.G.G.H.!.^.'.].,X,X<X<X<X4XpXNXGXGXBX9X3X1X,X].].].'.'.'././.^.!.!.!.!.!.H.J.H.H.Z.C.G.C.C.C.C.C.v.v.v.v.v.v.v.x.x.x.x.x.x.x.x.x.x.z.z.z.z.z.z.z.z.z.z.z.z.z.",
"q.z.z.z.z.z.z.z.z.z.z.x.x.x.x.M.x.x.v.v.v.v.v.v.v.v.C.G.C.C.C.G.G.G.G.H.H.J.H.H.!.!.^.^././.'.'.].].,X1X5XlXSXDXZXfX1X<X1X,X,X].].'././.!.H.G.G.v.x.w.q.0.2.2.-.>.>.O.! T J E ~ ~ ' O.O.O.*.*.;.;.;.2.2.2.2.2.2.0.0.0.0.0.q.q.q.q.q.q.z.z.z.z.z.z.x.z.z.z.z.x.x.x.x.x.x.x.x.x.x.z.z.z.z.z.z.x.x.z.x.x.x.z.z.z.z.z.z.z.z.z.z.z.z.q.q.z.z.z.z.z.q.q.q.q.q.q.q.q.q.q.q.q.q.q.q.q.q.q.q.q.q.0.0.q.0.0.0.0.0.0.0.0.0.0.0.0.0.0.0.0.0.0.0.0.0.0.0.0.0.2.2.2.2.2.2.2.2.2.2.2.2.2.2.2.2.2.2.2.2.2.2.2.2.2.2.2.2.2.2.2.2.2.2.2.2.2.2.2.2.2.2.2.2.2.2.2.2.2.2.2.2.2.2.2.2.2.2.2.2.2.2.2.2.2.2.2.2.2.2.2.2.2.2.2.2.2.2.2.2.2.2.2.2.2.2.2.2.2.2.2.2.2.2.2.2.2.2.2.2.2.2.2.2.2.2.2.2.2.2.2.2.0.0.2.2.0.0.0.0.2.2.2.2.2.0.0.0.0.0.0.0.0.0.0.0.0.0.0.0.q.q.q.q.0.q.q.q.q.q.q.q.q.q.q.q.q.q.q.q.z.z.q.q.q.z.z.z.z.z.z.z.z.z.z.z.z.z.z.z.z.z.z.z.z.z.z.z.z.z.x.z.x.x.x.x.x.x.x.x.x.x.x.x.x.x.x.x.x.x.x.x.x.x.x.x.x.x.x.x.x.x.x.x.x.x.x.z.z.z.z.z.z.z.q.q.q.0.0.0.2.2.2.2.2.2.-.-.;.*.O.' +.] ~ E T ~ O.:.2.2.0.q.q.z.x.N.G.G.H.!.~./.'.].,X,X<X<X2X3XpXNXGXGXNX9X3X1X,X].].].`.'.`./.^.^.!.!.!.!.H.H.H.H.H.H.G.G.C.C.C.C.C.C.C.C.v.v.x.x.x.x.x.x.x.x.x.x.x.x.z.z.z.z.z.z.z.q.z.z.z.z.q.",
"q.z.z.z.z.z.z.z.z.z.z.x.x.x.x.M.x.x.v.v.v.v.v.v.v.v.C.G.C.G.C.G.G.G.G.H.H.J.J.H.!.!.^.^././.'.'.].].[.1X5XlXSXDXZXfX1X<X1X,X,X].].'././.!.J.G.G.v.x.z.q.q.0.2.;.-.>.>.' E Y T E ~ ~ +.O.O.O.O.*.*.-.-.;.2.2.2.2.2.2.2.0.0.0.0.0.q.q.q.q.q.z.z.q.z.z.z.z.z.z.z.z.z.z.z.z.z.z.z.z.z.z.z.z.z.z.z.z.z.z.z.z.z.z.z.z.z.z.z.z.z.z.z.z.q.q.q.q.z.z.q.q.q.q.q.q.q.q.q.q.q.q.q.q.q.q.q.q.q.q.q.q.0.0.0.0.0.0.0.0.0.0.0.0.0.0.0.0.0.0.0.0.0.0.0.0.0.0.0.0.2.2.2.2.2.2.2.2.2.2.2.2.2.2.2.2.2.2.2.2.2.2.2.2.2.2.2.2.2.2.2.2.2.2.2.2.2.2.2.2.2.2.2.2.2.2.2.2.2.2.2.2.2.2.2.2.2.2.2.2.2.2.2.2.2.2.2.2.2.2.2.2.2.2.2.2.2.2.2.2.2.2.2.2.2.2.2.2.2.2.2.2.2.2.2.2.2.2.2.2.2.2.2.2.2.2.2.2.2.2.2.2.2.0.2.2.0.0.0.0.2.2.2.2.2.0.0.0.0.0.0.0.0.0.0.0.e.0.0.0.0.q.q.q.0.0.q.q.q.q.q.q.q.q.q.q.q.q.q.q.q.q.q.q.q.z.z.z.z.z.z.z.z.z.z.z.z.z.z.z.z.z.z.z.z.z.z.z.z.z.z.z.x.x.x.x.x.x.x.x.x.x.x.x.x.x.x.x.x.x.x.x.x.x.x.x.z.x.z.z.x.x.x.x.z.z.z.z.z.q.q.q.q.q.0.0.0.4.4.2.2.2.2.2.2.-.-.*.%.O.O.' ~ ! E E ~ +.>.:.2.2.0.q.z.x.v.v.G.G.J.!.^./.'.].,X,X<X<X<X1XpXNXGXGXNX9X3X1X,X].].].'.'.`./.^.^.!.!.!.!.H.H.H.H.H.H.G.C.C.C.C.C.C.C.C.C.v.v.x.x.x.x.x.x.x.x.x.x.x.x.z.z.z.z.z.z.z.q.z.z.q.q.q.",
"q.q.z.z.z.z.z.z.z.z.z.x.x.x.x.x.x.x.v.v.v.v.v.v.v.C.C.G.C.C.C.G.G.P.H.H.H.J.J.H.!.!.^.^.^././.'.].].[.1X.XlXSXDXZXfX1X<X1X,X1X].].'././.!.J.G.G.N.v.x.z.q.q.0.2.2.:.>.>.' ~ E Y E ! ~ ' ' ' O.O.*.*.*.*.-.;.;.2.2.2.2.2.2.2.0.0.0.0.0.0.q.q.q.q.q.q.q.q.q.q.q.q.z.z.z.z.z.z.z.z.z.z.z.z.z.z.z.z.z.z.z.z.z.z.z.z.z.z.z.z.z.z.z.z.q.q.q.q.q.q.q.q.q.q.q.q.q.q.q.q.q.q.q.q.q.q.q.q.q.q.q.q.0.0.0.0.0.0.0.0.0.0.0.0.0.0.0.0.0.0.0.0.0.0.0.0.0.2.0.0.2.2.2.2.2.2.2.2.2.2.2.2.2.2.2.2.2.2.2.2.2.2.2.2.2.2.2.2.2.2.2.2.2.2.2.2.2.2.2.2.2.2.2.2.2.2.2.2.2.2.2.2.2.2.2.2.2.2.2.2.2.2.2.2.2.2.2.2.2.2.2.2.2.2.2.2.2.2.2.2.2.2.2.2.2.2.2.2.2.2.2.2.2.2.2.2.2.2.2.2.2.2.2.2.2.2.2.2.2.2.2.2.2.2.2.2.2.0.0.0.2.2.0.0.0.0.0.0.0.0.0.0.0.0.0.0.0.0.0.0.0.0.q.q.0.0.0.q.q.q.q.q.q.q.q.q.q.q.q.q.q.q.q.q.q.q.z.z.q.z.z.z.z.z.z.z.q.z.z.z.z.z.z.z.z.z.z.z.z.z.z.z.x.x.x.x.z.z.z.z.z.z.x.x.z.z.z.z.x.x.z.z.x.x.z.z.z.z.z.z.z.z.z.z.q.q.q.q.0.0.0.0.0.2.2.2.2.2.2.2.;.;.;.*.*.%.O.O.' +.+.~ E T E ~ O.>.5.5.2.2.q.q.z.x.v.N.G.H.J.!.^./.'.].,X,X<X<X<X1XpXNXGXGXNX9X3X,X,X].].].'.'././.^.!.!.!.!.!.H.H.H.H.H.H.C.C.C.C.C.C.C.C.v.v.v.v.x.x.x.x.x.x.x.x.x.x.x.x.z.z.z.z.z.z.z.q.q.z.q.q.q.",
"q.q.q.z.z.z.z.z.z.z.z.x.x.x.x.x.x.x.v.v.v.v.v.v.v.C.C.G.C.C.C.G.G.P.H.H.H.J.J.J.!.!.!.^.^././.`.'.'.[.1X.XlXSXDXZXfX1X,X,X,X1X].].'././.!.J.H.G.N.N.x.z.z.q.0.0.2.2.;.=.>.O.! T Y T E ~ ~ ~ ' ' O.O.O.%.*.*.-.;.2.;.2.2.2.2.2.2.2.4.4.4.0.0.0.0.q.q.q.q.q.q.q.q.q.q.q.q.q.q.q.q.q.q.q.q.q.q.z.z.z.z.z.z.z.z.z.z.q.q.q.q.z.z.z.z.q.q.q.q.q.q.q.q.q.q.q.q.q.q.q.q.q.q.q.q.q.q.q.0.q.q.q.q.0.0.0.0.0.0.0.0.0.0.0.0.0.0.0.0.0.0.0.0.0.0.0.0.2.2.0.0.2.2.2.2.2.2.2.2.2.2.2.2.2.2.2.2.2.2.2.2.2.2.2.2.2.2.2.2.2.2.2.2.2.2.2.2.2.2.2.2.2.2.2.2.2.2.2.2.2.2.2.2.2.2.2.2.2.2.2.2.2.2.2.2.2.2.2.2.2.2.2.2.2.2.2.2.2.2.2.2.2.2.2.2.2.2.2.2.2.2.2.2.2.2.2.2.2.2.2.2.2.2.2.2.2.2.2.2.2.2.2.2.2.2.2.2.2.0.0.0.0.0.0.0.0.0.0.0.2.0.0.0.0.0.0.0.0.0.0.0.0.0.0.0.0.0.0.q.q.q.q.q.q.q.q.q.q.q.q.q.q.q.q.q.q.q.q.z.q.z.z.z.z.z.z.z.q.z.z.z.z.z.z.z.z.z.z.z.z.z.z.z.z.z.z.z.z.z.z.z.z.z.z.z.z.z.z.z.z.z.z.z.z.z.z.z.q.q.q.q.q.q.q.q.e.0.0.0.0.4.4.2.2.2.2.2.2.2.2.2.*.*.*.%.O.O.' ' ' ~ ~ ! ! ~ ' >.:.2.5.5.2.0.q.z.x.v.v.G.G.H.J.!.^.`.'.].,X,X,X<X<X1XpXBXGXGXNXpX3X,X].].].'.'.`././.^.!.!.!.!.!.H.H.H.H.H.H.C.C.C.C.C.C.C.C.v.v.v.v.x.x.x.x.x.x.x.x.x.x.x.x.z.z.z.z.z.z.z.q.q.z.q.q.q.",
"q.q.z.z.z.z.z.z.z.z.z.x.x.x.x.x.x.x.v.v.v.v.v.v.v.v.v.C.C.C.C.G.G.P.H.H.H.J.J.J.!.!.!.^.^.^././.'.'.[.1X.XlXSXDXZXsX1X1X1X1X].].'.'./.^.!.J.H.P.G.N.N.x.z.z.q.0.0.2.;.;.:.>.+.~ T T T E ! ~ ~ ~ ' O.O.O.O.*.*.*.-.;.;.;.2.2.2.2.2.2.2.2.4.4.0.0.0.q.q.q.q.q.q.q.q.q.q.q.q.q.z.z.q.q.q.q.q.q.q.q.q.q.q.q.q.q.q.q.q.q.q.q.q.q.q.q.q.q.q.q.q.q.q.q.q.q.q.q.q.0.0.q.q.q.q.q.q.0.0.0.q.q.0.0.0.0.0.0.0.0.0.0.0.0.0.0.0.0.0.0.0.2.0.0.0.0.2.2.0.0.2.2.2.2.2.2.2.2.2.2.2.2.2.2.2.2.2.2.2.2.2.2.2.2.2.2.2.2.2.2.2.2.2.2.2.2.2.2.2.2.2.2.2.2.2.2.2.2.2.2.2.2.2.2.2.2.2.2.2.2.2.2.2.2.2.2.2.2.2.2.2.2.2.2.2.2.2.2.2.2.2.2.2.2.2.2.2.2.2.2.2.2.2.2.2.2.2.2.2.2.2.2.2.2.2.2.2.2.2.2.2.2.2.2.2.2.2.2.2.2.2.2.0.0.0.0.0.0.0.0.2.2.2.0.0.0.0.0.0.0.0.0.0.q.q.0.0.0.q.0.0.q.q.q.q.q.q.q.q.q.q.q.q.q.q.q.q.q.q.q.q.q.z.z.z.z.z.z.q.q.z.z.z.z.z.z.q.q.q.q.q.z.z.q.z.z.z.z.z.z.z.z.q.z.z.z.z.z.z.z.q.q.q.q.q.q.q.q.q.q.q.q.q.q.q.q.0.0.0.0.0.2.2.2.2.2.2.2.;.;.-.-.*.%.>.O.+.' ' ~ ~ ~ T T ~ +.>.:.2.2.2.2.0.q.z.x.x.v.N.G.G.J.!.!.^.`.'.].].,X,X,X<X1X9XBXGXGXNXpX3X].].].].`.`.`./.^.!.!.!.!.!.!.H.H.H.H.H.H.G.G.C.C.C.C.C.C.v.v.v.v.v.v.x.x.x.x.x.x.x.x.x.x.z.z.z.z.z.z.z.q.z.z.z.z.q.",
"q.q.z.z.z.z.z.z.z.z.z.x.x.x.x.x.x.x.v.v.v.v.v.v.v.v.v.C.C.C.C.G.G.P.H.H.H.J.J.J.J.!.!.!.^.^./././.'.[.,X.XlXSXDXCXsX1X,X,X,X].].'.'./.^.!.!.J.H.G.N.N.x.x.z.q.0.0.2.2.;.;.:.>.O.! E T T E ! ~ ~ ' ' ' O.O.O.%.*.*.-.-.-.;.;.2.2.1.1.2.2.2.2.2.2.4.0.0.0.0.0.0.0.q.q.q.q.q.q.q.q.q.q.q.q.q.q.q.q.q.q.q.q.q.q.q.q.q.q.q.q.q.q.q.q.q.q.q.q.q.q.q.q.q.q.q.q.q.0.0.q.q.q.q.q.0.0.q.0.q.q.0.0.0.0.0.0.0.0.0.0.0.0.0.0.0.0.0.0.2.2.2.2.2.2.2.2.0.2.2.2.2.2.2.2.2.2.2.2.2.2.2.2.2.2.2.2.2.2.2.2.2.2.2.2.2.2.2.2.2.2.2.2.2.2.2.2.2.2.2.2.2.2.2.2.2.2.2.2.2.2.2.2.2.2.2.2.2.2.2.2.2.2.2.2.2.2.2.2.2.2.2.2.2.2.2.2.2.2.2.2.2.2.2.2.2.2.2.2.2.2.2.2.2.2.2.2.2.2.2.2.2.2.2.2.2.2.2.2.2.2.2.2.2.2.2.2.2.2.2.2.0.2.0.0.2.0.0.0.2.2.2.2.0.0.0.0.4.4.0.0.0.0.0.0.0.0.0.0.q.q.0.0.q.q.q.q.q.q.q.q.q.q.q.q.q.q.q.q.q.q.q.q.q.q.z.z.q.q.q.q.q.q.z.z.q.q.q.q.q.q.q.q.q.q.q.q.q.q.q.q.q.q.q.q.q.q.q.q.q.q.q.q.q.q.0.0.0.0.q.0.0.0.0.0.0.0.2.2.2.2.2.2.;.2.;.;.-.*.*.>.O.O.O.+.+.~ ~ ~ ~ ! T ! ' >.:.2.2.2.2.4.q.z.x.x.v.v.G.G.H.J.!.!./.`.'.].].].,X,X<X1X9XBXGXGXNXpX1X].].].`.`.'././.^.!.!.!.!.!.!.H.H.H.H.H.Z.G.G.C.C.C.C.C.C.v.v.v.v.v.v.x.x.x.x.x.x.x.x.x.x.z.z.z.z.z.z.z.q.z.z.z.q.q.",
"q.q.q.z.z.z.z.z.z.z.z.x.x.x.x.x.x.x.v.v.v.v.v.v.v.v.v.C.C.G.C.G.G.G.H.H.H.J.J.J.H.!.!.!.^.^./././.`.`.,X.XfXSXDXCXsX1X,X,X[.].].'.'./.^.!.~.H.P.G.G.N.v.x.z.q.q.0.0.2.2.;.;.>.>.O.] ! T T ! ! ! ~ ~ ~ ' ' O.O.O.O.%.%.*.-.-.-.;.2.2.2.2.2.2.2.2.2.2.2.2.4.4.4.0.0.0.0.0.0.0.0.0.0.0.0.0.0.0.0.0.q.q.q.q.q.q.q.q.q.q.q.q.0.0.0.q.q.q.q.q.q.q.q.q.q.q.q.q.0.0.0.0.q.q.q.q.q.q.q.q.q.q.0.0.0.0.0.0.0.0.0.0.0.0.2.2.0.0.0.2.2.2.2.2.2.2.2.2.2.2.2.2.2.2.2.2.2.2.2.2.2.2.2.2.2.2.2.2.2.2.2.2.2.2.2.2.2.2.2.2.2.2.2.2.2.2.2.2.2.2.2.2.2.2.2.2.2.2.2.2.2.2.2.2.2.2.2.2.2.2.2.2.2.2.2.2.2.2.2.2.2.2.2.2.2.2.2.2.2.2.2.2.2.2.2.2.2.2.2.2.2.2.2.2.2.2.2.2.2.2.2.2.2.2.2.2.2.2.2.2.2.2.2.2.2.2.2.2.2.2.2.2.2.2.2.2.2.0.0.0.0.0.2.2.2.0.0.0.4.4.4.0.0.0.0.0.0.0.0.0.q.0.0.0.0.0.0.0.q.q.q.q.0.0.q.q.q.q.q.q.q.q.q.q.q.q.q.q.q.q.q.q.q.q.q.q.q.q.q.q.q.q.q.q.q.q.q.q.q.q.q.q.q.q.q.q.q.q.q.q.0.0.0.0.0.0.0.0.0.0.0.0.0.0.2.2.2.2.2.2.2.2.;.;.;.;.*.*.*.%.O.O.+.+.+.+.~ ~ ! ! T ! ~ +.>.:.2.2.2.2.4.0.q.z.x.x.v.v.G.G.H.H.!.!./.`.`.].].].,X,X,X1X9XBXGXGXNXdX.X].].'.`.`.`././.^.!.!.!.!.!.!.H.H.H.H.H.H.G.G.C.C.C.C.C.C.v.v.v.v.v.v.x.x.x.x.x.x.x.x.x.x.z.z.z.z.z.z.z.q.z.z.z.z.q.",
"q.q.q.z.z.z.z.z.z.z.z.x.x.x.x.x.x.x.v.v.v.v.v.v.v.v.v.C.C.G.G.G.G.G.P.H.H.J.J.J.H.!.!.!.^.^./././.`.`.[..XlXSXDXCXpX1X,X].].].].'.'./.^.!.!.J.P.G.G.N.N.v.x.z.q.0.0.2.2.2.;.*.>.:.O.~ E T T E E ! ! ~ ~ ~ ' ' { O.O.O.%.%.*.*.-.;.;.;.2.;.2.2.2.2.2.2.2.2.2.2.2.2.4.0.0.0.0.0.0.0.0.0.0.0.0.0.0.0.0.0.0.q.q.q.q.q.q.q.q.0.0.q.q.q.q.q.q.q.q.q.q.q.q.q.q.0.0.0.0.q.q.q.q.0.q.0.0.0.0.0.0.0.0.0.0.0.0.0.0.0.2.2.2.0.0.0.2.2.2.2.2.0.2.2.2.2.2.2.2.2.2.2.2.2.2.2.2.2.2.2.2.2.2.2.2.2.2.2.2.2.2.2.2.2.2.2.2.2.2.2.2.2.2.2.2.2.2.2.2.2.2.2.2.2.2.2.2.2.2.2.2.2.2.2.2.2.2.2.2.2.2.2.2.2.2.2.2.2.2.2.2.2.2.2.2.2.2.2.2.2.2.2.2.2.2.2.2.2.2.2.2.2.2.2.2.2.2.2.2.2.2.2.2.2.2.2.2.2.2.2.2.2.2.2.2.2.2.2.2.2.2.2.2.2.0.0.0.2.2.2.2.0.0.0.0.4.4.4.4.0.0.0.0.0.0.0.0.0.0.0.0.0.0.0.0.q.q.q.q.0.q.q.q.q.q.q.q.q.q.q.q.q.q.q.q.q.q.q.q.q.q.q.q.q.q.q.q.q.q.q.q.q.q.q.q.q.q.q.q.0.0.0.q.0.q.0.0.0.0.0.0.0.4.4.4.2.2.2.2.2.2.2.2.2.2.2.2.;.;.-.-.*.*.*.%.O.O.O.+.+.+.' ~ ~ ! ! ! T ~ >.:.:.;.2.2.0.0.0.q.z.x.x.x.v.N.G.G.H.H.!.^./.`.`.].].].,X,X,X1X9XBXGXHXCXdX X].].].'.`.`./.^.^.!.!.!.!.!.!.H.H.H.H.H.H.G.G.C.C.C.C.C.C.v.v.v.v.v.v.x.x.x.x.x.x.x.x.x.x.z.z.z.z.z.z.z.q.z.z.z.z.q.",
"q.q.q.q.z.z.z.z.z.z.x.x.x.x.x.x.x.x.x.v.v.v.v.v.v.v.C.C.C.C.G.G.G.G.G.H.H.H.J.H.!.!.!.!.!.~././.'.'.'.[..XzXSXDXCXpX1X].].].].].].'./.^.^.!.H.H.G.G.N.v.v.x.z.q.q.q.4.2.2.2.2.;.O.*.>.+.E T Y ! ^ ^ ^ ! ~ ' ' O.' ' { O.O.O.O.>.>.*.*.*.-.;.;.;.2.2.2.2.2.2.2.2.2.2.2.2.2.2.0.0.0.2.2.0.0.0.0.0.0.0.0.0.0.0.0.0.0.0.0.0.0.0.0.q.0.0.0.0.q.q.q.q.0.0.0.0.q.0.0.0.0.0.0.0.0.0.0.0.0.0.0.0.0.0.0.0.2.2.2.2.0.0.0.0.0.2.2.2.0.0.0.0.2.2.2.2.2.2.2.2.2.2.2.2.2.2.2.2.2.2.2.2.2.2.2.2.1.2.2.2.1.1.1.2.2.2.2.2.2.2.2.2.2.2.2.2.2.2.2.2.2.2.2.2.2.2.2.2.2.2.2.2.2.2.2.2.2.2.2.2.2.2.2.2.2.2.2.2.2.2.2.2.2.2.2.2.2.2.2.2.2.2.2.2.2.2.2.2.2.2.2.2.2.2.2.2.2.2.2.2.2.2.2.2.2.2.1.1.1.1.2.2.2.2.2.2.2.2.2.4.2.2.2.2.2.2.2.2.4.4.4.2.4.4.0.0.4.4.4.4.4.0.0.0.0.0.0.0.0.0.0.0.0.0.q.q.0.0.0.0.q.q.q.q.q.q.q.q.q.q.q.q.q.q.0.0.q.q.q.q.q.q.q.q.q.q.q.q.q.q.q.q.0.0.0.0.0.0.0.0.0.0.0.0.0.0.0.0.0.0.0.0.2.2.2.2.2.2.2.2.2.2.2.2.;.;.;.-.*.*.*.*.%.O.O.O.O.+.' ' ~ ~ ~ ~ ! E T T %.-.-.;.;.;.2.0.0.0.q.q.z.x.x.v.v.C.G.H.H.!.!.^./.`.`.].].].,X,X,X1X0XbXGXGXZXdX.X].].].'.'./.^.!.!.!.!.!.!.H.H.H.H.Z.Z.H.H.C.C.C.C.C.C.C.C.C.v.v.v.v.v.x.x.x.x.x.x.x.x.x.x.z.z.z.z.z.z.z.q.q.q.z.z.z.",
"q.q.q.q.z.z.z.z.z.z.x.x.x.x.x.x.x.x.v.v.v.v.v.v.v.v.C.C.C.C.G.G.G.G.H.H.H.H.H.J.!.!.!.!.~.~./.^./.'.'.)..XzXSXDXNXpX.X].].].].].].'././.^.!.!.H.H.G.C.v.v.x.z.z.q.q.0.4.2.1.2.;.-.;.;.%.~ E Y T T T ^ ~ ~ ~ ' ' ' ' ' O.O.O.>.O.>.*.*.*.>.*.;.;.;.2.2.2.2.2.2.2.2.2.2.2.2.2.0.0.2.2.2.2.2.0.0.0.0.0.0.0.0.0.0.0.0.0.0.0.0.0.0.0.0.0.0.0.0.0.0.0.0.0.0.0.0.0.0.0.0.0.0.0.0.0.0.0.0.0.0.0.0.0.0.0.0.2.2.2.0.0.0.0.0.2.2.2.0.0.0.0.2.2.2.2.2.2.2.2.2.2.2.2.2.2.2.2.2.2.2.2.2.2.2.2.1.1.2.2.1.1.1.2.2.2.2.2.2.2.2.2.2.2.2.2.2.2.2.2.2.2.2.2.2.2.2.2.2.2.2.2.2.2.2.2.2.2.2.2.2.2.2.2.2.2.2.2.2.2.2.2.2.2.2.2.2.2.2.2.2.2.2.2.2.2.2.2.2.2.2.2.2.2.2.2.2.2.2.2.2.2.2.2.2.2.1.1.1.1.2.2.2.2.2.2.2.2.2.2.2.2.2.2.2.2.2.2.4.4.4.2.4.4.0.0.4.4.4.4.4.4.0.0.0.0.0.0.0.0.0.0.0.0.q.q.0.0.0.0.q.q.q.q.q.q.0.0.q.q.q.q.q.q.0.0.q.q.q.q.q.q.q.q.0.0.0.0.0.0.0.0.0.0.0.0.0.0.0.0.0.0.0.0.0.0.2.2.0.0.0.0.2.2.2.2.2.2.2.2.2.2.;.;.;.;.-.*.*.*.*.*.O.O.O.O.+.' ' ' ~ ~ ~ ! T E E ~ *.-.;.;.2.2.0.0.0.0.q.z.z.x.v.v.v.C.G.H.H.!.!.^./.`.'.].].].,X].].1X0XbXGXGXSXdX.X].].].'.'./.^.!.!.!.!.!.!.H.H.H.H.Z.Z.H.H.Z.C.C.C.C.C.C.C.C.v.v.v.v.v.x.x.x.x.x.x.x.x.x.x.z.z.z.z.z.z.z.q.q.q.z.z.z.",
"q.q.q.q.z.z.z.z.z.z.x.x.x.x.x.x.x.x.v.v.v.v.v.v.v.v.v.C.C.C.G.G.C.G.H.H.H.J.J.J.J.!.!.!.!.~.~././.'.'.)..XzXSXDXNXpX.X].].].].].'.`././.^.!.!.H.H.G.G.v.N.x.z.z.q.q.0.4.2.2.2.;.2.;.-.>.>.+.E J T Y ^ ! ! ! ~ ~ ' ' ' ' O.O.O.O.O.O.%.*.*.*.-.;.;.;.;.;.2.;.2.2.2.2.2.2.2.2.2.2.2.2.2.2.2.2.2.2.2.2.2.0.0.0.0.0.0.0.0.0.0.0.0.0.0.0.0.0.0.0.0.0.0.0.0.0.0.0.0.0.0.0.0.0.0.0.0.0.0.0.0.0.0.0.0.0.0.0.2.2.0.2.0.0.2.2.2.2.2.2.2.2.2.2.2.2.2.2.2.2.2.2.2.2.2.2.2.2.2.2.1.1.2.2.2.2.2.2.2.2.2.2.2.2.2.2.2.2.2.2.2.2.2.2.2.2.2.2.2.2.2.2.2.2.2.2.2.2.2.2.2.2.2.2.2.2.2.2.2.2.2.2.2.2.2.2.2.2.2.2.2.2.2.2.2.2.2.2.2.2.2.2.2.2.2.2.2.2.2.2.2.2.2.2.2.2.2.2.2.2.2.2.2.2.2.2.2.1.2.2.2.2.2.2.2.2.2.2.2.2.2.2.2.2.2.2.2.2.2.2.4.4.4.2.4.0.4.2.2.4.4.4.0.0.0.0.0.0.0.0.0.0.0.0.0.0.0.0.0.0.0.0.0.0.0.0.0.0.0.0.0.0.0.0.0.0.0.0.0.0.0.0.0.q.0.0.0.0.0.0.0.0.0.0.0.0.0.0.2.2.0.0.2.2.2.2.2.2.2.2.2.2.2.2.2.2.2.2.;.;.;.;.;.-.-.;.*.*.>.*.O.O.O.O.O.' ' ~ ~ ~ ~ ~ ~ E T E ' *.;.;.;.2.2.0.0.q.0.q.q.z.z.x.v.v.v.C.G.H.J.!.!.^./.`.'.].].].,X].].1X0XbXDXGXZXdX.X].].].'././.^.!.!.!.!.!.!.!.H.H.H.H.H.H.Z.C.C.C.C.C.C.C.C.v.v.v.v.v.v.x.x.x.x.x.x.x.x.x.x.z.z.z.z.z.z.z.z.z.z.z.z.q.",
"q.q.q.q.z.z.z.z.z.z.x.x.x.x.x.x.x.x.v.v.v.v.v.v.v.v.v.v.C.C.C.G.C.G.G.H.H.J.H.J.J.J.!.!.!.~.~././././.)..XzXSXDXNXpX.X].].'.].].'.'././.^.!.!.H.H.G.G.v.N.v.x.z.z.q.q.0.0.4.2.2.2.;.-.:.:.>.+.! Y Y Y T E ! ~ ~ ~ ~ ~ ~ ' ' +.O.O.O.O.O.*.*.*.*.*.-.-.;.;.;.;.;.;.2.2.2.2.2.2.2.2.2.2.2.2.2.2.2.2.2.2.2.0.2.2.2.2.2.2.0.0.0.0.0.0.0.0.0.0.0.0.0.0.0.0.0.0.0.0.0.0.0.0.0.0.0.0.0.2.2.2.2.0.0.0.2.0.0.2.2.2.2.0.0.2.2.2.2.2.2.2.2.2.2.2.2.2.2.2.2.2.2.2.2.2.2.2.2.2.2.2.2.2.1.1.1.2.2.2.2.2.2.2.2.2.2.2.2.2.2.2.2.2.2.2.2.2.2.2.2.2.2.2.2.2.2.2.2.2.2.2.2.2.2.2.2.2.2.2.2.2.2.2.2.2.2.2.2.2.2.2.2.2.2.2.2.2.2.2.2.2.2.2.2.2.2.2.2.2.2.2.2.2.2.2.2.2.2.2.2.2.2.2.2.2.2.2.2.2.2.2.2.2.2.2.2.2.2.2.2.2.2.2.2.2.2.2.2.2.2.2.4.2.2.2.2.4.2.2.2.4.4.2.0.4.0.0.0.4.4.4.4.0.0.0.0.0.0.0.0.0.0.0.0.0.0.0.0.0.0.0.0.0.0.0.0.0.0.0.0.0.0.0.0.0.0.0.0.0.0.0.0.0.0.4.4.2.2.2.2.2.2.2.2.2.2.2.2.2.2.2.2.2.2.2.2.;.;.;.;.-.-.-.-.*.*.*.*.%.O.O.O.+.' ' ' ~ ~ ~ ~ ! E E E ~ ' >.:.;.;.2.2.2.0.0.q.0.q.z.z.x.x.v.v.C.G.H.H.J.!.!.^./.`.'.'.].].].].].[.0XbXDXGXSXaX.X].].'././.^.^.!.!.!.!.!.!.!.H.H.H.H.H.H.Z.C.C.C.C.C.C.C.C.C.v.v.v.v.v.x.x.x.x.x.x.x.x.x.x.z.z.z.z.z.z.z.z.z.z.q.q.q.",
"q.z.z.z.z.z.z.z.z.z.x.x.x.x.x.x.x.x.v.v.v.v.v.v.v.v.v.v.C.C.C.C.C.C.G.H.H.H.H.H.J.J.!.!.!.!.~././././.)..XzXSXDXNXpX.X].].'.].'.'.`././.^.!.!.H.H.G.G.N.N.N.x.x.z.z.q.q.0.0.2.2.2.2.;.:.:.:.>.>.~ E T T T ! ! ! ~ ~ ~ ~ ~ ' ' ' O.O.O.O.O.O.%.*.*.*.*.-.-.-.-.;.;.;.;.;.;.2.;.2.2.2.2.2.2.2.2.2.2.2.2.2.2.2.2.2.2.2.2.2.2.2.2.2.0.0.2.2.2.2.0.0.0.0.0.0.0.0.0.0.0.0.0.0.0.0.0.0.2.2.0.0.0.0.2.2.2.2.2.2.2.2.2.2.2.2.2.2.2.2.2.2.2.2.2.2.2.2.2.2.2.2.2.2.2.2.2.2.2.2.2.2.2.2.2.2.2.2.2.2.2.2.2.2.2.2.2.2.2.2.2.2.2.2.2.2.2.2.2.2.2.2.2.2.2.2.2.2.2.2.2.2.2.2.2.2.2.2.2.2.2.2.2.2.2.2.2.2.2.2.2.2.2.2.2.2.2.2.2.2.2.2.2.2.2.2.2.2.2.2.2.2.2.2.2.2.2.2.2.2.2.2.2.2.2.1.2.2.2.1.1.1.1.1.1.2.2.2.2.2.2.2.2.2.4.2.2.2.2.2.2.2.2.4.4.2.2.2.4.4.2.4.4.4.0.0.0.0.0.0.4.4.0.0.0.0.0.0.0.0.0.0.0.0.0.0.0.0.4.4.4.4.0.0.0.0.4.4.4.4.0.0.0.0.0.0.4.4.4.4.0.0.2.2.2.2.2.2.2.2.2.2.2.2.2.2.2.2.2.2.2.2.2.;.;.;.;.;.;.-.-.-.*.*.*.%.O.O.O.O.O.O.' ' ~ ~ ~ ~ ~ ! E T T ~ O.:.:.:.;.2.2.2.2.2.0.0.q.z.z.x.x.v.N.N.G.G.H.H.J.!.!.^./.`.`.'.].].].].]..X0XbXGXGXSXaX.X`.'.'././.^.^.!.!.!.!.!.H.H.H.H.H.H.Z.H.C.C.C.C.C.C.C.C.C.C.v.v.v.v.v.x.x.x.x.x.x.x.x.x.x.z.z.z.z.z.z.z.z.z.z.q.q.q.",
"q.z.z.z.z.z.z.z.z.z.x.x.x.x.x.x.x.x.v.v.v.v.v.v.v.v.v.v.C.C.C.C.C.C.G.G.H.H.H.H.J.J.!.!.!.!.~.~.^././.)..XzXSXDXNXpX.X].'.'.'.'.'.`./.^.^.!.!.H.P.G.G.G.N.N.v.x.x.z.q.q.q.0.0.2.2.5.2.;.;.>.>.:.>.~ T T T E ! E E ! ! ~ ~ ~ ' ' ' ' +.O.+.O.O.O.%.%.*.*.*.*.-.-.-.-.-.-.;.;.;.;.2.2.2.2.2.2.2.2.2.2.2.2.2.2.2.2.2.2.2.2.2.2.2.2.0.0.2.2.0.2.0.0.0.0.0.0.4.4.2.2.2.2.0.0.0.0.0.0.2.2.0.0.0.0.2.2.2.2.2.2.2.2.2.2.2.2.2.2.2.2.2.2.2.2.2.2.2.2.2.2.2.2.2.2.2.2.2.2.2.2.2.2.2.2.2.2.2.2.2.2.2.2.2.2.2.2.2.2.2.2.2.2.2.2.2.2.2.2.2.2.2.2.2.2.2.2.2.2.2.2.2.2.2.2.2.2.2.2.2.2.2.2.2.2.2.2.2.2.2.2.2.2.2.2.2.2.2.2.2.2.2.2.2.2.2.2.2.2.2.2.2.2.2.2.2.2.2.2.2.2.2.2.2.2.2.1.1.2.2.2.1.1.1.1.2.2.2.2.2.2.2.2.2.2.2.2.2.2.2.2.2.2.2.2.4.2.2.2.2.2.2.4.2.4.4.4.0.0.4.4.4.4.4.4.4.4.4.4.4.4.0.0.0.0.0.0.0.0.4.4.4.4.4.4.0.0.4.4.2.2.2.2.4.4.0.0.4.4.0.4.0.0.2.2.2.2.2.2.2.2.2.2.2.2.2.2.2.2.2.2.;.;.;.-.-.-.-.-.-.-.*.*.*.*.O.O.O.O.O.+.' ' ~ ~ ~ ~ ~ ! ! E E E ~ ' >.5.5.:.;.2.2.2.2.0.0.0.q.z.x.x.v.v.N.G.G.H.H.J.H.!.!.^././.'.'.].].].].]..X0XbXGXHXSXaX.X`.'./././.^.^.!.!.!.!.!.H.H.H.H.H.H.Z.H.C.C.C.C.C.C.C.C.C.C.v.v.v.v.v.x.x.x.x.x.x.x.x.x.x.z.z.z.z.z.z.z.z.q.z.q.q.q.",
"q.q.z.z.z.z.z.z.z.z.x.x.x.x.x.x.x.x.v.v.v.v.v.v.v.v.v.v.C.C.C.C.C.G.G.G.H.H.H.H.J.J.!.!.!.~.~.~.^././.)..XzXSXDXBXpX.X].'.'.'.'.'.'./.^.^.!.!.H.H.G.G.G.G.N.v.x.x.x.z.q.q.0.0.2.0.5.2.2.;.;.-.>.>.O.' E T Y T T T E E ! ~ ~ ~ ' ' ' ' ' ' O.O.O.O.O.%.%.*.*.*.*.*.*.-.-.-.-.-.;.2.2.;.;.;.2.2.2.2.2.2.2.2.2.2.2.2.2.2.2.2.2.2.2.2.2.2.2.2.2.2.2.0.0.0.0.2.2.2.2.2.2.2.2.0.0.0.0.2.2.0.0.0.2.2.2.2.2.2.2.2.2.2.2.2.2.2.2.2.2.2.2.2.2.2.2.2.2.2.2.2.2.2.2.2.2.2.2.2.2.2.2.2.2.2.2.2.2.2.2.2.2.2.2.2.2.2.2.2.2.2.2.2.2.2.2.2.2.2.2.2.2.2.2.2.2.2.2.2.2.2.2.2.2.2.2.2.2.2.2.2.2.2.2.2.2.2.2.2.2.2.2.2.2.2.2.2.2.2.2.2.2.2.2.2.2.2.2.2.2.2.2.2.2.2.2.2.2.2.2.2.2.2.2.2.2.2.2.2.2.2.2.2.2.1.2.2.2.1.2.2.2.2.2.2.2.2.2.2.2.2.2.2.2.2.2.2.2.2.2.2.2.2.2.2.2.2.2.2.2.4.4.4.4.4.4.4.4.4.4.4.4.4.4.4.4.4.4.2.2.2.2.4.4.2.2.2.4.4.4.2.2.2.2.2.2.2.2.2.2.2.2.2.2.2.2.2.2.2.2.2.2.2.2.2.2.;.;.;.;.;.-.-.-.-.-.*.*.*.*.%.*.O.O.O.O.O.' ' ' ' ' ~ ~ ~ ~ ! E E E E ' O.*.:.:.:.2.2.2.0.0.0.0.0.0.q.z.x.x.v.v.N.G.G.H.H.J.!.!.!.^././.`.`.].].].].].[.0XbXGXHXSXaX.X`././././.^.).!.!.!.!.!.H.H.H.H.H.H.Z.H.G.C.C.C.C.C.C.C.C.C.v.v.v.v.v.x.x.x.x.x.x.x.x.x.x.z.z.z.z.z.z.z.z.q.q.q.q.z.",
"q.q.q.z.z.z.z.z.z.z.x.x.x.x.x.x.x.x.v.v.v.v.v.v.v.v.v.v.C.C.G.C.C.G.G.G.G.H.H.J.J.J.J.!.!.~.~.~.^././.)..XzXSXDXBXpX.X].'.'.'.'.'.'./.^.^.!.!.H.H.H.P.G.G.N.N.v.x.x.z.q.q.q.0.0.2.2.;.;.2.2.;.*.*.>.>.' T T Y ^ T T ^ ! ~ ~ ~ ~ ' ' ' ' ' ' O.O.O.O.O.O.%.%.*.*.*.*.*.*.-.-.-.-.;.;.;.;.;.;.;.2.2.2.2.2.2.2.2.2.2.2.2.2.2.2.2.2.2.2.2.2.2.2.2.2.2.2.2.2.2.2.2.2.2.2.2.2.2.2.2.2.2.2.2.2.2.2.2.2.2.2.2.2.2.2.2.2.2.2.2.2.2.2.2.2.2.2.2.2.2.2.2.2.2.2.2.2.2.2.2.2.2.2.2.2.2.2.2.2.2.2.2.2.2.2.2.2.2.2.2.2.2.2.2.2.2.2.2.2.2.2.2.2.2.2.2.2.2.2.2.2.2.2.2.2.2.2.2.2.2.2.2.2.2.2.2.2.2.2.2.2.2.2.2.2.2.2.2.2.2.2.2.2.2.2.2.2.2.2.2.2.2.2.2.2.2.2.2.2.2.2.2.2.2.2.2.2.2.2.2.2.2.2.2.2.2.1.1.2.2.2.1.1.2.2.4.2.2.2.2.2.2.2.2.2.2.2.2.2.2.2.2.2.2.2.2.2.2.2.2.2.2.2.4.4.4.4.4.4.4.4.4.4.4.4.4.4.4.4.0.4.2.4.4.4.4.2.2.2.2.2.2.2.2.2.2.2.2.2.2.2.2.2.2.2.2.2.2.2.2.2.2.2.2.2.2.2.;.;.;.;.;.;.-.-.-.-.*.*.%.%.%.O.O.O.O.O.O.O.' ' ' ' ~ ~ ~ ~ ^ ! E E E E ~ O.:.2.-.*.;.2.2.0.0.q.q.0.0.q.z.z.x.v.v.v.N.G.G.H.H.H.!.!.!.^.^./.`.'.].].].].].[.0XbXGXHXSXaX.X`./././.^.^.).!.!.!.!.!.H.H.H.H.H.H.Z.H.G.C.C.C.C.C.C.C.C.C.v.v.v.v.v.x.x.x.x.x.x.x.x.x.x.z.z.z.z.z.z.z.q.q.q.q.q.q.",
"q.q.z.z.z.z.z.z.z.z.x.x.x.x.x.x.x.x.v.v.v.v.v.v.v.v.v.C.C.C.C.C.C.C.G.G.G.G.H.H.H.J.J.!.!.~.!.!.^././.)..XzXDXDXBXpX.X`.`.'.'.'./././.^.!.!.!.!.H.H.P.G.G.G.v.v.x.x.z.z.q.q.0.0.2.0.0.2.2.;.;.;.-.-.=.>.O.~ T D T T ^ ! ! ! ! ! ~ ~ ~ ~ ' ' ' ' +.' O.O.O.O.O.O.%.%.*.*.*.*.*.*.-.-.-.-.;.;.;.;.;.;.;.;.2.2.2.2.2.2.2.2.2.2.2.2.2.2.2.2.2.2.2.2.2.2.2.2.2.2.2.2.2.2.2.2.2.2.2.2.2.2.2.2.2.2.2.2.2.2.2.2.2.2.2.2.2.2.2.2.2.2.2.2.2.2.2.2.2.2.2.2.2.2.2.2.2.2.2.2.2.2.2.2.2.2.2.2.2.2.2.2.2.2.2.2.;.;.2.2.2.2.2.2.;.;.2.2.2.2.;.;.2.2.2.2.2.2.2.2.2.2.2.2.2.2.2.2.2.2.2.2.2.2.2.2.2.2.2.2.2.2.2.2.2.2.2.2.2.2.2.2.2.2.2.2.2.2.2.2.2.2.2.2.2.2.2.2.2.2.2.2.2.2.2.2.2.2.2.2.2.2.2.2.2.2.2.2.2.2.2.2.2.2.2.2.2.2.2.2.2.2.2.2.2.2.2.2.2.2.2.2.2.2.2.2.4.4.4.4.2.2.2.4.2.2.2.2.4.4.4.4.4.4.4.4.4.4.4.4.2.2.2.2.2.2.2.2.2.2.2.2.2.2.2.2.2.2.2.2.2.2.2.2.2.2.2.2.;.;.;.;.;.;.;.;.;.;.-.-.-.*.*.*.*.*.%.%.O.O.O.O.O.O.' ' ' ' ' ' ~ ~ ~ ~ E ^ ~ E J J ! O.>.=.;.;.2.2.2.2.2.2.0.0.0.q.z.z.z.z.x.x.v.v.N.G.C.C.H.H.!.!.(.^.^./.`.'.'.].].].].[.0XbXGXGXSXaX.X`././.^.^.!.(.!.!.!.!.J.H.H.H.H.H.H.H.G.G.C.C.C.C.C.C.C.v.v.v.v.x.v.v.x.x.x.x.x.x.x.x.x.x.z.z.z.z.z.z.z.q.q.q.z.z.z.",
"q.q.z.z.z.z.z.z.z.z.x.x.x.x.x.x.x.x.v.v.x.v.v.v.v.v.v.C.C.C.C.C.C.C.G.G.G.G.H.H.H.J.J.J.!.~.~.!.^././.)..XzXDXDXNXpX.X`.`.'.'.'./././.^.!.!.!.!.J.H.G.G.G.G.v.v.x.x.z.z.q.q.q.0.0.0.0.2.2.;.;.;.;.-.-.=.>.] ! Y Y Y T E ! ~ ! ! ~ ~ ~ ~ ~ ' ' ' ' ' +.O.O.O.O.O.%.%.*.*.*.*.*.*.-.-.-.-.-.;.;.;.;.;.;.;.;.2.2.2.2.2.2.2.2.2.2.2.2.2.2.2.2.2.2.2.2.2.2.2.2.2.2.2.2.2.2.2.2.2.2.2.2.2.2.2.2.2.2.2.2.2.2.2.2.2.2.2.2.2.2.2.2.2.2.2.2.2.2.2.2.2.2.2.2.2.2.2.2.2.2.2.2.2.2.2.2.2.2.2.2.2.2.2.2.2.2.2.;.;.2.;.2.2.2.2.;.;.2.2.2.2.;.;.2.2.2.2.2.2.2.2.2.2.2.2.2.2.2.2.2.2.2.2.2.2.2.2.2.2.2.2.2.2.2.2.2.2.2.2.2.2.2.2.2.2.2.2.2.2.2.2.2.2.2.2.2.2.2.2.2.2.2.2.2.2.2.2.2.2.2.2.2.2.2.2.2.2.2.2.2.2.2.2.2.2.2.2.2.2.2.2.2.2.2.2.2.2.2.2.2.2.2.2.2.2.2.2.2.2.2.2.2.2.2.2.2.2.2.2.2.2.2.2.2.2.2.2.2.2.2.2.2.2.2.2.2.2.2.2.2.2.1.2.2.2.2.1.2.2.2.2.2.2.2.2.2.2.2.;.;.;.;.;.;.;.;.-.-.-.-.-.*.*.*.*.*.%.%.%.O.O.O.O.O.' ' ' ' ' ' ~ ~ ~ ~ ~ ^ ! E T T ! ' O.=.;.;.;.2.2.2.2.2.2.0.0.q.q.z.z.z.x.x.x.v.v.N.G.G.H.H.H.!.!.(.^./././.'.`.].].].].[.0XbXGXGXSXaX.X`./././.^.).(.!.!.!.!.J.H.H.H.H.H.H.H.G.G.C.C.C.C.C.C.C.v.v.v.v.v.v.v.x.x.x.x.x.x.x.x.x.x.z.z.z.z.z.z.z.q.q.q.z.z.z.",
"q.q.q.z.z.z.z.z.z.z.x.x.x.x.x.x.x.x.v.v.x.x.v.v.v.v.v.C.C.C.C.C.G.G.G.G.G.G.H.H.H.H.J.J.J.J.~.!.!././.)..XbXDXGXNXpX.X`.`.'./././././.^.!.!.!.!.J.H.G.G.G.G.v.v.x.x.z.z.z.q.q.0.0.0.0.2.2.2.2.2.;.;.;.;.=.>.+.] Y T T Y ! ! ! ! ~ ~ ~ ~ ~ ~ ' ' ' ' ' +.O.O.O.O.O.O.O.%.%.*.*.*.*.*.*.-.-.-.-.;.;.;.;.;.;.;.;.;.2.2.2.2.;.2.2.2.2.2.2.2.2.2.2.2.2.2.2.2.2.2.2.2.2.2.2.2.2.2.2.2.2.2.2.2.2.2.2.2.2.2.2.2.2.2.2.2.2.2.2.2.2.2.2.2.2.2.2.2.2.2.2.2.2.2.2.2.2.2.2.2.2.2.2.2.2.2.2.2.2.2.2.2.2.2.2.2.;.;.;.;.;.;.2.2.;.;.;.;.2.2.2.;.2.2.2.2.2.2.2.2.2.2.2.2.2.2.2.2.2.2.2.2.2.2.2.2.2.2.2.2.2.2.2.2.2.2.2.2.2.2.2.2.2.2.2.2.2.2.2.2.2.2.2.2.2.2.2.2.2.2.2.2.2.2.2.2.2.2.2.2.2.2.2.2.2.2.2.2.2.2.2.2.2.2.2.2.2.2.2.2.2.2.2.2.2.2.2.2.2.2.2.2.2.2.2.2.2.2.2.2.2.2.2.2.2.2.2.2.2.2.2.2.2.2.2.2.2.2.2.2.2.2.2.2.2.2.2.2.2.2.2.2.2.1.1.1.2.2.2.2.2.2.2.2.2.;.;.;.;.;.;.;.;.-.-.*.-.*.*.*.*.*.*.%.%.O.O.O.O.O.O.O.' ' ' ' ~ ~ ~ ~ ~ ~ ! ! ~ E Y E ~ O.>.=.;.;.;.2.2.2.2.2.2.2.0.0.q.q.z.z.x.x.x.x.v.v.C.C.C.Z.H.H.!.!.).^.^././.'.`.'.'.].].[.0XbXGXGXSXaX.X`././.^.^.!.(.!.!.J.J.J.J.H.H.H.H.H.H.G.G.G.G.C.C.C.C.C.v.v.v.v.v.v.v.x.x.x.x.x.x.x.x.x.x.z.z.z.z.z.z.z.z.q.z.z.z.q.",
"q.q.q.z.z.z.z.z.z.z.x.x.x.x.x.x.x.x.v.v.x.x.v.v.v.v.v.C.C.C.C.C.G.G.G.G.G.G.H.H.H.H.J.J.J.~.~.!.!.^.~.(..XbXDXGXNXpX.X`.'.'.'././././.^.!.!.!.!.J.H.G.G.G.G.v.v.v.x.x.z.z.z.q.q.0.0.0.0.2.2.2.2.2.2.;.;.;.:.>.>.! T T T T ! ! E ! ! ~ ~ ~ ~ ~ ~ ' ' ' ' ' ' O.O.O.O.O.O.*.*.%.*.*.*.*.*.*.-.-.-.-.-.-.-.;.;.;.;.;.;.;.;.;.;.;.;.;.2.2.2.2.2.2.2.2.2.2.2.2.2.2.2.2.2.2.2.2.2.2.2.2.2.2.2.2.2.2.2.2.2.2.2.2.2.2.2.2.2.2.2.2.2.2.2.2.2.2.2.2.2.2.2.2.2.2.2.2.2.2.2.2.2.2.2.2.2.2.2.2.2.2.2.2.2.2.2.;.;.;.;.;.;.;.2.;.;.;.;.2.2.2.;.2.2.2.2.2.2.2.2.2.2.2.2.2.2.2.2.2.2.2.2.2.2.2.2.2.2.2.2.2.2.2.2.2.2.2.2.2.2.2.2.2.2.2.2.2.2.2.2.2.2.2.2.2.2.2.2.2.2.2.2.2.2.2.2.2.2.2.2.2.2.2.2.2.2.2.2.2.2.2.2.1.1.2.2.2.2.2.2.1.1.1.1.2.2.2.2.2.2.2.2.2.2.2.2.2.2.2.2.2.2.2.2.2.2.2.2.2.2.2.2.2.2.2.2.2.2.2.2.2.2.2.2.2.2.2.2.2.2.2.2.2.2.2.2.;.2.;.2.2.;.;.;.;.;.;.;.-.-.-.-.-.*.*.*.*.*.*.*.*.%.*.*.O.O.O.O.O.O.' ' ' ' ' ' ~ ~ ~ ~ ~ ! E E ! T E ~ O.:.:.2.;.;.2.2.2.2.2.2.2.0.0.q.q.z.z.z.x.x.x.x.v.G.G.C.H.Z.H.H.!.!.^.^.^././.'.'.`.`.'.].[.0XbXGXHXSXsX.X`././.^.!.!.(.!.!.J.J.J.J.H.H.H.H.H.H.G.G.G.C.C.C.C.C.C.v.v.v.v.v.v.x.x.x.x.x.x.x.x.x.x.x.z.z.z.z.z.z.z.z.z.z.q.q.q.",
"q.q.q.q.z.z.z.z.z.z.x.x.x.x.x.x.x.x.v.v.x.x.v.v.v.v.v.v.C.C.C.C.G.G.G.G.P.G.H.H.H.H.H.J.J.~.~.~.!./.~.(.:XzXDXDXBXpX.X`.`.`./././././.^.!.!.!.!.J.H.H.G.G.G.v.v.v.x.x.x.z.z.q.q.0.0.0.0.2.2.2.2.2.2.2.;.;.;.-.*.+.~ T T T T T T E E ! ~ ~ ~ ~ ~ ~ ' ' ' ' ' +.' O.+.O.O.O.O.O.*.%.%.*.*.*.*.*.*.-.-.-.-.-.-.-.-.;.;.;.;.;.;.;.2.;.;.;.2.2.2.2.2.;.2.2.2.2.2.2.2.2.2.2.2.2.2.2.2.2.2.2.2.2.2.2.2.2.2.2.2.2.2.2.2.2.2.2.2.2.2.2.2.2.2.2.2.2.2.2.2.2.2.2.2.2.2.2.2.2.2.2.2.2.2.2.2.2.2.2.2.2.2.2.2.;.;.;.2.;.;.;.;.2.2.2.;.;.;.;.;.2.2.2.2.2.2.2.2.2.2.2.2.2.2.2.2.2.2.2.2.2.2.2.2.2.2.2.2.2.2.2.2.2.2.2.2.2.2.2.2.2.2.2.2.2.2.2.2.2.2.2.2.2.2.2.2.2.2.2.2.2.2.2.2.2.2.2.2.2.2.2.2.2.2.2.2.2.2.2.2.1.1.2.2.2.2.2.2.1.1.2.2.2.2.2.2.2.2.2.2.2.2.2.2.2.2.2.2.2.2.2.2.2.2.2.2.2.2.2.2.2.2.2.2.2.2.2.2.2.2.2.2.2.1.1.1.2.2.2.2.2.2.2.2.;.;.;.;.;.;.;.;.-.-.*.-.*.*.*.*.*.*.*.*.*.%.O.O.O.O.O.O.O.O.O.O.' ' ' ' ' ' ~ ~ ~ ~ ~ ~ ! E E E T E ~ O.>.:.2.2.2.2.2.2.2.2.2.0.4.0.0.q.q.z.z.x.x.x.x.v.v.C.G.G.H.H.H.H.!.!.^.^.^././.`.`.'.`.'.'.[.0XbXGXHXSXsX.X/././.^.!.!.!.!.J.J.J.J.H.H.H.H.H.G.G.G.G.C.C.C.C.C.C.C.C.C.C.v.v.v.v.x.x.x.x.x.x.x.x.x.x.z.z.z.z.z.z.z.z.z.z.q.q.q.",
"q.q.q.q.z.z.z.z.z.z.x.x.x.x.x.x.x.x.v.v.x.x.v.v.v.v.v.v.C.C.C.C.G.G.G.G.P.P.H.H.H.H.H.J.J.J.~.~.!.~.~.W.:XbXDXDXBXpX.X`.`.`././././.^.^.!.!.!.!.J.H.H.G.G.G.G.v.B.v.x.x.x.z.z.q.0.0.0.0.0.2.2.2.2.2.2.;.;.;.-.-.-.O.' E Y T T T E E E ! ! ~ ~ ~ ~ ~ ~ ' ' ' ' ' ' +.' O.O.O.O.O.O.O.O.%.*.*.*.*.*.*.*.*.*.*.-.-.;.;.;.;.;.;.;.;.;.;.;.;.;.;.2.2.;.;.;.;.2.2.2.2.2.2.2.2.2.2.2.2.2.2.2.2.2.2.2.2.2.2.2.2.2.2.2.2.2.2.2.2.2.2.2.2.2.2.2.2.2.2.2.2.2.2.2.2.2.2.2.2.2.2.2.2.2.2.2.2.2.2.2.2.2.2.2.2.;.;.;.2.;.;.;.;.2.2.2.2.;.;.;.2.2.2.2.2.2.2.2.2.2.2.2.2.2.2.2.2.2.2.2.2.2.2.2.2.2.2.2.2.2.2.2.2.2.2.2.2.2.2.2.2.2.2.2.2.2.2.2.2.2.2.2.2.2.2.2.2.2.2.2.2.2.2.2.2.2.2.2.2.2.2.2.2.2.2.2.2.2.2.2.2.1.1.2.2.2.2.2.2.1.1.2.2.2.2.2.2.2.2.2.2.2.2.2.2.2.2.2.2.2.2.2.2.2.2.2.1.2.2.1.2.1.1.2.2.2.2.1.1.2.2.2.2.2.2.2.2.2.2.2.2.2.2.2.2.;.;.;.;.;.;.-.-.*.*.*.*.*.*.*.*.*.*.*.*.O.O.O.O.O.O.O.O.O.+.' ' ' ' ' ' ' ' ~ ~ ~ ~ ! ! T E E E T ~ >.:.:.;.;.2.2.2.2.2.2.2.0.0.0.0.0.q.z.z.z.x.x.x.x.v.v.C.G.G.H.H.H.!.!.!.^.^.^././.`.`.`.`.`.'.`.0XbXGXHXSXsX.X/././.!.!.!.!.!.J.J.H.J.H.H.H.H.H.G.G.G.G.C.C.C.C.C.C.C.C.C.C.v.v.v.v.x.x.x.x.x.x.x.x.x.x.z.z.z.z.z.z.z.z.z.z.q.q.q.",
"q.q.q.q.z.z.z.z.z.z.x.x.x.x.x.x.x.x.v.v.v.x.v.v.v.v.v.v.v.C.C.C.G.G.G.G.P.P.H.H.H.H.H.J.J.J.~.!.!.!.~.(..XzXDXGXMXpX.X`.`././././.^./.!.!.!.!.!.J.J.H.G.G.C.C.v.N.v.x.x.x.x.z.q.q.q.q.0.0.0.2.2.2.2.2.2.2.2.;.-.;.-.>.' ! Y T T T E E E ! ! ~ ~ ~ ~ ~ ~ ' ' ' ' ' ' +.' O.O.O.O.O.O.O.O.%.%.*.*.*.*.*.*.*.*.*.*.-.-.-.;.;.;.;.;.;.;.;.;.;.;.;.;.;.;.;.;.2.2.2.2.2.2.2.2.2.2.2.2.2.2.2.2.2.2.2.2.2.2.2.2.2.2.2.2.2.2.2.2.2.2.2.2.2.2.2.2.2.2.2.2.2.2.;.2.;.;.;.;.2.2.2.2.2.2.2.2.2.2.2.2.2.2.2.2.;.;.2.2.2.2.2.2.2.2.2.2.;.;.2.2.-.-.-.-.2.2.2.1.-.-.-.-.2.2.2.1.-.-.-.-.2.2.2.1.2.2.2.2.2.2.2.2.2.2.2.2.2.2.2.2.2.2.2.2.2.2.2.2.2.2.2.2.2.2.2.2.2.2.2.2.2.2.2.2.2.2.2.2.2.2.2.2.2.2.2.2.2.2.2.2.1.2.2.2.2.2.2.2.2.2.2.2.2.2.2.2.2.2.1.1.2.2.2.2.2.1.1.2.2.2.2.2.2.1.1.1.2.2.2.2.1.2.2.2.2.1.1.1.2.2.2.2.2.2.2.2.1.1.2.2.-.-.-.-.;.;.-.-.;.;.-.-.*.*.*.*.*.*.*.*.*.*.*.*.O.O.O.O.O.O.O.O.' ' ' ' ' ' ' ' ~ ~ ~ ~ ~ ~ ! T T E ^ ~ +.>.:.:.:.;.;.2.2.2.2.2.2.0.0.0.0.0.0.q.z.z.x.x.x.x.x.v.v.C.G.G.H.H.H.!.!.!.^.^.^.^./.`.`.`.`.`.'.`.0XbXGXHXSXaX.X/.^./.!.!.!.!.!.J.J.J.H.H.H.H.H.H.G.G.G.C.C.C.C.C.C.C.v.v.C.C.v.v.v.v.x.x.x.x.x.x.x.x.x.x.z.z.z.z.z.z.z.q.z.q.q.q.z.",
"q.q.q.q.z.z.z.z.z.z.x.x.x.x.x.x.x.x.v.v.v.v.v.v.v.v.v.v.v.C.C.C.G.G.G.G.P.P.H.H.H.H.J.J.J.!.~.!.!.!.~.W..XbXDXGXMXpX.X`.`././././.^./.!.!.!.!.!.J.J.H.G.G.C.C.v.v.B.x.x.x.x.z.z.q.q.q.0.0.0.2.2.2.2.2.2.2.2.2.2.-.;.5.>.~ T T T T T E E E ! ! ~ ~ ~ ~ ~ ~ ' ' ' ' ' ' ' ' O.O.O.O.O.O.O.O.%.%.*.*.*.*.*.*.*.*.*.-.-.-.-.;.;.;.;.;.;.;.;.;.;.;.;.;.;.;.;.2.2.2.2.2.2.2.2.2.2.2.2.2.2.2.2.2.2.2.2.2.2.2.2.2.2.2.2.2.2.2.2.2.2.2.2.2.2.2.2.2.2.2.2.2.2.;.;.;.;.;.;.2.2.2.2.2.2.2.2.2.2.2.2.2.2.2.2.;.;.2.2.2.2.2.2.2.2.2.;.;.;.2.2.-.-.-.-.2.2.2.1.-.-.-.-.2.2.2.1.-.-.-.-.2.2.2.1.2.2.2.2.2.2.2.2.2.2.2.2.2.2.2.2.2.2.2.2.2.2.2.2.2.2.2.2.2.2.2.2.2.2.2.2.2.2.2.2.2.2.2.2.2.2.2.2.2.2.2.2.2.2.2.2.2.2.2.2.2.2.2.2.2.2.2.2.2.2.2.2.2.2.1.1.2.2.2.2.2.2.2.2.2.2.2.2.2.1.2.1.2.1.2.1.2.1.2.1.2.2.2.2.2.2.2.2.2.2.2.2.1.-.1.-.-.-.-.-.-.-.-.-.;.-.*.*.*.*.*.*.*.*.*.*.*.*.*.O.O.O.O.O.O.O.O.' +.' ' ' ' ' ~ ~ ~ ~ ~ ~ ~ ! E T E E ~ ~ :.:.5.2.2.;.2.2.2.2.2.2.2.0.0.0.0.0.q.q.q.z.x.x.x.x.x.v.C.C.G.G.H.H.H.!.!.!.!.^.^.^././.'.`.`.`.'.`.0XbXDXHXSXaX{./././.^.!.!.!.J.J.J.J.H.H.H.H.H.H.G.G.G.C.C.C.C.C.C.v.v.v.v.v.v.v.v.v.x.x.x.x.x.x.x.x.z.z.z.z.z.z.z.z.z.q.q.q.q.q.q.",
"z.z.z.z.z.z.z.z.z.z.z.z.x.x.x.x.x.x.x.x.v.v.v.v.v.v.v.v.v.v.v.C.G.G.G.G.G.G.G.H.H.H.J.J.J.J.J.!.!.!.~.W.:XbXDXDXNXiXQ././.^./././././.!.!.!.~.~.J.H.H.G.G.G.C.v.v.v.v.v.x.z.z.z.q.q.q.q.0.0.0.0.2.2.2.2.2.2.2.;.;.;.-.:.>.O.~ T Y T ! ! E E ^ ~ ^ ! ~ ~ ~ ' ' ' ' ' ' ' ' ' ' O.O.O.O.O.O.O.O.O.%.%.%.*.*.*.*.*.*.*.*.*.*.*.-.-.-.;.-.-.-.;.;.;.;.;.;.;.;.;.;.;.2.2.2.2.2.2.2.2.2.;.;.2.2.2.2.2.2.2.2.2.2.2.2.2.2.2.2.2.2.2.2.2.2.2.2.2.2.2.2.2.2.2.2.2.2.2.2.2.-.1.2.2.1.1.-.-.-.-.2.2.2.1.-.-.-.-.-.1.2.2.-.-.-.-.-.1.2.2.2.2.-.-.-.2.2.2.-.-.2.2.1.1.;.2.2.2.-.;.2.2.1.1.-.-.1.1.-.-.2.2.2.2.-.-.-.;.2.2.1.1.2.2.1.1.;.2.2.2.-.-.2.2.1.1.-.-.2.1.-.-.2.2.2.2.2.2.2.2.2.2.2.2.-.-.-.-.2.2.2.;.2.2.2.2.2.2.2.2.2.2.2.2.2.2.2.2.2.2.-.-.2.2.2.2.2.2.2.2.2.2.2.2.2.2.2.2.2.2.2.2.2.2.2.2.2.2.2.2.2.2.2.2.2.2.-.-.-.-.-.-.-.-.-.-.-.*.*.*.*.*.*.*.*.*.O.O.O.O.O.O.O.O.O.O.O.{ ' ' ' ' ' ' ' ' ~ ~ ' ~ ~ ~ ~ ~ ! ! E E E T T ~ O.:.:.;.2.2.2.2.2.2.2.2.2.2.0.0.0.0.q.q.q.q.z.x.x.x.x.v.v.C.C.C.G.G.H.H.H.H.!.!.!.^./.^././././././.'.^.:XbXDXHXDXsX{.^.!.!.^.^.!.!.!.!.J.H.H.H.H.H.H.H.G.G.G.C.C.C.C.C.C.C.v.v.v.v.v.v.v.v.x.x.x.x.x.x.x.x.x.x.z.z.z.z.z.z.z.z.z.z.z.z.z.",
"z.z.z.z.z.z.z.z.z.z.z.z.x.x.x.x.x.x.x.x.v.v.v.v.v.v.v.v.v.v.C.G.G.G.G.G.G.G.G.H.H.H.J.J.J.J.J.!.!.~.~.W.:XbXDXDXNXiXQ././.^././././.~.!.!.!.~.~.J.J.H.G.G.G.C.C.v.v.v.v.x.x.z.z.q.q.q.q.q.0.0.0.2.2.2.2.2.2.2.;.2.;.:.:.2.-.O.~ Y Y Y T E ^ ^ ^ ^ ! ~ ~ ~ ~ ' ' ' ' ' ' ' ' ' ' O.O.O.O.O.O.O.O.O.O.%.%.*.*.*.*.*.*.*.*.*.*.-.-.-.-.-.-.-.;.;.;.;.;.;.;.;.;.;.;.2.2.2.2.2.2.2.2.2.;.;.;.2.2.2.2.2.2.2.2.2.2.2.2.2.2.2.2.2.2.2.2.2.2.2.2.2.2.2.2.2.2.2.2.2.2.2.2.-.1.1.1.1.2.-.-.-.-.2.2.2.2.-.-.-.-.1.1.2.2.;.;.-.-.1.1.1.1.2.2.-.-.-.2.2.2.1.-.2.2.2.1.;.2.2.2.-.;.;.2.1.1.-.-.2.1.1.-.2.2.2.2.-.-.-.;.2.2.1.1.2.2.2.1.-.2.2.2.-.;.;.2.2.1.-.-.2.1.1.-.2.2.2.2.2.2.2.2.2.2.2.2.;.-.-.-.2.2.2.;.2.2.2.2.2.2.2.2.2.2.2.2.2.2.2.2.2.-.-.-.2.2.2.2.2.2.2.2.2.2.2.2.2.2.2.2.2.2.2.2.2.2.2.2.2.2.2.2.1.1.2.-.-.-.-.-.-.-.-.-.-.-.-.-.*.*.*.*.*.*.*.*.%.%.O.O.O.O.O.O.O.O.O.O.{ ' ' ' ' ' ' ' ' ~ ~ ~ ~ ~ ! ~ ~ ~ ^ ! E E T E ~ O.*.:.;.2.2.2.2.2.2.2.2.2.2.2.0.0.0.0.q.q.q.z.z.x.x.x.v.v.v.C.C.C.C.G.H.H.H.H.!.!.!.~././.^./././././.'.^.:XxXDXHXDXsX{.).(.!.^.E.!.J.!.!.J.H.H.H.H.H.H.H.G.G.G.C.C.C.C.C.C.C.v.v.v.v.v.v.v.v.x.x.x.x.x.x.x.x.x.x.z.z.z.z.z.z.z.z.z.z.z.z.z.",
"q.q.z.z.z.z.z.z.z.z.z.z.x.x.x.x.x.x.v.v.v.v.v.v.v.v.v.v.C.C.v.G.G.G.G.G.G.G.G.G.H.H.H.H.J.J.J.J.!.~.~.W.:XbXDXDXBXiXQ././.^./././././.~.!.!.~.!.J.H.H.G.G.G.C.C.v.v.v.x.x.x.z.z.q.q.q.0.0.0.0.0.2.2.2.2.2.2.2.2.2.;.;.;.2.2.*.O.! T T Y E ^ ! T ^ ! ~ ~ ~ ~ ' ' ~ ~ ' ' ' ' +.' O.O.O.O.O.O.O.O.O.O.O.O.%.%.*.O.*.*.*.*.*.*.*.*.-.-.-.;.-.-.-.-.;.;.;.;.;.;.;.;.;.2.2.2.2.2.2.2.;.;.;.;.;.;.2.2.2.2.2.2.2.2.2.2.2.2.2.2.2.2.2.2.2.2.2.2.2.2.2.2.2.2.2.2.2.2.2.2.2.;.1.2.2.2.2.1.-.2.2.2.1.1.-.-.-.-.2.2.2.2.2.2.2.2.1.2.1.1.-.-.-.;.2.2.2.2.-.-.2.2.-.1.-.-.2.2.-.-.2.2.2.2.-.-.2.2.-.-.2.2.2.2.-.1.2.;.2.2.-.-.2.2.-.1.-.-.2.2.-.-.2.2.2.2.-.-.2.2.-.-.2.;.2.2.2.2.2.2.2.2.2.2.2.2.1.1.2.2.;.;.2.2.-.1.2.2.2.2.2.2.-.-.2.2.2.2.2.2.-.-.2.1.2.2.2.2.-.-.;.;.2.2.2.2.1.1.2.2.2.2.1.1.-.-.-.-.1.1.-.-.-.-.-.-.-.-.-.-.-.-.-.-.-.-.*.*.*.*.*.*.%.%.O.O.O.O.O.O.O.O.O.O.O.+.' ' ' ' ' ' ' ~ ~ ~ ~ ~ ~ ! ~ ~ ~ ^ ! ! E E E ~ O.:.:.;.2.2.2.2.2.2.2.2.2.2.2.2.0.0.0.q.q.q.q.z.z.x.x.x.x.x.C.C.C.C.G.G.H.H.H.!.!.!.!.!.^././.^././././.'.^.:XbXDXHXSXsX{.).!.!.E.E.!.!.J.J.J.J.H.H.H.H.H.H.G.G.G.C.C.C.C.C.C.C.v.v.v.v.v.v.x.x.x.x.x.x.x.x.x.x.x.x.z.z.z.z.z.z.z.z.z.z.z.z.q.",
"q.q.q.z.z.z.z.z.z.z.z.z.x.x.x.x.x.x.v.v.v.v.v.v.v.v.v.v.v.v.v.N.G.G.G.G.G.G.G.G.H.H.H.J.J.J.J.J.!.~.~.W.:XbXDXGXBX8XQ././.^./.~././.~.~.!.!.!.!.J.H.H.H.G.G.C.C.v.v.v.x.x.x.x.z.z.q.q.q.q.0.0.0.2.2.2.2.2.2.2.2.;.;.-.;.:.:.;.*.O.~ E E E ! ! ! ! ! ~ ~ ~ ~ ~ ~ ~ ~ ~ ' ' ' ' ' ' +.+.O.O.O.+.O.O.O.O.O.O.O.*.%.*.*.*.*.*.*.*.*.-.-.-.-.-.;.-.-.-.-.;.;.;.;.;.;.;.;.;.;.;.;.;.;.;.;.;.;.;.;.;.;.2.2.2.2.-.-.-.-.-.-.-.-.2.2.2.1.-.-.-.-.-.-.-.-.1.1.2.2.-.-.-.-.2.-.-.1.2.2.2.;.2.2.2.2.2.1.-.-.-.-.2.2.2.2.2.2.2.2.2.2.-.-.-.-.2.;.2.2.1.1.-.-.2.2.-.-.-.-.2.2.-.-.2.2.2.2.-.;.2.2.-.-.-.;.2.1.1.1.2.2.2.2.-.-.2.2.-.-.-.-.2.2.-.-.2.2.2.2.-.;.2.2.-.-.;.;.1.1.2.2.1.-.-.-.-.1.2.2.1.-.1.2.2.2.-.-.-.-.-.-.-.-.-.1.-.-.-.-.-.-.2.2.-.-.1.1.;.;.2.2.-.-.-.;.2.2.-.-.-.-.-.-.-.-.-.-.-.-.-.-.-.-.-.-.-.-.-.=.*.*.-.-.-.-.-.-.-.%.*.*.%.%.O.O.O.O.O.O.O.O.O.O.O.O.+.+.+.' ' ' ' ' ' ~ ~ ~ ~ ~ ~ ~ ~ ~ ~ ~ ~ ! ! ! E ~ ' *.:.2.2.;.2.2.2.2.2.2.2.2.2.2.2.0.0.0.q.q.q.q.q.z.z.x.x.x.x.v.v.C.C.C.G.G.H.H.H.H.!.!.!.!.^.^.^.^.^./././.'.^.:XxXDXHXSXsX{.).!.!.E.E.!.!.J.J.H.J.H.H.H.H.H.H.G.G.G.C.C.C.C.C.C.C.v.v.v.v.v.v.x.x.x.x.x.x.x.x.x.x.x.x.z.z.z.z.z.z.z.z.z.z.z.q.q.",
"q.q.z.z.z.z.z.z.z.z.z.z.x.x.x.x.x.x.v.v.v.v.v.v.v.v.v.v.C.C.v.G.C.G.G.G.G.G.G.G.H.H.H.H.J.J.J.J.J.~.~.W.:XbXDXGXNXiXQ.^./.!.~.~.~.~.!.!.!.!.!.!.J.H.H.H.G.G.C.C.v.v.v.v.x.x.x.x.z.z.q.q.q.0.0.0.0.0.2.2.2.2.2.2.2.;.;.;.;.;.;.:.:.>.O.~ Y Y E ~ ! ! ! ~ ~ ~ ~ ~ ~ ~ ~ ~ ~ ' ' ' ' ' +.+.+.O.O.O.O.O.O.O.O.O.O.O.*.*.*.*.*.*.*.*.*.*.*.*.-.-.-.-.;.;.;.-.;.;.;.;.;.;.;.;.;.;.;.;.;.;.;.;.;.;.;.;.2.2.2.2.2.2.2.2.-.-.2.2.2.2.-.1.2.2.;.;.-.1.1.1.2.2.2.2.-.-.2.2.2.;.-.1.1.2.2.;.2.2.1.1.2.2.2.2.2.2.2.2.1.2.2.2.2.2.1.1.1.2.;.-.1.2.2.2.-.-.-.-.2.;.;.-.-.1.1.2.-.1.2.2.2.2.2.;.2.2.2.2.-.-.-.1.2.2.2.2.2.;.;.-.2.;.;.-.-.1.1.2.1.1.2.2.2.2.2.;.2.2.2.2.-.-.-.1.-.-.-.-.2.2.2.2.;.1.1.1.;.;.;.-.-.-.-.-.-.-.-.-.-.-.-.-.-.-.-.-.1.1.-.-.-.-.-.;.-.-.-.-.1.1.1.1.-.-.-.-.-.-.-.-.-.-.-.-.-.-.-.-.-.-.-.-.*.*.%.%.-.-.-.-.%.%.%.%.%.%.O.O.O.O.O.O.O.O.O.O.O.+.+.+.' ' ' ' ' ' ~ ~ ~ ~ ~ ~ ~ ~ ~ ~ ~ ~ ~ ~ ! E E ! ~ O.>.5.2.2.2.2.2.2.2.2.2.2.2.2.2.0.0.0.0.q.q.q.q.q.z.z.x.x.x.v.v.v.C.C.C.C.G.H.H.H.H.J.!.!.!.!.^.^.^.^.^.^./././.Q.:XxXDXHXSXsX{.!.~.!.E.E.!.J.J.J.H.H.H.H.H.H.H.G.G.C.C.C.C.C.C.C.C.C.v.v.v.v.v.v.x.x.x.x.x.x.x.x.x.x.x.x.z.z.z.z.z.z.z.z.z.z.q.q.q.",
"q.q.z.z.z.z.z.z.z.z.z.z.x.x.x.x.x.x.v.v.v.v.v.v.v.v.v.v.C.C.v.G.C.C.G.G.G.G.G.G.H.H.H.H.J.J.J.J.J.~._.W.:XbXDXGXMX8XQ.^./.!.~.~.~.!.!.!.!.!.!.J.J.H.H.H.G.G.C.C.G.v.v.v.v.x.x.x.z.z.z.q.q.q.0.0.0.0.2.2.2.2.2.2.2.2.2.2.2.2.:.:.:.:.>.' E Y T E ! ! ! ! ~ ~ ~ ~ ~ ~ ~ ~ ~ ~ ' ' ' ' ' ' +.+.' ' +.+.+.O.O.O.O.O.*.*.*.*.*.*.*.*.*.*.*.*.-.-.-.-.-.-.;.;.-.;.;.;.;.;.;.;.;.;.;.;.;.;.;.;.;.;.;.;.1.1.2.2.2.2.2.2.1.-.2.2.2.2.-.-.2.2.1.;.-.-.2.1.2.2.2.2.-.-.-.2.;.;.1.1.2.2.2.;.2.2.1.1.2.2.2.2.2.2.2.2.-.2.2.2.2.2.-.-.2.2.;.2.1.1.2.2.-.-.-.-.2.;.-.-.-.-.1.2.1.1.2.2.2.2.2.2.2.2.;.;.-.-.-.-.2.2.2.2.2.2.-.-.2.;.-.-.-.-.2.2.1.1.2.2.2.2.2.;.2.2.;.;.-.-.-.1.-.-.-.-.2.2.2.2.;.;.-.1.1.1.;.-.-.-.-.-.-.-.-.-.-.-.-.-.-.-.-.-.1.1.-.-.-.-.;.;.-.-.-.-.2.2.1.1.-.-.-.-.-.-.-.-.-.-.-.-.-.-.-.-.-.-.-.-.-.%.%.%.%.%.%.%.%.%.%.%.O.O.O.O.O.O.O.O.' ' ' ' +.' ' ' ' ' ' ~ ~ ~ ~ ~ ~ ~ ~ ~ ~ ~ ~ ~ ~ ~ ! E T T ! ~ O.>.5.5.2.;.2.2.2.2.2.2.2.2.2.2.0.0.0.0.0.q.q.q.q.q.z.z.x.x.x.v.v.v.C.C.C.C.G.H.H.J.H.J.!.!.!.!.!.^.^.^.^.^.^.^./.Q.:XxXDXGXDXsX{.!.!.!.E.E.H.J.J.H.H.H.H.H.H.G.G.G.C.C.C.C.C.C.C.C.C.C.v.v.v.v.v.v.x.x.x.x.x.x.x.x.x.x.x.x.z.z.z.z.z.z.z.z.z.z.q.q.q.",
"q.q.q.z.z.z.z.z.z.z.z.z.x.x.x.x.x.x.x.x.v.v.v.v.v.v.v.v.C.v.v.G.C.C.G.G.C.G.G.G.H.H.H.H.H.J.J.J.J.~.J.W.:XbXDXGXNXiXQ.^./.!.~.~.!.!.!.!.!.!.!.J.J.J.H.H.H.G.C.C.G.C.v.v.x.x.x.x.x.z.z.z.q.q.0.0.0.0.0.0.2.2.2.2.2.2.2.2.2.;.2.2.2.2.:.*.O.~ E E ! ! ! ! ! ! ! ~ ~ ~ ~ ~ ~ ~ ' ' ' ' ' ' ' ' ' ' O.O.O.O.+.O.O.O.O.O.*.*.*.*.*.*.*.*.*.*.*.*.-.-.-.-.-.-.-.-.;.;.;.;.;.;.;.;.;.;.;.;.;.;.;.;.;.;.-.1.-.1.2.2.2.2.1.2.2.2.2.-.-.-.2.2.2.;.2.2.2.2.2.2.1.2.-.-.2.2.;.;.2.2.1.-.-.;.2.2.-.-.-.-.2.2.2.2.1.-.-.-.;.2.;.-.-.-.2.2.2.2.;.;.2.2.2.2.1.-.1.1.-.-.-.-.;.;.2.2.2.2.2.2.1.1.-.-.;.-.1.-.2.2.-.;.2.2.2.2.2.2.1.1.-.-.-.-.-.;.2.2.2.2.2.2.1.1.-.-.-.-.-.-.2.2.2.2.-.1.2.2.2.2.-.-.-.-.1.1.1.-.1.1.-.-.-.-.1.1.1.-.-.-.1.-.1.1.-.-.-.-.1.1.1.1.-.-.-.-.-.-.-.-.-.-.-.-.-.-.-.-.-.-.-.-.-.-.-.-.-.-.-.-.*.*.*.%.%.%.%.%.%.%.%.%.O.O.O.O.O.O.O.O.' ' ' ' ' ' ' ' ~ ~ ~ ~ ~ ~ ~ ~ ~ ~ ~ ~ ~ ~ ~ ~ ! ~ ! E T E ' O.:.:.2.2.2.2.2.2.2.2.2.2.2.2.2.2.4.0.0.0.q.q.q.q.q.z.z.z.x.x.v.v.v.v.C.C.C.G.G.H.J.J.J.!.!.!.!.!.!.!.!.^.^.^.^.^./.E.:XxXDXGXDXkX{.(.!.!.E.E.H.J.J.H.H.H.H.H.H.H.G.G.G.C.C.C.C.C.C.C.C.C.v.v.v.v.v.v.x.x.x.x.x.x.x.x.x.x.x.x.z.z.z.z.z.z.z.z.z.z.q.q.q.",
"q.q.q.z.z.z.z.z.z.z.z.z.x.x.x.x.x.x.x.x.v.v.v.v.v.v.v.v.C.v.v.G.C.C.G.G.C.G.G.G.H.H.H.H.H.J.J.J.J.~.J.W.:XbXDXGXNXiXQ.^.^.!.~.~.~.!.!.!.!.!.J.J.J.J.H.H.H.G.G.C.G.G.v.v.x.x.x.x.x.z.z.z.q.q.0.0.0.0.0.0.2.2.2.2.;.2.2.2.2.2.2.2.2.2.2.2.:.*.~ Y E ! ! ! ! ! ! ~ ~ ~ ~ ~ ~ ~ ' ' ' ' ' ' ' ' ' ' +.' O.O.O.O.O.O.O.O.O.*.*.*.*.*.*.*.*.*.*.*.-.-.-.-.-.-.-.-.-.;.-.;.;.;.;.;.;.;.;.;.;.;.;.;.;.;.-.-.-.-.-.-.-.-.-.-.-.1.-.-.-.-.-.-.-.-.-.-.-.1.-.-.-.-.-.-.1.1.;.;.2.2.2.-.;.;.2.2.-.-.-.;.;.2.1.-.-.-.-.-.2.2.;.;.-.-.2.2.2.2.-.2.2.2.2.1.1.-.2.1.-.-.-.-.-.2.2.2.2.2.2.2.2.1.-.-.-.-.1.2.2.2.-.;.2.2.2.2.2.2.2.1.-.-.-.-.-.;.;.2.2.2.2.2.2.1.1.-.-.-.2.2.2.2.1.-.-.-.;.;.;.-.-.-.-.-.1.1.1.-.2.2.2.1.2.2.2.2.2.2.2.1.2.2.2.2.-.-.-.-.1.1.1.1.-.-.-.-.-.-.-.-.1.-.-.-.1.1.1.1.-.-.-.-.-.-.-.-.-.-.-.-.*.*.*.*.%.%.%.%.%.%.%.%.O.O.O.O.O.O.' ' ' ' ' ' ' ' ' ~ ~ ~ ~ ~ ~ ~ ~ ~ ~ ~ ~ ~ ~ ~ ~ ~ ~ ~ ~ ! E ~ >.:.5.2.;.;.2.2.2.2.2.2.2.2.2.2.2.2.0.0.0.0.q.q.q.q.z.z.z.x.x.v.v.v.v.v.C.C.C.G.G.H.H.H.J.!.!.!.!.!.!.!.!.^.^.^.^.^./.E.:XxXDXHXDXkX{.(.~.!.E.E.!.J.J.H.H.H.H.H.H.H.G.G.C.C.C.C.C.C.C.C.C.C.v.v.v.v.v.v.x.x.x.x.x.x.x.x.x.x.x.x.z.z.z.z.z.z.z.z.z.z.q.q.q.",
"q.q.q.q.z.z.z.z.z.z.z.z.x.x.x.x.x.x.x.x.v.v.v.v.v.v.v.v.v.v.C.C.v.C.G.G.G.G.G.G.G.H.H.H.H.J.J.J.J.J.H.W.:XbXGXGXCX8XW.^.!.!.~.!.~.!.!.!.!.!.J.J.J.J.H.H.H.G.G.C.G.G.v.v.v.v.x.x.x.x.z.z.q.q.q.0.0.0.0.0.2.2.2.2.2.2.2.2.2.2.2.2.2.;.;.2.2.;.O.' T E E ! ~ ~ ! E ~ ~ ~ ~ ~ ~ ~ ~ ~ ~ ' ' ' ' ' ' O.O.O.O.O.O.O.O.O.O.O.O.*.*.*.*.*.*.*.*.*.*.*.*.*.*.*.*.-.-.-.-.;.;.;.;.;.;.;.;.;.;.;.;.;.;.;.;.2.2.2.2.2.2.-.-.;.;.-.-.2.2.2.2.;.;.-.-.2.2.2.2.2.;.;.;.2.2.2.2.;.;.-.-.2.2.2.2.-.-.-.-.;.-.-.-.2.2.2.1.-.-.2.2.1.2.;.;.-.-.1.1.;.-.2.2.2.2.2.2.;.;.;.-.-.-.2.2.;.;.2.2.2.2.2.2.2.1.1.-.-.-.2.2.-.-.2.2.2.2.;.;.;.;.;.-.-.1.2.2.;.;.2.2.2.2.2.2.2.2.1.-.-.-.2.2.2.2.;.;.;.2.2.2.2.2.2.2.2.2.-.;.2.2.;.-.;.2.2.2.2.2.2.2.2.;.-.;.;.;.-.-.-.-.-.-.-.-.-.-.-.-.-.-.-.-.;.;.;.-.-.-.-.-.-.-.-.-.-.-.-.*.*.*.-.%.%.%.%.%.%.%.%.%.O.O.O.O.O.O.O.O.O.O.' ' ' ' ' ' ' ~ ~ ~ ~ ~ ~ ~ ~ ! ! ~ ~ ~ E E E ~ ~ E T ! O.:.5.2.2.2.2.2.2.2.2.2.2.2.2.2.2.2.0.0.0.0.0.q.q.q.z.z.z.z.x.x.x.v.v.v.v.v.C.C.C.G.G.H.H.H.!.!.!.!.!.!.!.!.!.!.^.^.^.^.^.^.:XxXGXHXSXhX{.!.~.!.E.E.J.J.J.H.H.H.H.H.H.H.G.G.G.G.C.C.C.C.C.v.C.C.v.v.v.v.v.v.x.x.x.x.x.x.x.x.x.x.x.x.z.z.z.z.z.z.z.z.z.z.z.z.z.",
"q.q.q.q.z.z.z.z.z.z.z.z.x.x.x.x.x.x.v.x.v.v.v.v.v.v.v.v.v.v.C.C.v.C.G.G.C.G.G.G.G.G.H.H.H.H.J.J.J.J.H.W.:XbXGXGXCX8XW.^.!.!.~.!.~.!.!.!.!.!.J.J.J.J.H.H.H.G.G.C.G.G.v.v.v.v.x.x.x.x.z.z.q.q.q.q.0.0.0.0.0.2.2.2.2.2.2.2.2.2.2.2.2.2.2.2.2.2.*.O.~ ~ E E ! ~ ! ! ~ ~ ~ ~ ~ ~ ~ ~ ~ ~ ' ' ' ' ' ' O.O.O.O.O.O.O.O.O.O.O.O.*.*.*.O.*.*.*.*.*.*.*.*.*.*.*.*.-.-.-.-.;.;.;.;.;.;.;.;.;.;.;.;.;.;.;.;.2.2.2.2.;.2.-.-.2.;.-.-.2.2.2.2.;.-.-.-.2.2.2.2.2.2.-.;.2.2.2.;.2.;.-.-.2.2.2.2.-.-.-.-.;.;.-.-.2.;.2.2.1.1.2.;.1.2.;.;.-.1.1.1.-.-.2.2.2.2.2.2.;.;.;.;.1.1.2.2.-.-.2.1.2.2.2.2.2.2.1.1.-.-.2.2.-.-.2.2.2.2.-.;.;.;.;.;.1.1.2.2.-.-.2.2.2.2.2.2.2.2.1.-.-.-.2.2.2.2.-.;.;.;.2.2.2.2.2.2.;.;.-.-.;.2.;.;.;.;.2.2.2.2.2.2.;.;.-.-.2.;.;.;.-.-.-.-.-.-.-.-.-.-.-.-.-.-.;.;.-.-.-.-.-.-.-.-.-.-.-.-.*.*.*.*.-.%.%.%.%.%.%.%.%.%.O.O.O.O.O.+.O.O.O.O.+.' ' ' ' ' ' ~ ~ ~ ~ ~ ~ ~ ~ ~ ~ ~ ~ ~ ~ ~ ~ ! ! ! ~ ' >.2.5.2.2.2.2.2.2.2.2.2.2.2.2.2.2.0.0.0.0.0.0.q.q.q.z.z.z.z.x.x.v.v.v.v.v.C.C.C.C.G.H.H.H.H.H.H.!.!.!.!.!.!.!.!.^.^.^.^.^.^.:XxXGXHXDXhX{.!.~.!.E.E.J.J.J.J.H.H.H.H.H.H.G.G.G.G.C.C.C.C.C.v.C.C.v.v.v.v.v.v.x.x.x.x.x.x.x.x.x.x.x.x.z.z.z.z.z.z.z.z.z.z.z.z.z.",
"q.q.q.q.z.z.z.z.z.z.z.z.x.x.x.x.x.x.x.x.v.v.v.v.v.v.v.v.v.v.C.C.G.G.G.G.C.G.G.G.G.G.H.H.H.H.J.J.H.J.L.D.:XbXGXGXCX8XW.!.!.!./.!.!.!.!.!.!.!.J.J.J.H.H.H.H.G.G.C.C.C.v.v.v.x.x.x.x.x.z.z.q.q.q.q.q.0.0.0.0.0.2.2.2.2.2.2.2.2.2.2.2.2.2.2.2.5.2.;.*.' E T E ! ! ! ~ ~ ~ ~ ~ ~ ~ ~ ~ ~ ' ' ' ' ' ' ' ' O.O.O.+.O.O.O.O.O.O.O.%.O.O.*.*.*.*.*.*.*.*.*.*.-.-.-.-.-.;.;.;.;.;.;.;.;.;.;.;.;.;.;.;.;.;.-.-.-.-.-.-.-.-.;.;.-.-.-.-.-.-.-.-.-.-.-.-.-.-.-.-.-.-.-.-.-.-.;.;.-.-.-.-.-.-.-.-.-.-.-.-.-.-.;.;.2.2.2.-.-.;.1.1.-.;.-.-.2.1.-.-.-.-.-.-.-.-.;.;.2.2.1.2.2.2.-.-.-.1.-.-.;.;.2.2.2.2.-.;.2.2.-.1.1.2.1.-.-.-.;.;.2.2.2.2.2.2.-.-.-.1.-.-.;.;.2.2.2.2.-.1.2.2.-.-.-.-.-.-.-.-.;.;.-.-.-.-.-.-.-.-.-.-.-.-.-.-.;.;.-.-.-.-.-.-.2.2.2.;.2.2.;.;.-.-.-.-.;.-.-.-.-.-.-.;.-.-.-.-.-.-.-.-.-.-.-.-.*.*.*.*.%.%.%.%.%.%.%.%.O.O.O.O.O.O.+.+.O.O.+.+.' ' ' ' ' ' ~ ~ ~ ~ ~ ~ ~ ~ ~ ~ ~ ~ E ! ~ ~ ~ E E ~ O.-.2.5.2.2.2.2.2.2.2.2.2.2.2.2.2.2.0.0.0.0.0.0.q.q.q.z.z.z.z.z.x.x.v.v.v.v.v.v.C.C.C.C.H.H.H.H.H.H.!.!.!.!.!.!.!.!.!.^.^.^.^.Q.:XxXGXHXDXhX{.!.~.!.E.E.J.J.J.J.H.H.H.H.H.H.G.G.G.G.C.C.C.C.C.C.C.C.v.v.v.v.v.v.x.x.x.x.x.x.x.x.x.x.x.x.z.z.z.z.z.z.z.z.z.z.z.z.z.",
"z.q.q.q.z.z.z.z.z.z.z.z.x.x.x.x.x.x.x.x.v.v.v.v.v.v.v.v.v.v.v.v.v.N.N.G.C.G.G.G.G.H.H.H.H.H.H.J.H.J.L.W.:XbXGXGXCX8XW.!.!.!._.~.!.!.!.!.!.!.J.J.J.H.H.H.H.G.G.C.C.C.v.v.v.x.x.x.x.x.x.z.q.q.q.q.q.q.0.0.0.0.2.2.2.2.2.2.2.2.2.2.2.2.2.2.2.2.2.2.2.*.' ! T E E ~ ! ~ ~ ~ ~ ~ ~ ~ ~ ~ ' ' ' ' ' ' ' ' ' O.O.+.+.+.O.O.O.O.O.O.*.*.O.*.*.*.*.*.*.*.*.*.*.-.-.-.-.-.-.-.-.-.-.-.;.;.-.-.-.-.-.-.-.-.-.-.-.-.-.-.-.-.-.;.-.-.-.-.-.-.-.-.-.-.-.-.-.-.-.-.-.-.-.-.-.;.-.;.-.-.-.-.-.-.-.-.-.-.-.-.-.-.;.;.2.2.1.1.-.-.1.1.-.-.-.-.2.;.-.-.-.-.-.-.-.-.2.2.2.2.2.2.2.2.-.-.1.1.-.-.-.;.2.2.2.2.-.-.2.2.1.1.2.2.1.-.-.-.;.2.2.2.2.2.2.2.-.-.1.1.-.-.-.-.2.2.2.2.-.-.2.2.-.-.-.-.-.-.-.-.-.-.-.-.-.-.-.-.-.-.-.-.-.-.-.-.;.-.-.-.-.-.-.-.2.2.2.2.2.2.2.;.-.-.-.-.;.;.-.-.-.-.-.-.-.-.-.-.-.-.-.-.-.-.-.-.*.*.*.%.%.%.%.%.%.%.%.%.O.O.O.O.O.O.+.+.+.' +.+.' ' ' ' ' ' ~ ~ ~ ~ ~ ~ ~ ~ ~ ~ ~ ~ ! ! ~ ~ ~ E ' O.:.2.5.2.2.2.2.2.2.2.2.2.2.2.2.2.2.2.0.0.0.0.0.q.q.q.q.q.z.z.z.x.x.x.v.v.v.v.v.v.C.C.C.C.H.H.H.H.H.H.!.!.!.!.!.!.!.!.^.^.^.^.^.Q.:XxXGXHXDXhX{.!.!.!.E.E.J.J.J.H.H.H.H.H.H.H.G.G.G.G.C.C.C.C.C.C.C.C.v.v.v.v.v.v.x.x.x.x.x.x.x.x.x.x.x.x.z.z.z.z.z.z.z.z.z.z.z.q.q.",
"z.z.z.z.z.z.z.z.z.z.z.z.x.x.x.x.x.x.x.x.v.v.v.v.v.v.v.v.v.v.v.v.v.v.G.G.C.G.G.G.G.G.H.H.H.H.H.H.H.J.L.D.:XbXGXGXCX8XW.!.!.!.~.!.!.!.!.!.!.H.J.H.J.H.H.H.H.H.G.C.C.C.C.v.v.x.x.x.x.x.x.z.z.z.q.q.q.q.q.0.0.0.0.0.0.0.2.2.2.2.2.2.2.2.2.2.2.2.2.2.5.2.:.O.~ T E E ! ! ~ ~ ~ ~ ~ ~ ~ ~ ~ ~ ' ' ' ' +.+.+.' ' +.+.+.O.O.O.O.O.O.O.O.O.O.*.*.*.*.*.*.*.*.*.*.*.*.-.-.-.-.-.-.-.;.;.;.;.;.;.;.-.-.-.-.;.-.-.-.-.-.-.-.-.-.-.-.-.-.-.-.-.-.;.;.;.-.-.-.-.-.-.-.-.-.;.;.-.-.-.-.-.-.-.-.-.-.-.-.-.;.;.;.1.1.1.-.-.-.-.1.-.-.-.-.-.-.-.;.1.1.1.1.-.-.-.-.1.1.1.1.-.-.1.2.-.-.-.-.-.-.-.-.-.;.;.;.2.;.;.;.-.-.-.-.-.-.1.1.1.1.1.1.-.-.1.1.-.-.-.-.-.-.-.-.-.-.-.;.;.;.;.-.-.-.-.-.-.-.-.-.-.-.-.-.-.;.;.;.-.-.-.-.-.-.-.-.-.-.-.-.-.-.-.-.-.-.-.-.-.-.-.-.-.-.-.-.-.-.-.-.-.-.-.-.-.-.-.-.-.-.-.-.-.-.*.*.*.%.%.%.%.%.%.%.%.%.O.O.O.O.O.O.O.+.+.' ' ' ' ' ' ' ' ' ~ ~ ~ ~ ~ ~ ~ ~ ~ ~ ~ ~ ~ ~ ~ ~ E E ~ ~ *.2.5.5.2.2.2.2.2.2.2.2.2.2.0.2.0.0.0.0.0.0.0.0.q.q.q.q.q.z.z.z.z.x.x.x.v.v.v.v.v.v.C.C.C.G.H.H.H.H.H.H.!.!.!.!.!.!.!.!.^.^.^.^.^.Q.:XlXGXHXDXhX{.!.J.!.E.E.H.J.H.H.H.H.H.H.H.G.G.G.G.C.C.C.C.C.C.C.C.C.v.v.v.v.v.v.x.x.x.x.x.x.x.x.x.x.x.x.z.z.z.z.z.z.z.z.z.z.q.q.q.",
"z.z.z.z.z.z.z.z.z.z.z.z.x.x.x.x.x.x.x.x.v.v.v.v.v.v.v.v.v.v.v.v.v.v.C.C.C.G.G.G.G.G.H.H.H.H.H.H.H.J.H.W.:XbXGXGXCX8XW.!.!.!.~.!.!.!.!.!.!.H.H.H.J.H.H.H.H.H.G.G.C.C.C.C.v.x.x.x.x.x.x.z.z.z.q.q.q.q.q.q.0.0.0.0.0.0.0.2.2.2.2.2.2.2.2.2.2.2.2.2.2.0.5.:.O.~ E E ! ! ! ~ ~ ~ ~ ~ ~ ~ ~ ~ ~ ' ' ' ' ' +.+.' ' +.+.O.O.O.O.O.O.O.O.O.O.*.*.*.*.*.*.*.*.*.*.*.*.-.-.-.-.-.-.-.-.;.;.;.;.;.;.-.-.-.-.-.-.-.-.-.-.-.-.-.-.-.-.-.-.-.-.-.-.-.-.-.-.-.-.-.-.-.-.-.-.-.-.-.-.-.-.-.-.-.-.;.-.-.-.-.;.;.;.1.1.-.-.-.-.-.1.-.-.-.-.-.-.;.;.-.-.-.-.-.-.-.-.2.2.1.1.-.1.1.2.-.-.-.-.-.-.-.-.-.-.;.;.1.;.;.-.1.-.-.-.-.-.2.1.1.2.1.1.-.-.1.2.-.-.-.-.-.-.1.-.-.-.;.;.2.;.;.-.-.-.-.-.-.-.-.-.-.-.-.-.-.-.-.-.-.-.-.-.-.-.-.-.-.-.-.-.-.-.-.-.-.-.-.-.-.-.-.-.-.-.-.-.-.-.-.-.-.-.-.-.-.-.-.-.-.-.-.-.-.*.*.*.%.%.%.%.%.%.%.%.%.%.O.O.O.O.O.O.+.+.' ' ' ' ' ' ' ' ' ' ~ ~ ~ ~ ~ ~ ~ ~ ~ ~ ~ ~ ~ ~ ~ ~ E ~ ' >.2.5.0.2.2.2.2.0.2.2.2.0.0.0.0.2.0.0.0.0.0.0.0.0.q.q.q.q.z.z.z.z.z.x.x.x.v.v.v.v.v.v.C.C.C.G.H.H.H.H.H.H.H.!.!.!.!.!.!.!.^.^.^.^.^.E.:XlXGXHXDXhX{.!.J.!.E.E.H.H.H.H.H.H.H.H.G.G.G.C.G.C.C.C.C.v.C.C.C.v.v.v.v.v.v.v.x.x.x.x.x.x.x.x.x.x.x.x.z.z.z.z.z.z.z.z.z.z.q.q.q.",
"q.q.z.z.z.z.z.z.z.z.z.z.x.x.x.x.x.x.x.x.v.v.v.v.v.v.v.v.v.v.C.C.v.v.v.C.C.G.G.G.G.G.H.H.H.H.H.H.H.J.H.D.:XbXGXGXNX8XW.!.!.!.~.!.!.!.!.!.!.H.H.H.H.H.H.H.H.H.G.G.G.C.C.C.v.v.x.x.x.x.x.x.z.z.z.q.q.q.q.q.q.0.0.0.0.0.0.0.2.2.2.2.2.2.2.2.2.2.2.2.5.5.5.5.:.>.' E E ! ! ! ~ ~ ~ ~ ~ ~ ~ ~ ~ ' ' ' ' ' ' ' ' ' +.' O.O.O.O.O.O.O.O.O.O.O.*.*.*.*.*.*.*.*.*.*.*.*.*.-.*.*.*.*.*.*.*.*.*.*.*.*.*.*.*.-.-.-.-.-.-.-.-.-.-.-.-.-.-.-.-.-.-.-.-.-.-.-.-.-.-.-.-.-.-.-.-.-.-.-.-.-.-.-.-.:.:.-.-.-.-.;.;.2.1.;.;.-.-.1.1.;.;.-.-.-.-.-.1.-.-.-.-.-.-.-.-.;.;.-.-.-.-.2.2.-.;.1.-.1.1.1.1.-.-.-.-.1.1.-.-.2.2.-.-.-.-.2.2.;.2.-.-.-.-.2.2.;.;.-.-.1.1.1.1.-.-.1.1.2.1.-.-.-.-.-.-.-.-.-.-.-.-.-.-.-.-.-.-.-.-.-.-.-.-.-.-.-.-.-.-.-.-.-.-.-.-.-.-.-.-.-.-.-.-.-.-.-.-.-.-.-.-.-.-.-.-.-.-.-.-.-.-.*.*.*.*.%.%.%.%.%.%.%.%.O.O.O.O.O.O.{ { ' ' ' ' ' ' ' ' ' ' ' ~ ~ ~ ~ ~ ~ ~ ~ ~ ~ ~ ~ ~ ~ ~ ~ ~ ~ O.:.5.5.2.2.2.2.2.2.0.2.2.2.0.0.0.0.0.0.0.0.0.0.0.q.q.q.q.q.q.z.z.z.z.z.x.x.x.v.v.v.v.C.C.C.C.C.G.H.H.H.H.H.H.H.!.!.!.!.!.!.!.^.^.^.^.^.E.:XlXGXHXDXhX{.!.J.!.E.E.H.H.H.H.H.H.H.H.G.G.C.C.C.C.C.C.C.C.C.v.v.v.v.v.v.v.v.v.x.x.x.x.x.x.x.x.x.x.x.x.z.z.z.z.z.z.z.z.z.z.q.q.q.",
"q.q.q.z.z.z.z.z.z.z.z.z.x.x.x.x.x.x.x.x.v.v.v.v.v.v.v.v.v.v.C.C.v.v.v.C.G.G.G.C.G.G.G.H.H.H.H.H.H.J.H.D.:XbXGXGXMX8XW.!.!.!.~.J.!.!.!.!.H.H.H.H.H.H.H.H.H.H.G.G.G.C.C.C.v.v.x.x.x.x.x.x.z.z.z.q.q.q.q.q.q.0.0.0.2.2.0.0.2.2.2.2.2.2.2.2.2.2.2.2.0.2.;.2.5.5.O.~ ! E ! ! ~ ~ ~ ~ ~ ~ ~ ~ ~ ~ ' ' ' ' ' ' ' ' +.+.O.O.O.O.O.O.O.O.O.O.O.*.*.*.*.*.*.*.*.*.*.*.*.*.*.*.*.*.*.*.*.*.*.*.*.*.*.*.*.*.-.-.-.-.-.-.-.-.-.-.-.-.-.-.-.-.-.-.-.-.-.-.-.-.-.-.-.-.-.-.-.-.-.-.-.-.-.-.-.-.:.;.-.-.-.-.-.;.2.;.;.;.-.-.1.1.2.;.;.;.-.-.-.1.-.-.-.-.-.-.-.-.-.-.-.-.-.-.;.;.;.;.1.1.1.2.2.1.-.-.-.1.1.1.-.-.2.2.-.-.-.-.2.2.;.-.-.-.-.-.2.;.;.;.1.1.1.1.2.2.-.-.-.1.1.1.-.-.-.-.-.-.-.-.-.-.-.-.-.-.-.-.-.-.-.-.-.-.-.-.-.-.-.-.-.-.-.-.-.-.=.-.-.-.-.-.-.-.-.-.-.*.*.*.-.-.-.-.-.-.-.-.-.-.-.-.-.-.*.*.*.*.%.%.%.%.%.%.%.%.O.O.O.O.O.{ { { ' ' ' ' ' ' ' ' ' ' ' ' ~ ~ ~ ~ ~ ~ ~ ~ ~ ~ ~ ~ ~ ~ E E ' :.r.r.2.2.2.2.2.2.2.2.2.2.0.0.0.0.0.0.0.0.0.0.0.q.q.q.q.q.q.q.z.z.z.x.x.x.x.v.v.v.v.v.C.C.C.C.C.G.H.H.H.H.H.H.H.!.!.!.!.!.!.!.!.^.!.^.^.W.:XlXDXHXDXhX{.!.J.!.E.E.H.H.H.H.H.H.H.Z.G.G.C.C.C.C.C.C.v.C.C.v.v.v.v.v.v.v.v.v.x.x.x.x.x.x.x.x.x.x.x.x.z.z.z.z.z.z.z.z.z.z.q.q.q.",
"q.q.z.q.q.q.z.z.z.z.z.z.z.x.x.x.x.x.x.x.x.x.x.x.x.v.v.v.v.v.v.v.N.N.G.G.G.G.G.G.G.G.G.G.G.H.H.H.P.H.J.F.:XNXHXGXMX:XW.!.!.!.J.~.!.!.!.J.J.J.J.J.H.H.H.H.H.G.G.G.C.C.C.C.v.v.v.x.x.x.x.x.z.z.z.z.z.q.q.q.q.0.0.q.0.0.4.2.4.4.4.4.2.2.2.4.2.2.2.2.2.2.2.2.2.2.2.5.~ ~ Q E E E ~ ~ ~ ~ ~ ) ) ) ' ' ' ' ~ ~ ' ' ' ' ' ' ' ' O.O.+.+.O.O.O.O.O.%.*.*.*.*.*.*.*.*.*.*.-.-.-.-.-.-.-.-.-.-.-.-.-.-.-.-.-.-.-.-.-.-.-.-.-.-.-.-.;.;.;.-.;.;.;.;.-.-.-.-.-.-.;.;.-.-.-.-.;.1.;.;.;.;.;.;.-.-.-.-.-.-.-.-.1.2.-.-.-.1.1.2.-.-.-.-.-.-.1.1.1.;.;.;.-.-.-.;.;.;.-.-.-.-.-.-.;.;.;.;.2.1.-.-.-.;.;.;.1.-.-.-.2.1.1.1.-.-.-.;.;.;.-.-.-.-.;.;.-.;.;.;.;.2.-.-.-.;.;.;.1.1.-.-.1.2.;.2.-.-.-.-.-.-.-.-.-.-.-.-.;.;.;.;.;.;.-.;.;.;.;.;.;.;.;.;.;.;.-.-.-.-.-.-.;.-.-.-.-.;.-.;.-.-.-.-.-.-.-.-.-.-.-.-.*.*.*.*.*.*.*.*.*.*.O.O.O.O.O.O.O.O.+.+.O.O.O.O.' ' ' ' ' ' ' ' ' ' ~ ~ E ~ ~ ^ ~ ! ~ ~ ! ~ ' *.2.r.5.2.5.2.2.2.2.2.2.2.2.2.2.4.4.4.4.0.0.0.0.0.0.q.q.q.q.q.q.z.z.z.x.x.x.x.v.x.v.v.v.v.v.C.C.G.G.G.G.H.H.H.H.H.H.!.!.!.!.!.!.!.!.!.!.!.!.E.{.lXDXHXDXhX{.J.J.H.H.H.H.J.H.H.H.H.H.G.G.G.C.C.C.C.G.G.C.C.C.C.C.C.v.v.v.v.v.v.x.x.x.v.v.x.x.x.x.x.x.x.z.z.z.z.z.z.z.q.z.z.q.q.q.",
"q.q.z.z.q.q.z.z.z.z.z.z.z.x.x.x.x.x.x.x.x.x.x.x.x.v.v.v.v.v.v.v.N.N.N.G.G.G.G.G.G.G.G.G.G.H.H.H.P.H.!.E.:XCXHXGXMX:XW.!.!.!.J.J.J.!.!.J.J.J.J.J.H.H.H.H.H.G.G.G.C.C.C.C.v.v.v.x.x.x.x.x.z.z.z.z.q.q.q.q.q.q.q.q.0.0.4.4.4.4.4.4.2.2.2.2.2.2.2.2.2.2.2.2.2.2.2.2.=.' R Y E ~ ~ E ~ ~ ~ ) ) ) ' ' ' ' ~ ~ ' ' ' ' ' +.' ' O.O.O.O.O.O.O.O.O.%.*.*.*.*.*.*.*.*.*.*.-.-.-.-.-.-.-.-.-.-.-.-.-.-.-.-.-.-.-.-.-.-.-.-.-.-.-.-.;.;.;.-.-.;.;.;.-.-.-.;.-.;.;.;.-.-.-.-.1.1.;.-.;.;.1.1.-.-.-.-.-.-.-.-.;.2.-.1.-.-.2.2.1.1.-.-.-.-.1.2.2.2.1.-.-.-.-.;.;.;.-.-.-.-.;.;.-.-.;.;.1.1.-.-.;.;.2.2.1.1.-.-.1.1.-.-.-.-.-.;.2.2.-.-.-.-.;.;.-.-.;.;.1.2.-.-.-.-.2.;.1.1.-.-.2.2.1.1.-.-.-.-.;.;.1.1.-.-.-.-.;.;.;.;.;.;.;.;.;.;.;.;.;.;.;.;.;.;.-.-.;.;.-.-.-.;.-.-.-.-.;.;.-.-.-.-.-.-.-.-.-.-.-.-.*.*.*.*.*.*.*.*.*.*.O.O.O.O.O.O.O.O.+.+.O.O.O.O.' ' ' ' ' ' ' ' ' ' ~ ~ ~ ^ ^ ~ ~ ~ ! ! ~ ' *.2.5.5.5.2.2.2.4.4.2.2.2.2.2.2.4.4.4.4.0.0.0.0.0.0.q.q.q.q.q.q.z.z.z.z.x.x.x.x.x.x.v.v.v.v.C.C.C.G.G.G.G.H.H.H.H.H.H.!.!.!.!.!.!.!.!.!.!.!.!.E.{.lXDXHXGXjX{.!.!.H.L.L.H.H.H.H.H.H.G.G.G.G.C.C.C.C.G.G.C.C.C.C.C.v.v.v.v.v.v.v.v.x.x.v.v.x.x.x.x.x.x.x.z.z.z.z.z.z.z.q.z.z.q.q.q.",
"q.q.q.z.q.q.z.z.z.z.z.z.z.x.x.x.x.x.x.x.x.x.x.x.x.v.v.v.v.v.v.v.N.G.N.G.G.G.G.G.G.G.G.G.G.H.H.H.P.H.!.E.:XCXHXGXMX:XW.!.!.!.J.H.J.!.J.J.J.J.J.J.H.H.H.H.H.G.G.G.C.C.C.C.v.v.v.v.x.x.x.x.z.z.z.z.z.q.q.q.q.q.q.q.0.0.4.4.4.4.4.4.2.2.2.2.4.2.2.2.2.2.2.2.2.2.2.2.5.:.~ E E ~ ~ E ~ ~ ~ ~ ) ) ) ) ' ' ' ~ ' ' ' ' +.+.+.+.O.O.O.O.O.O.O.O.O.O.*.*.*.*.*.*.*.*.*.*.-.-.-.-.-.-.-.-.-.-.-.-.-.-.-.-.-.-.-.-.-.-.-.-.;.;.;.;.;.;.-.-.-.-.-.-.-.-.;.;.-.-.;.;.-.-.;.-.1.-.-.-.-.-.1.1.-.-.-.-.-.-.-.-.;.-.-.1.1.1.2.;.2.1.1.1.-.;.;.2.-.-.-.-.-.-.1.1.;.1.1.-.1.1.;.;.-.-.-.-.1.-.-.-.-.1.1.1.1.1.;.;.-.-.-.-.-.-.1.1.1.1.1.-.1.1.;.2.-.-.-.1.1.1.-.-.1.1.2.1.1.1.;.;.-.-.1.1.1.1.1.2.;.2.2.1.2.2.-.;.;.;.;.;.;.;.;.;.;.;.;.;.;.;.;.;.;.;.-.-.-.-.-.-.;.-.-.-.-.-.;.-.-.-.-.-.;.-.-.-.-.-.-.-.-.*.*.*.*.*.*.*.*.*.O.O.O.O.O.O.O.O.O.+.O.O.O.O.' ' ' ' ' ' ' ' ' ~ ~ ~ ~ ~ ~ ~ ~ ~ ! E ' *.2.r.0.2.2.2.2.2.4.4.4.4.2.2.4.4.4.4.4.0.0.0.0.0.0.0.q.q.q.q.q.q.z.z.z.z.x.x.x.x.x.x.v.v.v.v.C.C.C.G.G.G.G.H.H.H.H.H.H.H.!.!.!.!.!.!.!.!.!.!.!.E.{.lXDXHXGXjX{.!.H.H.L.L.H.H.H.H.H.H.G.G.G.G.C.C.C.C.G.G.v.v.C.C.v.v.v.v.v.v.v.v.x.x.x.x.v.x.x.x.x.x.x.x.z.z.z.z.z.z.z.q.q.z.q.q.q.",
"q.q.q.z.z.q.z.z.z.z.z.z.z.x.x.x.x.x.x.x.x.x.x.x.x.v.v.v.v.v.v.v.v.G.N.N.G.G.G.G.G.G.G.G.G.G.H.H.H.H.!.Z.:XCXHXGXMX:XW.!.H.!.J.J.J.J.J.J.J.J.J.J.H.H.H.H.H.H.G.G.C.C.C.C.v.v.v.v.x.x.x.x.x.z.z.z.z.q.q.q.q.q.q.q.0.0.0.4.4.4.4.0.4.4.2.2.4.4.2.2.2.4.4.2.2.2.2.2.2.5.5.O.Q Y E ~ ~ ~ ~ ~ ~ ) ) ) ' ' ' ~ ' ' ' ' +.+.+.+.O.O.O.O.O.O.O.O.O.O.*.*.*.*.*.*.*.*.*.*.-.-.-.-.-.-.-.-.-.-.-.-.-.-.-.-.-.-.-.-.-.-.-.-.;.;.;.;.-.-.-.-.-.-.-.-.-.-.;.;.-.-.-.-.-.-.;.;.1.1.-.-.-.-.-.1.-.-.-.-.1.1.1.1.;.-.-.-.-.-.-.;.2.2.2.1.-.-.2.2.-.1.1.-.1.1.1.1.2.1.1.1.1.1.2.2.-.-.-.1.1.1.-.-.-.1.1.1.1.2.2.;.-.-.-.-.-.-.-.1.1.1.1.-.1.1.1.2.-.-.-.1.1.1.-.-.-.1.1.1.2.;.;.;.-.-.-.-.1.1.1.;.;.;.1.1.1.;.;.;.;.;.;.;.;.;.;.;.-.;.;.;.;.;.;.-.;.;.-.-.-.-.-.-.-.-.-.;.-.;.;.-.-.-.-.-.-.-.-.-.-.-.-.-.-.-.-.*.*.*.*.*.*.*.O.O.O.O.O.O.O.O.O.O.O.O.O.+.' ' ' ' ' ' ' ~ ~ ~ ~ ~ ~ ~ ~ ! ! ! ~ ' *.:.5.r.0.2.0.2.2.2.4.4.4.4.2.2.4.4.4.4.0.0.0.0.0.0.0.q.q.q.q.q.q.q.z.z.x.x.x.x.x.x.x.x.v.v.v.C.C.C.C.G.G.G.G.H.H.H.H.H.H.H.!.!.!.!.!.!.!.!.!.!.!.E.{.lXDXHXGXjX{.!.H.H.L.L.H.H.H.G.G.G.G.G.G.G.C.C.C.C.C.C.v.v.C.C.v.v.v.v.v.v.v.v.v.x.x.x.x.x.x.x.x.x.x.x.z.z.z.z.z.z.z.q.q.q.q.z.q.",
"q.q.q.q.q.q.q.z.z.z.z.z.z.x.x.x.x.x.x.x.x.v.v.v.v.v.v.v.v.v.v.v.v.v.G.G.G.G.G.G.G.G.G.G.G.G.G.G.H.C.J.Z.:XCXHXGXMX:XW.!.H.J.H.J.J.J.J.H.J.J.J.J.H.H.H.H.G.G.G.G.C.C.C.C.C.v.v.v.x.x.x.x.x.z.z.z.z.q.q.q.q.q.q.q.0.0.0.4.4.4.0.0.0.0.0.4.4.4.4.4.4.4.4.4.4.2.2.2.2.5.5.2.{ Q E Q ~ ~ ~ ~ ~ ~ ~ ~ ' ' ' ' ' ' ' ' ' ' ' +.O.O.O.O.O.O.O.O.O.O.*.*.*.*.*.*.*.*.*.*.-.-.-.-.-.-.-.-.-.-.-.-.-.-.-.-.-.-.-.-.-.-.-.-.;.-.-.-.-.;.-.-.-.-.-.-.-.-.-.;.-.-.-.-.-.-.;.;.-.-.-.-.-.-.-.;.-.-.-.-.1.1.-.;.-.-.-.-.-.-.-.-.-.-.-.1.;.;.1.1.-.-.1.1.-.-.;.1.-.-.1.1.1.-.-.-.1.1.1.1.-.-.1.1.-.-.1.1.1.1.;.;.-.;.-.-.-.-.1.1.-.-.1.1.1.-.-.-.2.1.1.1.-.1.1.2.-.-.2.2.1.1.-.-.-.-.1.1.1.1.;.;.1.1.1.2.1.1.1.-.;.;.;.;.;.;.;.;.;.;.;.;.;.;.;.;.;.;.-.-.-.-.-.-.-.-.-.-.-.-.-.-.-.-.-.-.-.-.-.-.-.-.-.-.-.-.-.-.*.*.*.*.*.*.%.%.O.O.O.O.O.O.O.O.+.+.' ' ' ' ' ' ' ' ~ ~ ~ ~ ~ ~ ~ ~ ~ ! E ~ O.2.5.5.2.2.0.0.2.2.2.2.4.4.4.4.2.2.0.0.0.0.0.0.0.0.0.0.0.q.q.q.q.q.q.q.z.z.x.x.x.x.x.x.v.v.v.v.C.C.C.C.C.G.G.G.H.H.H.H.Z.H.H.!.!.!.!.!.!.!.!.!.!.!.!.E.{.lXDXHXGXjX{.J.H.H.K.H.H.H.H.H.H.G.G.G.G.G.G.G.C.C.C.C.v.v.C.C.v.v.v.v.v.v.x.x.x.x.x.x.x.x.x.x.x.x.x.x.z.z.z.z.z.z.z.z.z.z.z.z.q.",
"q.q.q.q.q.q.z.z.z.z.z.z.z.x.x.x.x.x.x.x.x.v.v.v.v.v.v.v.v.v.v.v.v.v.v.G.C.G.G.G.C.G.G.G.G.G.G.G.H.G.J.Z.:XCXHXGXMX:XW.!.H.J.H.H.J.J.H.H.J.J.H.H.H.H.H.H.G.G.G.G.C.C.C.C.C.v.v.v.x.x.x.x.x.z.z.z.z.z.q.q.q.q.q.q.0.0.0.0.4.0.0.0.4.0.0.4.0.4.4.4.0.0.4.4.2.4.2.2.2.2.2.2.2.=.' R ~ ~ ~ ~ ~ ~ ~ ~ ~ ' ' ' ' ' ' ' ' ' ' ' +.O.O.O.O.O.O.O.O.O.*.*.*.*.*.*.*.*.*.*.-.-.-.-.-.-.-.-.-.-.-.-.-.-.-.-.-.-.-.-.-.-.-.-.-.-.-.-.;.;.-.-.-.-.-.-.-.-.-.;.-.-.-.-.-.-.;.;.;.-.-.-.-.-.;.;.-.-.-.-.-.1.-.;.-.-.-.-.-.-.-.-.-.-.-.-.;.-.1.1.-.-.1.-.-.-.;.;.-.1.1.1.1.1.-.-.2.2.1.1.-.1.1.1.-.-.2.;.1.1.-.-.;.;.-.1.-.-.2.2.-.-.-.1.-.-.-.-.2.;.1.1.-.1.1.;.-.-.;.;.1.1.-.-.-.-.1.1.-.-.;.;.-.1.1.2.1.1.-.-.;.;.-.;.;.;.;.;.;.;.;.;.;.;.;.;.;.;.-.-.-.-.-.-.-.-.-.-.-.-.-.-.;.;.;.;.;.;.;.;.;.;.-.-.-.-.-.-.*.*.*.*.*.*.%.%.O.O.O.O.O.O.O.O.+.' ' ' ' ' ' ' ] ~ ~ ~ ~ ~ ~ ~ ! ~ ~ ~ ~ O.2.r.r.5.2.2.2.0.0.2.0.0.0.0.4.4.4.4.0.0.0.0.0.0.0.0.0.0.q.q.q.q.q.q.q.z.z.z.x.x.x.x.x.x.v.v.v.v.C.C.C.C.C.G.G.G.H.H.H.H.Z.H.H.H.!.!.!.!.!.!.!.!.!.!.!.E.{.lXDXHXGXjX{.J.H.H.K.H.H.H.H.H.G.G.G.G.G.G.C.G.C.C.G.G.v.v.C.C.v.v.v.v.v.x.x.x.x.x.x.x.x.x.x.x.x.x.x.x.z.z.z.z.z.z.z.z.z.z.z.z.z.",
"q.q.q.q.q.q.z.z.z.z.z.z.z.z.x.x.x.x.x.x.x.x.v.v.v.v.v.v.v.v.v.v.v.v.v.v.C.G.G.G.C.C.G.G.G.G.H.H.H.G.J.Z.:XCXHXGXMX:XW.!.H.J.H.H.J.H.H.J.J.H.H.H.H.H.G.G.G.G.G.G.G.G.C.C.C.v.v.v.x.x.x.x.x.x.z.z.z.z.q.q.q.q.q.q.q.q.0.0.0.0.0.0.0.0.2.4.4.4.4.2.0.0.0.2.2.2.4.4.0.2.2.2.0.5.-.' ~ ~ ~ ~ ~ ~ ~ ~ ~ ~ ' ' ' ' ' ' ' ' ' ' +.+.O.O.O.O.O.O.O.O.*.*.*.*.*.*.*.*.*.*.-.-.-.-.-.-.-.-.-.-.-.-.-.-.-.-.-.-.-.-.-.-.-.-.-.-.-.-.;.-.-.-.;.;.-.-.-.-.-.-.;.;.;.;.-.-.-.-.;.;.-.-.1.1.;.;.2.2.2.;.2.2.2.2.-.-.1.-.2.;.-.1.-.-.;.;.;.;.1.1.1.;.2.-.-.-.-.2.-.-.2.1.;.;.-.-.;.;.-.-.-.-.;.2.-.-.;.;.-.-.-.-.;.1.1.1.-.;.;.;.-.-.1.1.;.;.-.-.;.;.-.-.-.-.;.;.-.-.-.;.1.-.-.-.-.;.;.2.-.-.-.-.-.-.;.;.-.-.-.-.;.;.;.;.-.;.;.;.;.;.;.;.;.;.;.;.;.;.-.-.-.;.-.-.-.-.;.;.;.;.-.-.;.;.;.;.;.;.;.;.;.;.-.-.-.-.-.-.*.*.*.*.*.*.%.%.O.O.O.O.O.O.+.+.' ' ' ' ' ' ' ' ~ ~ ~ ~ ~ ~ ~ ~ ~ ~ Q ' *.2.r.r.0.0.2.2.2.0.0.0.4.4.0.0.4.4.4.4.0.0.0.0.0.0.0.0.0.q.q.q.q.q.q.q.q.z.z.z.x.x.x.x.x.x.v.v.v.v.C.C.C.C.C.G.G.C.G.H.H.H.H.H.H.J.H.H.H.H.!.!.!.!.!.!.!.E.{.lXDXHXGXjX{.J.H.H.K.H.H.H.H.H.G.G.G.C.G.G.C.C.C.C.G.G.v.v.C.C.v.v.v.v.v.v.v.x.x.x.x.x.x.x.x.x.x.x.x.x.z.z.z.z.z.z.z.z.q.z.z.z.q.",
"q.q.q.q.q.z.z.z.z.z.z.z.z.z.x.x.x.x.x.x.x.v.v.v.v.v.v.v.v.v.v.v.v.v.v.v.C.C.G.G.C.C.G.G.G.G.H.H.H.G.J.Z.:XCXHXGXMX:XW.!.H.J.H.H.J.H.H.J.H.H.H.H.H.H.H.G.G.G.G.G.G.G.C.C.C.v.v.v.x.x.x.x.x.x.z.z.z.z.z.q.q.q.q.q.q.q.0.0.0.0.0.q.0.0.0.4.4.4.4.2.0.0.0.0.2.2.4.4.0.0.0.2.2.2.2.5.~ ~ ~ ~ ~ ~ ~ ~ ~ ~ ' ' ' ' ' ' ' ' ' ' +.+.O.+.O.O.O.O.O.O.*.*.*.*.*.*.*.*.*.*.-.-.-.-.-.-.-.-.-.-.-.-.-.-.-.-.-.-.-.-.-.-.-.-.-.-.-.-.;.;.-.-.;.;.;.;.-.-.-.-.-.;.;.;.-.-.-.-.;.;.1.1.1.1.1.2.2.2.2.-.2.2.2.2.;.-.1.1.1.2.2.2.-.-.-.;.;.;.1.1.2.2.2.;.-.-.-.2.-.-.;.;.;.;.-.-.;.;.-.-.-.-.;.;.-.-.;.;.-.-.-.-.2.2.1.1.-.-.;.;.-.-.1.2.;.;.;.-.-.-.-.-.-.-.;.;.-.-.;.;.1.-.-.-.-.;.2.2.-.-.-.-.-.-.;.;.;.-.-.-.;.;.;.;.;.;.;.;.;.;.;.;.;.;.;.;.;.;.-.-.-.-.-.-.-.-.;.;.;.;.-.-.;.;.;.;.;.;.;.;.;.;.;.-.-.-.;.-.*.*.*.*.*.*.%.%.O.O.O.O.O.O.+.+.' ' ' ' ' ' ' ~ ~ ~ ~ ~ ~ ~ ~ ~ ~ E E { 2.r.r.2.2.0.0.0.0.4.0.0.4.0.0.0.4.4.4.4.0.0.0.0.0.0.0.0.0.q.q.q.q.q.q.q.z.z.z.z.x.x.x.x.x.x.v.v.v.v.C.C.C.C.C.G.C.C.G.H.H.H.H.H.H.H.H.H.H.H.!.!.!.!.!.!.!.E.{.lXDXHXGXjX{.!.H.H.H.H.H.H.H.H.H.G.G.C.G.G.C.C.C.C.G.G.v.v.C.C.v.v.v.v.v.v.v.x.x.x.x.x.x.x.x.x.x.x.x.x.z.z.z.z.z.z.z.z.q.q.z.q.q.",
"q.q.z.z.q.q.q.z.z.z.z.x.z.x.x.x.x.x.x.x.x.x.x.x.x.x.x.v.v.v.v.v.v.N.N.G.G.G.G.G.C.C.C.G.G.G.H.H.H.G.H.Z.-XCXHXHXbX:XZ.H.H.J.H.H.J.J.J.H.H.H.H.H.H.H.H.H.G.G.G.G.G.G.C.C.v.v.v.v.x.x.x.x.x.x.x.x.z.z.z.z.q.q.q.q.q.q.0.0.0.0.q.q.0.0.0.0.4.4.4.4.4.4.4.4.2.2.2.2.4.4.4.2.4.2.5.5.5.%.Q E ~ ] ] ~ ! ~ ' ' ' ' ' ' ' ' ' ' ' +.+.+.O.O.O.O.%.%.*.*.*.*.*.*.*.*.*.*.-.-.-.-.-.-.-.-.-.-.-.-.-.-.-.-.-.-.-.-.-.-.-.-.-.-.-.-.-.-.-.-.;.-.-.-.-.-.-.-.-.-.-.-.-.-.-.-.;.1.1.1.-.-.-.-.;.2.2.1.-.-.-.-.;.2.2.1.-.-.-.-.-.;.;.;.-.-.-.1.;.-.-.-.1.2.2.2.-.-.1.1.-.-.-.-.2.2.1.1.1.1.;.;.;.;.1.1.-.-.-.-.2.2.;.-.-.1.1.2.-.;.-.-.-.-.-.-.-.;.2.1.1.1.;.;.1.1.2.2.-.-.-.-.;.-.-.-.1.2.2.-.-.-.1.1.1.-.-.-.;.;.;.;.;.;.;.;.;.;.;.;.;.;.;.;.;.;.;.;.;.;.;.;.;.;.;.;.;.;.;.;.;.;.;.;.;.-.-.-.-.-.-.-.-.-.-.-.*.*.*.*.*.O.O.O.O.O.O.O.O.+.' ' O.' ' ' ' ' ' ] ] ~ ! ~ ~ ~ ~ ~ Q { ;.5.5.2.2.2.0.0.0.0.0.0.0.0.4.4.4.4.0.0.0.0.0.0.q.q.q.q.q.q.0.q.q.q.q.q.q.q.z.z.z.z.x.x.x.x.x.x.v.v.v.v.v.v.C.C.G.G.G.G.G.H.H.H.H.H.H.J.J.J.!.!.!.H.!.!.!.!.!.(.{.lXGXLXGXjX{.J.H.H.H.H.H.H.H.G.G.G.C.C.C.C.C.C.C.C.v.v.v.v.C.C.v.v.v.v.x.v.x.x.v.x.v.v.x.x.x.x.x.x.x.z.z.z.z.z.z.z.z.q.q.q.z.q.q.",
"q.q.z.z.q.q.z.z.z.z.z.x.z.x.x.x.x.x.x.x.x.x.x.x.x.x.x.v.v.v.v.v.v.N.N.N.C.G.G.G.C.C.C.G.G.G.H.H.H.G.H.Z.-XCXHXHXMX:XF.!.H.J.H.H.J.J.H.H.H.H.H.H.H.H.G.H.G.G.C.G.C.C.C.C.v.v.v.v.x.x.x.x.x.x.x.x.z.z.z.z.z.q.q.q.q.q.0.0.0.0.q.q.0.0.0.0.0.4.4.4.4.4.4.2.2.2.4.4.4.4.4.2.4.4.2.5.5.-.{ ) ~ ~ ~ ~ ~ ~ ' ' ' ~ ' ' ' ' ' ' ' +.+.+.O.O.O.O.%.%.*.*.*.*.*.*.*.*.*.*.-.-.-.-.-.-.-.-.-.-.-.-.-.-.-.-.-.-.-.-.-.-.-.-.-.-.-.-.-.-.-.-.-.-.-.-.;.-.-.-.-.-.-.-.-.-.-.;.2.1.1.1.-.-.-.-.2.2.1.1.-.-.-.-.;.2.1.1.-.-.-.-.-.;.2.;.-.-.-.1.2.-.-.-.1.2.2.-.;.-.1.1.-.-.-.-.;.-.1.1.1.1.;.;.;.1.1.1.-.-.-.-.2.;.;.-.-.1.1.2.;.;.1.1.-.-.-.-.-.-.1.1.1.1.;.-.1.1.1.2.-.-.-.-.;.-.-.-.1.2.2.-.-.-.1.1.1.-.-.-.;.;.;.;.;.;.;.;.;.;.;.;.;.;.;.;.;.;.-.;.;.;.;.;.;.;.;.;.;.;.;.;.;.;.;.;.;.-.-.-.-.-.-.-.-.-.-.-.*.*.*.*.*.O.O.O.O.O.O.O.O.+.' ' ' { ' ' ' ' ] ] ~ ~ ~ ~ ~ ~ ~ ~ { *.2.2.5.2.2.0.0.0.0.0.0.0.0.0.4.4.4.0.0.0.0.0.0.0.q.q.q.q.q.q.0.0.q.q.q.q.q.z.z.z.z.z.x.x.x.x.x.x.v.v.v.v.v.v.C.C.G.G.G.G.G.H.H.H.H.H.H.J.J.J.!.!.H.H.!.!.!.!.!.E.{.lXGXLXGXjX{.J.H.H.H.H.H.H.H.G.C.G.C.C.C.C.C.C.C.C.v.v.v.v.C.C.v.v.v.v.v.v.x.x.v.x.v.v.x.x.x.x.x.x.x.z.z.z.z.z.z.z.z.z.q.q.q.q.q.",
"q.q.z.z.q.q.z.z.z.z.z.z.z.x.x.x.x.x.x.x.x.x.x.x.v.v.x.v.v.v.v.v.v.v.N.N.v.v.G.G.C.C.C.G.G.G.G.H.K.C.H.Z.-XCXJXHXMX:XF.H.H.!.H.H.H.H.H.H.H.H.H.H.H.H.H.H.G.C.G.G.C.C.C.C.C.v.v.v.v.x.x.x.x.x.x.x.z.z.z.z.z.q.q.q.q.q.q.0.0.0.0.0.0.0.0.0.0.0.4.4.4.4.4.4.2.2.2.2.4.4.4.4.4.4.4.4.5.5.2.%.) Q ~ ) ' ' ' ~ ~ ~ ' ' ' ' ' ' ' +.O.+.O.O.O.O.%.%.*.*.*.*.*.*.*.*.*.*.;.;.-.-.-.-.-.-.-.-.-.-.-.-.;.;.-.-.-.-.;.-.-.-.-.-.;.-.-.-.-.-.-.-.-.-.;.;.-.-.-.-.-.-.-.;.;.;.-.-.-.-.-.-.-.1.-.-.1.1.1.1.1.;.-.-.1.1.1.1.;.;.1.1.1.1.-.-.-.-.2.2.-.-.-.-.-.-.;.;.2.1.;.;.-.-.-.-.-.-.-.-.-.-.;.;.1.1.-.-.-.-.1.1.-.-.-.-.-.2.;.2.1.1.1.2.;.;.-.-.-.-.1.-.-.-.-.-.1.2.-.-.;.-.;.2.-.-.1.1.-.-.-.;.;.2.;.;.-.-.;.;.;.;.;.;.;.;.;.;.;.;.;.;.;.;.;.;.;.;.;.;.;.;.;.;.;.;.;.;.;.;.;.;.;.;.;.-.-.-.;.;.-.-.-.-.-.-.*.*.*.*.*.*.O.O.O.O.O.O.O.+.+.' ' { ' ' ' ' ] ~ ~ ~ ] ~ ~ ~ ' { ;.2.0.0.0.2.2.0.0.0.0.0.0.0.0.0.4.4.0.0.0.0.0.0.0.q.0.0.q.q.q.q.q.q.q.q.q.q.q.q.z.z.z.z.x.x.x.x.v.v.v.v.v.v.C.C.C.C.G.G.G.G.H.H.H.H.H.H.H.J.J.J.J.J.!.!.H.H.H.H.!.E.{.sXDXLXGXjX{.J.H.H.K.H.H.H.G.G.G.G.C.C.C.C.C.C.C.C.v.C.C.v.C.v.v.v.v.v.v.v.x.x.x.x.v.v.v.x.x.x.x.x.x.z.z.z.z.z.z.z.z.z.z.z.q.q.q.",
"q.q.z.z.q.q.z.z.z.z.z.z.z.x.x.x.x.x.x.x.x.x.x.x.v.v.v.v.v.v.v.v.v.v.v.N.v.C.C.G.C.C.C.G.G.G.G.G.K.C.H.Z.-XCXHXHXMX:XF.H.H.J.H.H.H.H.H.H.H.H.H.H.H.H.H.H.G.G.G.G.C.C.C.C.C.v.v.v.v.v.v.x.x.x.x.x.z.z.z.z.z.q.q.q.q.q.q.q.0.0.0.0.0.0.0.0.0.0.0.0.0.4.4.4.4.2.2.2.4.4.4.4.4.4.4.4.4.0.r.2.%.{ ) ) ' ~ ~ ~ ' ' ' ' ' ' ' ' ' +.O.O.O.O.O.O.%.%.*.*.*.*.*.*.*.*.*.*.;.;.-.-.-.-.-.-.-.-.-.-.-.-.;.;.-.-.-.-.-.-.-.-.;.;.;.;.;.;.;.;.;.;.;.;.;.;.;.;.;.;.;.;.;.;.;.;.-.-.-.-.-.-.-.1.-.-.-.1.1.1.1.;.-.-.-.1.1.1.1.;.-.1.1.1.-.-.-.-.1.2.-.1.-.-.-.-.;.;.2.1.2.;.;.;.-.-.-.-.-.-.-.-.;.;.1.1.1.-.-.-.1.1.-.-.-.-.-.-.;.2.1.1.1.;.;.;.-.-.-.-.1.-.-.-.-.-.1.-.-.-.;.2.2.2.-.1.-.-.-.-.-.;.;.2.;.;.-.-.;.;.;.;.;.;.;.;.;.;.;.;.;.;.;.;.;.;.;.;.;.;.;.;.;.;.;.;.;.;.;.;.;.;.;.;.;.-.-.-.;.;.-.-.-.-.-.-.*.*.*.*.*.*.O.O.O.O.O.O.O.+.' ' +.O.' ' ' ' ~ ~ ~ ~ ~ ~ ~ ' O.-.5.0.0.0.0.2.0.0.0.0.0.0.0.0.0.0.0.0.0.0.0.0.0.0.0.0.0.q.q.q.q.q.q.q.q.q.q.q.q.z.z.z.z.z.x.x.x.x.v.v.v.v.v.v.C.C.C.C.G.G.G.G.H.H.H.H.H.H.H.H.H.H.J.J.!.!.H.H.H.H.!.E.{.sXDXLXGXjX{.J.H.Z.H.H.H.H.G.G.G.G.C.C.C.C.C.C.C.C.C.C.C.v.C.C.v.v.v.v.v.v.x.x.x.x.v.v.x.x.x.x.x.x.x.z.z.z.z.z.z.z.z.z.z.z.q.q.q.",
"q.q.z.z.z.z.z.z.z.z.z.z.z.x.x.x.x.x.x.x.x.x.x.x.v.v.x.v.v.v.v.v.v.v.v.N.v.v.v.v.C.C.C.C.G.G.C.H.K.C.H.Z.-XCXHXHXMX:XF.H.H.J.H.P.H.H.H.H.H.H.H.H.H.G.G.G.G.G.G.G.G.G.C.C.C.C.v.v.v.v.v.x.x.x.x.x.z.z.z.z.z.z.q.q.q.q.q.q.q.q.0.0.0.0.0.0.0.0.0.0.0.0.0.4.4.4.4.2.4.4.4.4.4.4.4.4.2.4.0.r.5.-.{ ) ~ ~ ~ ~ ' ' ' ~ ' ' ' ' ' O.O.O.O.O.O.O.O.O.*.*.*.*.*.*.*.*.*.*.;.-.-.-.-.-.-.-.-.-.-.-.-.-.-.-.-.-.-.-.-.-.-.-.;.;.;.;.;.;.;.;.;.;.;.;.;.;.;.;.;.;.;.;.;.;.-.-.2.;.2.-.-.-.2.2.;.;.2.2.1.1.2.2.2.;.2.1.1.1.2.2.2.2.2.1.-.-.;.2.2.2.2.2.-.-.-.1.2.2.;.-.2.2.2.2.1.-.-.-.;.-.-.-.;.;.;.2.2.2.2.2.2.2.2.2.-.-.-.2.2.2.2.2.2.2.2.2.2.1.1.-.-.-.-.-.;.;.;.;.1.1.2.2.2.2.2.2.-.-.-.1.2.2.-.-.2.2.2.2.;.;.;.;.;.;.;.;.;.;.;.;.;.;.;.;.;.;.;.;.;.;.;.;.;.;.;.-.;.;.;.;.;.;.;.;.;.-.;.;.;.-.-.-.-.-.-.-.*.*.*.*.*.*.%.%.O.O.O.O.O.' ' ' ' ' ' ' ' ~ ~ ~ ' ~ E ~ ' *.2.5.0.0.0.0.0.0.0.0.0.0.0.0.0.0.0.0.0.0.0.0.0.0.q.q.0.q.q.q.q.q.q.q.q.q.q.q.q.z.z.z.z.z.z.x.x.x.x.x.v.v.v.v.v.v.C.C.C.C.C.C.G.G.G.G.H.H.H.H.H.H.H.H.H.H.H.H.H.H.H.H.!.E.{.sXDXHXGXjX{.J.H.H.G.H.H.H.H.H.G.G.C.C.C.C.C.C.C.C.C.C.C.v.C.C.C.C.v.v.x.x.v.v.v.x.x.x.x.x.x.x.x.x.x.z.z.z.z.z.z.z.z.q.z.z.q.q.z.",
"q.q.z.z.q.q.z.z.z.z.z.z.z.x.x.x.x.x.x.x.x.x.x.x.v.v.x.v.v.v.v.v.v.v.v.v.v.v.C.C.C.C.C.C.G.C.C.C.K.C.H.Z.-XCXHXHXMX:XF.Z.H.J.H.H.H.H.H.H.H.H.H.H.H.G.G.G.G.G.G.G.G.G.C.C.C.C.v.v.v.v.v.v.x.x.x.x.z.z.z.z.z.z.q.q.q.q.q.q.q.q.0.0.q.q.0.0.0.0.0.0.0.0.0.0.4.4.4.4.0.0.0.0.0.0.0.0.2.2.0.e.e.4.-.{ ~ ~ ~ ~ ' ' ' ~ ' ' ' ' ' O.O.O.O.O.O.O.O.O.*.*.*.*.*.*.*.*.*.*.;.;.;.;.;.;.;.;.;.;.;.;.;.;.;.;.;.;.;.;.;.;.;.;.;.;.;.;.;.;.;.;.;.;.;.;.;.;.;.;.;.;.;.;.;.;.-.-.2.2.2.2.-.-.2.2.;.;.2.2.-.1.2.2.;.;.2.2.1.1.;.;.2.2.;.;.1.1.2.2.2.2.2.2.-.-.-.1.2.2.;.-.2.2.2.2.1.2.-.-.;.-.-.-.;.;.2.2.2.2.2.2.2.2.-.1.-.-.1.1.2.2.2.;.2.2.2.2.2.2.-.-.-.-.-.1.;.;.2.;.1.1.2.2.2.2.2.2.-.-.-.-.2.2.-.-.2.2.2.2.;.;.;.;.;.;.;.;.;.;.;.;.;.;.;.;.;.;.;.;.;.;.;.;.;.;.;.;.;.;.;.;.;.;.;.;.;.-.;.;.;.;.-.-.-.-.-.-.*.*.*.*.*.*.%.%.O.O.O.O.O.' ' ' ' ' ' ' ~ ~ ~ ~ ' ~ ~ ' *.2.0.0.0.2.2.2.0.0.0.0.0.0.0.0.0.0.0.0.0.0.0.0.0.0.q.q.q.q.q.q.q.q.q.q.q.q.q.q.z.z.z.z.z.z.z.x.x.x.x.x.x.x.v.v.v.v.v.v.C.C.G.G.G.G.G.G.H.H.H.H.H.H.H.H.H.H.H.H.H.H.H.H.H.E.{.sXDXHXGXjX{.J.H.H.H.G.Z.Z.H.H.G.G.C.C.C.C.C.C.C.C.v.C.C.v.C.v.v.C.v.x.x.x.v.v.x.x.x.x.x.x.x.x.x.x.x.z.z.z.z.z.z.z.z.q.z.z.q.z.z.",
"q.q.q.q.q.q.z.z.z.z.z.z.z.x.x.x.x.x.x.x.x.x.x.x.x.x.x.v.v.v.v.v.v.v.v.v.C.C.v.C.C.C.C.C.C.G.G.C.K.G.H.Z.-XCXHXHXMX:XF.Z.Z.H.G.H.H.H.H.H.H.H.H.H.H.G.G.G.G.G.G.G.G.G.C.C.v.v.v.v.v.v.v.v.x.x.M.x.z.z.z.z.z.z.q.q.q.q.q.q.q.q.0.q.q.q.q.0.0.0.0.q.0.0.0.0.0.4.4.4.0.0.0.0.0.0.0.0.0.4.4.0.0.0.2.2.O.' ~ ~ ~ ' ' ' ' ' ' ' ' O.O.O.O.O.O.O.%.%.*.*.*.*.*.*.*.*.*.*.;.;.;.;.;.;.;.;.;.;.;.;.;.;.;.;.;.;.;.;.;.;.;.;.;.;.2.;.;.;.;.;.;.;.;.;.;.;.;.;.;.;.;.;.;.;.;.;.2.2.2.2.-.1.1.2.;.2.2.2.-.-.-.-.;.2.2.2.-.-.-.;.2.;.;.;.2.2.2.2.-.-.2.1.-.-.2.2.2.2.-.-.-.1.2.2.2.2.2.2.;.2.1.-.1.1.2.2.2.2.1.1.;.;.-.-.-.-.2.2.2.2.-.-.;.-.1.1.2.2.2.2.;.;.1.1.2.2.2.2.1.1.-.-.-.-.2.1.1.-.2.2.2.2.-.-.1.1.2.2.;.;.;.;.;.;.;.;.;.;.;.;.;.;.;.;.;.;.-.;.-.;.;.;.;.;.;.;.;.;.;.;.;.;.;.;.;.-.-.;.-.-.-.-.-.-.-.-.*.*.*.*.*.O.%.%.O.O.O.O.O.+.' ' ' ' ' ' ~ ~ ~ ~ ~ ' O.-.2.0.0.0.0.0.2.2.0.0.0.0.0.0.0.0.0.0.0.0.0.0.0.0.0.q.q.q.q.q.q.q.q.q.q.q.q.q.q.q.z.z.z.z.z.z.z.x.x.x.x.x.x.x.v.v.v.v.v.v.C.C.C.C.G.G.G.G.G.G.H.H.H.H.H.H.H.H.J.H.H.H.H.H.H.E.{.sXDXHXGXjX{.J.H.Z.G.G.Z.Z.H.H.G.G.C.C.G.C.C.C.C.C.v.C.v.v.v.v.C.v.v.x.x.x.v.v.v.x.x.x.x.x.x.x.x.x.x.z.z.z.z.z.z.z.z.q.q.z.z.z.z.",
"q.q.q.q.q.q.z.z.z.z.z.z.z.x.x.x.x.x.x.x.x.x.x.x.x.x.x.v.v.v.v.v.v.v.v.v.v.C.v.G.C.C.G.C.G.G.G.G.K.G.H.Z.-XCXHXHXcX:XF.H.H.H.G.H.H.H.H.H.H.H.H.H.H.G.G.G.G.G.G.G.C.G.C.C.v.v.v.v.v.v.v.v.x.x.x.x.z.z.z.z.z.z.q.q.q.q.q.q.q.q.q.q.q.q.q.q.0.0.0.0.0.0.0.0.0.4.4.4.0.0.0.0.0.0.0.0.q.0.4.2.2.4.0.0.:.>.' ~ ~ ' ' ' ' ' ' ' ' O.O.O.O.O.O.O.%.%.*.*.*.*.*.*.*.*.*.-.;.;.;.;.;.;.;.;.;.;.;.;.;.;.;.;.;.;.;.;.;.;.;.;.;.;.;.;.;.;.;.;.;.;.;.;.;.;.;.;.;.;.;.;.;.;.;.;.2.2.2.2.-.-.1.1.2.2.2.2.-.-.-.-.;.2.2.2.-.-.-.-.;.;.;.;.2.2.2.2.-.-.-.-.1.2.2.2.2.2.-.-.-.1.1.1.2.2.2.2.2.2.1.2.1.2.2.2.2.2.2.-.-.;.;.;.-.-.1.2.2.2.-.-.-.-.-.1.2.2.2.2.2.;.1.1.2.2.2.2.-.-.-.-.-.-.-.1.2.2.2.2.2.2.-.-.-.1.2.2.;.;.;.;.;.;.;.;.;.;.;.;.;.;.;.;.;.;.;.;.;.;.;.;.;.;.;.;.;.;.;.;.;.;.;.;.;.-.-.-.-.-.-.-.-.-.-.-.*.*.*.*.*.O.O.O.O.O.O.O.O.+.' ' ' ' ' ' ' ~ ~ ~ E ' :.5.0.0.0.0.0.0.0.0.0.0.0.0.0.0.0.0.0.0.0.0.0.0.0.0.q.q.q.q.q.q.q.q.q.q.q.q.q.q.q.q.z.z.z.z.z.z.z.x.x.x.x.x.x.x.v.v.v.v.v.v.C.C.C.C.G.G.G.G.G.G.H.H.H.H.H.H.J.J.J.H.J.H.J.H.H.Z.Q.sXDXHXGXvX{.H.H.H.G.G.Z.Z.H.G.G.G.G.G.G.G.C.C.C.C.v.v.v.v.v.v.v.v.v.x.x.x.v.v.v.x.x.x.x.x.x.x.x.x.x.z.z.z.z.z.z.z.z.q.q.z.z.z.z.",
"z.z.q.q.q.q.z.z.z.z.z.z.z.x.x.x.x.x.x.x.x.x.x.x.x.x.x.x.v.v.v.v.v.v.v.v.v.N.N.N.G.G.G.G.G.G.G.G.G.G.G.F.-XZXGXGXbX:XF.L.G.P.H.H.H.H.H.H.H.H.H.H.P.G.G.G.G.G.G.G.C.C.C.C.v.v.v.v.v.v.v.v.v.x.x.x.x.x.z.z.z.z.q.q.z.q.q.q.q.q.q.q.q.q.q.q.q.0.0.0.0.0.0.0.0.0.0.0.0.0.0.0.4.4.4.4.0.0.0.0.0.0.0.0.r.2.%.) ) ) ' ' ~ ) ] { [ ' ' ' O.O.O.%.*.*.*.*.*.*.*.*.-.-.;.;.-.-.-.-.-.-.-.-.-.-.-.-.-.-.-.-.;.;.;.;.;.;.;.;.;.;.;.;.;.;.;.;.;.2.;.2.;.;.;.;.;.;.;.;.;.;.;.;.2.:.:.:.2.2.2.2.;.:.:.:.2.2.2.2.2.2.2.2.2.2.2.2.2.2.2.2.2.2.2.2.2.2.2.2.2.2.2.2.2.2.2.2.2.2.2.2.2.2.2.2.2.2.2.2.2.2.2.2.2.2.2.2.2.2.2.2.2.2.2.2.2.2.2.2.2.2.2.2.2.2.2.2.2.2.2.2.2.2.2.2.2.2.2.2.2.2.2.2.2.2.2.2.2.2.2.2.2.2.2.2.2.2.2.2.2.2.2.;.;.;.2.2.2.;.;.;.2.2.2.2.2.2.;.2.;.;.;.;.;.;.;.;.;.;.;.;.;.;.;.;.;.;.-.-.-.*.*.*.*.*.*.*.*.*.*.*.O.O.O.O.O.+.+.+.' ' ' ' ) ~ ~ ) =.:.5.5.0.4.2.2.0.0.0.0.0.0.0.0.4.4.4.4.0.0.0.0.0.0.0.0.q.q.q.q.q.q.q.q.q.q.q.q.q.q.z.z.z.z.z.z.x.x.x.x.x.x.x.x.v.v.v.v.v.v.G.G.C.C.C.C.G.G.G.G.H.H.H.H.H.H.H.H.H.H.H.H.H.H.H.H.J.Z.F.sXDXHXHXmX{.E.H.H.P.P.H.Z.G.G.G.G.G.G.G.G.v.v.v.v.C.v.v.v.v.v.v.v.v.v.v.v.x.x.x.x.x.x.x.x.x.x.x.z.z.z.z.z.z.z.z.z.z.q.z.z.q.q.q.",
"z.z.q.q.q.q.z.z.z.z.z.z.z.x.x.x.x.x.x.x.x.x.x.x.x.x.x.x.v.v.v.v.v.v.v.v.v.N.N.N.G.G.G.G.G.G.G.G.G.G.G.F.-XZXGXDXbX{.S.P.K.L.H.H.H.H.H.H.H.H.H.H.P.P.G.G.G.G.G.G.C.C.C.C.v.v.v.v.v.v.v.x.v.x.x.x.x.z.z.z.z.z.q.q.z.q.q.q.q.q.q.q.q.q.q.q.q.q.0.0.0.0.0.0.0.0.0.0.0.0.0.0.0.4.4.4.0.0.0.0.0.0.0.0.5.5.2.*.{ ) ) ~ ' ] ] ] ' ' ' { O.O.O.%.*.*.*.*.*.*.*.*.-.-.;.;.2.2.2.2.1.1.-.1.2.2.2.2.1.-.1.-.;.;.;.;.;.;.;.;.;.;.;.;.;.;.;.;.2.2.2.2.;.;.;.;.;.;.;.;.2.;.2.;.2.:.:.:.2.2.2.2.;.:.:.:.2.2.2.2.2.2.2.2.2.2.2.2.2.2.2.2.2.2.2.2.2.2.2.2.2.2.2.2.2.2.2.2.2.2.2.2.2.2.2.2.2.2.2.2.2.2.2.2.2.2.2.2.2.2.2.2.2.2.2.2.2.2.2.2.2.2.2.2.2.2.2.2.2.2.2.2.2.2.2.2.2.2.2.2.2.2.2.2.2.2.2.2.2.2.2.2.2.2.2.2.2.2.;.2.2.2.2.;.;.;.2.2.2.;.;.;.2.2.2.2.2.2.2.2.;.;.;.;.;.2.;.;.;.;.2.2.2.2.;.;.;.;.;.;.;.-.-.-.-.*.*.*.*.*.*.*.O.O.O.+.O.O.' ' ' [ ' ' ~ ~ { %.2.2.5.0.0.0.4.4.0.0.0.0.0.0.0.0.4.4.4.0.0.0.0.0.0.0.0.0.q.q.q.q.q.q.q.q.q.q.q.q.q.z.z.z.z.z.z.z.x.x.x.x.x.x.x.x.v.v.v.v.v.v.G.G.C.C.C.C.G.G.G.G.H.H.H.H.H.H.H.H.H.H.H.H.H.H.H.H.H.H.F.sXDXLXHXmX#XE.H.H.P.P.G.Z.G.G.G.G.G.G.G.G.v.v.v.v.C.v.v.v.v.v.v.v.v.v.v.v.x.x.x.x.x.x.x.x.x.x.x.z.z.z.z.z.z.z.z.z.z.z.z.z.z.q.q.",
"q.z.q.q.q.q.z.z.z.z.z.z.z.z.x.x.x.x.x.x.x.x.x.x.x.x.x.v.v.v.v.v.v.v.v.v.v.N.N.N.G.G.G.G.G.G.G.G.P.G.G.F.-XZXHXGXbX{.S.P.G.G.H.H.P.P.H.H.P.P.P.P.P.P.G.G.G.G.G.G.C.C.C.C.C.C.v.v.v.v.v.v.v.x.x.x.x.x.z.z.z.q.z.q.z.z.q.q.q.q.q.q.q.q.q.q.q.q.q.q.0.0.0.0.0.0.0.0.0.0.0.0.0.0.4.4.0.0.0.0.0.0.0.0.2.0.r.5.-.{ ) ~ [ ] ' ' ' ' { O.O.O.O.%.%.%.*.*.*.*.-.-.-.;.;.;.2.2.2.2.-.-.1.-.2.2.2.2.2.2.1.2.;.;.;.;.;.;.;.;.2.2.2.2.;.;.;.;.2.2.2.2.2.2.2.2.2.2.2.2.2.2.2.2.2.2.2.2.2.2.2.2.2.2.2.2.2.2.2.2.2.2.2.2.2.2.2.2.2.2.2.2.2.2.2.2.2.2.2.2.2.2.2.2.2.2.2.2.2.2.2.2.2.2.2.2.2.2.2.2.2.2.2.2.2.2.2.2.2.2.2.2.2.2.2.2.2.2.2.2.2.2.2.2.2.2.2.2.2.2.2.2.2.2.2.2.2.2.2.2.2.2.2.2.2.2.2.2.2.2.2.2.2.2.2.2.2.2.2.2.2.2.2.2.2.2.2.2.2.2.2.2.2.2.2.2.2.2.2.2.2.2.2.2.2.2.2.2.2.2.2.2.2.2.;.;.2.;.2.;.;.;.;.;.;.;.*.*.*.*.%.O.O.O.O.+.+.' ' ' { { ' ) ~ ' *.2.5.5.0.0.0.0.0.0.0.0.0.0.0.0.0.0.4.4.0.0.0.0.0.0.0.0.0.0.q.q.q.q.q.q.q.q.q.q.q.q.z.z.z.z.z.z.z.z.x.x.x.x.x.x.x.v.v.v.v.v.v.v.G.G.C.C.C.C.G.G.G.G.H.H.H.H.H.H.H.H.H.H.H.H.H.H.H.H.H.H.F.sXDXLXHXmX#XE.H.H.G.P.G.C.G.G.G.G.G.G.G.G.G.G.v.v.C.v.v.v.v.v.v.v.v.x.v.v.x.x.x.x.x.x.x.x.x.x.x.z.z.z.z.z.z.z.z.z.z.q.z.z.z.z.q.",
"q.q.q.q.q.q.z.z.z.z.z.z.z.z.x.x.x.x.x.x.x.x.x.x.x.x.x.v.v.v.v.v.v.v.v.v.v.N.N.N.G.G.G.G.G.G.G.G.P.G.G.F.-XZXHXGXbX{.S.P.G.G.H.G.H.H.H.H.P.P.P.P.P.P.G.G.G.G.G.G.C.C.C.C.C.v.v.v.v.v.v.x.v.x.x.x.x.x.z.z.z.z.z.z.z.z.q.q.q.q.q.q.q.q.q.q.q.q.q.q.q.q.0.0.q.q.0.0.0.0.0.0.0.0.0.0.0.0.0.0.0.0.0.0.4.0.e.r.2.*.{ ) ' ' ' ' ' [ O.O.O.O.O.%.>.*.*.*.*.-.-.-.;.;.;.;.2.2.2.2.2.2.2.2.2.2.2.2.2.2.2.2.;.;.;.;.2.2.2.2.2.2.2.2.;.;.;.;.2.2.2.2.2.2.2.2.2.2.2.2.2.2.2.2.2.2.2.2.2.2.2.2.2.2.2.2.2.2.2.2.2.2.2.2.2.2.2.2.2.2.2.2.2.2.2.2.2.2.2.2.2.2.2.2.2.2.2.2.2.2.2.2.2.2.2.2.2.2.2.2.2.2.2.2.2.2.2.2.2.2.2.2.2.2.2.2.2.2.2.2.2.2.2.2.2.2.2.2.2.2.2.2.2.2.2.2.2.2.2.2.2.2.2.2.2.2.2.2.1.1.1.1.2.2.2.2.2.2.2.2.2.2.2.2.2.2.2.2.2.2.2.2.2.2.2.2.2.2.2.2.2.2.2.2.2.2.2.2.2.2.2.2.2.2.;.;.2.2.2.;.;.;.;.;.;.;.*.*.*.*.%.O.O.O.O.+.' ' ' ' ' ' ) ' { *.2.5.r.0.0.0.0.0.0.0.0.0.0.0.0.0.0.0.0.0.0.0.0.0.0.0.0.0.0.0.q.q.q.q.q.q.q.q.q.q.q.q.q.z.z.z.z.z.z.x.x.x.x.x.x.x.v.x.v.v.v.v.v.v.G.G.C.G.C.C.C.G.G.G.G.G.H.H.H.H.H.H.H.H.H.H.H.H.H.H.H.H.F.sXDXLXHXVX#XZ.H.H.G.P.C.C.G.G.G.G.G.G.G.G.G.C.C.v.C.v.v.v.v.v.v.v.v.x.x.x.x.x.x.x.x.x.x.x.x.x.x.z.z.z.z.z.z.z.z.z.z.q.z.z.z.z.q.",
"q.q.q.q.q.q.z.z.z.z.z.z.z.x.x.x.x.x.x.x.x.x.x.x.x.x.x.v.v.v.v.v.v.v.v.v.v.v.v.v.N.N.N.G.G.G.G.G.P.G.G.F.-XZXHXGXbX{.S.P.G.G.G.G.H.H.H.H.H.H.P.P.G.P.G.G.G.G.G.G.G.G.C.C.C.C.v.v.v.v.v.x.v.x.x.x.x.x.x.x.z.z.q.z.z.q.q.q.q.q.q.q.q.q.q.q.q.q.q.q.q.q.q.q.0.0.q.0.0.0.0.0.q.0.0.0.q.q.q.0.0.0.0.0.e.0.0.0.0.5.-.%.) ) ) ' { O.O.{ O.O.O.O.*.*.*.*.*.-.-.;.;.;.2.2.2.2.2.2.2.2.2.2.2.2.2.2.2.2.2.2.;.;.;.;.2.2.2.2.2.2.2.2.2.2.2.2.2.2.2.2.2.2.2.2.2.2.2.2.2.2.2.2.2.2.2.2.2.2.2.2.2.2.2.2.2.2.2.2.2.2.2.2.2.2.2.2.2.2.2.2.2.2.2.2.2.2.2.2.2.2.2.2.2.2.2.2.2.2.2.2.2.2.2.2.2.2.2.2.2.2.2.2.2.2.2.2.2.2.2.2.2.2.2.2.2.2.2.2.2.2.2.2.2.2.2.2.2.2.2.2.2.1.1.1.2.2.2.2.2.2.2.2.2.2.2.2.2.2.2.2.2.2.2.2.2.2.2.2.2.2.2.2.2.2.2.2.2.2.2.2.2.2.2.2.2.2.2.2.2.2.2.2.2.2.2.2.2.2.2.2.2.2.2.2.2.2.2.;.;.;.;.;.;.;.-.*.*.*.O.O.O.O.O.+.' ' ' ' ) ) ) { -.5.5.5.0.0.0.0.4.0.0.q.0.0.0.0.0.0.0.0.0.0.0.0.0.0.q.q.0.q.q.q.q.q.q.q.q.q.q.q.z.q.q.q.q.z.z.z.z.z.x.x.x.x.x.x.x.x.x.x.v.v.v.v.v.v.G.G.C.G.G.G.G.G.G.G.H.G.H.H.H.H.H.H.H.H.H.H.H.H.H.H.H.H.F.sXDXLXHXVX{.Z.H.G.G.G.C.C.G.G.G.G.G.G.G.C.G.G.v.v.v.v.v.v.v.v.v.v.v.x.x.x.x.x.x.x.x.x.x.x.x.x.x.z.z.z.z.z.z.z.z.z.z.z.z.z.z.q.z.",
"q.q.q.q.q.q.z.z.z.z.z.z.z.x.x.x.x.x.x.x.x.x.x.x.x.x.x.x.v.v.v.v.v.v.v.v.v.v.v.v.v.N.G.G.G.G.G.G.P.G.G.F.-XZXHXGXbX{.S.P.G.G.G.G.P.P.P.P.G.P.P.P.P.P.G.G.G.G.G.G.G.G.C.C.C.C.v.v.v.v.v.v.v.x.x.x.M.x.x.x.z.z.z.z.z.z.q.q.q.q.q.q.q.q.q.q.q.q.q.q.q.q.q.q.q.0.q.0.q.q.0.0.q.q.0.0.q.q.0.0.0.0.0.0.w.0.4.0.0.r.5.2.{ ' ) ' { O.O.{ O.O.O.O.*.*.*.*.-.-.;.;.;.2.2.2.2.2.2.2.2.2.2.2.2.2.2.2.2.2.2.2.2.2.2.2.2.2.2.2.2.2.2.2.2.2.2.2.2.2.2.2.2.2.2.2.2.2.2.2.2.2.2.2.2.2.2.2.2.2.2.2.2.2.2.2.2.2.2.2.2.2.2.2.2.2.2.2.2.2.2.2.2.2.2.2.2.2.2.2.2.2.2.2.2.2.2.2.2.2.2.2.2.2.2.2.2.2.2.2.2.2.2.2.2.2.2.2.2.2.2.2.2.2.2.2.2.2.2.2.2.2.2.2.2.2.2.2.2.2.2.2.2.2.1.1.2.2.2.2.2.2.2.2.2.2.2.2.2.2.2.2.2.2.2.2.2.2.2.2.2.2.2.2.2.2.2.2.2.2.2.2.2.2.2.2.2.2.2.2.2.2.2.2.2.2.2.2.2.2.2.2.2.2.2.2.2.2.2.;.;.;.;.;.;.;.-.*.*.*.O.O.O.O.O.+.' ' ' ' ) ) { -.5.r.r.2.0.0.0.0.4.0.0.0.0.0.0.0.0.0.0.0.0.0.0.0.0.0.q.q.q.q.q.q.q.q.q.q.q.q.q.q.q.q.z.z.z.z.z.z.z.z.x.x.x.x.x.x.x.x.x.v.v.v.v.v.v.v.G.G.C.G.C.G.G.G.G.G.H.G.H.H.G.H.H.H.H.H.H.H.H.H.H.H.P.H.F.sXDXLXHXVX#XZ.H.G.G.G.Z.C.G.G.G.G.G.G.G.C.G.G.v.v.v.v.v.v.v.v.v.v.v.x.x.x.x.x.x.x.x.x.x.x.x.x.x.z.z.z.z.z.z.z.z.z.z.q.z.z.z.q.q.",
"z.z.q.q.q.q.z.z.z.z.z.z.z.x.x.x.x.x.x.x.x.x.x.x.x.x.x.v.v.v.v.v.v.v.v.v.v.N.v.v.v.v.N.N.G.G.G.G.P.G.G.F.-XZXHXGXcX{.S.P.G.G.G.G.P.P.G.G.G.G.P.P.P.P.G.G.G.G.G.G.G.G.C.C.v.v.v.v.v.v.v.v.v.x.x.x.M.M.x.x.z.z.z.z.z.z.q.q.q.q.q.z.q.q.q.q.q.q.q.q.q.q.q.q.q.q.0.0.q.q.q.0.q.q.0.0.0.0.0.0.0.0.0.0.q.q.q.0.0.0.r.r.2.%.' ) { O.O.{ O.O.O.O.*.*.*.*.-.-.;.;.2.2.2.2.2.2.2.2.2.2.2.2.2.2.2.2.2.2.2.2.2.2.2.2.2.2.2.2.2.2.2.2.2.2.2.2.2.2.2.2.2.2.2.2.2.2.2.2.2.2.2.2.2.2.1.1.2.2.1.1.2.2.2.2.2.2.1.1.2.2.2.2.1.1.2.2.2.2.2.2.1.1.2.1.1.1.1.1.2.2.2.2.1.1.1.2.2.2.1.2.2.2.2.2.1.1.1.1.1.1.2.1.2.2.2.2.1.1.1.2.2.2.1.2.1.1.1.2.2.2.2.2.2.2.2.2.1.1.1.1.2.2.2.2.2.2.2.2.2.2.2.2.2.1.1.1.2.2.2.2.2.2.2.2.2.2.2.2.2.2.2.2.2.2.2.2.2.2.2.2.2.2.2.2.2.2.2.2.2.2.2.2.2.2.2.2.2.2.2.2.2.2.2.2.2.2.2.2.;.;.;.;.;.-.-.*.*.*.O.O.O.O.O.' ' ' ' ' { %.2.4.r.0.0.0.0.0.0.q.q.q.q.q.0.0.0.0.0.0.0.0.0.0.0.0.0.q.q.q.q.q.q.q.q.q.q.q.q.q.z.z.q.q.z.z.z.z.z.z.z.z.x.x.x.x.x.x.x.x.v.v.v.v.v.v.v.v.C.C.C.C.C.C.G.G.G.G.G.G.G.G.G.G.H.H.H.H.H.H.H.H.H.H.P.H.F.sXDXLXHXVX#XZ.H.P.G.G.C.C.G.G.G.G.G.v.v.C.G.G.C.v.v.v.v.v.v.v.v.v.v.v.v.v.x.x.x.x.x.x.x.x.x.x.x.z.z.z.z.z.z.z.z.z.z.q.q.q.q.q.q.",
"z.z.q.q.q.q.z.z.z.z.z.z.z.x.x.x.x.x.x.x.x.x.x.x.x.x.x.v.v.v.v.v.v.v.v.v.v.N.N.v.v.v.N.N.G.G.G.G.P.G.G.F.-XZXHXGXcX{.S.P.G.G.G.G.G.G.G.G.G.G.P.P.P.P.G.G.G.G.G.G.C.G.C.C.v.v.v.v.v.v.v.v.v.x.x.x.x.M.x.x.z.x.z.z.z.z.q.q.q.q.q.z.q.q.q.q.q.q.q.q.q.q.q.q.0.0.0.0.q.q.q.q.q.0.0.0.0.0.0.0.0.0.0.0.0.q.z.q.0.0.0.e.r.2.O.) ' { O.O.O.O.O.O.*.*.*.*.-.;.;.2.2.2.2.2.2.2.2.2.2.2.2.2.2.2.2.2.2.2.2.2.2.2.2.2.2.2.2.2.2.2.2.2.2.2.2.2.2.2.2.2.2.2.2.2.2.2.2.2.2.2.2.2.2.1.1.1.2.2.1.1.2.2.2.1.2.1.2.1.2.2.2.2.1.1.1.2.2.2.2.2.2.2.2.1.1.1.2.2.2.2.2.2.1.1.1.2.2.2.1.1.2.2.2.2.1.1.1.1.1.1.2.2.2.2.2.2.1.1.1.2.2.2.1.1.1.1.1.1.2.2.2.2.2.2.2.2.2.1.1.1.2.2.2.2.2.2.2.2.2.2.2.2.2.1.1.1.2.2.2.2.2.2.2.2.2.2.2.2.2.2.2.2.2.2.2.2.2.2.2.2.2.2.2.2.2.2.2.2.2.2.2.2.2.2.2.2.2.2.2.2.2.2.2.2.2.2.2.2.2.2.2.2.-.-.-.*.*.*.O.O.O.O.+.' ' ' ' ) ..2.e.e.0.2.4.e.0.0.q.q.q.q.q.q.0.0.0.0.0.0.0.0.0.0.0.0.q.q.q.q.q.q.q.q.q.q.q.q.q.z.z.z.q.z.z.z.z.z.z.z.z.z.x.x.x.x.x.x.x.x.v.v.v.v.v.v.v.v.C.C.C.C.C.C.G.G.G.G.G.G.G.G.G.G.G.H.H.H.H.H.H.H.H.H.P.H.F.sXDXLXLXVX#XZ.H.P.G.G.C.C.G.G.G.G.G.C.v.v.G.G.C.v.v.v.v.v.v.v.v.v.v.v.v.v.x.x.x.x.x.x.x.x.x.x.x.z.z.z.z.z.z.z.z.z.z.q.q.q.q.q.q.",
"q.q.q.z.z.z.z.z.z.z.z.z.z.z.z.x.x.x.x.x.x.x.x.x.x.x.v.v.v.v.v.v.v.v.v.v.N.N.N.N.N.N.G.G.G.G.G.G.G.G.G.h.dXZXGXDXbX{.S.P.G.G.G.H.P.P.P.P.G.G.P.P.G.G.G.G.G.G.G.G.C.C.C.C.C.v.v.v.v.v.v.v.v.v.x.x.x.x.x.x.z.z.z.z.z.z.q.q.q.q.z.z.q.q.q.q.q.q.q.q.q.q.q.q.q.q.0.0.q.q.q.0.0.0.0.0.0.0.0.0.0.q.q.q.q.q.q.q.q.0.0.0.4.0.5.-.{ ) ) O.O.O.O.O.%.*.*.-.-.;.;.2.2.2.2.2.2.2.2.2.2.2.2.2.2.2.2.2.2.2.2.2.2.2.2.2.2.2.2.2.2.2.2.2.2.2.2.2.2.2.2.2.2.2.2.2.2.2.2.2.2.2.2.2.2.2.2.2.2.2.2.2.2.2.2.2.2.2.2.2.2.2.2.2.2.2.2.2.2.2.2.2.2.2.2.2.2.2.2.2.2.2.2.2.2.2.2.2.2.2.2.2.2.2.2.2.2.2.2.2.2.2.2.2.2.2.2.2.2.2.2.2.2.2.2.2.2.2.2.2.2.2.2.2.2.2.2.2.2.2.2.2.2.2.2.2.2.4.4.4.2.2.2.2.2.4.4.4.4.4.4.4.2.4.4.4.2.2.4.4.4.2.2.2.4.4.0.4.4.4.4.4.2.2.2.2.2.2.4.4.4.4.4.4.2.2.2.2.2.2.2.2.2.0.0.0.0.2.2.2.2.2.2.2.;.-.-.*.*.%.O.O.' O.O.' ' ~ ' %.0.0.0.0.0.e.e.q.0.0.0.0.q.q.q.q.4.0.0.0.0.0.0.0.q.q.q.0.0.q.q.q.q.q.q.q.q.q.q.q.q.q.q.q.z.z.z.z.z.z.z.z.z.z.x.x.x.x.x.x.x.x.v.v.v.v.v.v.C.C.C.G.C.C.C.C.C.G.C.C.G.G.G.G.G.H.H.H.H.H.H.H.H.H.H.H.H.Z.F.sXDXLXLXVX#XZ.Z.P.P.G.C.C.C.G.G.G.G.G.G.G.G.G.C.C.v.v.v.v.v.v.v.v.x.x.x.x.x.x.x.x.x.x.x.x.x.x.x.z.z.z.z.z.z.z.z.z.z.z.z.z.z.z.z.",
"q.q.q.q.z.z.z.z.z.z.z.z.z.z.z.x.x.x.x.x.x.x.x.x.x.x.x.v.v.v.v.v.v.v.v.v.v.N.N.N.v.N.G.G.G.G.G.G.G.G.G.h.dXZXGXDXbX{.S.P.G.G.H.H.P.P.P.P.G.G.G.G.G.G.G.G.G.G.G.G.C.C.C.C.C.v.v.v.v.v.v.v.v.v.x.x.x.x.x.x.z.z.z.z.z.z.q.q.q.q.z.z.q.q.q.q.q.q.q.q.q.q.q.q.q.q.0.0.q.q.q.0.0.0.q.q.0.0.0.0.q.q.q.q.q.q.q.q.q.q.0.0.0.0.0.2.*.{ { { O.O.*.*.*.*.*.*.;.;.2.2.2.2.0.2.2.2.2.2.2.2.2.2.2.2.2.2.2.2.2.2.2.2.2.2.2.2.2.2.2.4.2.4.2.2.2.2.2.2.2.2.2.2.4.4.4.4.4.2.2.2.2.2.2.2.4.4.4.4.4.4.2.2.4.4.2.2.2.2.2.2.2.2.4.4.4.2.2.2.2.2.2.2.2.2.2.2.2.2.2.2.2.2.2.2.2.2.2.2.2.2.2.2.2.2.2.2.2.2.2.2.2.2.2.2.2.2.2.2.2.2.2.2.2.2.2.2.2.2.4.4.4.4.2.2.2.2.4.4.4.4.2.2.2.2.2.4.4.4.2.2.2.2.2.2.4.4.4.4.2.4.2.2.4.4.2.4.4.4.4.2.2.2.4.4.0.0.4.4.4.4.2.2.2.2.2.2.4.4.4.4.4.4.2.2.2.2.2.2.2.2.0.0.0.0.2.2.2.2.2.2.2.2.;.;.-.*.*.%.O.O.O.O.' ' ' O.*.2.0.0.0.0.0.q.q.q.0.0.0.0.q.q.q.0.0.q.0.q.q.q.q.0.q.q.q.q.0.q.q.q.q.q.q.q.q.q.q.q.q.q.q.q.z.z.z.z.z.z.z.z.z.z.x.x.x.x.x.x.x.x.v.v.v.v.v.v.C.C.v.G.C.C.C.C.G.G.C.C.C.C.G.G.G.G.H.H.H.H.H.H.H.H.H.H.H.Z.F.sXDXLXLXVX#XZ.Z.P.P.G.C.C.C.G.G.G.G.G.G.G.G.C.C.C.v.v.v.v.v.v.v.v.x.x.x.x.x.x.x.x.x.x.x.x.x.x.x.z.z.z.z.z.z.z.z.z.z.z.z.z.z.z.z.",
"q.q.q.q.q.q.z.z.z.z.z.z.z.z.z.x.x.x.x.x.x.x.x.x.x.x.x.x.x.v.v.v.v.v.v.v.v.v.N.N.v.v.v.N.G.G.N.G.G.G.G.h.dXZXGXDXbX{.S.L.G.G.G.G.P.P.P.P.G.G.G.G.G.G.G.G.G.v.G.G.C.C.C.C.C.v.v.v.v.v.v.v.v.v.x.x.x.x.x.x.x.z.z.z.z.z.q.q.q.q.q.q.q.z.q.q.q.q.q.q.q.q.q.q.q.q.q.q.q.q.q.q.q.q.q.q.q.q.q.q.q.q.q.q.q.q.q.q.q.q.q.q.0.e.e.0.5.-.{ ) O.O.*.*.*.*.*.*.;.2.2.2.2.0.0.0.4.4.4.4.4.4.4.4.2.2.2.2.4.4.2.2.2.4.2.2.4.2.4.4.4.4.4.4.4.4.4.4.4.4.4.4.4.4.2.4.4.4.4.4.4.4.4.4.4.0.0.0.4.4.4.4.4.4.4.4.4.4.4.4.2.2.2.2.4.4.4.2.4.4.4.4.2.4.4.4.4.4.2.2.2.2.4.4.4.4.4.4.2.2.4.4.2.2.4.4.4.4.2.4.2.2.2.2.4.4.4.4.4.4.2.2.2.4.4.4.2.2.4.2.4.4.2.2.4.4.4.4.4.4.4.4.0.4.4.4.4.4.4.4.0.0.0.0.0.0.0.0.0.0.0.0.0.0.0.0.0.0.0.0.0.0.0.0.4.4.4.4.4.4.4.4.4.4.4.4.0.0.0.0.4.4.0.0.4.4.4.4.0.2.0.0.0.0.0.0.0.0.2.2.2.2.2.2.;.;.;.*.*.*.O.O.O.O.' ' O.-.5.w.0.0.0.q.q.q.q.q.q.q.q.q.q.q.q.q.0.0.q.q.q.q.0.0.q.q.q.q.q.q.q.q.q.q.q.q.q.q.q.q.q.q.q.q.z.z.z.z.z.z.z.z.z.z.x.x.x.x.x.x.x.x.v.v.v.v.v.v.v.v.v.G.C.C.C.G.G.G.C.C.G.G.G.G.H.H.H.H.H.H.H.H.H.H.H.H.H.Z.F.sXDXLXLXVX#XZ.Z.P.P.G.C.C.C.G.G.G.G.G.v.v.C.v.v.v.v.v.v.v.v.v.v.v.x.x.x.x.x.x.x.x.x.x.x.x.x.x.x.z.z.z.z.z.z.z.z.z.z.z.z.z.z.z.z.",
"q.q.q.q.q.q.z.z.z.z.z.z.z.z.z.x.x.x.x.x.x.x.x.x.x.x.x.x.x.x.v.v.v.v.v.v.v.v.v.v.v.v.v.N.N.G.G.N.G.G.G.h.dXZXGXDXxX{.S.P.G.G.G.G.G.G.G.G.G.G.G.G.G.G.G.G.G.C.G.G.C.C.C.C.C.v.v.v.v.v.v.v.v.v.x.x.x.x.x.x.x.x.z.z.z.z.z.q.q.q.q.z.z.z.q.q.q.q.q.q.q.q.q.q.q.q.q.q.q.q.q.q.q.q.q.q.q.q.q.q.q.q.q.q.q.q.q.q.q.q.q.q.q.q.e.w.e.2.-.%.' +.O.*.*.-.-.*.2.2.2.2.0.0.0.0.0.0.0.0.0.0.0.0.4.4.4.4.0.0.0.0.0.4.0.4.0.0.0.0.0.0.0.0.0.0.0.0.0.0.0.0.0.0.0.0.0.0.0.0.4.4.4.0.0.0.0.0.0.0.0.0.0.0.0.0.0.0.0.4.4.4.4.4.4.0.0.0.4.4.4.4.2.2.4.4.4.4.2.2.2.4.4.4.4.4.4.4.2.2.2.4.2.2.4.4.4.4.2.2.2.2.2.2.4.4.4.4.4.4.4.2.2.4.4.4.0.0.4.4.4.4.4.4.0.0.0.0.0.0.0.0.0.0.0.0.0.0.0.0.q.q.q.q.0.0.0.0.0.0.0.0.0.0.0.0.q.q.q.q.q.q.q.q.0.0.0.0.0.0.0.0.4.4.4.4.0.0.0.0.0.0.0.0.0.0.0.0.0.0.0.0.0.0.0.0.0.0.0.0.0.2.2.2.2.;.;.*.*.*.O.O.O.O.' O.-.2.q.w.q.q.q.q.q.q.q.q.q.q.q.q.q.q.q.q.0.0.q.q.q.q.0.0.q.q.q.q.q.q.q.q.q.q.q.q.q.q.z.z.z.q.q.q.z.z.z.z.z.z.z.z.z.x.x.x.x.x.x.x.x.x.v.v.v.v.v.v.v.v.v.G.C.C.C.G.G.G.C.C.G.G.G.G.H.H.H.H.H.H.H.H.H.H.H.H.H.Z.F.sXDXLXLXVX#XZ.C.G.G.G.C.C.C.G.G.G.G.v.v.v.v.v.v.v.v.v.v.v.v.v.v.v.v.x.x.x.x.x.x.x.x.x.x.x.x.x.x.z.z.z.z.z.z.z.z.z.z.z.z.z.z.z.z.",
"q.q.q.q.q.q.z.z.z.z.z.z.z.z.z.x.x.x.x.x.x.x.x.x.x.x.x.x.x.x.x.v.v.v.v.v.v.v.v.v.v.v.N.N.G.G.G.N.G.G.H.h.dXZXHXDXxX{.S.P.G.G.G.G.G.G.G.G.G.G.G.G.G.G.G.G.G.G.G.G.C.C.C.C.v.v.v.v.v.v.v.v.v.v.x.x.x.x.x.x.x.x.x.z.z.z.z.z.q.q.q.q.z.z.z.z.q.q.q.q.q.q.q.q.q.q.q.q.q.q.q.q.q.q.q.0.q.q.q.q.q.q.q.q.q.q.q.q.q.q.q.q.q.q.q.q.w.e.2.2.O.+.O.O.O.*.-.-.2.2.2.2.0.0.q.q.q.0.q.q.0.0.0.0.q.q.q.q.q.q.q.q.4.q.0.q.q.q.q.q.q.q.q.q.q.q.q.q.q.q.q.q.q.q.q.q.q.q.q.4.4.4.q.q.q.q.q.q.q.q.q.q.q.q.q.0.q.0.q.0.4.4.0.0.0.0.0.0.0.0.0.4.4.4.4.4.0.0.0.0.0.0.0.0.0.0.0.0.0.0.0.0.0.0.0.0.0.0.0.0.0.0.0.0.0.0.0.0.0.0.0.0.0.0.0.0.0.0.0.0.0.0.0.0.0.0.0.0.0.0.0.0.0.0.q.q.q.q.e.e.q.q.q.q.q.q.q.q.q.q.q.q.q.q.q.q.q.q.q.q.q.q.q.q.q.q.q.q.q.q.q.q.4.4.4.4.q.q.q.q.q.q.q.q.q.q.q.q.q.q.q.q.q.q.q.q.q.q.q.q.q.0.2.2.2.2.;.-.*.%.O.O.' { *.2.0.q.q.0.q.q.q.q.q.q.q.q.q.q.q.q.0.0.0.q.q.q.q.q.0.0.0.0.0.q.q.q.q.q.q.q.q.q.q.q.q.q.q.q.z.z.z.z.z.z.z.z.z.z.z.z.z.x.x.x.x.x.x.x.x.v.v.v.v.v.v.v.v.v.v.C.C.C.C.G.C.G.C.C.C.C.G.G.G.G.H.H.G.G.H.H.H.H.H.G.H.Z.F.iXDXLXLXVX#XZ.C.G.G.G.C.C.C.G.G.G.G.G.G.G.v.v.v.v.v.v.x.v.v.v.v.v.v.x.x.x.x.x.x.x.x.x.x.x.x.x.x.z.z.z.z.z.z.z.z.z.z.z.z.z.q.q.z.",
"q.q.q.q.q.q.z.z.z.z.z.z.z.z.z.x.x.x.x.x.x.x.x.x.x.x.x.x.x.v.v.v.v.v.v.v.v.v.v.v.v.v.v.N.G.G.N.G.G.G.G.h.dXZXHXDXxX{.V.G.G.G.G.G.G.G.G.G.G.G.G.G.G.G.G.G.G.G.G.G.C.C.C.v.v.v.v.v.v.v.v.v.v.v.x.x.x.x.x.x.x.x.x.x.z.z.z.z.q.z.z.q.q.z.z.z.z.q.q.q.q.q.q.q.q.q.q.q.q.q.q.q.q.q.q.q.q.q.q.q.q.q.q.q.q.q.q.q.q.q.q.q.z.q.0.q.q.w.e.0.*.*.O.O.O.*.-.2.2.2.2.2.0.q.q.q.q.q.q.q.q.q.q.q.q.q.q.q.q.q.q.q.q.q.q.q.q.q.q.q.z.z.z.z.z.z.z.z.z.z.z.z.z.z.z.z.z.z.q.q.q.q.q.z.q.q.q.q.q.q.q.q.q.q.q.q.q.q.q.q.0.0.0.0.0.0.0.0.0.0.0.0.4.4.4.4.0.0.0.0.0.0.0.0.0.0.0.0.0.0.0.0.0.0.0.0.0.0.0.0.0.0.0.0.0.0.0.0.0.0.0.0.0.0.0.0.0.0.0.0.0.0.0.0.q.q.q.q.q.q.q.q.q.q.q.q.q.w.w.q.q.q.q.q.q.q.q.q.q.q.q.q.q.q.q.q.z.z.z.z.z.z.z.z.z.z.z.z.z.z.z.z.z.z.z.z.z.z.z.z.z.z.z.q.z.z.z.z.z.z.q.z.z.z.z.w.z.z.z.z.q.q.0.2.2.2.;.*.*.%.O.O.{ *.2.0.q.q.q.0.q.q.q.q.q.q.q.q.q.q.q.q.q.q.q.q.q.q.q.q.q.q.q.q.q.q.q.q.q.q.q.q.q.q.q.z.q.q.q.q.z.z.z.z.z.z.z.z.z.z.z.z.x.x.x.x.x.x.x.x.x.v.v.v.v.v.v.v.v.v.C.G.C.C.C.G.C.G.C.C.C.C.C.G.G.G.G.G.G.G.H.H.H.H.G.G.H.Z.F.iXDXLXLXVX#XZ.C.G.G.G.C.C.C.G.G.G.G.G.C.v.v.v.v.v.v.x.x.v.v.v.v.v.v.x.x.x.x.x.x.x.x.x.x.x.x.x.x.z.z.z.z.z.z.z.z.z.z.z.z.z.q.q.q.",
"q.q.q.q.q.q.z.z.z.z.z.z.z.z.z.x.x.x.x.x.x.x.x.x.x.x.x.x.x.x.v.v.v.v.v.v.v.v.v.v.v.v.v.N.N.G.N.N.G.G.G.h.dXZXHXGXxX{.V.G.G.G.G.G.P.G.P.P.G.G.G.G.G.G.G.G.G.G.G.G.C.C.C.v.v.v.v.v.v.v.v.v.v.v.x.x.x.x.x.x.x.x.x.x.z.z.z.z.z.z.q.q.z.z.z.z.z.z.q.q.q.q.q.q.q.q.q.q.q.q.q.q.q.q.q.q.q.q.q.q.q.q.q.q.q.q.q.q.q.q.q.q.z.q.q.q.q.q.q.e.r.5.>.O.O.%.-.2.2.2.2.0.0.q.q.z.z.z.z.z.z.z.z.z.z.z.z.z.z.z.z.z.z.z.z.z.z.z.z.z.z.z.z.z.z.z.z.z.z.z.z.z.z.z.z.z.z.z.z.z.z.z.z.z.q.q.q.q.q.q.q.q.q.q.q.q.q.q.q.q.q.q.q.q.q.q.q.q.0.0.0.0.0.0.q.q.q.q.q.0.0.q.q.q.0.0.0.0.q.q.q.q.q.q.q.q.q.q.q.q.q.q.q.q.q.0.0.0.q.q.q.q.q.q.q.q.q.q.q.q.q.q.q.q.q.q.q.q.q.q.q.q.q.q.q.q.q.w.w.w.z.z.z.z.z.z.z.z.z.z.z.z.z.z.z.z.z.z.z.z.z.z.z.z.z.z.z.z.z.z.z.x.z.z.z.z.z.z.z.z.z.z.z.z.z.z.z.z.z.z.z.z.z.z.z.z.z.x.M.M.M.q.0.0.2.2.;.-.*.%.O.O.;.5.0.w.q.q.q.q.q.q.q.q.q.q.0.0.q.q.e.e.e.e.e.q.q.q.q.q.q.q.q.q.q.q.q.q.q.q.q.q.q.q.q.q.q.q.z.z.z.z.z.z.z.z.z.z.z.z.z.z.x.x.x.x.x.x.x.x.x.v.v.v.v.v.v.v.C.C.C.G.C.C.C.C.C.G.C.C.C.C.C.C.G.G.G.G.G.G.G.G.H.H.H.G.K.D.F.iXDXLXLXVX#XZ.C.G.G.G.C.C.C.v.C.C.G.v.C.v.v.v.v.v.v.x.v.x.v.v.v.v.v.x.x.x.x.x.x.x.x.x.x.x.x.x.x.z.z.z.z.z.z.z.z.z.z.z.z.z.q.q.z.",
"q.q.q.q.q.z.z.z.z.z.z.z.z.z.z.x.x.x.x.x.x.x.x.x.x.x.x.x.x.x.v.v.v.v.v.v.v.v.v.v.v.v.v.N.N.G.N.N.G.G.G.h.dXZXHXDXxX{.V.K.G.G.G.G.G.G.G.G.G.G.G.G.G.G.G.G.G.G.G.G.v.C.v.v.v.v.v.v.v.v.v.v.v.v.x.x.x.x.x.x.x.x.x.x.z.z.z.z.z.z.q.z.z.z.z.z.z.z.z.q.q.q.q.q.q.q.q.q.q.q.q.q.q.q.q.q.q.q.q.q.q.q.q.q.q.q.q.q.q.q.z.q.q.z.z.z.q.q.q.e.M.e.2.%.O.%.-.2.2.2.2.0.0.q.z.z.z.z.z.z.z.z.z.z.z.z.z.z.z.z.z.z.z.z.z.z.z.z.z.z.z.z.z.z.z.z.z.z.z.x.z.x.z.z.z.z.z.z.z.z.z.z.z.z.z.z.z.z.z.z.z.z.z.z.q.z.q.z.q.q.q.q.q.q.q.q.q.q.q.q.q.q.q.4.q.q.q.q.q.q.q.q.q.q.q.q.q.q.q.q.q.q.q.q.q.q.q.q.q.q.0.q.q.q.q.q.0.q.q.q.q.q.q.q.q.q.q.q.q.q.q.q.q.q.q.q.q.q.q.q.q.q.q.z.q.z.q.z.w.z.z.z.z.z.z.z.z.z.z.z.z.z.z.z.z.z.z.x.z.x.z.z.z.z.x.x.x.x.x.x.x.x.x.x.x.x.x.x.x.z.z.z.z.z.z.z.z.z.x.x.x.x.x.x.x.B.M.M.x.x.x.z.q.0.2.2.:.-.*.%.%.%.r.e.e.q.0.0.q.z.q.q.q.q.q.q.q.q.q.q.q.q.e.q.e.q.q.q.q.q.q.q.q.q.q.q.q.q.q.q.q.q.q.z.q.q.q.z.z.z.z.z.z.z.z.z.z.z.z.z.z.x.x.x.x.x.x.x.x.x.x.v.v.v.v.v.v.v.C.C.C.G.C.C.C.C.C.G.G.C.C.C.C.C.G.G.G.G.G.G.G.G.H.H.H.G.K.D.F.iXDXLXLXVX$XZ.C.G.G.N.C.C.C.C.C.C.v.v.C.C.v.v.v.v.v.v.x.x.v.v.v.v.x.x.x.x.x.x.x.x.x.x.x.x.x.x.x.z.z.z.z.z.z.z.z.z.z.z.z.z.z.z.z.",
"q.q.q.q.q.q.z.z.z.z.z.z.z.z.z.x.x.x.x.x.x.x.x.x.x.x.x.v.v.v.v.v.v.v.v.v.v.v.v.v.v.v.v.v.v.N.G.G.N.v.P.V.dXZXHXDXxX{.S.G.P.C.P.G.G.G.G.G.G.G.G.G.G.G.G.G.G.G.G.G.G.C.G.N.N.v.v.v.v.v.v.v.v.x.x.x.x.x.x.x.x.x.x.x.z.z.z.z.z.z.z.z.z.z.z.z.z.z.q.q.q.q.q.q.q.q.q.q.q.q.q.q.q.q.q.q.q.q.q.q.q.q.q.q.q.q.q.q.q.q.z.z.z.z.z.z.z.z.z.z.e.e.b.0.1.%.%.-.2.2.2.q.q.z.x.x.x.x.x.x.x.x.c.x.c.c.c.c.c.c.c.z.x.x.x.x.x.x.M.x.M.x.M.x.x.x.x.x.x.c.x.x.x.x.x.x.z.z.z.z.x.z.x.x.x.x.z.z.z.x.z.z.z.z.z.z.z.z.q.z.z.z.z.z.q.q.q.q.z.z.z.z.z.q.q.q.4.4.q.4.4.4.4.4.q.4.q.4.4.4.4.4.q.q.e.q.4.4.4.q.e.q.e.q.e.q.e.q.q.q.q.q.q.q.q.q.e.e.e.e.e.e.e.e.q.z.z.z.z.z.z.z.z.z.z.z.x.x.x.x.z.z.z.z.x.z.x.x.x.x.x.x.x.x.x.x.x.x.x.x.x.x.x.x.x.x.v.v.x.x.x.x.x.x.x.x.x.x.x.x.x.x.M.M.M.M.M.M.x.M.x.x.v.N.B.B.B.M.v.c.c.c.q.r.5.5.2.*.{ %.2.e.w.q.q.q.z.z.z.z.q.q.q.q.q.q.q.q.q.q.q.q.0.q.q.q.q.q.q.q.q.q.q.q.q.q.q.q.q.q.q.q.z.z.q.z.q.z.q.z.z.z.z.z.z.z.z.z.z.z.x.x.x.x.x.x.x.x.x.x.x.v.v.v.v.v.v.v.C.C.v.G.G.G.G.G.G.G.G.C.G.G.G.G.G.G.G.G.G.G.G.G.G.G.G.G.H.K.V.iXDXLXLXVX$XC.C.G.N.N.C.C.G.N.N.N.N.v.N.N.v.v.v.v.v.v.v.v.v.v.v.x.x.x.x.x.x.x.x.x.x.x.x.x.z.z.z.z.z.z.z.z.z.z.q.q.q.q.z.z.q.q.q.",
"q.q.q.q.q.q.z.z.z.z.z.z.z.z.z.x.x.x.x.x.x.x.x.x.x.x.x.v.v.v.v.v.v.v.v.v.v.v.v.v.v.v.v.v.v.N.N.G.N.v.P.V.dXZXHXDXxX{.S.G.P.C.G.G.G.G.G.G.G.G.G.G.G.G.G.G.G.G.G.G.N.G.G.N.N.v.v.v.v.v.v.v.v.x.x.x.x.x.x.x.x.x.x.x.z.z.z.z.z.z.z.z.z.z.z.z.z.z.q.q.q.q.q.q.q.q.q.q.q.q.q.q.q.q.q.q.q.q.q.q.q.q.q.q.q.q.q.q.q.z.z.z.z.z.z.z.z.z.z.z.z.z.z.q.4.1.-.*.;.r.r.e.q.x.v.v.x.x.x.x.x.x.c.x.v.v.c.c.c.c.c.c.x.x.x.x.x.x.v.v.v.v.x.v.v.v.v.v.x.x.x.c.x.x.x.x.x.x.x.x.x.x.x.x.x.x.x.x.z.x.z.z.z.z.z.z.z.z.z.z.z.x.z.z.z.z.z.z.z.z.z.z.z.z.z.z.q.z.q.z.q.q.q.q.q.z.q.z.q.q.q.q.q.q.q.q.q.q.q.q.w.q.w.q.w.q.w.q.q.q.q.q.q.q.q.q.q.q.q.q.q.q.z.z.z.z.z.z.z.z.z.z.z.z.z.x.x.x.x.x.x.x.x.x.x.x.x.x.x.x.c.c.x.x.x.x.x.x.x.x.x.x.x.x.x.x.x.x.x.v.x.v.v.v.v.v.v.v.v.v.v.v.v.v.v.v.v.v.v.x.m.v.C.G.B.B.B.K.C.V.V.V.M.r.r.2.-.*.-.2.4.q.q.q.z.z.z.z.z.z.q.q.q.q.q.q.q.q.q.q.q.q.q.q.q.q.q.q.q.q.q.q.q.q.q.q.q.q.q.q.q.q.q.z.z.z.q.z.z.z.z.z.z.z.z.z.z.z.z.x.x.x.x.x.x.x.x.x.x.x.x.v.v.v.v.v.v.v.C.C.v.G.G.G.G.G.G.G.G.G.G.G.G.G.G.G.G.G.G.G.G.G.G.G.G.G.G.H.V.iXDXLXLXVX$XC.C.G.N.N.C.C.C.N.N.N.N.v.v.v.v.v.v.v.v.v.v.v.v.v.v.x.x.x.x.x.x.x.x.x.x.x.x.x.z.z.z.z.z.z.z.z.z.z.q.q.q.q.z.z.q.q.z.",
"q.q.q.q.q.q.q.q.z.z.z.z.z.z.z.x.x.x.z.z.x.x.x.x.x.x.x.v.v.v.x.x.v.v.v.v.v.v.v.v.v.v.v.v.v.N.G.G.N.v.P.h.dXZXHXDXxX{.S.G.G.v.P.G.G.G.G.G.G.G.G.G.G.G.G.G.G.G.G.G.N.N.G.N.N.v.v.v.v.v.v.v.v.x.v.v.x.x.x.x.x.x.x.x.z.z.z.z.z.z.z.z.z.z.z.z.z.z.q.q.z.z.z.q.q.q.q.q.q.q.q.q.q.q.q.q.q.q.q.q.q.q.q.q.q.q.q.q.z.q.z.z.z.z.z.z.z.z.z.z.x.z.z.z.x.z.2.-.*.5.e.w.z.v.G.v.N.N.N.N.v.v.v.v.v.v.v.v.m.v.m.C.C.C.C.C.C.C.C.C.v.v.v.v.v.v.v.v.v.v.v.v.v.v.v.v.v.v.v.v.v.v.v.v.x.x.x.x.x.x.x.x.x.x.x.x.z.x.z.z.z.z.z.z.z.z.z.z.q.q.q.q.q.q.q.q.z.z.z.z.z.z.z.z.z.z.z.z.z.z.z.z.q.q.q.q.q.q.q.q.z.q.q.q.q.q.z.z.q.q.q.q.q.z.z.q.z.z.z.z.z.z.z.z.z.z.z.z.z.z.z.x.x.x.x.x.x.x.x.x.x.x.v.v.v.v.v.v.v.v.v.v.v.v.v.v.v.v.v.v.v.v.C.C.C.C.C.C.C.V.C.C.C.C.C.C.C.C.C.C.C.C.C.C.C.C.C.C.V.S.F.V.Z.C.G.N.m.S.F.F.F.V.b.r.5.2.%.-.2.q.z.z.z.z.z.z.z.z.z.z.q.z.q.q.q.q.q.q.q.q.q.q.q.q.q.q.q.q.q.q.q.q.q.q.q.q.q.q.q.q.q.q.z.z.z.z.z.z.z.z.z.z.z.z.z.z.z.z.x.x.x.x.x.x.x.x.x.x.x.x.x.v.v.v.v.v.v.v.C.v.v.G.G.G.G.G.G.G.G.G.G.G.G.G.G.G.G.G.G.G.G.G.G.G.G.G.G.Z.V.iXDXLXLXVX$XC.C.G.N.N.C.C.C.N.N.N.v.v.v.v.v.v.v.v.v.v.v.v.v.v.x.x.x.x.x.x.x.x.x.x.x.x.x.x.z.z.z.z.z.z.z.z.z.z.z.q.z.z.z.z.q.q.z.",
"q.q.q.q.q.q.q.q.z.z.z.z.z.z.z.x.x.x.z.z.x.x.x.x.x.x.x.v.x.x.x.x.v.v.v.v.v.v.v.v.v.v.v.v.v.v.G.G.N.v.P.h.dXZXHXDXxX>XS.G.G.v.P.G.G.G.G.G.G.G.G.G.G.G.G.G.G.G.G.G.N.N.G.N.N.v.v.v.v.v.v.v.v.x.v.v.x.x.x.x.x.x.x.x.x.x.z.z.z.z.z.z.z.z.z.z.z.z.z.z.z.z.z.z.q.q.q.q.q.q.q.q.q.q.q.q.q.q.q.q.q.q.z.z.q.q.q.q.z.z.z.z.z.z.z.z.z.x.x.x.x.x.z.x.x.x.q.2.-.2.4.e.x.v.G.G.G.G.G.G.G.G.G.G.G.G.G.G.G.G.G.G.Z.Z.Z.Z.Z.Z.C.C.C.C.C.C.C.C.C.C.C.N.N.N.N.N.N.v.v.v.v.v.v.v.v.v.v.v.v.v.v.v.v.v.x.x.x.x.x.x.x.x.z.z.z.z.z.z.q.q.z.z.z.z.w.w.w.w.q.z.q.q.q.q.q.z.q.q.q.q.q.q.z.z.q.q.q.q.q.q.q.q.q.q.q.q.q.q.q.q.z.z.z.z.z.z.z.z.z.z.z.z.z.x.z.z.z.z.z.x.x.x.x.x.x.x.x.x.x.x.x.v.v.x.v.v.v.v.v.v.v.v.v.N.N.N.N.v.C.C.C.C.C.C.C.C.C.V.V.V.Z.Z.Z.Z.Z.Z.Z.Z.Z.Z.Z.Z.Z.Z.Z.Z.Z.Z.Z.Z.Z.D.F.F.Z.Z.H.G.K.Y.D.E.Z.V.b.r.2.1.-.1.q.M.z.z.x.x.x.x.z.z.z.z.z.z.q.q.q.q.q.q.q.q.q.q.q.q.q.q.q.q.q.q.q.q.q.q.q.q.q.q.q.q.q.q.z.z.z.z.z.z.z.z.z.z.z.z.z.z.z.x.x.x.x.x.x.x.x.x.x.x.x.x.x.v.v.v.v.v.v.v.C.C.v.G.G.G.G.G.G.G.G.G.C.C.G.G.G.G.G.G.G.G.G.G.G.G.G.G.G.Z.V.iXDXLXLXVX$XC.C.G.N.N.C.C.C.N.N.v.v.v.v.v.v.v.v.v.v.v.v.v.v.v.x.x.x.x.x.x.x.x.x.x.x.x.x.x.z.z.z.z.z.z.z.z.z.z.z.z.z.z.z.z.z.z.z.",
"q.q.q.q.q.z.q.q.z.z.z.z.z.z.z.x.x.x.x.x.x.x.x.x.x.x.x.v.v.v.x.x.v.v.v.v.v.v.v.v.v.v.v.v.v.N.N.v.N.v.P.h.dXZXHXGXxX>XS.G.G.v.G.G.G.G.G.G.G.G.G.G.G.G.G.G.G.G.N.N.N.N.N.v.N.v.v.v.v.v.v.v.v.v.v.v.x.x.x.x.x.x.x.x.x.x.z.z.z.z.z.z.z.z.z.z.z.z.z.z.z.z.q.z.q.q.q.q.q.q.q.q.q.q.q.q.q.q.q.q.z.z.z.q.q.z.z.z.z.z.z.z.z.z.x.x.x.x.x.x.x.x.x.x.x.x.z.z.0.1.1.z.S.C.Z.H.H.H.H.J.J.J.!.!.J.J.J.J.J.J.J.H.E.E.Z.Z.Z.Z.Z.Z.Z.Z.Z.Z.Z.Z.Z.Z.C.C.C.C.C.C.C.C.C.C.C.C.C.v.v.v.v.v.v.v.v.v.v.v.v.x.x.x.x.x.x.x.x.x.x.x.x.z.z.z.z.z.z.z.b.b.b.z.z.z.z.z.z.z.z.z.z.z.z.z.z.z.z.z.z.z.z.z.z.z.z.z.z.z.z.z.z.z.z.z.z.z.z.z.z.z.z.z.x.x.x.x.x.x.x.x.x.x.x.x.x.x.x.c.x.x.x.x.x.x.x.x.x.v.v.v.v.v.v.v.C.C.C.C.C.C.C.C.C.Z.Z.Z.Z.Z.Z.Z.Z.Z.Z.Z.Z.Z.E.Z.Z.H.H.H.Z.Z.E.E.E.E.!.E.E.!.E.!.H.L.W.E.E.!.H.P.T.T.(.(.!.C.w.w.;.1.4.z.x.x.x.x.x.x.x.x.z.x.x.x.z.z.z.z.q.q.q.q.q.q.q.q.q.q.q.q.q.q.q.q.q.q.q.q.q.q.q.q.q.q.q.q.z.z.z.z.z.z.z.z.z.z.z.z.x.x.x.x.x.x.x.x.x.x.x.x.x.x.x.x.x.v.v.v.v.v.v.v.v.v.v.C.G.G.C.C.G.G.G.G.C.C.C.C.G.G.G.G.G.G.G.G.G.G.G.C.C.Z.V.iXDXLXLXAX$XC.C.P.N.N.C.C.G.N.N.N.N.v.v.v.v.v.v.v.v.v.v.v.v.x.x.x.x.x.x.x.x.x.x.x.x.x.x.x.z.z.z.z.z.z.z.z.q.q.z.z.z.q.q.q.z.z.z.",
"q.q.q.q.q.z.q.z.z.z.z.z.z.z.z.x.x.x.x.x.x.x.x.x.x.x.x.v.v.v.v.v.v.v.x.x.v.v.v.v.v.v.v.v.v.N.N.N.N.v.P.V.dXZXHXGXxX>XC.G.G.v.G.G.G.G.G.G.G.G.G.G.G.G.G.G.G.N.N.N.N.N.N.v.N.v.v.v.v.v.v.v.v.x.v.v.x.x.x.x.x.x.x.x.x.x.z.z.z.z.z.z.x.x.z.z.z.z.z.z.z.z.q.q.z.q.q.q.z.z.q.q.q.q.q.q.q.q.q.q.z.z.q.q.z.z.z.z.z.z.z.z.x.x.x.x.x.x.x.x.x.x.x.x.x.x.v.v.x.4.3.a.S.L.(.).!.!.!.!.!.!.^.^.^.!.!.^.!.!.!.!.!.E.!.E.E.E.E.E.E.E.E.Z.Z.Z.Z.Z.H.G.H.G.G.G.G.C.G.C.C.C.C.C.C.C.C.C.C.C.v.v.v.v.v.v.v.v.v.x.x.x.x.x.x.x.x.x.x.x.x.x.x.x.x.x.x.x.x.z.z.z.z.z.z.z.z.z.z.z.z.z.z.z.z.z.z.z.z.z.z.z.x.z.x.z.x.z.x.z.x.z.x.z.z.z.x.z.x.x.x.x.x.x.x.c.c.c.c.c.c.c.c.c.v.v.v.v.v.v.v.v.C.C.C.C.C.C.C.C.C.C.C.C.C.C.C.C.Z.Z.Z.Z.Z.Z.Z.Z.Z.Z.Z.Z.E.E.E.!.!.!.!.!.!.!.!.!.!.!.!.^.^.^.^.).~.~.).^.^.^.~._._.(.^.).!.G.w.0.2.4.x.v.v.x.x.x.x.x.x.x.x.x.x.x.z.z.z.z.z.q.z.q.q.z.q.q.q.q.q.q.z.z.q.q.q.q.q.q.q.q.q.q.q.q.q.z.z.z.z.z.z.z.z.z.z.z.z.z.x.x.x.x.x.x.x.x.x.x.x.x.x.x.x.x.x.v.v.v.v.v.v.v.v.v.C.G.G.G.G.G.G.G.G.G.C.C.C.C.C.G.G.G.G.G.G.G.G.G.G.C.C.Z.V.iXDXLXLXAX$XC.C.P.N.N.C.C.C.N.N.N.v.v.v.v.v.v.v.v.v.v.v.v.v.v.x.x.x.x.x.x.x.x.x.x.x.x.x.x.z.z.z.z.z.z.z.z.q.z.z.z.z.z.q.q.z.z.z.",
"q.q.q.q.q.z.z.z.z.z.z.z.z.z.z.x.x.x.x.x.x.x.x.x.x.x.x.v.v.v.v.x.x.x.x.x.v.v.v.v.v.v.v.v.v.v.N.N.N.v.P.h.dXZXHXGXxX>XS.G.G.v.G.G.G.G.G.G.G.G.G.G.G.G.G.G.N.N.N.N.N.N.N.v.N.v.v.v.v.v.v.v.v.x.x.x.x.x.x.x.x.x.x.x.x.x.z.z.z.z.z.z.x.x.z.z.z.z.z.z.z.z.q.q.z.z.z.z.z.z.z.q.q.q.q.q.q.q.q.q.q.q.z.z.z.z.z.z.z.z.z.z.x.x.x.x.x.c.c.c.x.x.v.v.v.v.v.G.v.v.s.a.F.|. X X[.`.`.`.'.'.'.'.'.'.'./././././././.~.~.~.~.~.~.~.~.~.J.J.J.J.J.H.H.H.H.H.H.H.H.G.G.G.G.C.C.C.C.C.G.G.v.v.v.v.v.v.v.v.v.v.v.v.v.v.v.v.v.v.x.v.x.x.x.v.x.x.x.x.x.x.x.x.x.x.x.x.x.x.x.x.x.x.x.x.x.x.x.x.x.z.z.z.z.x.x.x.x.x.x.x.x.x.x.x.x.x.x.x.x.x.x.x.x.x.x.x.x.x.x.x.x.x.x.v.v.v.v.v.v.v.v.v.C.C.C.C.C.C.C.C.C.C.C.C.G.G.G.G.G.P.H.H.H.H.J.J.J.J.J.J.J.!.~.~.~.~.~.~.~.~.~././././././././.'.'.'.].'.].].].].].'.'.`.'./.H.B.w.x.v.C.C.v.v.x.x.x.x.x.x.x.x.x.x.z.z.z.z.z.z.z.z.z.z.z.q.q.q.q.q.q.q.z.q.q.q.q.q.q.q.q.q.q.q.q.z.z.z.z.z.z.z.z.z.z.z.x.x.x.x.x.x.x.x.x.x.x.x.x.x.x.x.x.x.v.v.v.v.v.v.v.v.v.v.v.G.G.G.G.G.G.G.G.G.C.C.C.C.C.C.C.C.G.G.G.G.G.G.G.C.C.Z.V.iXDXLXLXAX$XC.C.P.N.N.C.C.C.N.N.v.v.v.v.v.v.v.v.v.v.v.v.v.x.x.x.x.x.x.x.x.x.x.x.x.x.x.x.x.z.z.z.z.z.z.z.z.q.q.z.z.z.z.q.q.z.z.z.",
"q.q.q.q.q.z.z.z.z.z.z.z.z.z.z.x.x.x.x.x.x.x.x.x.x.x.x.v.v.v.v.x.x.x.x.x.v.v.v.v.v.v.v.v.v.v.N.N.N.v.P.A.dXZXHXGXxX>XS.G.G.v.G.G.G.G.G.G.G.G.G.G.G.G.G.G.N.N.N.N.N.N.G.v.N.v.v.v.v.v.v.v.v.x.x.x.x.x.x.x.x.x.x.x.x.x.x.z.z.z.z.z.z.z.z.z.z.z.z.z.z.z.z.q.z.z.z.z.z.q.q.z.q.q.q.q.q.z.q.q.q.z.z.z.z.z.z.z.z.z.z.z.x.x.x.x.c.c.c.c.x.x.v.v.N.G.G.G.C.L.C.s.h.&X6X X3X3X X X X X3X X.X X X[.[.[.).).).).^./.).).).(.(.(.(.(.(.(.L.L.D.D.D.D.D.D.D.D.D.F.A.A.A.A.V.F.F.F.A.A.A.A.A.A.A.A.A.A.A.n.n.n.c.V.V.c.c.c.c.c.c.s.c.s.c.s.c.s.a.d.d.d.s.d.d.d.d.d.d.d.d.d.d.d.f.f.f.f.d.s.s.f.s.d.d.d.d.d.s.s.f.f.f.f.f.f.f.f.f.f.f.f.f.f.f.f.f.f.f.s.s.s.A.A.A.A.A.A.A.A.A.A.A.A.A.A.A.A.A.V.A.A.A.F.D.F.D.D.D.D.D.D.K.L.L.L.L.(.(.(.(.(.(.(._.(._._.|.|.).). X X[.[.[.[.[.[.].].1X1X1X1X1X1X3X3X3X3X[.^.C.x.G.G.C.C.C.v.v.v.x.x.x.x.x.x.x.x.z.z.z.z.z.z.z.z.z.z.z.z.q.q.q.q.q.q.z.z.q.q.q.q.q.q.q.q.q.q.q.q.z.z.z.z.z.z.z.z.z.z.x.x.x.x.x.x.x.x.x.x.x.x.x.x.x.x.x.x.v.v.v.v.v.v.v.v.v.v.v.N.G.G.C.C.G.G.G.G.C.C.C.C.C.C.C.C.G.G.G.G.G.G.G.C.C.Z.V.iXDXLXLXAX$XC.C.P.N.N.G.C.C.N.N.v.v.v.v.v.v.v.v.v.v.v.v.v.x.x.x.x.x.x.x.x.x.x.x.x.x.x.x.x.z.z.z.z.z.z.z.z.q.q.z.z.z.z.z.z.z.z.z.",
"q.q.q.q.q.q.q.z.z.z.z.z.z.z.z.z.z.z.z.x.x.x.x.x.x.x.x.x.x.x.x.v.x.v.v.v.v.v.v.v.v.v.v.v.v.v.v.v.v.G.v.A.aXZXHXGXxX>XS.v.G.G.C.G.G.G.G.N.N.N.G.G.G.G.N.N.G.G.G.G.v.v.N.v.v.v.v.v.v.v.v.v.v.v.x.x.x.x.x.x.x.x.x.x.x.x.x.x.x.z.z.z.z.z.z.z.z.z.z.z.z.z.z.z.z.q.q.q.z.z.z.q.q.q.q.q.z.z.q.z.q.z.z.z.z.z.z.z.x.x.x.x.x.x.x.x.x.x.x.v.v.v.v.N.G.G.P.H.H.!.(.).Q.8XpXpXpXpXpXpXpXpX9X0X0X0X0X0X0X0X0X0X0X0X:X:X:X:X:X:X:X:X:X:X-X-X-X-X-X-X-X-X*X*X*X@X@X@X@X@X@X@X@X@X@X@X@X@X@X@X@X@X@X@X@X@X@X@X@X@X#X#X#X#X#X#X#X#X#X#X#X#X#XXXXXXX@X@X@X@X@X@X@X@X@X@X@X@X@X@X@X@X@X@X@X@X@X@X@X@X@X@X@X@X@X@X@X@X@X@X@X@X@X@X@X@X@X@X@X@X@X@X@X@X@X@X@X@X@X@X@X@X@X@X@X@X@X@X@X@X@X@X@X@X@X@X@X@X*X@X*X*X*X-X*X-X-X-X-X-X*X*X*X*X-X-X-X-X-X-X-X-X-X-X-X-X-X-X0X0X0X0X0X0X0X0X0X0X8X6X9X9X9X9X9X9X9XpXpXpXpX.X{.}._.J.H.H.H.G.C.C.C.v.v.x.x.x.x.x.x.x.x.z.z.z.z.z.z.q.q.q.z.q.q.q.z.z.z.q.z.z.q.q.q.q.q.q.q.q.z.z.q.q.q.q.z.z.z.z.x.x.z.x.x.x.x.x.x.x.x.x.x.x.x.x.x.x.x.x.x.x.v.v.v.v.v.v.C.C.v.G.G.G.G.G.G.G.G.G.G.G.C.C.C.C.C.G.G.G.G.G.G.G.G.C.G.Z.V.iXDXLXLXAX$XV.C.G.N.N.C.C.v.v.v.v.v.v.v.v.v.v.v.v.v.v.v.v.x.x.x.x.x.x.x.x.x.x.x.x.x.x.x.x.z.z.z.z.z.z.z.z.q.q.z.z.z.q.q.q.q.q.q.",
"q.q.q.q.q.q.z.z.z.z.z.z.z.z.z.z.z.z.z.x.x.x.x.x.x.x.x.x.x.x.x.v.v.x.v.v.v.v.v.v.v.v.v.v.v.v.v.v.v.G.v.A.aXZXHXGXxX>XS.v.G.G.C.G.G.G.G.N.N.N.G.G.G.G.N.N.N.G.G.G.v.v.v.v.v.v.v.v.v.v.v.v.v.v.x.x.x.x.x.x.x.x.x.x.x.x.x.x.x.z.z.z.z.z.z.z.z.z.z.z.z.z.z.z.z.q.q.z.z.z.z.q.q.q.q.q.z.z.q.z.z.z.z.z.z.z.z.z.x.x.x.x.x.x.x.x.x.x.x.v.v.v.G.G.G.P.H.J.!.(.). X6XgXzXzXzXzXzXzXzXzXzXzXzXzXzXgXgXgXgXgXfXzXzXzXzXzXfXlXzXlXlXlXlXlXlXlXxXxXxXlXlXlXxXlXxXxXxXxXxXxXxXxXxXxXxXxXxXxXxXxXxXxXxXxXxXxXxXxXlXlXlXlXlXlXlXlXlXlXlXlXlXlXlXlXvXvXvXvXvXvXvXvXvXvXvXvXvXvXvXvXvXvXcXvXvXvXvXcXcXcXcXcXcXcXcXcXvXvXvXvXvXvXcXcXvXvXvXvXvXvXvXvXvXvXvXvXxXxXxXxXxXxXxXxXxXxXxXxXxXxXxXxXxXxXxXxXxXxXxXxXxXxXxXxXlXlXlXlXlXlXlXlXlXlXlXlXlXlXzXzXzXzXzXzXzXzXzXzXzXzXzXzXzXzXzXzXzXzXzXzXzXzXzXzXzXzXzXzXbXpX:X X_.~.!.J.H.H.G.C.C.C.v.x.x.x.x.x.x.x.x.z.z.z.z.z.z.z.q.q.z.z.q.q.z.z.q.q.z.z.q.q.q.q.q.q.q.q.z.z.q.q.q.z.z.z.z.z.x.x.z.x.x.x.x.x.x.x.x.x.x.x.x.x.x.x.x.x.x.x.v.v.v.v.v.v.C.C.v.G.G.G.G.G.G.G.G.G.G.G.C.C.C.C.G.G.G.G.G.G.G.G.G.C.G.Z.V.iXDXLXLXAX$XV.C.G.N.N.C.C.v.v.v.v.v.v.v.v.v.v.v.v.v.v.v.v.x.x.x.x.x.x.x.x.x.x.x.x.x.x.x.x.z.z.z.z.z.z.z.z.q.q.z.z.z.q.q.q.q.q.q.",
"q.q.q.q.q.q.z.z.z.q.z.z.z.z.z.z.z.z.z.x.x.x.x.x.x.x.x.x.x.x.v.v.v.v.v.v.v.v.v.v.v.v.v.v.v.v.v.v.v.G.v.A.aXZXHXGXxX>XS.v.G.G.G.G.G.N.G.G.N.N.N.G.G.G.N.N.N.N.G.G.v.v.v.v.v.v.v.v.v.v.v.v.v.v.v.v.x.x.x.x.x.x.x.x.x.x.x.x.x.z.z.z.z.z.z.z.z.z.z.z.z.z.z.z.z.q.z.z.z.q.z.q.q.q.q.q.z.q.q.z.z.z.z.z.z.z.z.z.x.x.x.x.x.x.x.x.x.x.v.v.G.G.G.P.P.H.J.!.~.).[.3X6XgXgX.X6X6X7X7X7X4X4X4X3X3X3X3X3X1X1X3X X X X X X X X X X X X X X X X X|.|.|.|.|.|.|.|.|.|.|.|.|.|.|.|.W.W.W.D.T.Y.Y.Y.Y.Y.Y.Y.Y.Y.Y.Y.Y.Y.Y.Y.Y.Y.Y.Y.Y.Y.Y.I.I.I.I.I.A.A.A.A.I.I.I.I.I.I.I.I.I.I.I.j.I.I.I.I.I.I.I.I.I.I.I.I.I.I.I.I.Y.Y.Y.Y.Y.Y.Y.Y.Y.Y.Y.Y.Y.Y.Y.Y.Y.Y.Y.Y.Y.Y.Y.Y.Y.Y.Y.Y.Y.Y.Y.D.Y.Y.D.D.W.W.{.{.{.}.}.}.}.}.}.{.{.{.{.{.|.|.|.|. X X X X X X X X X X X X X3X6X6X6X6X6X6X6X6X6X6X7X7X7X9X9X9X9X9X7X0X0XpXzXpX5X.X/./.~.J.H.H.H.C.C.C.v.v.v.x.x.x.x.x.x.x.z.z.z.z.z.z.z.q.q.q.q.q.z.z.q.q.q.z.q.q.q.q.q.q.q.q.z.z.z.z.z.z.z.z.z.z.x.x.z.x.x.x.x.x.x.x.x.x.x.x.x.x.x.x.x.x.v.x.v.v.v.v.v.v.C.v.v.G.v.v.G.G.G.G.G.G.G.C.C.C.G.G.G.G.G.G.G.G.G.G.G.C.G.Z.V.iXDXLXLXAX$XZ.C.G.N.N.C.C.v.v.v.v.v.v.v.v.v.v.v.v.v.v.v.v.x.x.x.x.x.x.x.x.x.x.x.x.x.x.x.x.z.z.z.z.z.z.z.z.q.q.z.z.q.q.q.q.q.q.q.",
"q.q.q.q.q.q.z.z.q.q.z.z.z.z.z.z.z.z.z.x.x.x.x.x.x.x.x.x.x.x.v.v.v.v.v.v.v.v.v.v.v.v.v.v.v.v.v.v.v.G.v.A.aXZXHXGXxXh.S.v.G.C.G.G.G.G.G.G.N.N.N.G.G.G.N.N.N.N.N.N.N.v.N.v.v.v.v.v.v.v.v.v.v.v.v.v.x.x.x.x.x.x.x.x.x.x.x.x.x.z.z.z.x.x.z.z.z.z.z.z.z.z.z.z.z.z.z.z.q.q.z.q.q.q.q.q.z.q.q.z.q.z.z.z.z.z.z.z.x.x.x.x.x.x.x.x.x.x.v.v.G.G.P.P.P.H.J.~.!.`.[.3X7XgXpX>Xh.E.^.].].].].].].].].].].].].].`.`././././.^.^.^.^.!.!.!.!.E.!.J.J.J.J.H.H.H.H.G.C.G.C.C.C.C.C.G.G.G.G.G.G.G.C.G.C.C.C.v.v.v.v.v.v.x.x.x.x.x.x.x.x.x.x.x.x.x.x.x.x.x.x.x.x.x.x.x.x.x.x.x.x.z.z.x.x.x.x.x.x.x.x.x.c.x.c.x.x.x.x.x.x.x.c.x.x.x.x.x.x.x.x.x.x.x.x.x.v.v.v.v.v.v.v.v.v.v.C.v.C.C.C.C.C.G.C.G.G.G.H.C.C.C.C.G.C.H.Z.Z.Z.E.E.E.E.E.E.E.E.E.E.E.!.^.^.^.^.^.`.`.`.[.`.[.[.[.[.[.[.[.[. X X.X3X:X:X X).h.l.>X0XzXpX3X[.`./.~.!.J.H.H.C.C.C.C.v.v.v.x.x.x.x.x.x.z.z.z.z.z.z.z.z.q.q.q.q.z.z.q.q.q.q.q.q.q.q.z.q.q.q.z.z.z.z.z.z.z.z.z.z.x.x.z.x.x.x.x.x.x.x.x.x.x.x.x.x.x.x.x.x.v.x.v.v.v.v.v.v.C.C.v.G.v.v.v.G.G.G.G.G.C.C.C.C.C.C.C.C.C.C.C.C.C.C.C.C.C.Z.V.iXDXLXLXAX$XZ.C.G.N.N.C.C.v.v.v.v.v.v.v.v.v.v.v.v.v.v.v.v.x.x.x.x.x.x.x.x.x.x.x.x.x.x.x.x.z.z.z.z.z.z.z.z.q.q.z.z.q.q.q.q.q.q.q.",
"q.q.q.q.q.q.q.z.z.z.z.z.z.z.z.z.z.z.z.x.x.x.x.x.x.x.x.x.v.x.v.v.x.x.v.v.x.v.v.v.v.v.v.v.v.v.v.v.v.G.v.A.aXZXHXGXxXh.S.v.N.C.C.G.N.N.N.N.N.N.G.N.N.N.N.N.v.v.v.N.N.N.N.v.v.v.v.v.v.v.v.v.v.x.x.x.x.x.x.x.x.x.x.x.x.x.x.x.x.z.z.z.x.x.z.z.z.z.z.z.z.z.z.z.z.z.z.z.q.q.q.q.q.q.q.q.q.q.q.z.q.q.q.q.z.z.z.z.x.x.x.x.x.x.x.x.x.x.x.v.G.G.G.P.P.H.J.!.^.`.[.3X7XzXzX0Xp.a.a.c.C.C.H.J._.~._._.~._._._././.^.^.^.^.~.!.~.~.~.!.!.!.!.~.J.J.J.J.J.J.J.J.J.H.J.H.P.P.P.P.v.v.N.v.v.v.v.v.v.v.v.v.v.v.v.v.x.x.x.x.x.x.x.x.x.z.z.z.z.z.z.z.z.z.z.z.z.z.z.z.z.z.z.z.x.z.z.z.z.z.z.z.z.z.z.z.z.z.z.z.z.z.z.z.z.x.x.x.z.x.x.x.z.z.z.z.z.z.z.z.x.x.x.x.x.x.v.x.v.v.v.v.v.v.v.v.v.v.v.C.N.C.N.v.P.H.J.J.J.J.J.J.J.H.J.H.!.!.!.!.!.!.!.!.!.!.^.^.^.^.^./././././.`./.`.`./././.^.~.(.(.W.D.A.c.a.s.h.{.pXbXpX3X1X'./.!.!.H.Z.Z.C.C.C.C.C.v.x.x.x.x.x.x.x.x.z.z.z.z.z.z.z.z.z.q.q.z.z.q.q.z.z.q.q.z.z.z.q.q.q.z.z.z.z.z.z.z.z.z.z.x.x.z.x.x.x.x.x.x.x.x.x.x.x.x.x.x.x.x.x.v.x.v.v.v.v.v.v.v.v.v.G.v.v.v.v.v.G.G.G.C.C.C.C.C.C.C.C.G.G.G.C.C.C.C.C.C.Z.V.iXSXLXLXAX$XC.C.G.N.N.C.v.v.v.v.v.v.v.v.v.v.v.v.v.v.x.x.v.x.x.x.x.x.x.x.x.x.x.x.x.x.x.x.x.z.z.z.z.z.z.z.z.z.z.q.q.q.z.z.z.z.z.q.",
"q.q.q.q.q.q.q.q.z.z.z.z.z.z.z.z.z.z.z.x.x.x.x.x.x.x.x.x.v.v.v.v.x.x.x.v.x.v.x.x.v.v.v.v.v.v.v.v.v.G.v.A.aXZXHXGXxXh.S.v.N.v.v.G.G.G.N.N.N.N.N.N.N.N.N.v.v.v.N.N.N.N.N.v.v.v.v.v.v.v.v.v.v.x.x.x.x.x.x.x.x.x.x.x.x.x.x.x.x.z.z.z.x.x.z.z.z.z.z.z.z.z.z.z.z.z.z.z.q.q.q.q.q.q.q.q.q.q.q.z.q.q.q.q.z.z.z.z.x.x.x.x.x.x.x.x.x.x.v.v.N.G.G.G.P.P.J.!.^.`.[.3X7XgXfX:XT.x.4.4.4.q.x.v.x.x.v.v.G.G.G.P.H.H.H.H.H.H.H.J.J.J.J.J.H.H.H.H.P.H.P.P.G.G.G.G.G.G.G.G.G.C.C.C.G.G.G.G.G.G.G.G.N.N.N.N.N.N.v.v.v.v.v.v.v.v.v.v.v.x.x.x.v.v.x.x.x.x.x.x.x.x.x.x.w.z.z.z.z.z.z.z.z.z.z.z.z.z.z.z.z.z.z.z.z.z.z.z.x.x.x.x.x.x.x.x.x.x.x.x.x.x.x.x.v.v.v.v.v.v.v.v.N.N.N.N.N.N.N.N.G.G.G.G.G.G.G.G.C.G.G.G.G.G.G.G.C.C.C.G.G.H.H.H.H.H.H.H.H.!.!.!.!.!.!.!.!.!.!.!.H.H.H.H.H.H.Z.H.G.G.C.c.z.4.2.2.c.Z.&XfXbXpX3X[.'./.!.!.H.Z.C.C.C.C.C.v.v.x.x.x.x.x.x.x.x.z.z.z.z.z.z.z.z.z.q.q.z.z.q.q.z.z.q.q.z.z.z.z.q.q.z.z.z.z.z.z.z.z.x.x.x.x.z.x.x.x.x.x.x.x.x.x.x.x.x.x.x.x.x.x.v.x.v.v.v.v.v.v.v.v.v.G.v.v.C.v.v.v.G.G.C.C.C.C.C.C.C.C.G.G.C.C.C.C.C.C.C.Z.V.iXSXLXLXAX$XC.C.G.N.N.C.C.v.v.v.v.v.v.v.v.v.v.v.v.x.x.v.v.x.x.x.x.x.x.x.x.x.x.x.x.x.x.x.x.z.z.z.z.z.z.z.z.z.q.q.q.z.z.z.z.z.z.q.",
"q.q.q.q.q.q.q.q.z.z.z.z.z.z.z.z.z.z.z.x.x.x.x.x.x.x.x.x.x.v.v.v.x.x.x.x.v.x.x.x.v.x.v.v.v.v.v.v.N.G.v.A.aXZXHXGXxXh.S.v.G.v.v.G.N.G.N.N.N.N.G.N.N.N.v.v.v.v.v.v.N.N.N.v.v.v.v.v.v.v.v.v.v.v.x.x.x.x.x.x.x.x.x.x.x.x.x.x.x.z.z.z.x.x.z.z.z.z.z.z.z.z.z.z.z.z.q.q.z.z.q.q.q.q.q.q.q.q.z.z.z.z.z.z.z.z.z.z.x.x.x.x.x.x.x.x.x.x.v.v.N.G.G.G.P.H.J.!.E.`.[.3X7XzXfX0X%XR.z.4.1.1.1.4.a.z.z.z.c.m.m.C.v.C.C.C.C.C.C.C.C.C.C.C.G.G.G.C.H.H.H.H.G.Z.C.C.C.C.C.C.C.C.C.C.v.v.v.v.v.c.c.c.c.c.c.c.c.c.c.c.c.c.z.z.z.c.z.z.z.z.z.z.a.a.a.a.z.z.z.z.z.z.z.z.q.z.z.z.z.z.q.z.z.z.z.z.z.z.z.z.z.z.z.z.z.z.z.z.4.4.4.4.4.a.a.a.z.z.z.z.z.z.z.z.z.z.z.z.z.c.c.c.c.c.c.c.c.c.c.c.c.c.c.v.v.v.v.C.C.C.C.C.C.C.C.C.K.K.G.G.P.H.H.H.G.C.C.C.C.Z.C.C.H.G.G.G.G.G.G.G.C.C.G.C.v.v.x.x.z.z.z.4.1.-.0.q.x.!.&XfXbXpX3X1X`./.!.!.H.H.C.C.C.C.C.v.v.x.x.x.x.x.x.x.x.x.z.z.z.z.z.z.z.z.z.q.z.z.z.z.z.z.q.q.z.z.z.z.q.q.z.z.z.z.z.z.z.x.x.x.x.x.x.x.x.x.x.x.x.x.x.x.x.x.x.x.x.x.x.x.x.x.v.v.v.v.v.v.v.v.C.G.C.C.v.C.C.v.G.C.C.C.C.C.C.C.C.C.C.C.C.C.C.C.C.C.C.Z.h.iXFXLXLXAX$XC.C.G.N.N.C.C.v.v.v.v.v.v.v.v.v.v.v.v.x.x.x.x.x.x.x.x.x.x.x.x.x.x.x.x.x.x.x.x.z.z.z.z.z.z.z.z.z.z.q.q.q.q.z.z.z.z.z.",
"q.q.q.q.q.q.q.q.q.z.z.z.z.z.z.z.z.z.z.x.x.x.x.x.x.x.x.x.x.x.v.v.x.x.x.x.v.x.x.x.v.v.v.v.v.v.v.v.N.G.v.A.aXSXHXGXxXh.S.v.G.v.v.G.N.N.N.N.N.N.G.G.N.v.v.v.v.v.v.v.N.N.N.v.v.v.v.v.v.v.v.v.v.v.x.x.x.x.x.x.x.x.x.x.x.x.x.x.x.z.z.z.x.x.x.z.z.z.z.z.z.z.z.z.z.q.q.q.z.z.q.q.q.q.q.q.q.q.z.z.z.z.z.z.z.z.z.z.x.x.x.x.x.x.x.v.x.x.v.v.C.G.G.P.P.H.J.!./.'.[.3X0XgXgX8X|.K.x.z.4.=.=.1.4.4.4.4.4.4.4.4.z.x.x.c.x.x.x.x.x.v.v.x.v.v.v.v.v.V.v.c.c.c.c.c.c.c.c.c.m.c.m.c.c.c.c.c.c.c.c.c.c.c.c.c.c.c.c.c.c.c.c.c.c.c.c.c.z.c.z.c.c.s.z.z.z.b.z.z.z.z.z.z.z.e.e.z.z.z.e.e.a.a.a.a.a.a.a.a.b.a.d.a.d.a.d.a.z.z.z.z.z.b.b.b.a.a.b.b.z.z.b.z.c.c.c.c.c.c.n.n.c.c.c.c.c.c.c.c.c.c.c.c.c.c.c.c.c.c.c.c.v.V.C.V.m.m.v.v.v.v.v.C.S.C.C.C.C.C.C.C.v.v.v.v.v.x.x.x.x.x.x.z.z.q.0.0.0.0.4.1.%.;.q.v.H.).6XpXbXpX3X[.`./.!.!.H.H.H.C.C.C.C.v.x.x.x.x.x.x.x.x.x.x.z.z.z.z.z.z.z.z.q.q.z.z.z.z.z.z.q.q.z.z.z.z.q.q.z.z.z.z.z.z.x.x.x.x.x.x.x.x.x.x.x.x.x.x.x.x.x.x.x.x.x.x.x.x.x.x.v.v.v.v.v.v.v.v.C.G.C.C.C.v.G.G.G.C.C.C.C.C.C.C.C.C.C.C.C.C.C.C.C.C.C.Z.V.iXFXLXLXFX$XC.C.G.N.N.C.v.v.v.v.v.v.v.v.v.v.v.v.v.x.x.x.x.x.x.x.x.x.x.x.x.x.x.x.x.x.x.x.x.z.z.z.z.z.z.z.z.z.z.q.q.q.q.q.q.z.z.z.",
"q.q.q.q.q.q.q.q.q.q.q.z.z.z.z.z.z.z.z.z.z.z.x.x.x.x.x.x.x.x.x.x.x.x.x.x.x.x.x.x.v.v.v.v.v.v.v.v.v.G.v.f.aXSXHXGXlX>XZ.v.N.N.N.G.G.G.N.N.N.G.G.G.G.N.N.N.N.v.v.N.v.v.v.v.v.v.v.v.v.v.v.v.x.x.x.x.x.x.x.x.x.x.x.x.x.x.x.x.x.x.x.x.x.x.x.x.x.x.z.z.z.z.z.z.z.z.z.z.z.z.q.q.q.z.z.z.q.q.q.z.z.z.z.z.z.z.z.z.x.x.x.x.x.x.x.x.v.v.v.v.C.C.G.G.P.H.!.!./.'.].1X0XzXqX6X X!.C.c.x.4.-...-.-.2.2.2.2.5.0.4.4.q.q.q.z.z.z.z.z.z.x.x.x.x.x.x.c.x.c.x.c.x.c.x.c.x.c.x.c.x.c.x.c.x.x.x.x.x.x.x.z.x.z.x.x.x.x.z.z.z.z.z.z.z.z.z.z.z.z.z.z.z.z.e.q.q.q.z.z.z.q.q.q.z.z.z.z.z.z.z.z.z.z.z.z.z.z.z.z.z.z.z.z.z.z.z.z.z.z.z.z.z.z.z.z.z.z.z.z.z.z.z.z.z.z.z.z.z.z.x.x.x.z.z.z.x.x.c.c.x.c.x.c.x.c.x.c.x.c.x.x.x.x.x.x.v.x.x.x.x.x.x.x.x.x.x.x.x.x.x.x.x.z.z.z.q.q.q.w.w.0.2.2.2.0.2.;.....1.e.c.V.Z.`.3X9XbXpX3X1X'./.^.!.!.H.H.G.C.C.C.v.v.v.c.x.x.x.x.x.x.x.x.x.z.z.z.z.z.z.z.z.z.z.z.z.z.q.q.q.q.q.q.q.q.q.q.z.z.z.z.z.z.z.x.x.x.x.x.x.x.x.x.x.x.x.x.x.x.x.x.x.x.x.x.x.v.v.v.v.v.v.v.v.v.v.v.v.N.N.N.G.N.N.N.G.G.G.G.C.C.G.G.G.G.G.G.G.G.G.C.C.C.C.C.;XSXLXLXDX$XV.C.C.v.C.x.v.v.v.v.v.v.v.v.v.v.v.v.v.x.x.x.x.x.x.x.x.x.x.x.x.x.x.x.x.x.z.z.z.z.z.z.z.z.z.z.z.q.q.q.z.z.z.z.z.q.q.q.",
"q.q.q.q.q.q.q.q.q.q.q.q.z.z.z.z.z.z.z.z.z.z.x.x.x.x.z.z.x.x.x.x.x.x.x.x.x.x.x.x.v.v.v.v.v.v.v.v.v.G.v.f.aXSXLXGXlX>XZ.N.N.N.N.N.N.N.N.N.N.G.G.G.N.N.N.N.G.v.v.v.v.v.v.v.v.v.v.v.v.v.v.v.x.x.x.x.x.x.x.x.x.x.x.x.x.x.x.x.x.x.x.x.x.x.x.x.x.x.z.z.z.z.z.z.z.z.z.z.z.z.q.q.q.q.z.z.q.q.q.z.z.z.z.z.z.z.z.z.x.x.x.x.x.x.x.x.v.v.v.v.S.C.G.G.G.H.!.!.~./.].1X0XzXqX3X[.!.C.c.c.q.1.-.%.%.*.*.;.;.;.2.2.2.2.2.4.0.0.0.q.q.q.q.z.z.z.M.z.z.z.z.z.z.x.x.x.x.x.x.x.x.x.x.x.x.x.z.z.z.z.z.z.z.z.z.z.z.z.z.z.z.z.z.z.z.z.z.z.z.z.z.z.q.q.q.q.q.q.q.q.q.q.q.q.q.q.q.q.q.q.q.q.q.q.q.q.q.q.q.q.q.q.q.q.q.q.q.q.q.q.q.q.q.q.q.q.q.q.q.q.q.e.z.x.x.z.z.z.z.z.z.x.x.x.x.z.z.x.x.x.x.x.x.x.x.x.x.x.x.x.x.x.x.x.x.x.x.x.x.x.x.x.x.x.x.x.x.z.z.z.z.z.w.w.q.q.0.0.0.0.0.5.5.2.2.2.;.-.%.=.1.0.x.V.Z.E.'.3X9XbXpX3X].'./.^.!.!.H.H.G.C.C.C.v.v.v.c.c.x.x.x.x.x.x.x.x.z.z.z.z.z.z.z.z.z.z.z.z.z.q.q.q.q.q.q.q.q.q.z.z.z.z.z.z.z.z.x.x.x.x.x.x.x.x.x.x.x.x.x.x.x.x.x.x.x.x.x.x.v.v.v.v.v.v.v.v.v.v.v.v.N.N.N.G.N.N.N.N.G.G.G.G.C.G.G.G.G.G.G.G.G.G.C.C.C.C.C.;XSXHXPXDX$XC.G.v.v.C.v.N.v.v.v.v.v.v.v.v.v.v.v.v.x.x.x.x.x.x.x.x.x.x.x.x.x.x.x.x.x.z.z.z.z.z.z.z.z.z.z.z.q.q.q.q.z.z.z.z.q.q.q.",
"q.q.q.q.q.q.q.q.z.z.z.z.z.z.z.z.z.z.z.z.z.z.x.x.x.x.x.x.x.x.x.x.x.x.x.x.x.x.x.x.v.v.v.v.v.v.v.v.v.G.v.A.aXSXHXGXlX>XZ.v.N.N.N.N.N.N.N.N.N.N.G.N.N.N.N.G.v.v.v.v.v.v.v.v.v.v.v.v.v.v.v.v.v.v.x.x.x.x.x.x.x.x.x.x.x.x.x.x.x.x.x.x.x.x.x.x.x.x.z.z.z.z.z.z.z.z.z.z.q.q.q.q.q.q.z.z.z.q.z.z.z.z.z.z.z.z.z.z.x.x.x.x.x.x.x.x.v.v.v.v.S.C.G.G.G.H.!.!.~./.].1X0XzXqX3X].^.Z.C.c.z.e.0.-.%.O.%.*.;.-.*.;.2.2.2.2.2.2.2.4.4.0.0.0.q.q.q.q.q.q.q.q.q.z.z.z.z.z.z.z.z.z.z.z.z.z.z.z.z.z.z.z.z.z.z.z.z.z.z.q.q.q.q.q.q.q.q.q.q.q.q.q.q.4.4.q.q.q.q.q.q.q.q.q.q.q.q.q.q.q.q.q.q.q.q.q.4.4.4.4.4.q.q.q.q.q.q.4.4.4.4.4.4.q.q.q.q.q.q.q.q.q.q.z.z.z.z.z.z.z.z.z.z.z.z.z.z.z.z.z.z.z.z.z.z.z.z.z.z.z.z.z.z.z.z.z.x.z.z.z.z.z.z.z.z.z.q.q.q.q.4.0.0.0.0.2.2.2.2.2.2.;.2.2.2.-.O.+.*.2.4.w.M.V.Z.!.].3X9XbXpX3X,X'./.^.!.!.H.H.G.C.C.v.v.v.x.c.c.x.x.x.x.x.x.x.x.z.z.z.z.z.z.z.z.z.z.z.z.z.q.q.q.q.q.q.q.q.z.z.z.z.z.z.z.z.z.x.x.x.x.x.x.x.x.x.x.x.x.x.x.x.x.x.x.x.x.x.x.v.v.v.v.v.v.v.v.v.v.v.v.v.v.N.N.N.N.G.G.G.G.G.G.G.G.G.G.G.G.G.G.G.G.G.C.C.C.C.;XSXHXPXDX$XC.G.v.v.C.v.N.v.v.v.v.v.v.v.v.x.v.v.v.x.x.x.x.x.x.x.x.x.x.x.x.x.x.x.x.x.z.z.z.z.z.z.z.z.z.q.q.q.q.q.q.w.w.z.q.q.q.q.",
"q.q.q.q.q.q.q.q.z.z.z.z.z.z.z.z.z.z.z.z.z.z.x.x.x.x.x.x.x.x.x.x.x.x.x.x.x.x.x.x.x.v.v.v.v.v.v.v.v.G.v.A.aXSXLXGXlXh.C.v.v.N.v.N.v.v.v.v.v.v.v.v.N.N.N.v.v.v.v.v.v.v.v.v.v.v.v.v.v.v.v.v.v.v.x.x.x.x.x.x.x.x.x.x.x.x.x.x.x.x.x.x.x.x.x.x.x.x.z.z.z.z.z.z.z.z.z.z.q.q.q.q.q.q.z.z.z.z.z.z.z.z.z.z.z.z.z.z.x.x.x.x.x.x.x.x.v.v.v.v.S.C.G.G.G.H.!.!.~./.].1X0XgXqX3X]./.H.C.v.x.b.b.2.2.*.O.*.*.*.*.-.-.-.2.2.2.1.1.1.1.2.2.2.2.4.4.4.q.q.q.q.q.q.q.q.q.q.q.q.q.q.q.q.z.z.q.q.q.q.q.q.q.q.q.q.q.q.q.q.q.q.q.q.q.q.q.q.q.q.q.4.4.4.4.q.0.0.0.q.0.q.q.0.0.0.0.0.0.0.0.4.4.4.4.4.4.4.4.4.4.4.4.4.4.4.4.4.4.4.4.4.4.4.4.4.q.q.q.q.4.q.q.z.z.z.z.z.z.z.z.z.z.z.z.z.z.z.z.z.z.z.z.z.z.z.z.q.q.q.q.q.q.z.q.z.z.z.z.q.q.q.q.q.4.4.4.4.4.4.4.2.2.2.2.2.2.;.;.;.;.*.*.-.*.%.O.-.2.0.z.M.x.C.Z.^.].2X9XbXpX3X,X'./.^.!.!.H.H.G.G.C.v.v.v.x.c.c.x.x.x.x.x.x.x.x.z.z.z.z.z.z.z.z.q.z.z.z.z.q.z.z.z.q.q.q.z.z.z.q.z.z.z.z.z.z.x.x.x.x.x.x.x.x.x.x.x.x.x.x.x.x.x.x.x.x.x.x.v.v.v.v.v.v.v.v.v.v.v.v.v.N.N.N.v.G.G.G.G.G.G.G.G.G.G.G.G.G.G.G.G.G.G.C.C.C.C.;XSXHXPXDX$XC.G.v.v.C.v.N.v.v.v.v.v.v.v.v.x.v.v.v.x.x.x.x.x.x.x.x.x.x.x.x.x.x.x.x.x.z.z.z.z.z.z.z.z.z.q.q.q.q.q.q.w.w.q.q.q.q.q.",
"q.q.q.q.q.q.q.q.q.q.q.z.z.z.z.z.z.z.z.z.z.z.x.x.x.x.x.x.x.x.x.x.x.x.x.x.x.x.x.x.x.x.v.v.v.v.v.v.v.G.v.f.aXSXHXGXlXh.C.v.v.v.v.v.N.N.N.N.v.v.v.v.G.N.N.N.N.v.v.v.v.v.v.v.v.v.v.v.v.v.v.x.v.v.v.v.x.x.x.x.x.x.x.x.x.x.x.x.x.x.x.x.x.x.x.x.x.x.z.z.z.z.z.z.z.z.z.z.q.q.q.q.q.q.q.q.z.z.z.z.z.z.z.z.z.z.z.z.x.x.x.x.x.x.x.x.v.v.v.v.V.C.G.G.H.H.!.!.~./.].1X0XfXqX3X]./.!.C.v.x.z.b.w.0.2.*.O.O.*.-.*.*.-.-.-.2.2.2.2.2.2.1.2.2.2.2.4.0.0.0.0.0.0.0.0.0.0.0.0.0.0.0.q.q.q.q.q.q.q.q.q.q.q.q.q.q.q.q.q.q.q.q.q.q.q.q.q.q.q.q.q.q.q.q.0.0.0.0.0.0.0.0.0.0.0.0.0.0.0.0.4.4.4.4.q.q.q.q.4.4.4.4.4.4.4.4.4.4.4.4.4.4.4.4.4.4.q.q.q.q.q.q.q.q.q.q.q.q.q.q.q.q.q.q.z.q.q.q.q.q.q.q.q.q.q.q.q.q.q.q.q.q.q.q.q.q.q.q.q.q.0.0.4.4.4.2.2.2.2.1.2.2.2.2.;.-.-.-.-.-.*.%.{ { O.*.0.r.z.x.z.c.V.E./.].1X7XbXpX3X].'./.^.!.!.H.H.G.G.C.N.v.v.x.x.c.x.x.x.x.x.x.x.x.z.z.z.z.z.z.z.z.q.q.q.q.z.q.q.z.z.z.z.z.q.q.z.z.z.z.z.z.z.z.x.x.x.x.x.x.x.x.x.x.x.x.x.x.x.x.x.x.x.x.x.v.v.v.v.v.v.v.v.v.v.v.v.v.v.v.v.N.N.N.v.G.v.C.G.G.v.v.v.v.C.v.v.v.v.v.v.C.C.C.C.;XSXHXPXDX$XC.G.v.v.C.v.N.v.v.v.v.v.v.v.v.x.x.v.v.x.x.x.x.x.x.x.x.x.x.x.x.x.x.x.x.x.z.z.z.z.z.z.z.z.z.q.q.q.q.q.q.w.w.w.w.q.q.q.",
"q.q.q.q.q.q.q.q.q.q.q.z.z.z.z.z.z.z.z.z.z.z.x.x.x.x.x.x.x.x.x.x.x.x.x.x.x.x.x.x.x.x.v.v.v.v.v.v.v.G.v.f.aXSXHXGXlXh.C.v.v.v.v.v.N.N.N.N.v.v.v.v.N.N.N.N.v.v.v.v.v.v.v.v.v.v.v.v.v.v.v.x.v.v.v.v.x.x.x.x.x.x.x.x.x.x.x.x.x.x.x.x.x.x.x.x.x.x.z.z.z.z.z.z.z.z.z.z.q.q.q.q.q.q.q.q.z.z.z.z.z.z.z.z.z.z.z.z.x.x.x.x.x.x.x.x.v.v.v.v.V.C.G.P.H.Z.E.!.~./.].1X0XgXqX3X].'.!.Z.C.c.z.b.e.e.0.2.O.' O.%.O.%.%.%.*.-.-.-.2.2.2.2.2.1.2.2.2.2.2.2.2.2.2.2.4.4.4.4.4.4.4.4.0.0.0.0.0.0.0.0.0.0.0.0.e.q.e.q.e.q.e.q.4.4.4.4.e.q.4.4.4.4.4.4.0.0.0.0.0.0.0.0.0.0.0.0.0.0.0.0.4.4.4.4.q.q.q.q.4.4.4.4.4.4.4.4.4.4.4.4.4.4.4.4.4.4.4.4.4.0.q.q.4.4.4.4.q.q.4.q.4.4.q.q.4.4.4.4.q.q.q.q.0.q.0.q.0.0.0.0.0.q.0.q.0.0.0.0.0.4.4.4.2.2.2.2.1.1.2.2.2.;.2.;.-.*.*.*.*.*.*.O.' O.-.2.r.w.z.x.x.m.F.!./.].<X7XbXdX3X].'./.^.!.!.H.H.G.G.C.v.v.v.x.c.c.x.x.x.x.x.x.x.x.z.z.z.z.z.z.z.z.q.q.q.q.z.q.q.q.z.z.z.z.q.z.z.z.z.z.z.z.z.z.x.x.x.x.x.x.x.x.x.x.x.x.x.x.x.x.x.x.x.x.x.v.v.v.v.v.v.v.v.v.v.v.v.v.v.v.v.v.N.N.v.N.v.G.G.G.v.v.v.v.G.C.v.v.v.N.v.C.C.C.C.;XSXHXPXDX$XC.G.v.v.C.v.N.v.v.v.v.v.v.v.v.x.x.v.v.x.x.x.x.x.x.x.x.x.x.x.x.x.x.x.x.x.z.z.z.z.z.z.z.z.z.q.q.q.q.q.q.w.w.w.w.q.q.q.",
"q.q.q.q.q.q.q.q.q.q.q.q.z.z.z.z.z.z.z.z.z.z.x.x.x.x.x.x.x.x.x.x.x.x.x.x.x.x.x.x.v.x.x.v.x.v.v.v.v.G.v.f.aXSXLXGXlXh.C.v.v.N.v.v.v.v.v.v.v.v.v.v.N.N.N.v.v.v.v.v.v.v.v.v.v.v.v.v.v.v.v.x.x.x.v.x.x.x.x.x.x.x.x.x.x.x.x.x.x.x.x.x.x.x.x.x.x.z.z.z.z.z.z.z.z.z.z.z.q.q.z.z.z.z.q.q.q.q.q.q.z.z.z.z.z.z.z.z.x.x.x.x.x.x.x.x.v.x.v.v.V.V.P.P.H.Z.!.!._./.].1X0XfX9X3X].'.!.H.C.x.x.b.w.w.w.0.2.*.O.{ { { O.%.%.%.*.-.-.-.-.2.2.2.2.1.2.2.2.2.2.1.2.1.2.2.2.2.2.2.2.2.4.4.4.4.4.4.4.4.4.4.4.0.0.0.0.0.4.4.4.4.4.4.4.4.4.4.4.4.4.4.4.4.4.4.4.4.4.4.4.4.4.4.4.4.4.4.4.4.4.4.4.4.4.4.4.4.4.4.4.4.4.4.4.4.4.4.4.4.4.4.4.4.4.4.4.4.4.4.4.4.4.4.4.4.4.4.4.4.4.4.4.4.4.4.4.4.4.4.4.4.0.0.4.4.4.4.4.4.4.4.4.4.4.4.2.4.2.2.2.2.2.2.1.2.2.2.2.2.;.:.=.-.*.*.%.O.%.O.O.O.O.-.5.e.r.w.x.c.x.C.Z.!./.].<X7XbXdX3X].'./.^.!.!.H.H.G.C.C.v.v.v.x.c.c.x.x.x.x.x.x.x.x.z.z.z.z.z.z.z.z.z.z.z.z.z.q.q.q.z.z.z.z.z.z.z.z.z.z.z.z.z.z.x.x.x.x.x.x.x.x.x.x.x.x.x.x.x.x.x.x.x.x.x.v.v.v.v.v.v.v.v.v.v.v.v.v.v.v.v.v.v.N.N.N.v.v.G.G.G.C.v.v.G.G.G.G.C.C.v.C.C.C.V.;XSXLXPXDX$XC.G.v.v.C.v.N.v.v.v.v.v.v.v.v.x.x.x.x.x.x.x.x.x.x.x.x.x.x.x.x.x.x.x.x.x.z.z.z.z.z.z.z.z.z.z.q.q.q.q.q.z.z.z.z.q.q.q.",
"q.q.q.q.q.q.q.q.q.q.q.q.z.z.z.z.z.z.z.z.z.z.x.x.x.x.x.x.x.x.x.x.x.x.x.x.x.x.x.x.x.x.x.v.v.v.v.v.v.G.v.f.aXSXLXGXlXh.C.v.v.N.v.N.v.v.v.v.v.v.v.v.N.N.N.v.v.v.v.v.v.v.v.v.v.v.v.v.v.v.v.x.x.x.x.x.x.x.x.x.x.x.x.x.x.x.x.x.x.x.x.x.x.x.x.x.x.z.z.z.z.z.z.z.z.z.z.z.q.q.z.z.z.z.z.q.q.q.q.q.z.z.z.z.z.z.z.z.x.x.x.x.x.x.x.x.v.x.v.v.V.C.P.P.H.H.!.!._./.].1X0XfX9X1X].'.!.H.Z.V.x.x.q.q.w.w.e.2.%.) O.O.O.%.%.>.>.>.=.=.-.-.2.2.2.2.2.2.2.2.2.2.2.1.2.2.2.2.2.2.2.1.2.2.2.2.2.2.2.2.2.2.2.4.4.4.4.4.4.4.2.2.2.4.4.4.2.2.2.2.2.1.2.2.4.4.4.4.2.2.2.4.2.2.4.4.4.4.4.4.4.4.4.4.4.4.4.4.4.4.4.4.4.4.4.4.4.4.4.4.4.4.4.4.1.1.1.4.4.4.4.4.4.4.4.4.4.4.4.4.4.4.4.4.4.4.4.4.2.2.2.2.2.2.2.2.2.2.2.2.2.2.2.2.2.2.2.2.2.1.2.1.2.2.2.2.2.2.-.-.=.>.>.*.O.O.O.O.O.' ' { -.5.r.r.e.z.x.c.x.C.Z.E./.].1X7XbXdX3X].'./.^.!.!.H.H.G.C.C.v.v.v.v.c.c.x.x.x.x.x.x.x.x.z.z.z.z.z.z.z.z.z.z.z.z.q.q.q.q.q.z.z.z.z.z.z.z.z.z.z.z.z.z.x.x.x.x.x.x.x.x.x.x.x.x.x.x.x.x.x.x.x.x.x.x.v.v.v.v.v.v.v.v.v.v.v.v.v.v.v.v.v.N.N.N.v.v.G.G.G.C.C.v.G.G.G.G.G.G.v.C.C.C.S.;XSXLXPXDX$XC.G.v.v.C.v.N.v.v.v.v.v.x.v.v.x.x.x.x.x.x.x.x.x.x.x.x.x.x.x.x.x.x.x.x.x.z.z.z.z.z.z.z.z.z.z.z.z.z.q.q.w.z.z.z.q.q.q.",
"q.q.q.q.q.q.q.q.q.q.z.z.q.q.z.z.z.z.z.z.z.z.z.z.z.z.z.x.x.x.x.x.x.x.x.x.x.x.x.x.v.v.v.x.v.v.v.v.x.v.C.f.kXSXLXGXlXh.C.N.G.G.N.v.v.v.v.v.v.v.v.v.v.v.v.v.v.v.v.v.v.v.v.v.v.v.v.v.v.v.v.x.x.x.x.v.x.x.x.x.x.x.x.x.x.x.x.x.x.x.x.x.x.x.x.x.x.x.z.z.z.z.z.z.z.z.z.z.z.z.z.z.z.z.z.q.z.z.z.q.z.z.z.z.z.z.x.x.x.x.x.x.x.x.x.x.v.v.v.C.V.C.G.P.P.H.!.!._./.'.[.0XzX7X1X].'./.H.C.C.x.x.q.q.q.w.0.0.2.-.{ { O.O.O.O.O.>.>.%.*.*.-.-.-.-.;.2.2.;.2.2.2.2.2.2.2.2.2.2.2.2.2.2.2.2.2.2.2.2.2.2.2.2.2.2.2.2.1.1.1.1.1.1.1.1.1.1.1.1.2.1.2.2.2.2.2.2.2.2.2.2.2.2.2.2.2.2.2.2.2.2.2.1.1.1.2.2.2.2.2.2.1.1.1.1.1.1.1.1.1.1.1.2.4.4.4.4.4.4.4.4.2.2.2.2.2.2.2.2.2.2.2.2.2.2.2.2.2.2.2.2.2.2.2.2.2.2.2.2.2.2.2.2.2.2.2.2.2.2.2.2.2.;.;.;.-.-.-.*.%.>.>.O.O.O.O.O.' ' O.;.5.e.r.e.w.z.c.v.v.G.!.^.'.].<X4XbXdX.X].'./.^.!.!.H.H.C.G.C.N.v.v.x.c.c.x.x.x.x.x.x.x.x.x.x.z.z.z.z.z.z.z.z.z.z.z.q.q.q.q.q.z.z.z.z.z.z.z.z.z.x.x.x.x.x.x.x.x.x.x.x.x.x.x.x.x.x.x.x.x.x.x.x.x.v.v.v.v.v.v.v.v.v.v.v.v.v.v.v.v.v.v.N.N.N.v.v.C.C.G.G.G.v.v.v.v.v.C.C.G.C.C.C.C.;XSXHXPXDX$XC.C.v.v.C.x.N.v.v.v.x.v.x.v.v.x.x.x.x.x.x.x.x.x.x.x.x.x.x.x.x.x.x.z.z.z.z.z.z.z.z.z.z.z.q.q.q.z.z.q.q.w.q.q.q.q.q.q.",
"q.q.q.q.q.q.q.q.q.q.z.z.q.q.z.z.z.z.z.z.z.z.z.z.z.z.z.x.x.x.x.x.x.x.x.x.x.x.x.x.v.v.v.x.x.v.v.v.x.v.C.f.kXSXLXGXlXh.C.N.G.G.N.v.v.v.v.v.v.v.v.v.v.v.v.v.v.v.v.v.v.v.v.v.v.v.v.v.v.v.v.x.x.x.v.v.x.x.x.x.x.x.x.x.x.x.x.x.x.x.x.x.x.x.x.x.x.x.z.z.z.z.z.z.z.z.z.z.z.z.z.z.z.z.z.z.z.z.q.q.z.z.z.z.z.z.x.x.x.x.x.x.x.x.x.x.v.v.v.C.V.C.G.P.H.H.!.!._./.'.[.0XzX7X1X].'./.H.Z.C.v.x.z.z.q.q.w.0.5.2.%.O.{ { O.>.>.O.%.>.%.*.-.-.-.-.;.;.2.;.;.2.2.2.2.2.2.2.2.2.2.2.2.2.2.2.2.2.2.2.2.2.2.2.2.2.2.2.2.1.1.1.1.1.1.1.1.1.2.2.2.2.2.2.2.2.2.2.2.2.2.2.2.2.2.2.2.2.2.2.2.2.2.1.1.1.2.1.2.2.2.2.1.1.1.1.1.1.1.1.1.1.1.1.2.2.2.2.1.1.2.1.2.2.2.2.2.2.2.2.2.2.2.2.2.2.2.2.2.2.2.2.2.2.2.2.2.2.2.2.2.2.2.2.2.2.2.2.2.2.2.2.;.;.;.;.-.-.*.*.>.>.O.O.O.O.O.' { %.;.2.5.r.e.e.w.z.c.v.v.G.!.!.'.,X<X4XbXdX.X].'./.^.!.!.H.H.C.G.C.v.v.v.x.c.c.x.x.x.x.x.x.x.x.x.x.z.z.z.z.z.z.z.z.z.z.z.q.q.q.q.q.z.z.z.z.z.z.z.z.z.x.x.x.x.x.x.x.x.x.x.x.x.x.x.x.x.x.x.x.x.x.x.x.x.x.v.v.v.v.v.v.v.v.v.v.v.v.v.v.v.v.v.v.v.N.v.v.G.C.G.G.G.C.v.v.v.v.C.C.G.C.C.C.C.=XSXLXPXDX$XC.v.v.v.C.x.N.v.v.v.x.x.x.v.v.x.x.x.x.x.x.x.x.x.x.x.x.x.x.x.x.x.x.z.z.z.z.z.z.z.z.z.z.z.q.z.q.z.z.q.q.w.q.q.q.q.q.q.",
"q.q.q.q.q.q.q.q.q.q.z.z.q.q.z.z.z.z.z.z.z.z.z.z.z.z.z.x.x.x.x.x.x.x.x.x.x.x.x.x.x.x.x.x.x.x.v.v.x.x.C.f.kXSXLXGXlXh.C.v.N.N.v.v.v.v.v.v.v.v.v.v.v.v.v.v.v.v.v.v.v.v.v.v.v.v.v.v.v.v.v.x.v.v.v.v.x.x.x.x.x.x.x.x.x.x.x.x.x.x.x.x.x.x.x.x.x.x.z.z.z.z.z.z.z.z.z.z.z.z.z.z.z.z.q.q.z.z.q.q.z.z.z.z.z.z.x.x.x.x.x.x.x.x.x.x.v.v.v.C.V.C.P.P.H.H.!.!._./.'.[.0XzX7X1X].'./.!.Z.C.v.x.x.z.z.q.q.w.0.5.2.-.{ ' O.%.>.O.>.>.%.*.*.-.-.-.;.;.;.;.;.;.2.2.2.2.2.2.2.2.2.2.2.2.2.2.2.2.2.2.2.2.2.2.2.2.2.2.2.1.1.1.1.1.1.1.1.1.1.1.1.1.1.1.2.1.1.1.1.1.2.2.1.1.1.2.2.1.2.2.1.1.1.1.1.1.1.1.1.1.1.1.1.1.1.1.1.1.1.1.1.1.1.1.1.1.2.1.1.2.2.2.2.2.2.2.2.2.2.2.2.2.2.2.1.1.2.2.2.2.2.2.2.2.2.2.2.2.2.2.2.2.2.2.2.2.2.2.2.;.2.2.2.2.;.;.-.-.*.*.>.>.O.O.O.O.' ) *.2.0.0.0.0.w.M.w.z.c.v.v.G.!.^.'.].,X4XbXdX[.].'./.^.!.!.H.H.C.G.C.N.v.v.x.c.c.x.x.x.x.x.x.x.x.x.x.z.z.z.z.z.z.z.z.z.z.z.z.q.q.q.q.z.z.z.z.z.z.z.z.z.x.x.x.x.x.x.x.x.x.x.x.x.x.x.x.x.x.x.x.x.x.x.x.x.x.v.v.v.v.v.v.v.v.v.v.v.v.v.v.v.v.v.N.v.v.G.G.G.G.G.G.G.G.G.G.v.C.G.G.G.C.C.C.C.=XSXLXPXDX$XC.C.v.v.C.x.N.v.v.v.x.x.x.x.v.x.x.x.x.x.x.x.x.x.x.x.x.x.x.x.x.x.x.z.z.z.z.z.z.z.z.z.z.z.z.q.q.z.z.q.q.z.q.q.q.z.z.z.",
"q.q.q.q.q.q.q.q.q.q.z.z.z.z.z.z.z.z.z.z.z.z.z.z.z.z.z.x.x.x.x.x.x.x.x.x.x.x.x.x.x.x.x.x.x.x.v.v.x.x.C.f.kXSXLXGXlXh.C.v.N.N.v.v.v.v.v.v.v.v.v.v.v.v.v.v.v.v.v.v.v.v.v.v.v.v.v.v.v.v.v.x.v.v.v.v.x.x.x.x.x.x.x.x.x.x.x.x.x.x.x.x.x.x.x.x.x.x.z.z.z.z.z.z.z.z.z.z.z.z.z.z.z.q.q.q.z.z.q.q.z.z.z.z.z.z.x.x.x.x.x.x.x.x.x.x.v.v.v.C.V.C.P.P.H.H.!.!.~./.'.[.0XzX7X[.].'./.!.Z.C.v.x.x.x.z.z.q.q.w.e.0.2.%.{ { %.O.{ O.>.%.%.*.-.-.-.;.;.;.;.;.;.2.2.2.;.2.2.2.2.2.2.2.2.2.2.2.2.2.2.2.2.2.2.2.2.2.2.2.2.2.2.2.2.2.2.1.1.1.1.1.1.1.1.2.2.2.2.2.2.2.2.1.1.1.1.1.1.1.1.1.1.1.1.1.1.1.1.1.1.1.1.1.1.1.1.1.2.2.2.1.1.1.1.1.1.1.1.1.1.1.1.1.2.2.2.2.2.1.1.2.2.2.2.2.2.2.2.2.2.2.2.2.2.2.2.2.2.2.2.2.2.2.2.2.2.2.2.2.2.;.;.;.;.;.-.-.*.*.*.>.>.O.O.' { O.O.2.0.e.w.0.0.q.M.z.x.c.v.C.G.!.^.'.].,X3XbXdX X].'./.^.!.!.H.H.C.G.C.N.v.v.x.c.c.x.x.x.x.x.x.x.x.x.x.z.z.z.z.z.z.z.z.z.z.z.z.z.z.q.q.q.z.z.z.z.z.z.z.z.x.x.x.x.x.x.x.x.x.x.x.x.x.x.x.x.x.x.x.x.x.x.x.x.v.v.v.v.v.v.v.v.v.v.v.v.v.v.v.v.v.v.N.v.v.C.C.C.C.C.C.C.C.C.v.v.v.C.C.C.C.C.C.C.=XSXLXPXDX$XC.C.v.v.C.x.N.v.v.v.x.x.x.v.v.x.x.x.x.x.x.x.x.x.x.x.x.x.x.x.x.x.x.z.z.z.z.z.z.z.z.z.z.z.z.q.q.z.z.q.q.q.q.q.q.q.q.q.",
"q.q.q.q.q.q.q.q.q.q.z.z.z.z.z.z.z.z.z.z.z.z.z.z.z.z.z.x.x.z.z.x.x.x.x.x.x.x.x.x.x.x.x.x.x.v.v.v.x.v.C.f.kXSXLXGXlXh.C.v.v.v.v.v.v.v.v.v.v.v.v.v.v.v.v.v.v.v.v.v.v.v.v.v.v.v.v.v.v.v.v.v.v.x.x.x.x.x.x.x.x.x.x.x.x.x.x.x.x.x.x.x.x.x.x.x.x.x.z.z.z.z.z.z.z.z.z.z.q.q.z.z.z.z.q.q.z.z.q.q.z.z.z.z.z.z.x.x.x.x.x.x.x.x.x.v.v.v.v.V.C.C.P.P.H.H.!.!._./.'.[.0XzX7X[.[.'./.!.H.C.v.x.x.x.z.z.z.z.w.w.z.q.2.-.%.{ { { O.O.O.%.%.*.*.-.;.;.;.;.;.;.2.2.;.;.;.;.2.2.;.;.2.2.2.2.2.2.2.2.2.2.2.2.2.2.2.2.2.1.2.2.2.2.2.2.1.1.1.1.1.1.1.1.2.2.2.2.2.2.2.2.2.2.2.2.2.2.2.2.1.1.1.1.1.1.1.1.1.1.1.1.2.2.2.1.1.1.1.1.1.1.2.1.1.1.1.1.1.1.1.1.1.1.1.2.2.1.1.1.2.2.2.2.2.2.2.2.2.2.2.2.2.2.2.2.2.2.2.2.2.2.2.2.2.2.;.;.;.;.;.;.;.;.-.-.*.*.*.%.O.O.O.O.' { -.2.0.0.0.q.q.q.q.q.z.x.c.C.G.K.!.^.'.].,X3XbXdX X].'./.^.!.!.H.H.G.C.C.C.v.v.v.c.c.x.x.x.x.x.x.x.x.x.x.z.z.z.z.z.z.z.z.z.z.z.z.z.z.z.z.z.z.z.z.z.z.z.z.z.x.x.x.x.x.x.x.x.x.x.x.x.x.x.x.x.x.x.x.x.x.x.x.x.v.v.v.v.v.v.v.v.v.v.v.v.v.v.v.v.v.v.N.N.v.v.v.v.v.v.v.v.v.v.v.v.v.v.v.v.C.C.C.C.;XSXLXPXDX$XC.C.v.v.C.x.N.v.v.v.v.x.x.v.x.x.x.x.x.x.x.x.x.x.x.x.x.x.x.x.x.x.x.z.z.z.z.z.z.z.z.z.z.z.q.q.q.z.z.q.q.q.q.q.q.q.q.q.",
"q.q.q.q.q.q.q.q.q.q.z.z.z.z.z.z.z.z.z.z.z.z.z.z.z.z.z.x.x.z.x.z.x.x.x.x.x.x.x.x.x.x.x.x.x.x.v.v.x.v.C.f.kXSXLXGXlXh.C.v.v.v.v.v.v.v.v.v.v.v.v.v.v.v.v.v.v.v.v.v.v.v.v.v.v.v.v.v.v.v.v.v.v.x.x.x.x.x.x.x.x.x.x.x.x.x.x.x.x.x.x.x.x.x.x.x.x.x.z.z.z.z.z.z.z.z.z.z.q.q.z.z.z.q.q.q.z.z.q.q.z.z.z.z.z.z.x.x.x.x.x.x.x.x.x.v.v.v.v.V.C.C.P.P.H.H.!.!._./.'.[.:XzX6X[.[.'./.!.H.G.C.v.x.x.z.z.z.z.q.q.z.z.q.2.-.%.{ { O.O.O.%.%.%.*.-.;.;.;.;.;.;.;.;.;.;.;.2.;.;.;.2.2.2.2.2.2.2.2.2.2.2.2.2.2.2.2.2.1.1.2.2.2.2.2.1.1.1.1.1.1.1.1.1.2.2.1.1.2.2.2.2.2.2.2.2.2.2.2.2.1.1.1.1.1.1.1.1.1.1.1.1.1.1.1.1.1.1.1.1.1.1.1.1.1.1.2.2.1.1.1.1.2.2.2.2.2.2.2.2.2.2.2.2.1.2.2.2.2.2.2.2.2.2.2.2.2.2.2.2.2.2.2.2.2.2.;.;.;.;.;.;.;.;.-.-.*.*.%.%.+.O.O.O.O.*.2.e.q.0.0.q.q.z.q.q.z.x.v.C.G.K.!.^.'.].].3XbXdX X].'./.^.!.!.H.H.G.C.C.C.v.v.v.c.c.x.x.x.x.x.x.x.x.x.x.z.z.z.z.z.z.z.z.z.z.z.z.z.z.z.z.z.z.z.z.z.z.z.z.z.x.x.x.x.x.x.x.x.x.x.x.x.x.x.x.x.x.x.x.x.x.x.x.x.v.v.v.v.v.v.v.v.v.v.v.v.v.v.v.v.v.v.N.N.N.v.v.v.v.v.v.v.v.v.v.v.v.v.v.v.C.V.V.C.;XSXLXPXDX$XC.C.v.v.C.x.N.v.v.v.v.x.x.x.x.x.x.x.x.x.x.x.x.x.x.x.x.x.x.x.x.x.x.z.z.z.z.z.z.z.z.z.z.z.q.q.q.q.q.q.q.q.q.q.q.q.q.q.",
"q.q.q.q.q.q.q.q.q.q.q.q.z.z.z.z.z.z.z.z.z.z.z.z.z.z.z.x.x.x.x.x.x.x.x.x.x.x.x.x.x.x.x.x.x.x.x.x.x.v.C.f.kXSXLXGXlXh.C.v.v.v.v.v.v.v.v.v.v.v.v.v.v.v.v.v.v.v.v.v.v.v.v.v.v.v.v.v.v.v.v.v.x.x.x.x.x.x.x.x.x.x.x.x.x.x.x.x.x.x.x.x.x.x.x.x.x.x.z.z.z.z.z.z.z.z.z.z.q.z.z.z.z.q.q.q.z.z.z.q.z.z.z.z.z.z.x.x.x.x.x.x.x.x.x.v.x.v.v.C.C.C.P.P.H.H.!.!._./.'.[.:XzX6X[.[././.!.H.H.C.v.x.x.x.z.z.z.q.q.q.z.q.q.2.2.%.{ { O.O.%.%.%.%.-.;.;.;.;.;.;.;.;.;.2.2.;.2.2.2.2.2.2.2.2.2.2.2.2.2.2.2.2.2.2.2.1.2.1.1.1.1.1.1.1.2.2.2.2.1.1.1.2.2.2.2.2.2.2.2.2.2.2.2.2.2.2.2.2.2.2.2.2.1.1.1.1.2.2.1.1.1.1.1.1.1.1.1.1.2.2.2.2.1.1.1.2.1.1.1.1.2.2.2.2.2.2.2.2.2.2.2.2.2.2.2.2.2.2.2.2.2.2.2.2.2.2.2.2.2.2.2.2.2.2.2.2.;.;.2.2.;.-.-.*.*.%.%.O.O.+.O.O.:.5.0.e.q.q.q.q.q.z.z.z.z.x.v.C.G.K.!.^.'.].].3XbXdX X].'./.^.!.!.H.H.H.C.C.v.v.v.v.c.c.x.x.x.x.x.x.x.x.x.x.z.z.z.z.z.z.z.z.z.z.q.q.z.q.z.z.q.q.z.z.z.z.z.z.z.x.x.x.x.x.x.x.x.x.x.x.x.x.x.x.x.x.x.x.x.x.x.x.x.v.v.v.v.v.v.v.v.v.v.v.v.v.v.v.v.v.v.N.N.N.v.v.v.v.v.v.v.v.v.v.v.v.v.v.v.C.V.V.C.;XSXLXPXDX$XC.v.v.v.C.x.N.v.v.v.v.x.x.v.v.x.x.x.x.x.x.x.x.x.x.x.x.x.x.x.x.x.x.z.z.z.z.z.z.z.z.z.z.z.q.z.z.q.q.q.q.q.q.q.q.q.q.q.",
"q.q.q.q.q.q.q.q.q.q.q.q.q.z.z.z.z.z.z.z.z.z.z.z.z.z.z.x.x.x.x.x.x.x.x.x.x.x.x.x.x.x.x.x.x.x.x.x.v.v.C.h.kXSXLXGXlXh.C.v.N.v.v.v.v.v.v.v.v.v.v.v.v.v.v.v.v.v.v.v.v.v.v.v.v.v.v.v.v.v.v.v.x.x.x.x.x.x.x.x.x.x.x.x.x.x.x.x.x.x.x.x.x.x.x.x.x.x.z.z.z.z.z.z.z.z.z.z.q.q.z.z.z.q.q.q.z.z.z.z.z.z.z.z.z.z.x.x.x.x.x.x.x.x.x.x.x.v.v.C.C.C.P.P.H.J.!.!._./.'.[.:XzX6X[.[.`./.(.H.H.C.v.x.x.x.x.z.z.q.q.q.q.q.q.w.0.-.{ { O.O.%.%.%.*.*.;.;.;.;.;.;.;.;.;.;.;.2.;.2.2.2.2.2.2.2.2.2.2.2.2.2.2.1.2.1.2.1.1.1.1.1.1.1.1.1.1.1.2.2.1.1.1.1.1.1.1.1.1.1.1.1.1.1.1.1.1.1.1.1.2.1.2.1.1.1.2.1.2.1.1.1.1.1.1.1.1.1.1.1.2.2.2.2.2.2.2.2.2.2.2.2.2.2.2.2.2.2.2.2.2.2.2.2.2.2.2.2.2.2.2.2.2.2.2.2.2.2.2.2.2.2.2.2.2.2.2.2.2.;.2.2.-.-.-.*.*.%.%.%.O.{ { *.r.e.q.0.0.q.w.q.q.q.z.x.z.x.v.C.C.H.!.^.'.].].3XbXdX X]./.^.^.!.!.H.H.H.C.C.C.v.v.x.x.x.x.x.x.x.x.x.x.x.x.x.z.z.z.z.z.z.z.z.z.z.q.q.q.q.z.z.q.q.z.z.z.z.z.z.z.x.x.x.x.x.x.x.x.x.x.x.x.x.x.x.x.x.x.x.x.x.x.x.x.x.v.v.v.v.v.v.v.v.v.v.v.v.v.v.v.v.v.N.N.N.v.v.v.v.v.v.v.v.v.v.v.v.v.v.v.C.C.C.V.;XSXLXPXDX$XC.v.v.v.C.x.N.v.v.v.x.x.x.x.v.x.x.x.x.x.x.x.x.x.x.x.x.x.x.x.x.x.x.z.z.z.z.z.z.z.z.z.z.z.z.z.z.q.q.q.q.q.q.q.q.q.q.q.",
"q.q.q.q.q.q.q.q.q.q.q.z.q.q.w.w.z.z.z.z.z.z.z.z.z.z.z.z.z.z.x.x.x.x.x.x.x.x.x.x.x.x.x.v.x.v.v.v.v.v.v.f.hXSXLXGXhXh.C.N.N.v.v.v.v.v.v.v.v.v.v.v.v.v.v.v.v.v.v.v.v.v.v.v.v.v.v.v.v.v.v.x.x.x.x.x.x.x.x.x.x.x.x.x.x.x.x.x.x.x.x.x.x.x.x.x.x.x.x.x.x.x.z.z.z.z.z.z.z.z.z.z.z.z.z.z.z.z.z.z.z.z.z.z.z.z.x.x.x.x.x.x.x.x.x.x.v.C.C.C.C.C.G.H.P.J.E.^././.'.).-XzX6X[.`.`.^.!.H.H.C.v.x.x.x.z.z.z.z.q.q.q.q.q.q.0.0.0.{ O.*.*.%.*.>.:.2.2.0.;.9.0.9.;.9.9.9.9.2.2.2.2.2.1.2.1.2.1.2.1.2.1.2.1.2.1.2.1.1.1.1.1.1.1.1.1.1.1.1.2.1.1.1.1.1.1.1.1.1.1.1.1.1.1.1.1.1.1.1.1.4.4.4.4.4.4.4.4.4.4.4.4.4.4.4.1.1.1.1.2.1.1.1.1.2.2.2.4.1.1.1.1.4.4.4.1.1.1.1.1.1.1.1.1.1.1.1.2.0.0.0.0.0.0.0.0.2.2.2.0.0.0.0.2.2.2.2.2.2.2.2.2.;.2.2.-.*.>.>.%.) %.2.0.0.0.0.0.q.q.q.q.q.z.z.x.x.v.v.C.G.H.~./.`.].].3XbXdX.X'././.^.!.!.H.H.C.G.C.C.v.v.v.x.x.x.x.x.x.x.x.x.x.x.x.z.z.z.z.z.z.z.z.z.z.z.z.z.z.z.z.z.z.z.z.z.z.z.z.z.z.x.x.x.x.x.x.x.x.x.x.x.x.x.x.x.x.x.x.x.x.x.x.x.x.v.v.x.x.v.v.v.v.v.v.v.v.v.v.v.v.v.v.v.v.v.v.v.v.v.v.v.v.v.v.v.v.N.N.N.C.C.C.v.=XSXLXIXGX*XV.v.v.v.v.v.v.v.v.v.v.v.x.x.x.x.x.x.x.x.x.x.x.x.x.x.x.x.z.z.z.z.z.z.z.z.z.z.z.z.z.z.z.q.q.q.q.q.q.q.q.q.q.q.q.q.q.q.",
"q.q.q.q.q.q.q.q.q.q.q.q.q.q.z.w.z.z.z.z.z.z.z.z.z.z.z.z.z.z.x.x.x.x.x.x.x.x.x.x.x.x.x.x.x.x.v.v.x.v.v.f.hXSXLXGXhXh.C.N.N.v.v.v.v.v.v.v.v.v.v.v.v.v.v.v.v.v.v.v.v.v.v.v.v.v.v.v.v.v.v.x.x.x.v.v.x.x.x.x.x.x.x.x.x.x.x.x.x.x.x.x.x.x.x.x.x.x.x.x.x.x.z.z.z.z.z.z.z.z.z.z.z.z.z.z.z.z.z.z.z.z.z.z.z.z.x.x.x.x.x.x.x.x.x.x.v.C.C.C.C.Z.C.H.G.J.E.^./././.).-XbX6X[.`.`.^.!.!.H.C.v.x.x.x.z.z.z.e.q.q.q.q.q.q.q.0.0.2.-.O.+.*.:.>.-.2.0.0.0.0.r.r.9.9.9.2.0.2.2.2.2.2.1.1.2.2.2.4.4.4.4.4.4.4.4.4.4.0.0.0.0.4.4.4.4.2.2.2.2.2.2.2.2.4.4.4.4.4.4.4.4.4.4.4.4.4.4.4.4.4.1.1.1.1.2.4.4.4.4.4.4.4.4.4.4.0.0.0.0.4.0.0.0.2.2.2.4.4.2.2.2.4.4.4.4.2.4.2.4.2.4.4.4.2.2.2.2.0.0.0.0.0.0.0.0.2.2.2.2.0.2.2.2.5.5.5.2.2.2.2.0.;.2.2.-.*.O.{ { *.2.0.q.0.0.0.0.q.q.q.q.q.z.z.x.x.v.v.C.C.H.~././.].].3XzXdX X_././.!.!.!.H.H.Z.G.C.C.v.v.v.v.v.x.x.x.x.x.x.x.x.x.x.z.z.z.z.z.z.z.z.z.z.z.z.z.z.z.z.z.z.z.z.z.z.z.z.z.z.x.x.x.x.x.x.x.x.x.x.x.x.x.x.x.x.x.x.x.x.x.x.x.x.v.v.x.x.v.v.v.v.v.v.v.v.v.v.v.v.v.v.v.v.v.v.v.v.v.v.v.v.N.v.v.v.N.N.N.C.C.v.v.=XSXLXIXGX*XV.v.v.v.v.x.v.v.v.v.v.x.x.x.x.x.x.x.x.x.x.x.x.x.x.x.x.x.z.z.z.z.z.z.z.z.z.z.z.z.z.z.z.q.q.q.q.q.q.q.q.q.q.q.q.q.q.q.",
"q.q.q.q.q.q.q.q.q.q.q.q.q.q.w.w.q.q.z.z.z.z.z.z.z.z.z.z.z.z.x.x.x.x.x.x.x.x.x.x.x.x.x.x.x.x.x.x.x.v.v.f.hXSXLXGXhXh.C.N.N.v.v.v.v.v.v.v.v.v.v.v.v.v.v.v.v.v.v.v.v.v.v.v.v.v.v.v.v.v.v.x.v.v.v.v.x.x.x.x.x.x.x.x.x.x.x.x.x.x.x.x.x.x.x.x.x.x.x.x.x.x.z.z.z.z.z.z.z.z.z.z.z.z.z.z.z.z.z.z.z.z.z.z.z.z.x.x.x.x.x.x.x.x.x.x.v.v.C.C.C.Z.Z.H.G.J.E.^.^./.'.).-XbX6X[.`.'.^.!.!.H.C.v.x.x.x.z.z.z.z.q.q.q.z.q.q.q.q.q.w.2.-.O.O.*.:.;.;.2.2.2.2.0.0.2.2.2.2.2.4.4.4.4.4.4.4.4.0.0.0.0.0.0.0.0.0.0.0.0.q.q.q.q.q.q.q.q.q.q.q.q.q.q.q.q.q.q.q.q.q.0.0.0.0.0.0.0.0.0.0.0.q.0.0.0.0.0.q.q.0.0.0.0.0.0.0.0.0.q.0.q.q.q.q.q.0.0.q.q.q.q.0.0.0.0.q.0.q.0.0.0.q.q.q.q.q.q.q.q.0.0.0.0.0.0.4.4.0.0.0.2.2.2.2.2.4.4.2.2.4.2.0.0.2.2.2.;.*.O.O.*.2.0.q.w.q.0.0.0.q.q.q.q.z.z.z.x.x.v.v.C.C.H.~././.].'.3XbXdX X'././.!.!.!.H.H.Z.G.C.C.v.v.v.v.v.x.x.x.x.x.x.x.x.x.x.z.z.z.z.z.z.z.z.z.z.z.z.z.z.z.z.z.z.z.z.z.z.z.z.z.z.x.x.x.x.x.x.x.x.x.x.x.x.x.x.x.x.x.x.x.x.x.x.x.x.v.x.x.x.v.v.v.v.v.v.v.v.v.v.v.v.v.v.v.v.v.v.v.v.v.v.v.v.N.N.v.v.N.N.N.C.C.v.v.=XSXLXIXGX*XV.v.v.v.v.x.v.v.v.v.x.v.v.x.x.x.x.x.x.x.x.x.x.x.x.x.x.x.z.z.z.z.z.z.z.z.z.z.z.z.z.z.z.z.q.q.q.q.q.q.q.q.q.q.q.q.q.q.",
"q.q.q.q.q.q.q.q.q.q.q.q.z.q.w.w.q.q.q.z.z.z.z.z.z.z.z.z.z.z.x.x.x.x.x.x.x.x.x.x.x.x.x.x.x.x.x.x.v.v.v.f.hXSXLXGXhXh.C.v.N.v.v.v.v.v.v.v.v.v.v.v.v.v.v.v.v.v.v.v.v.v.v.v.v.v.v.v.v.v.v.x.v.v.v.v.x.x.x.x.x.x.x.x.x.x.x.x.x.x.x.x.x.x.x.x.x.x.x.x.x.x.z.z.z.z.z.z.z.z.z.z.z.z.z.z.z.z.z.z.z.z.z.z.z.z.x.x.x.x.x.x.x.x.x.x.v.v.C.C.C.Z.Z.H.G.J.E.E.^././.).-XzX6X`.`.'./.!.!.H.C.C.v.x.x.x.z.z.z.z.z.q.z.z.z.z.q.q.q.w.q.2.O.' *.2.;.2.4.4.4.4.4.4.4.4.4.4.4.4.4.4.4.4.q.q.q.q.q.z.q.q.q.q.q.q.q.q.q.q.q.0.0.0.0.0.q.q.w.w.q.q.0.0.q.0.q.0.q.0.0.0.0.0.0.0.0.0.0.0.q.q.q.0.q.0.q.q.0.0.0.0.0.0.0.0.0.0.0.0.0.0.0.0.0.0.q.q.q.q.0.q.0.0.0.q.q.q.q.q.q.q.q.q.q.q.q.q.e.4.4.4.4.4.4.4.q.q.4.4.4.4.4.4.4.4.4.4.0.0.0.4.0.0.2.;.*.%.-.2.0.q.w.w.q.0.0.q.q.q.q.q.z.z.z.x.v.v.v.C.C.H.~././.[.'.3XbXdX X/././.!.!.H.H.H.H.G.C.C.v.v.v.v.v.x.x.x.x.x.x.x.x.x.x.z.z.z.z.z.z.z.z.z.z.z.z.z.z.z.z.z.z.z.z.z.z.z.z.z.z.x.x.x.x.x.x.x.x.x.x.x.x.x.x.x.x.x.x.x.x.x.x.x.x.v.v.x.x.v.v.v.v.v.v.v.v.v.v.v.v.v.v.v.v.v.v.v.v.v.v.v.v.v.v.v.v.v.v.v.v.C.v.v.=XSXLXIXGX*XV.v.v.v.v.x.v.v.v.v.x.v.x.x.x.x.x.x.x.x.x.x.x.x.x.x.x.x.z.z.z.z.z.z.z.z.z.z.z.z.z.z.z.z.q.q.q.q.q.q.q.q.q.q.q.q.q.q.",
"q.q.q.q.q.q.q.q.q.q.q.q.z.q.z.z.q.q.z.z.z.z.z.z.z.z.z.z.z.z.x.x.x.x.x.x.x.x.x.x.x.x.x.x.x.x.x.x.v.v.v.f.hXSXLXGXhXh.C.v.N.v.v.v.v.v.v.v.v.v.v.v.v.v.v.v.v.v.v.v.v.v.v.v.v.v.v.v.v.v.v.v.v.x.x.x.x.x.x.x.x.x.x.x.x.x.x.x.x.x.x.x.x.x.x.x.x.x.x.x.x.x.z.z.z.z.z.z.z.z.z.z.z.z.z.z.z.z.z.z.z.z.z.z.z.z.x.x.x.x.x.x.x.x.x.x.v.v.C.C.C.C.C.H.P.J.E.^.^.~./.).-XzX6X[.`./.^.!.!.H.C.C.v.x.x.x.x.z.z.z.z.z.z.z.q.q.q.q.0.z.M.q.2.%.%.-.2.0.z.a.a.a.a.a.a.a.a.a.a.a.a.a.z.z.z.z.z.z.z.z.z.z.z.z.z.z.z.z.z.z.z.z.a.a.a.a.a.a.a.a.4.4.4.4.a.4.4.4.a.a.4.4.4.4.4.4.4.4.4.4.4.4.4.4.4.4.4.4.4.4.4.4.4.4.4.4.4.4.a.a.4.4.4.a.a.a.a.a.a.a.z.z.a.a.a.a.a.a.z.z.a.a.z.z.z.z.z.z.z.z.b.d.d.a.a.a.z.z.a.a.a.a.a.a.z.z.z.z.z.z.q.q.q.2.;.-.-.;.0.e.q.w.w.q.q.q.q.q.q.q.q.z.z.z.M.x.v.v.v.C.Z.H.~././.[.'. XzXdX X/./.^.!.!.H.H.H.H.G.G.G.v.v.v.v.v.x.x.x.x.x.x.x.x.x.x.z.z.z.z.z.z.z.z.z.z.z.z.z.z.z.z.z.z.z.z.z.z.z.z.z.z.x.x.x.x.x.x.x.x.x.x.x.x.x.x.x.x.x.x.x.x.x.x.x.x.x.x.x.x.v.v.v.v.v.v.v.v.v.v.v.v.v.v.v.v.v.v.v.v.v.v.v.v.v.v.v.v.v.v.v.v.C.v.v.=XSXLXIXGX*XV.v.v.v.v.x.B.v.x.x.x.x.x.x.x.x.x.x.x.x.x.x.x.x.x.x.x.x.z.z.z.z.z.z.z.z.z.z.z.z.z.z.z.z.z.z.z.q.q.q.q.q.q.q.q.q.q.q.",
"q.q.0.q.q.q.q.q.q.q.q.q.z.z.z.z.q.q.z.z.z.z.z.z.z.z.z.z.z.z.x.x.x.x.x.x.x.x.x.x.x.x.x.x.x.x.x.x.v.v.v.f.hXSXLXGXhXh.C.v.N.v.v.v.v.v.v.v.v.v.v.v.v.v.v.v.v.v.v.v.v.v.v.v.v.v.v.v.v.v.v.v.v.v.x.x.x.x.x.x.x.x.x.x.x.x.x.x.x.x.x.x.x.x.x.x.x.x.x.x.x.x.z.z.z.z.z.z.z.z.z.z.z.z.z.z.z.z.z.z.z.z.z.z.z.z.x.x.x.x.x.x.x.x.x.x.v.v.C.C.C.C.C.H.G.J.E.^.^.~./.).-XzX6X`.`./.^.!.!.H.C.C.v.x.x.x.x.x.z.z.z.z.z.z.z.z.z.q.q.q.q.q.w.0.2.%.0.q.M.z.z.z.c.s.c.c.c.c.c.x.x.x.x.x.c.c.x.c.c.c.c.c.c.c.c.x.x.c.c.c.c.c.c.c.z.z.z.z.z.z.z.a.a.d.z.z.z.z.z.z.z.z.a.a.a.a.z.z.z.z.a.a.a.a.a.a.a.a.a.a.a.a.z.z.z.a.z.z.d.z.d.d.d.d.z.a.z.z.z.z.z.z.a.a.c.c.c.c.c.c.c.c.c.c.c.c.c.c.x.m.m.x.x.c.c.c.x.c.c.c.c.c.c.c.c.c.c.c.c.c.z.z.z.1.-.;.2.0.q.M.w.q.q.q.q.q.q.q.q.q.q.z.z.z.M.x.v.v.C.C.Z.H.~././.[.`..XzXdX X/./.^.!.!.H.H.H.H.G.G.G.v.v.v.v.v.x.x.x.x.x.x.x.x.x.x.z.z.z.z.z.z.z.z.z.z.z.z.z.z.z.z.z.z.z.z.z.z.z.z.z.z.x.x.x.x.x.x.x.x.x.x.x.x.x.x.x.x.x.x.x.x.x.x.x.x.x.x.x.x.v.v.v.v.v.v.v.v.v.v.v.v.v.v.v.v.v.v.v.v.v.v.v.v.v.v.v.v.v.v.v.v.C.C.v.=XSXLXIXGX*XV.v.v.v.v.x.B.v.x.x.x.x.x.x.x.x.x.x.x.x.x.x.x.x.x.z.z.x.z.z.z.z.z.z.z.z.z.z.z.z.z.z.z.z.z.z.z.q.q.q.q.q.q.q.q.q.q.q.",
"0.0.0.q.q.q.q.q.q.q.q.q.z.z.z.z.z.z.z.z.z.z.z.z.z.z.z.z.z.z.x.x.x.x.x.x.x.x.x.x.x.x.x.x.x.v.v.x.x.v.v.f.hXSXLXGXhXh.C.v.v.v.v.v.v.v.v.v.v.v.v.v.v.v.v.v.v.v.v.v.v.v.v.v.v.v.v.v.v.v.v.v.x.x.x.x.x.x.x.x.x.x.x.x.x.x.x.x.x.x.x.x.x.x.x.x.x.x.x.x.x.x.z.z.z.z.z.z.z.z.z.z.z.z.z.z.z.z.z.z.z.z.z.z.z.z.x.x.x.x.x.x.x.x.x.x.v.v.C.C.C.C.C.H.P.H.E.^.^.~./.).-XzX6X`.`./.^.!.!.H.C.C.C.v.x.x.x.x.z.z.z.z.z.z.z.z.z.z.z.q.q.z.x.M.0.2.0.w.B.B.B.N.N.v.G.G.G.N.N.N.N.N.G.C.C.C.C.C.C.V.V.V.V.V.V.C.c.m.v.v.v.v.x.x.x.x.v.x.v.x.x.x.x.x.M.M.M.M.M.M.z.z.z.z.z.z.w.w.w.z.M.M.M.M.M.M.M.M.w.w.w.w.w.w.w.z.z.z.x.x.z.z.x.x.z.z.x.x.x.x.x.x.x.x.x.x.x.x.x.x.v.v.v.v.v.v.N.N.K.K.K.K.K.K.K.K.K.G.G.G.P.P.P.G.C.V.V.V.V.V.V.m.n.4.1.4.q.q.w.w.w.w.q.q.q.w.z.z.q.q.z.z.z.x.x.x.v.v.C.C.Z.H.~././.].`. XbXdX X/./.^.!.!.H.H.H.H.G.C.G.v.v.v.v.v.x.x.x.x.x.x.x.x.x.x.z.z.z.z.z.z.z.z.z.z.z.z.z.z.z.z.z.z.z.z.z.z.z.z.z.z.x.x.x.x.x.x.x.x.x.x.x.x.x.x.x.x.x.x.x.x.x.x.x.x.x.x.x.x.v.v.v.v.v.v.v.v.v.v.v.v.v.v.v.v.v.v.v.v.v.v.v.v.v.v.v.v.v.v.v.v.C.C.v.=XSXLXIXGX*XV.v.v.v.v.x.v.v.x.x.x.x.x.x.x.x.x.x.x.x.x.x.x.x.x.z.z.x.z.z.z.z.z.z.z.z.z.z.z.z.z.z.z.q.q.q.q.q.q.q.q.q.q.q.q.q.q.q.",
"0.0.0.q.q.q.q.q.q.q.q.q.z.z.z.z.z.z.z.z.z.z.z.z.z.z.z.z.z.z.x.x.x.x.x.x.x.x.x.x.x.x.x.x.v.v.v.v.B.v.v.f.hXSXLXGXhXh.C.v.v.v.v.v.v.v.v.v.v.v.v.v.v.v.v.v.v.v.v.v.v.v.v.v.v.v.v.v.v.v.v.x.x.x.x.x.x.x.x.x.x.x.x.x.x.x.x.x.x.x.x.x.x.x.x.x.x.x.x.x.x.x.z.z.z.z.z.z.z.z.z.z.z.z.z.z.z.z.z.z.z.z.z.z.z.z.x.x.x.x.x.x.x.x.x.x.v.v.C.C.C.C.C.G.P.H.E.^.^.~./.).-XzX6X`.`./.^.!.!.H.C.C.C.v.x.x.x.x.z.z.z.z.z.z.z.z.z.z.z.z.x.x.z.z.z.z.w.B.K.K.K.P.!.!.J.J.J.J.P.P.P.P.H.Z.Z.Z.Z.Z.F.F.D.D.D.F.S.S.V.V.v.v.v.v.x.c.c.c.c.c.x.x.z.z.z.z.x.z.z.z.z.z.z.z.z.z.z.z.z.z.z.z.q.q.q.q.q.z.q.q.z.z.z.z.z.z.z.z.z.z.z.z.z.z.z.z.x.x.x.c.c.c.c.c.x.c.m.m.m.V.m.V.C.V.C.V.C.S.C.K.K.K.K.K.K.L.L.L.L.L.L.L.L.L.L.J.(.!.(.W.W.W.W.T.Y.s.4.z.m.M.z.q.M.M.w.w.w.z.z.z.q.z.z.z.z.x.x.x.v.v.C.C.Z.H.~././.[.`. XbXdX|././.^.!.!.H.H.H.H.G.C.G.v.v.v.v.v.x.x.x.x.x.x.x.x.x.x.z.z.z.z.z.z.z.z.z.z.z.z.z.z.z.z.z.z.z.z.z.z.z.z.z.z.x.x.x.x.x.x.x.x.x.x.x.x.x.x.x.x.x.x.x.x.x.x.x.x.x.x.v.v.v.v.v.v.v.v.v.v.v.v.v.v.v.v.v.v.v.v.v.v.v.v.v.v.v.v.v.v.v.v.v.v.C.C.v.=XSXLXIXGX*XV.v.v.v.v.x.v.v.x.x.x.x.x.x.x.x.x.x.x.x.x.x.x.x.x.x.x.x.z.z.z.z.z.z.z.z.z.z.z.z.z.z.z.q.q.q.q.q.q.q.q.q.q.q.q.q.q.q.",
"q.q.q.q.q.q.q.q.q.q.q.q.q.z.q.q.q.q.q.q.z.z.z.z.z.z.z.z.z.x.x.x.x.x.x.x.x.x.x.x.x.x.x.x.x.x.x.v.x.v.v.f.hXDXLXGXhXh.C.N.N.v.x.x.v.v.v.v.v.v.v.v.v.v.v.v.v.v.v.v.v.v.v.v.x.x.x.x.x.x.v.v.x.x.x.x.x.x.x.x.x.x.x.x.x.x.x.x.x.x.x.x.x.x.x.x.x.x.x.x.x.x.z.z.z.z.z.z.z.z.z.z.z.z.z.z.z.z.z.z.z.z.x.x.x.x.x.x.x.x.x.x.x.x.v.v.C.C.C.C.C.C.C.G.P.H.E.E.!.~./.).-XbX&X^.`./.^.!.!.H.C.C.C.v.v.x.x.x.x.x.z.z.z.z.z.z.z.z.x.x.x.x.x.x.v.S.h.&X8X9X9X6X7X6X6X6X6X6X6X6X&X&X&X&X&X&X X X&X&X&X&X&X&X&X&X&X&X&X&X X X X&X%X&X|.|.|.|.|.|.|.|.|.%X%X|.|.|.|.|.{.{.T.T.{.{.{.{.T.T.T.T.T.{.{.T.T.T.T.T.{.{.{.{.{.{.{.{.{.{.{.{.|.{.|.{.|.|.|.{.|.|.|.|.|.|. X X&X&X X&X&X&X&X&X&X&X&X&X&X6X6X6X6X6X6X6X6X6X6X6X X6X6X6X6X9X8X8X&XY.n.c.c.c.x.x.x.x.M.z.z.z.z.z.z.z.z.z.x.x.v.v.v.v.C.G.Z.H.~././.`.`. XbXaX|._./.^.!.!.H.H.H.Z.C.C.G.C.v.v.v.v.x.x.x.x.x.x.x.x.x.x.x.x.x.z.z.z.z.z.z.z.z.z.z.z.z.z.z.z.z.z.z.z.z.z.z.x.x.x.x.x.x.x.x.x.x.x.x.x.x.x.x.x.x.x.x.x.x.x.x.x.v.v.v.v.v.v.v.v.v.v.v.v.v.v.v.v.v.v.v.v.v.v.v.v.v.v.v.v.v.v.v.v.v.v.v.v.v.C.x.*XSXLXPXGX=Xc.v.v.c.v.x.x.v.x.x.x.x.x.x.x.x.x.x.x.x.x.x.x.x.x.z.x.x.z.z.z.z.z.z.z.z.z.z.z.z.z.z.z.z.z.q.q.q.q.q.q.q.q.q.q.q.q.q.",
"q.q.q.q.q.q.q.q.q.q.q.q.q.z.q.q.q.q.q.q.z.z.z.z.z.z.z.z.z.z.x.x.x.x.x.x.x.x.x.x.x.x.x.x.x.x.x.x.x.v.v.f.hXDXLXGXhXh.C.N.N.v.x.x.v.v.v.v.v.v.v.v.v.v.v.v.v.v.v.v.v.v.v.v.x.x.x.x.x.x.v.v.x.x.x.x.x.x.x.x.x.x.x.x.x.x.x.x.x.x.x.x.x.x.x.x.x.x.x.x.x.x.z.z.z.z.z.z.z.z.z.z.z.z.z.z.z.z.z.z.z.z.x.x.x.x.x.x.x.x.x.x.x.x.v.v.C.C.C.C.C.C.C.G.P.H.E.E.!.~./.).-XbX X^.`./.!.!.!.H.C.C.C.v.v.x.x.x.x.z.z.z.z.z.z.z.z.z.x.x.x.x.v.v.v.D.&XpX9X:X6X6X7X6X6X6X6X6X6X6X6X6X&X&X&X&X&X&X&X&X&X&X&X&X&X&X&X&X&X&X&X&X&X&X&X&X&X&X&X&X&X&X&X&X&X&X&X&X&X&X&X&X&X&X;X&X&X&X&X&X;X;X;X;X;X;X;X;X;X;X;X;X;X;X;X;X;X;X;X;X;X;X;X;X&X&X&X&X&X&X&X&X&X&X&X&X&X&X&X&X&X&X&X8X8X8X8X6X6X6X6X6X6X6X6X6X6X6X7X7X9X7X7X7X9X9X9X9X9X9X6X8XpX&XW.D.V.c.c.x.x.x.M.z.z.z.z.z.z.z.z.z.x.x.v.v.v.v.C.G.Z.H.~././.`.`. XbXdX|._./.^.!.!.H.H.H.Z.C.C.G.C.v.v.v.v.x.x.x.x.x.x.x.x.x.x.x.x.x.z.z.z.z.z.z.z.z.z.z.z.z.z.z.z.z.z.z.z.z.z.z.x.x.x.x.x.x.x.x.x.x.x.x.x.x.x.x.x.x.x.x.x.x.x.x.x.v.v.v.v.v.v.v.v.v.v.v.v.v.v.v.v.v.v.v.v.v.v.v.v.v.v.v.v.v.v.v.v.v.v.v.v.v.C.x.*XSXLXPXGX=Xc.v.v.c.v.v.x.v.x.x.x.x.x.x.x.x.x.x.x.x.x.x.x.x.x.z.z.x.z.z.z.z.z.z.z.z.z.z.z.z.z.z.z.z.z.q.q.q.q.q.q.q.q.q.q.q.q.q.",
"q.q.q.q.q.q.q.q.q.q.q.q.q.q.q.q.q.q.q.q.z.z.z.z.z.z.z.z.z.z.z.z.x.z.x.x.x.x.x.x.x.x.x.x.v.v.x.x.x.v.v.f.hXDXLXGXhXh.C.v.N.v.x.v.v.v.v.v.v.v.v.v.v.v.v.v.v.v.v.v.v.v.v.v.v.v.x.x.x.v.v.v.x.x.x.x.x.x.x.x.x.x.x.x.x.x.x.x.x.x.x.x.x.x.x.x.x.x.x.x.x.x.z.z.z.z.z.z.z.z.z.z.z.z.z.z.z.z.z.z.z.z.x.x.x.x.x.x.x.x.x.x.x.x.v.v.v.v.C.C.C.C.C.P.P.P.E.E.!.~./.).-XbX&X^.`./.!.!.!.H.H.C.C.v.x.x.x.x.x.x.z.z.z.z.z.z.x.x.x.c.x.v.v.v.G.L. XpX&Xl.p.h.F.F.W.W.W.(.(.}.}.}.}.(.}.}.(.(.(.(.D.D.S.S.A.A.A.A.c.c.c.c.c.c.c.c.c.s.c.c.c.s.a.a.d.d.d.d.d.d.d.a.4.4.4.4.a.a.a.a.a.a.a.a.a.a.a.a.p.a.a.a.a.a.a.a.a.a.a.a.a.a.a.a.c.s.c.c.c.c.c.n.n.c.n.n.n.A.V.V.S.A.S.S.S.S.S.F.D.W.W.W.W.W.W.W.(.).).).).).W.W.W.W.F.F.h.h.l.h.gX6X{.D.V.c.c.c.x.x.x.z.z.z.z.z.z.z.z.z.x.x.v.v.v.C.C.G.Z.H.~././.`.`..XbXaX|._./.^.!.!.H.H.H.Z.C.C.G.C.v.v.v.v.x.x.x.x.x.x.x.x.x.x.x.x.x.z.z.z.z.z.z.z.z.z.z.z.z.z.z.z.z.z.z.z.z.z.z.x.x.x.x.x.x.x.x.x.x.x.x.x.x.x.x.x.x.x.x.x.x.x.x.x.x.v.x.x.x.x.v.v.v.v.v.v.v.v.v.v.v.v.v.v.v.v.v.v.v.v.v.v.v.v.v.v.v.v.v.v.v.C.x.*XSXLXPXGX=Xc.v.v.c.v.v.x.v.x.x.x.x.x.x.x.x.x.x.x.x.x.x.x.x.x.x.z.x.z.z.z.z.z.z.z.z.z.z.z.z.z.z.z.z.z.q.q.q.q.q.q.q.q.q.q.q.q.q.",
"q.q.q.q.q.q.q.q.q.q.q.q.q.q.q.q.z.q.q.q.z.z.z.z.z.z.z.z.z.z.z.z.x.z.z.x.x.x.x.x.x.x.x.x.x.v.x.x.x.v.v.f.hXDXLXGXhXh.C.v.v.v.x.v.x.x.x.x.x.x.x.x.x.x.x.x.x.x.x.x.v.v.v.v.v.v.x.x.x.x.v.v.x.x.x.x.x.x.x.x.x.x.x.x.x.x.x.x.x.x.x.x.x.x.x.x.x.x.x.x.x.x.z.z.z.z.z.z.z.z.z.z.z.z.z.z.z.z.z.z.z.z.x.x.x.x.x.x.x.x.x.x.x.x.v.v.v.v.C.C.C.C.C.G.P.P.E.E.!.~./.).-XbX&X^././.!.!.!.H.C.C.C.v.x.x.x.x.x.x.z.z.z.z.z.z.z.x.x.c.x.v.C.G.G.L. XgX8Xh.p.p.3.z.a.a.z.x.c.v.m.c.A.F.S.F.S.F.S.F.D.D.S.D.S.D.D.S.S.S.S.S.m.m.m.m.m.c.x.x.c.c.m.m.M.M.M.b.M.M.M.x.b.b.b.b.z.z.z.z.z.z.z.z.z.z.z.z.z.z.z.z.z.z.z.z.z.z.z.z.c.c.c.c.c.c.c.c.c.c.m.m.m.m.m.A.A.S.S.S.S.K.K.K.K.K.K.K.K.Z.H.H.K.K.K.L.K.D.K.Z.C.C.V.C.c.c.s.p.p.<.h. XgX6XW.F.V.c.c.c.x.x.x.z.z.z.z.z.z.z.z.z.x.M.v.v.v.C.C.G.Z.Z.~././.^.`..XbXaX|._.~.!.!.!.H.H.H.Z.C.C.G.C.v.v.v.v.x.x.x.x.x.x.x.x.x.x.x.x.x.z.z.z.z.z.z.z.z.z.z.z.z.z.z.z.z.z.z.z.z.z.z.x.x.x.x.x.x.x.x.x.x.x.x.x.x.x.x.x.x.x.x.x.x.x.x.x.v.x.x.x.x.x.v.v.v.v.v.v.v.v.v.v.v.v.v.v.v.v.v.v.v.v.v.v.v.v.v.v.v.v.v.v.v.C.x.*XSXLXPXGX=Xc.v.v.c.v.v.x.v.x.x.x.x.x.x.x.x.x.x.x.x.x.x.x.x.x.x.z.x.z.z.z.z.z.z.z.z.z.z.z.z.z.q.q.z.z.q.q.q.q.q.q.q.q.q.q.q.q.q.",
"q.q.q.q.q.q.q.q.q.q.q.q.q.q.q.q.z.z.z.z.z.z.z.z.z.z.z.z.z.z.z.z.x.x.x.x.x.x.x.x.x.x.x.x.x.x.x.x.x.v.v.f.hXDXLXGXhXh.C.x.v.x.x.x.x.x.x.x.x.x.x.v.v.v.v.x.x.v.v.v.v.v.v.x.v.v.v.x.x.x.x.x.x.x.x.x.x.x.x.x.x.x.x.x.x.x.x.x.x.x.x.x.x.x.x.x.x.x.x.x.x.x.z.z.z.z.z.z.z.z.z.z.z.z.z.z.z.z.z.z.z.z.x.x.x.x.x.x.x.x.x.x.x.x.x.x.v.v.C.C.C.C.C.G.P.P.E.E.!.~.~.).-XbX&X^./.^.!.!.!.H.G.C.C.v.v.x.x.x.x.x.z.z.z.z.z.z.z.x.x.x.c.v.C.C.H.(.).gX8XF.s.,...-.2.2.0.q.q.z.z.z.c.c.c.c.c.c.c.n.z.z.z.z.z.c.z.a.c.c.c.c.c.c.c.c.z.z.z.z.d.z.d.d.d.d.d.d.d.d.d.a.d.d.d.d.d.d.d.d.d.d.d.d.d.d.d.d.d.d.d.d.d.d.d.d.z.z.d.d.z.z.z.z.z.c.c.c.c.c.c.c.c.c.n.c.c.c.c.c.c.c.n.c.c.c.c.c.c.c.c.c.x.c.x.c.z.z.z.a.4.4.4.4.1.1.,.<.<.p.h.6XgX6X).W.V.c.c.c.x.x.x.x.x.x.z.x.x.x.x.x.x.x.v.v.v.C.C.C.Z.Z.~.~./.^./. XbXaX{._.~.!.!.!.H.H.H.Z.G.G.G.G.v.v.v.v.x.x.x.x.x.x.x.x.x.x.x.x.x.z.z.z.z.z.z.z.z.z.z.z.z.z.z.z.z.z.z.z.z.z.z.x.x.x.x.x.x.x.x.x.x.x.x.x.x.x.x.x.x.x.x.x.x.x.x.x.x.x.x.x.x.x.v.v.v.v.v.v.v.v.v.v.v.v.v.v.v.v.v.v.v.v.v.v.v.v.v.v.v.v.v.v.v.C.x.=XSXLXPXGX=Xc.v.v.c.v.v.x.v.x.x.x.x.x.x.x.x.x.x.x.x.x.x.x.x.x.x.x.x.z.z.z.z.z.z.z.z.z.z.z.z.z.q.q.q.q.q.q.q.q.q.q.q.q.q.q.q.q.q.",
"q.q.q.q.q.q.q.q.q.q.q.q.q.q.q.q.z.z.z.z.z.z.z.z.z.z.z.z.z.z.z.z.x.x.x.x.x.x.x.x.x.x.x.x.x.x.x.x.x.v.v.f.hXDXLXGXhXh.C.x.v.v.x.x.x.x.x.x.x.x.v.v.v.v.v.x.x.x.x.v.v.v.v.x.v.v.v.x.x.v.x.x.x.x.x.x.x.x.x.x.x.x.x.x.x.x.x.x.x.x.x.x.x.x.x.x.x.x.x.x.x.x.z.z.z.z.z.z.z.z.z.z.z.z.z.z.z.z.z.z.z.z.x.x.x.x.x.x.x.x.x.x.x.x.x.x.v.v.C.C.C.C.G.G.P.P.E.E.!.~.~.).-XbX&X^./.^.!.!.!.H.H.C.G.C.v.x.x.x.x.x.x.x.M.z.x.x.x.x.x.x.c.v.v.C.H.(. XqX6X).L.z.2.;.-.-.-.;.2.1.1.3.4.4.4.4.4.4.4.4.z.z.z.z.z.z.z.z.z.z.z.a.a.a.a.a.z.a.z.z.a.z.z.z.a.a.a.a.4.a.4.a.4.4.4.4.4.4.4.4.4.4.4.4.4.4.4.4.4.4.4.4.4.4.4.4.4.4.4.4.4.4.4.a.a.a.z.z.z.z.z.z.a.a.a.a.a.z.z.z.a.a.a.a.a.a.a.z.x.z.z.z.z.z.z.z.q.e.q.0.4.1.1.1.;.*...1.a.s.W. XgX6X).(.Z.C.v.c.x.x.x.x.x.x.x.x.x.x.x.x.x.x.v.v.C.C.C.C.Z.Z.!.~.^.^.^..XbXaX}._.!.!.!.!.H.H.H.Z.C.G.G.G.v.v.v.v.x.x.x.x.x.x.x.x.x.x.x.x.x.z.z.z.z.z.z.z.z.z.z.z.z.z.z.z.z.z.z.z.z.z.z.x.x.x.x.x.x.x.x.x.x.x.x.x.x.x.x.x.x.x.x.x.x.x.x.x.v.v.v.x.x.x.v.v.v.v.v.v.v.v.v.v.v.v.v.v.v.v.v.v.v.v.v.v.v.v.v.v.v.v.v.v.v.C.x.=XSXLXPXGX=Xc.v.v.c.v.v.x.v.x.x.x.x.x.x.x.x.x.x.x.x.x.x.x.x.x.x.x.x.z.z.z.z.z.z.z.z.z.z.z.z.z.q.q.q.q.q.q.q.q.q.q.q.q.q.q.q.q.q.",
"q.q.q.q.q.q.q.q.q.q.q.q.q.z.q.q.q.q.z.z.z.z.z.z.z.z.z.z.z.z.z.z.x.x.x.x.x.x.x.x.x.x.x.x.x.x.x.x.x.v.v.f.hXDXLXGXhXh.C.v.v.x.x.x.x.x.x.x.v.v.v.v.v.v.x.x.x.x.x.v.v.v.v.x.v.v.v.v.x.x.v.x.x.x.x.x.x.x.x.x.x.x.x.x.x.x.x.x.x.x.x.x.x.x.x.x.x.x.x.x.x.x.z.z.z.z.z.z.z.z.z.z.z.z.z.z.z.z.z.z.z.z.x.x.x.x.x.x.x.x.x.x.x.x.x.x.v.C.C.C.C.C.G.G.P.P.E.E.!.~.~.).-XxX&X^.^.^.!.!.H.H.H.G.G.C.v.x.x.x.x.x.x.M.z.z.x.x.x.x.x.x.c.v.C.C.H.(. X9X6XW.A.z.q.;.;.;.;.-.-.1.1.1.1.2.4.0.0.0.q.q.4.4.0.4.4.4.0.0.q.q.q.q.q.q.q.q.0.0.0.q.q.q.q.q.0.0.0.4.0.0.0.4.e.e.e.e.q.e.q.q.q.q.q.q.q.q.q.q.0.q.0.q.q.q.q.q.q.q.w.w.q.q.q.q.0.0.0.0.0.0.0.0.0.0.0.0.0.0.0.0.q.q.q.q.q.q.q.q.4.4.4.4.2.2.2.1.2.2.2.2.-.-.*.*.:.9.2.q.m.V.W. XqX3X^.!.Z.C.C.v.x.x.x.x.x.x.x.x.x.x.x.x.x.x.v.v.v.C.C.C.Z.Z.!.~.^.^.^..XbXdX|._.!.!.!.!.H.H.H.C.C.C.G.G.v.v.v.v.x.x.x.x.x.x.x.x.x.x.x.x.x.z.z.z.z.z.z.z.z.z.z.z.z.z.z.z.z.z.z.z.z.z.z.x.x.x.x.x.x.x.x.x.x.x.x.x.x.x.x.x.x.x.x.x.x.x.x.x.v.v.x.x.x.v.v.v.v.v.v.v.v.v.v.v.v.v.v.v.v.v.v.v.v.v.v.v.v.v.v.v.v.v.v.v.v.C.x.*XSXLXPXGX=Xc.v.v.c.v.v.x.v.x.x.x.x.x.x.x.x.x.x.x.x.x.x.x.x.x.x.x.x.z.z.z.z.z.z.z.z.z.z.z.z.z.z.z.q.q.q.q.q.q.q.q.q.q.q.q.q.q.q.",
"q.q.q.q.q.q.q.q.q.q.q.q.q.z.q.q.q.q.q.z.q.z.z.z.z.z.z.z.z.z.z.z.x.x.x.x.x.x.x.x.x.x.x.x.x.x.x.x.x.v.v.f.hXDXLXGXsXh.V.v.v.v.x.v.x.x.x.x.x.x.x.x.x.x.x.x.x.x.x.x.v.v.v.x.v.v.v.x.x.x.v.v.x.x.x.x.x.x.x.x.x.x.x.x.x.x.x.x.x.x.x.x.x.x.x.x.x.x.x.x.x.x.z.z.z.z.z.z.z.z.z.z.z.z.z.z.z.z.z.z.z.z.x.x.x.x.x.x.x.x.x.x.x.x.x.x.v.C.C.C.C.C.G.G.K.P.!.!.!.~.~.).-XxX&X^./.^.!.!.!.H.H.G.C.C.v.x.x.x.x.x.x.z.z.M.x.x.x.x.v.x.c.v.C.C.J.)..XqX9X).c.z.M.r.;.-.%.O.O.%.=.1.-.;.2.2.2.2.2.2.2.2.2.2.2.2.2.0.0.0.0.0.0.0.0.0.0.0.0.0.0.0.0.0.0.0.0.0.0.0.0.0.0.0.0.0.0.0.0.0.0.0.0.0.0.0.0.0.2.0.2.0.0.0.0.0.0.0.0.0.0.0.0.0.0.0.0.0.0.q.0.0.0.0.0.0.0.0.0.0.0.0.0.0.0.0.0.0.0.0.2.2.2.2.2.2.2.:.:.*.*.%.%.*.+.9.r.M.x.c.W.6XqX3X^.(.Z.C.v.x.x.x.x.x.x.x.x.x.x.x.x.x.x.x.v.v.v.C.C.Z.Z.Z.!.!.).^.^..XbXdX{._.!.!.!.!.H.H.H.C.C.C.G.G.v.v.v.v.x.x.x.x.x.x.x.x.x.x.x.x.x.z.z.z.z.z.z.z.z.z.z.z.z.z.z.z.z.z.z.z.z.x.z.x.x.x.x.x.x.x.x.x.x.x.x.x.x.x.x.x.x.x.x.x.x.x.x.x.x.v.v.x.x.v.v.v.v.v.v.v.v.v.v.v.v.v.v.v.v.v.v.v.v.v.v.v.v.v.v.v.v.v.v.v.v.C.x.=XSXLXPXGX=Xc.x.v.c.v.v.x.v.x.x.x.x.x.x.x.x.x.x.x.x.x.x.x.x.x.x.x.x.z.z.z.z.z.z.z.z.z.z.z.q.z.q.q.q.q.q.q.q.q.q.q.q.q.q.q.q.q.q.",
"0.0.q.0.q.q.q.q.q.q.q.q.q.q.q.q.q.q.q.z.z.z.z.z.z.z.z.z.z.z.z.z.z.z.z.z.z.z.x.x.x.x.x.x.x.x.x.x.x.v.v.f.jXGXHXDXsXh.S.M.B.B.v.x.v.v.v.v.v.v.v.v.v.v.v.v.v.v.v.v.x.x.x.x.x.x.v.v.x.x.x.x.x.x.x.x.x.x.x.x.x.x.x.x.x.x.x.x.x.x.x.x.x.x.x.x.x.x.x.x.x.x.x.x.x.z.z.z.z.z.z.z.z.z.z.z.z.z.z.x.x.x.x.x.x.x.x.x.x.x.x.x.x.v.v.v.v.v.v.C.G.G.G.G.Z.Z.H.H.!.!.~.W.-XbX|.~./.!.!.!.!.H.H.C.C.C.v.v.v.x.x.x.x.x.x.x.x.x.x.x.x.x.v.C.C.C.J.)..X9X6X).Z.c.x.z.w.5.*.{ O.%.%.%.*.-.;.2.2.2.1.2.1.1.2.2.2.2.2.2.0.0.0.0.0.9.9.9.0.0.0.0.0.0.0.0.2.2.2.2.2.2.2.2.2.2.2.2.2.2.2.2.2.2.2.2.2.2.2.2.2.2.2.2.2.2.2.2.2.2.0.0.0.0.0.0.2.2.2.0.0.0.0.2.2.2.2.2.2.2.2.2.2.2.2.2.2.2.2.2.;.2.2.2.2.2.;.;.:.>.>.>.*.%..._ 4.q.w.M.x.C.).3XqX3X).(.G.G.x.v.x.x.x.x.x.x.x.x.x.x.x.x.x.v.v.v.C.C.C.Z.Z.H.!.!.(.^.).{.bXsX{.~.!.!.!.H.H.H.H.H.C.C.C.C.v.v.v.v.v.v.v.x.x.x.x.x.x.x.x.x.x.x.x.x.z.z.z.z.z.z.z.z.z.z.z.z.z.z.z.z.x.x.x.x.x.x.x.x.x.x.x.x.x.x.x.x.x.x.x.x.x.x.x.x.x.x.x.x.x.x.x.x.v.v.v.x.x.x.v.v.v.v.v.v.v.v.v.v.v.v.v.v.v.v.v.v.v.v.v.v.v.v.v.v.v.C.x.*XSXHXPXDX;Xc.m.x.c.c.v.x.x.x.x.x.x.x.x.x.x.x.x.x.x.x.x.x.x.x.z.z.z.z.z.z.z.z.z.q.q.q.z.z.z.z.z.q.q.q.q.q.q.q.q.q.q.q.q.q.q.q.q.",
"0.0.0.0.q.q.q.q.q.q.q.q.q.q.q.q.q.q.w.w.z.z.z.z.z.z.z.z.z.z.z.z.z.z.z.z.z.z.x.x.x.x.x.x.x.x.x.x.x.x.N.j.jXGXHXSXsXh.m.M.B.B.x.x.v.v.v.v.v.v.v.v.v.v.v.v.v.v.v.v.x.x.x.x.x.x.v.v.x.x.x.x.x.x.x.x.x.x.x.x.x.x.x.x.x.x.x.x.x.x.x.x.x.x.x.x.x.x.x.x.x.x.x.x.x.z.z.z.z.z.z.z.z.z.z.z.z.z.z.x.x.x.x.x.x.x.x.x.x.x.x.x.x.v.v.v.v.v.C.C.G.G.G.C.F.Z.J.J.!.!._.W.-XbX|._.~.~.!.!.!.H.H.C.C.C.v.v.v.x.x.x.x.x.x.x.x.x.x.x.x.x.x.C.C.C.H.). X9X6X).Z.c.c.x.z.4.2.=.%.O.O.O.*.*.-.-.-.-.-.=.1.1.2.-.;.;.;.;.2.2.2.2.0.;.9.2.2.2.2.2.2.2.2.2.2.2.2.2.2.2.2.2.2.2.0.5.2.5.2.5.2.2.2.2.2.2.2.2.2.2.2.2.2.2.2.2.2.2.2.2.2.2.2.2.2.2.2.2.0.2.0.2.2.2.2.2.2.2.2.2.2.2.1.1.1.2.2.2.;.;.;.2.2.-.;.;.>.:.:.>.O.{ 1.3.4.q.z.x.v.C.[.3XqX3X[.!.G.G.x.v.x.x.x.x.x.x.x.x.x.x.x.x.x.v.v.v.C.C.C.Z.Z.H.!.~.^.).).{.bXsXQ.~.!.!.!.H.H.Z.H.H.C.C.C.C.v.v.v.x.v.v.x.x.x.x.x.x.x.x.x.x.x.x.x.x.z.z.z.z.z.z.z.z.z.z.z.z.z.z.z.z.x.x.x.x.x.x.x.x.x.x.x.x.x.x.x.x.x.x.x.x.x.x.x.x.x.x.x.x.x.x.x.x.v.v.v.x.x.x.v.v.v.v.v.v.v.v.v.v.v.v.v.v.v.v.v.v.v.v.v.v.v.v.v.v.v.C.x.*XZXHXPXDX;Xc.m.x.c.c.v.x.v.v.x.x.x.x.x.x.x.x.x.x.x.x.x.x.x.x.z.z.z.z.z.z.z.z.z.z.q.q.q.q.z.z.z.q.q.q.q.q.q.q.q.q.q.q.q.q.q.q.q.",
"0.0.0.0.q.q.q.q.q.q.q.q.q.q.q.q.q.q.q.q.q.q.z.z.w.w.w.w.z.z.z.z.z.z.z.z.z.z.x.x.x.x.x.x.x.x.x.x.x.x.N.j.jXGXHXSXsXh.n.M.B.B.x.x.v.v.v.v.v.v.v.v.v.v.v.v.v.v.v.v.x.x.v.v.v.v.v.v.x.x.x.x.x.x.x.x.x.x.x.x.x.x.x.x.x.x.x.x.x.x.x.x.x.x.x.x.x.x.x.x.x.x.x.x.x.z.z.z.z.z.z.z.z.z.z.z.z.z.z.x.x.x.x.x.x.x.x.x.x.x.x.x.x.v.v.v.v.v.v.C.G.G.G.C.D.Z.J.J.!.!._.W.-XbX|.~.~.~.!.!.!.H.H.C.C.C.v.v.v.x.x.x.x.x.x.x.x.x.x.x.x.x.v.C.C.C.H.). X9X6X).Z.V.x.x.q.e.4.2.-.%.O.O.*.*.;.2.2.2.1.1.1.2.2.2.;.;.2.;.;.;.2.2.;.;.;.;.;.;.;.2.2.2.2.2.2.2.2.2.2.2.2.2.2.2.2.2.2.2.2.2.2.2.2.2.2.2.2.2.2.2.2.2.2.2.2.2.2.2.2.2.2.2.2.2.2.1.2.1.2.2.2.2.2.2.2.2.2.2.2.2.2.2.2.2.2.2.2.2.2.2.1.1.1.1.2.2.>.>.>.+.O.-.4.z.4.q.z.x.v.Z.[.3XqX3X[.!.G.G.x.v.x.x.x.x.x.x.x.x.x.x.x.x.x.v.v.v.C.C.C.Z.Z.H.!.~.^.).).{.bXsX{.~.!.!.!.H.H.Z.H.C.C.C.C.C.v.v.v.x.x.x.x.x.x.x.x.x.x.x.x.x.x.x.x.x.z.z.z.z.z.z.z.z.z.z.z.z.z.z.z.z.x.x.x.x.x.x.x.x.x.x.x.x.x.x.x.x.x.x.x.x.x.x.x.x.x.x.x.x.x.x.x.x.v.v.x.x.x.x.v.v.v.v.v.v.v.v.v.v.v.v.v.v.v.v.v.v.v.v.v.v.v.v.v.v.v.C.x.*XZXHXPXGX;Xc.m.x.x.c.v.x.v.v.x.x.x.x.x.x.x.x.x.x.x.x.x.z.x.z.z.z.z.z.z.z.z.z.z.z.q.q.q.q.z.q.z.q.q.q.q.q.q.q.q.q.q.q.q.q.q.q.q.",
"0.0.q.0.q.q.q.q.q.q.q.q.q.q.q.q.q.q.q.q.q.q.z.z.w.w.w.w.z.z.z.z.z.z.z.z.z.z.x.x.x.x.x.x.x.x.x.x.x.x.N.j.jXGXHXSXsXh.n.M.B.B.x.x.v.v.v.v.v.v.v.v.v.v.v.v.v.v.v.v.v.v.v.v.v.v.v.v.x.x.x.x.x.x.x.x.x.x.x.x.x.x.x.x.x.x.x.x.x.x.x.x.x.x.x.x.x.x.x.x.x.x.x.x.x.z.z.z.z.z.z.z.z.z.z.z.z.z.z.x.x.x.x.x.x.x.x.x.x.x.x.x.x.v.v.v.v.v.C.C.G.G.G.C.D.Z.J.J.!.!._.W.-XbX|.~.~.!.!.!.!.H.H.C.C.C.v.v.v.x.x.x.x.x.x.x.x.x.x.x.x.x.v.C.C.C.H.)..X9X6X).!.C.v.x.z.z.e.4.5.-.%.O.O.O.*.2.2.2.1.1.=.=.-.-.-.;.;.;.2.2.2.1.2.2.2.2.2.2.2.2.2.1.1.1.2.1.1.1.1.1.1.1.1.1.1.1.1.1.2.2.1.1.2.2.2.2.2.2.1.2.2.2.2.1.2.2.1.1.1.1.1.1.1.1.1.1.1.1.1.1.1.2.2.2.2.2.2.2.2.2.5.5.2.2.2.2.2.2.-.1.1.1.1.1.1.;.;.+.] +.2.e.b.z.a.z.z.x.N.Z.[.3XqX3X).!.G.G.x.v.v.x.x.x.x.x.x.x.x.x.x.x.x.v.v.v.C.C.C.Z.Z.H.!.~.!.^.).{.bXsXW.~.!.!.!.H.H.Z.H.C.C.C.C.C.v.v.v.x.x.x.x.x.x.x.x.x.x.x.x.x.x.x.x.x.z.z.z.z.z.z.z.z.z.z.z.z.z.z.z.z.x.x.x.x.x.x.x.x.x.x.x.x.x.x.x.x.x.x.x.x.x.x.x.x.x.x.x.x.x.x.x.x.v.v.x.x.x.x.v.v.v.v.v.v.v.v.v.v.v.v.v.x.x.x.x.x.v.v.v.v.v.v.v.v.v.C.x.*XZXHXPXGX;Xc.m.x.x.c.v.x.v.v.x.x.x.x.x.x.x.x.x.x.x.z.x.x.z.z.z.z.z.z.z.z.z.z.z.z.q.q.q.q.q.q.z.q.q.q.q.q.q.q.q.q.q.q.q.q.q.q.q.",
"0.0.q.q.q.q.q.q.q.q.q.q.q.q.q.q.q.q.w.q.q.q.z.z.w.z.z.z.z.z.z.z.z.z.z.z.z.z.x.x.x.x.x.x.x.x.x.x.x.x.N.j.jXGXHXSXsXh.m.M.B.B.x.c.x.v.v.v.v.v.x.x.x.v.v.v.x.x.x.x.x.x.x.x.x.x.x.x.x.x.x.x.x.x.x.x.x.x.x.x.x.x.x.x.x.x.x.x.x.x.x.x.x.x.x.x.x.x.x.x.x.x.x.x.x.z.z.z.z.z.z.z.z.z.z.z.z.z.z.x.x.x.x.x.x.x.x.x.x.x.x.x.x.v.v.v.v.C.v.C.G.G.G.C.D.Z.J.J.!.!._.W.-XbX|.~.~.!.!.!.H.H.H.C.C.C.C.v.x.x.x.x.x.x.x.x.x.x.x.x.v.x.v.C.C.C.H.)..X9X6X).!.C.v.x.z.q.4.e.e.4.2.*.*.*.;.2.5.2.1.4.1.1.1.1.2.2.0.4.4.4.4.4.4.4.4.4.4.4.4.4.4.4.4.4.4.4.4.4.4.4.1.1.1.1.1.1.1.1.1.4.1.1.1.1.1.1.1.1.4.4.4.4.4.4.4.4.1.1.4.4.4.4.4.4.4.4.4.4.2.1.4.4.4.4.4.4.4.4.2.1.2.2.1.1.1.1.1.1.1.3.3.1.3.4.4.1.-.%.%.;.e.M.z.4.z.z.z.B.N.Z.[.3XqX3X).(.H.G.x.v.v.x.x.x.x.x.x.x.x.x.x.x.v.v.v.v.C.C.C.H.Z.H.!.~.^.^.).{.bXsXW.~.!.!.!.H.Z.Z.C.C.C.C.C.C.v.v.v.v.x.x.v.x.x.x.x.x.x.x.x.x.x.x.x.x.z.z.z.z.z.z.z.z.z.z.z.z.z.z.z.z.x.x.x.x.x.x.x.x.x.x.x.x.x.x.x.x.x.x.x.x.x.x.x.x.x.x.x.x.x.x.x.x.v.x.x.x.x.v.v.v.v.v.v.v.v.v.v.v.x.x.x.x.x.x.x.x.v.v.v.v.v.v.v.v.v.C.x.*XZXHXPXDX;Xc.m.x.x.x.v.x.x.x.x.x.x.x.x.x.x.x.x.x.x.x.x.x.x.x.z.z.z.z.z.z.q.q.q.q.z.q.q.q.q.q.q.q.q.q.q.q.q.q.q.q.q.q.q.q.q.q.q.",
"0.0.q.q.q.q.q.q.q.q.q.q.q.q.q.q.q.q.q.q.q.q.z.z.z.z.z.z.z.z.z.z.z.z.z.z.z.z.x.x.z.z.x.x.x.x.x.x.x.x.N.j.jXGXHXSXsXh.m.M.B.B.x.c.x.v.v.v.v.v.x.x.x.v.v.v.x.x.x.x.x.x.x.x.x.x.x.x.x.x.x.x.x.x.x.x.x.x.x.x.x.x.x.x.x.x.x.x.x.x.x.x.x.x.x.x.x.x.x.x.x.x.x.x.x.z.z.z.z.z.z.z.z.z.z.z.z.z.z.x.x.x.x.x.x.x.x.x.x.x.x.x.x.v.v.v.v.C.v.C.G.G.G.C.D.Z.J.J.!.!._.W.-XbX|.~.~.!.!.!.H.H.H.C.C.C.C.v.v.x.x.x.x.x.x.x.x.x.x.x.x.x.v.C.C.C.H.)..X9X6X).!.C.v.x.x.z.4.4.z.z.0.2.;.-.2.0.0.1.1.4.4.4.4.4.q.q.q.z.4.a.a.a.4.a.4.4.4.4.4.4.4.4.3.4.4.4.4.4.4.4.4.4.4.4.4.4.4.4.4.4.1.3.1.4.1.4.1.3.4.4.4.4.4.4.4.4.4.4.4.4.4.4.4.4.4.4.4.4.4.3.4.4.4.4.4.4.4.4.4.4.4.4.4.4.4.4.4.4.3.4.3.3.3.a.3.1.%.;.0.r.q.w.w.z.z.z.x.N.G.H.).3XqX.X[.(.H.G.v.v.v.v.x.x.x.x.x.x.x.x.x.x.v.v.v.v.C.C.C.H.Z.H.J.~.!.).).{.bXsXW.~.!.!.!.H.H.Z.C.C.C.C.C.C.v.v.v.v.x.x.v.x.x.x.x.x.x.x.x.x.x.x.x.x.z.z.z.z.z.z.z.z.z.z.z.z.z.z.z.z.x.x.x.x.x.x.x.x.x.x.x.x.x.x.x.x.x.x.x.x.x.x.x.x.x.x.x.x.x.x.x.x.v.v.x.x.x.x.v.v.v.v.v.v.v.v.v.v.x.x.x.x.x.x.v.v.v.v.v.v.v.v.v.v.v.C.x.*XZXHXPXDX;Xc.m.x.x.x.v.x.M.M.x.x.x.x.x.x.x.x.x.x.x.x.x.x.x.x.z.z.z.z.z.z.z.z.q.q.z.q.q.q.q.q.q.q.q.q.q.q.q.q.q.q.q.q.q.q.q.q.q.",
"0.0.q.q.q.0.q.q.q.q.q.q.q.q.q.q.q.q.q.q.q.q.z.z.z.z.z.z.z.z.z.z.z.z.z.z.z.z.x.x.z.z.z.x.x.x.x.x.x.x.N.j.jXGXHXSXsXh.m.M.B.B.x.c.x.v.v.v.v.x.x.x.x.x.v.v.v.v.x.x.x.x.x.x.x.x.x.x.x.x.x.x.x.x.x.x.x.x.x.x.x.x.x.x.x.x.x.x.x.x.x.x.x.x.x.x.x.x.x.x.x.x.x.x.x.z.z.z.z.z.z.z.z.z.z.z.z.z.z.x.x.z.x.x.x.x.x.x.x.x.x.x.x.v.v.v.v.C.C.C.G.G.G.C.D.Z.J.J.!.!.~.W.-XbX|.~.!.!.!.H.H.H.H.C.C.C.C.v.v.x.x.x.x.x.x.x.x.x.x.x.v.x.v.C.C.Z.H.)..X9X6X).!.C.v.x.x.z.q.q.z.z.z.z.1...1.e.b.a.4.z.z.z.z.z.z.z.z.z.c.n.n.c.c.c.c.c.z.z.d.d.d.d.a.p.a.a.a.a.a.a.a.3.4.4.4.3.3.3.3.3.3.3.4.3.4.3.4.3.3.3.3.3.4.3.3.3.4.3.4.a.4.a.a.a.a.a.a.d.b.b.b.z.z.c.c.c.c.c.c.c.c.c.c.c.c.c.c.c.3.d.d.p.p.s.a.3.1.0.M.M.q.q.q.x.x.x.x.N.G.H.[.3XqX.X[.(.H.P.v.C.v.v.x.x.x.x.x.x.x.x.x.x.v.v.v.C.C.C.C.H.Z.H.J.~.!.).).{.bXsXW.~.!.!.!.H.Z.Z.C.C.C.C.C.C.v.v.v.v.v.v.v.x.x.x.x.x.x.x.x.x.x.x.x.x.z.z.z.z.z.z.z.z.z.z.z.z.z.z.z.z.x.x.x.x.x.x.x.x.x.x.x.x.x.x.x.x.x.x.x.x.x.x.x.x.x.x.x.x.x.x.x.x.x.x.x.x.x.x.x.x.v.v.v.v.v.v.v.v.x.x.v.v.v.v.v.v.v.v.v.v.v.v.v.v.v.C.x.*XZXHXPXDX;Xc.m.x.v.c.v.x.x.M.x.x.x.x.x.x.x.x.x.x.x.x.x.x.x.x.z.z.z.z.z.z.z.z.z.z.z.z.q.q.z.z.q.q.q.q.q.q.q.q.q.q.q.q.q.q.q.q.q.",
"q.q.q.q.0.0.q.q.q.q.q.q.q.q.q.q.q.q.q.q.q.q.z.z.z.z.z.z.z.z.z.z.z.z.z.z.z.z.x.x.z.z.z.z.x.x.x.x.x.x.N.j.jXGXHXSXsXh.m.M.B.B.x.c.x.v.v.v.x.x.x.x.x.x.v.v.v.v.v.x.x.x.x.x.x.x.x.x.x.x.x.x.x.x.x.x.x.x.x.x.x.x.x.x.x.x.x.x.x.x.x.x.x.x.x.x.x.x.x.x.x.x.x.x.x.z.z.z.z.z.z.z.z.z.z.z.z.z.z.x.x.z.z.x.x.x.x.x.x.x.x.x.x.v.v.v.v.v.C.C.G.G.G.C.D.Z.J.J.H.!.~.W.-XbX|.~.!.!.!.!.H.H.H.C.C.C.C.v.x.x.x.x.c.x.x.x.x.x.x.x.x.v.v.C.C.Z.!.)..X9X6X).(.Z.C.x.x.x.z.z.q.q.z.x.c.c.S.T.%X%X%X%X%X%X|.|.|.|.}.}.T.T.T.T.T.T.Y.Y.Y.Y.Y.Y.Y.S.S.I.n.n.m.n.n.n.n.n.b.b.b.b.b.b.b.b.b.b.b.b.b.b.b.b.b.b.b.b.b.b.b.b.b.n.n.n.n.n.n.n.I.I.U.U.U.R.R.S.S.C.C.D.D.L.L.L.L.L.}.}.}.}.}.|.%X%X%X$X%X%X|.Y.x.z.z.z.z.z.z.z.x.z.x.N.G.H.).3X9X.X[.(.H.G.v.C.v.v.x.x.x.x.x.x.x.x.x.x.v.v.v.C.C.C.C.H.Z.H.J.~.!.).).{.bXsXW.~.!.!.H.H.Z.Z.C.C.C.C.C.C.v.v.v.v.v.v.v.x.x.x.x.x.x.x.x.x.x.x.x.x.z.z.z.z.z.z.z.z.z.z.z.z.z.z.z.z.x.x.x.x.x.x.x.x.x.x.x.x.x.x.x.x.x.x.x.x.x.x.x.x.x.x.x.x.x.x.x.x.x.x.x.x.x.x.x.x.v.v.v.v.v.v.v.v.x.x.x.x.x.x.x.x.v.v.v.v.v.v.v.v.v.C.x.*XZXHXPXDX;Xc.m.x.v.c.v.x.x.x.x.x.x.x.x.x.x.x.x.x.x.x.x.x.x.x.z.z.z.z.z.z.z.z.z.z.z.z.q.q.z.z.q.q.q.q.q.q.q.q.q.q.q.q.q.q.q.q.q.",
"0.0.0.0.0.q.q.q.q.q.q.q.q.q.q.q.q.q.w.q.z.z.z.z.q.q.q.w.z.z.z.z.z.z.z.z.z.z.z.z.x.x.x.x.x.x.x.x.x.x.v.I.jXGXHXDXsXh.m.M.B.B.x.c.v.v.v.v.v.v.v.v.v.v.v.v.v.v.v.v.x.x.x.x.x.x.x.x.x.x.x.x.x.x.x.x.x.x.x.x.x.x.x.x.x.x.x.x.x.x.x.x.x.x.x.x.x.x.x.x.x.x.x.x.x.z.z.z.x.z.z.z.z.z.z.x.z.z.z.x.x.x.x.x.x.x.x.x.x.x.x.x.x.v.x.v.v.C.C.C.G.G.G.G.Z.Z.H.H.J.H.~.W.-XbX|.~.!.!.!.!.H.H.H.H.C.C.C.C.v.v.x.x.x.x.x.x.x.x.x.v.v.v.v.C.C.H.!.(..X9X6X).~.H.C.v.x.x.x.z.x.x.x.x.V.D.iXpX8XiXsXiXiXiXiXiX8X8X8X8X8X8X8X;X;X;X;X;X;X;X;X;X;X;X;X;X=X=X=X=X=X=X=X=X=X;X;X;X;X;X;X=X=X=X=X=X=X=X=X=X=X=X=X=X=X=X=X=X=X=X=X=X=X=X=X;X=X=X=X;X;X;X;X;X&X&X&X&X&X;X;X;X&X;X8X8X8X8XiXiXsXiXiXsXsX;XsX8XS.S.x.x.x.x.x.x.x.c.N.N.G.!.)..XqX.X).(.H.G.C.C.v.v.x.x.x.x.x.x.x.x.x.x.v.v.v.v.C.C.C.G.Z.H.J.J.(.W.(.{.xXsXD._.!.!.H.H.H.Z.Z.H.C.C.C.C.C.v.v.x.x.x.x.x.x.x.x.x.x.x.x.x.x.x.x.x.z.z.z.z.z.z.z.z.z.z.z.z.z.z.z.z.x.x.x.x.x.x.x.x.x.x.x.x.x.x.x.x.x.x.x.x.x.x.x.x.x.x.x.x.x.x.x.x.x.v.x.x.x.x.x.x.x.x.x.v.v.v.x.x.v.v.v.v.x.x.x.x.x.v.v.v.v.v.v.v.x.v.x.$XZXHXPXDX;Xc.m.x.v.x.x.x.x.x.x.x.x.x.x.x.x.x.x.x.x.z.z.z.z.z.z.z.z.z.z.z.z.z.z.z.z.q.q.q.z.z.q.q.q.q.q.q.q.q.q.q.q.q.q.q.q.q.q.",
"0.0.0.0.0.q.q.q.q.q.q.q.q.q.q.q.q.q.w.q.z.z.z.z.q.q.q.w.z.z.z.z.z.z.z.z.z.z.z.z.x.x.x.x.x.x.x.x.x.x.v.I.jXGXHXDXsXh.m.M.B.B.x.c.v.v.v.v.v.v.v.v.v.v.v.v.v.v.v.v.x.x.x.x.x.x.x.x.x.x.x.x.x.x.x.x.x.x.x.x.x.x.x.x.x.x.x.x.x.x.x.x.x.x.x.x.x.x.x.x.x.x.x.x.x.z.z.z.x.z.z.z.z.z.z.x.z.z.z.x.x.x.x.x.x.x.x.x.x.x.x.x.x.x.x.v.v.C.C.C.G.G.G.G.F.Z.H.H.J.H.~.W.-XbX|.!.!.!.!.!.H.H.H.H.C.C.C.C.v.v.x.x.x.x.x.x.x.x.x.v.v.v.C.C.C.H.!.(..X9X6X).~.H.C.v.x.x.x.z.x.x.x.c.V.D.8X%Xp.p.n.A.Y.Y.Y.Y.Y.Y.Y.D.Y.Y.Y.Y.S.S.S.Y.A.A.S.S.I.I.n.n.n.n.b.b.b.d.b.d.a.d.b.d.b.d.d.d.d.d.6.d.4.d.d.d.d.d.d.d.d.d.d.d.d.d.d.d.d.d.b.d.b.b.b.b.n.n.n.n.n.A.A.A.A.A.A.A.Y.Y.Y.Y.Y.Y.I.I.d.j.j.<.P G &XiXD.C.v.x.x.x.x.x.x.c.v.N.G.!.).[.9X.X).(.H.H.C.C.v.v.x.x.x.x.x.x.x.x.x.v.v.v.v.v.C.C.C.G.Z.H.J.J.!.(.(.{.xXsXD.~.!.!.H.H.H.Z.Z.H.C.C.C.C.C.v.v.x.x.x.x.x.x.x.x.x.x.x.x.x.x.x.x.x.z.z.z.z.z.z.z.z.z.z.z.z.z.z.z.z.x.x.x.x.x.x.x.x.x.x.x.x.x.x.x.x.x.x.x.x.x.x.x.x.x.x.x.x.x.x.x.x.v.v.v.v.x.x.x.x.x.x.x.x.v.v.x.x.v.v.v.v.v.v.x.x.x.x.v.v.v.v.v.v.x.v.x.$XZXHXPXDX;Xc.m.x.v.x.x.x.x.x.x.x.x.x.x.x.x.x.x.x.x.z.z.z.z.z.z.z.z.z.z.z.z.z.z.z.z.z.q.q.z.z.q.q.q.q.q.q.q.q.q.q.q.q.q.q.q.q.q.",
"0.0.0.0.0.q.q.q.q.q.q.q.q.q.q.q.q.q.q.q.q.q.z.z.q.q.q.w.z.z.w.z.z.z.z.z.z.z.z.z.x.x.x.x.x.x.x.x.x.x.v.I.jXGXHXSXsXh.m.M.B.B.x.c.x.v.x.x.x.x.v.v.x.v.v.v.x.x.x.x.x.x.x.x.x.x.x.x.x.x.x.x.x.x.x.x.x.x.x.x.x.x.x.x.x.x.x.x.x.x.x.x.x.x.x.x.x.x.x.x.x.x.x.x.x.z.z.z.x.z.z.z.z.z.z.x.z.z.z.x.x.x.x.x.x.x.x.x.x.x.x.x.x.v.x.v.v.v.C.C.G.G.G.G.F.Z.H.H.J.H.~.W.-XbX|.!.!.!.!.!.H.H.H.C.C.C.C.C.v.v.x.x.x.x.x.x.x.x.x.v.v.v.C.C.C.H.!.(..X9X6X).~.H.G.v.x.x.x.z.x.x.x.c.V.{.8X&Xp.P ,.,.<.<.3.p.a.a.a.s.d.d.d.d.a.z.z.z.a.d.d.d.d.d.p.3.a.a.4.3.4.4.3.3.3.3.4.3.4.4.4.6.6.1.1.1.1.1.3.1.6.6.6.6.4.1.2.6.1.3.1.3.3.3.3.3.4.4.4.4.3.3.3.3.6.6.6.6.6.3.6.6.6.<.<.,.,. .P P P K K G G B =XpXD.S.v.x.x.x.x.x.c.c.v.N.P.!.). X9X[.).(.H.H.C.C.v.v.x.x.x.x.x.x.x.x.x.x.v.v.v.v.C.C.C.G.Z.H.J.J.!.(.(.{.lXhXF.~.H.!.H.H.Z.Z.C.C.C.C.C.C.v.v.v.x.x.x.x.x.x.x.x.x.x.x.x.x.x.x.x.x.z.z.z.z.z.z.z.z.z.z.z.z.z.z.z.z.x.x.x.x.x.x.x.x.x.x.x.x.x.x.x.x.x.x.x.x.x.x.x.x.x.x.x.x.x.x.x.x.v.v.v.v.v.v.x.x.x.x.x.x.v.v.v.v.x.x.v.v.v.v.v.v.v.v.v.v.v.v.v.v.x.C.x.$XZXHXPXDX;Xc.m.x.v.x.x.x.x.x.x.x.x.x.x.x.x.x.x.x.x.z.z.z.z.z.z.z.z.z.z.z.q.q.z.z.z.z.z.z.q.q.q.q.q.q.q.q.q.q.q.q.q.q.q.q.q.q.q.",
"q.0.0.0.0.q.q.q.q.q.q.q.q.q.q.q.q.q.q.q.q.q.z.z.q.q.q.z.z.z.w.w.z.z.z.z.z.z.z.z.z.z.x.x.x.x.x.x.x.x.v.j.jXGXHXSXsXh.m.M.B.B.x.c.x.v.x.x.x.x.v.v.x.v.v.v.x.x.x.x.x.x.x.x.x.x.x.x.x.x.x.x.x.x.x.x.x.x.x.x.x.x.x.x.x.x.x.x.x.x.x.x.x.x.x.x.x.x.x.x.x.x.x.x.x.z.z.z.x.z.z.z.z.z.z.x.z.z.z.x.x.x.x.x.x.x.x.x.x.x.x.x.x.v.x.v.v.v.C.C.G.G.G.G.Z.Z.H.H.J.H.~.W.-XbX|.!.!.!.!.H.H.H.H.C.C.C.C.C.v.v.x.x.x.x.x.x.x.x.x.v.v.v.C.C.C.H.!.(.).9X6X).~.H.G.v.x.c.x.z.x.x.x.c.h.Q.8X8XF.p.<.P  .,.,.,.1.3.3.3.3.4.4.4.4.4.4.4.4.4.4.4.4.4.4.4.3.4.4.4.4.4.4.4.4.4.4.4.4.4.4.5.2.6.2.6.2.4.2.4.1.1.1.3.1.1.1.1.1.1.1.1.1.1.1.1.1.1.1.1.1.1.1.1.,.<.,.,.,.X.X.X.X. .( ( ( P K K K G G G G G ;XiXD.F.C.c.x.x.x.x.c.c.N.N.P.!.). X9X[.).(.H.H.C.C.v.v.x.x.x.x.x.x.x.x.x.x.v.v.v.v.C.C.C.G.Z.H.J.J.!.(.(.{.lXhXF.~.H.H.H.H.Z.Z.C.C.C.C.C.C.v.v.v.x.x.x.x.x.x.x.x.x.x.x.x.x.x.x.x.x.z.z.z.z.z.z.z.z.z.z.z.z.z.z.z.z.x.x.x.x.x.x.x.x.x.x.x.x.x.x.x.x.x.x.x.x.x.x.x.x.x.x.x.x.x.x.x.x.v.v.v.v.v.v.x.x.x.x.x.v.v.v.v.v.x.x.v.v.v.v.v.v.v.v.v.v.v.v.v.v.x.C.x.$XZXLXPXDX;Xc.m.x.v.x.x.x.x.x.x.x.x.x.x.x.x.x.x.x.x.z.z.z.z.z.z.z.z.z.z.z.q.q.q.z.z.z.z.q.q.q.q.q.q.q.q.q.q.q.q.q.q.q.q.q.q.q.q.",
"q.q.q.0.0.0.0.0.q.q.q.q.q.q.q.q.q.q.q.q.z.q.z.z.z.z.z.z.z.z.z.w.z.z.z.z.z.z.z.z.z.z.z.z.x.x.x.x.x.x.v.j.jXGXHXSXsXh.m.M.B.B.x.c.x.v.x.x.v.v.v.v.v.v.v.v.x.v.v.v.x.x.x.x.x.x.x.x.x.x.x.x.x.x.x.x.x.x.x.x.x.x.x.x.x.x.x.x.x.x.x.x.x.x.x.x.x.x.x.x.x.x.x.x.x.z.z.z.x.z.z.z.z.z.z.x.z.z.z.x.x.x.x.x.x.x.x.x.x.x.x.x.x.v.v.v.v.v.v.C.G.G.C.C.F.Z.H.H.H.H.!.W.-XbX|.J.!.!.!.H.H.Z.H.Z.C.C.C.v.v.v.x.x.x.x.x.x.x.x.v.v.v.v.v.C.C.H.!.(.).9X6X).~.H.G.v.x.c.x.z.z.x.x.c.Z.Q.6X&XA.p.3.,...( ( ..........1.1.1.1.=.1.1.1.1.1.1.1.1.1.1.1.1.1.=.1.1.1.=.=.=.=.=...=...=...1.1.1.1.-.1.-.1.=...=.......=...=...=......................._ _ ( ( ( ( ) ( ( ( ) Q K K K K J S S G K G G G =XpXD.F.C.c.x.x.x.x.c.c.N.G.P.!.).[.9X[.^.(.G.G.C.C.v.v.v.x.x.x.x.x.x.x.x.x.v.v.v.v.C.C.C.G.H.H.J.J.!.(.(.W.lXhXW.~.H.H.H.H.Z.Z.C.C.C.C.C.C.v.v.x.x.v.v.v.x.x.x.x.x.x.x.x.x.x.x.x.x.z.z.z.z.z.z.z.z.z.z.z.z.z.z.z.z.x.x.x.x.x.x.x.x.x.x.x.x.x.x.x.x.x.x.x.x.x.x.x.x.x.x.x.x.x.x.x.x.v.v.x.x.v.v.v.v.v.v.v.v.x.x.x.v.x.x.x.x.x.x.x.x.x.x.x.x.v.x.v.v.x.C.x.$XZXHXPXDX;Xc.m.x.v.x.v.x.x.x.x.x.x.x.x.x.x.x.x.z.x.z.z.z.z.z.z.z.z.z.z.z.q.q.z.z.z.q.q.q.z.z.z.q.q.q.q.q.q.q.q.q.q.q.q.q.q.q.q.",
"q.q.0.0.0.0.0.0.q.q.q.q.q.q.q.q.q.q.q.q.z.q.z.z.z.z.z.z.w.w.z.w.z.z.z.z.z.z.z.z.z.z.z.z.z.x.x.x.x.x.v.j.jXGXHXSXsXh.m.M.B.B.x.c.x.x.x.x.x.x.v.v.v.x.x.x.x.x.x.x.x.x.x.x.x.x.x.x.x.x.x.x.x.x.x.x.x.x.x.x.x.x.x.x.x.x.x.x.x.x.x.x.x.x.x.x.x.x.x.x.x.x.x.x.x.z.z.z.x.z.z.z.z.z.z.x.z.z.z.x.x.x.x.x.x.x.x.x.x.x.x.x.x.v.v.v.v.v.v.C.G.G.C.C.F.Z.H.H.H.H.!.W.-XxX|.J.!.!.!.H.H.Z.C.C.C.C.C.v.v.v.x.x.x.x.x.x.x.x.v.v.v.v.v.C.C.H.!.(.).9X X).~.H.G.N.x.x.z.z.z.c.x.v.Z.Q.8X8XA.a.a.4.=...{ { %.-.-.-.-.1.1.1.-.-.-.-.-.1.1.1.1.1.2.1.1.1.-.1.1.1.1.1.-.=.-.=.=.=.=.=.-.1.-.1.-.-.-.=.=.=.=.=.=.=.=.=.=.=.=.=.%.......%...................{ _ _ ) ) ) ) ) Q Q R R H H K K K G G G ;XpX{.F.C.v.x.x.x.c.c.c.N.G.P.!.).[.9X.X^.(.G.H.C.C.v.v.v.x.x.x.x.x.x.x.x.x.v.v.v.v.C.C.C.G.H.H.J.J.Z.(.(.W.lXhXW.!.H.H.H.H.Z.Z.C.C.C.C.C.C.v.v.x.x.v.v.v.x.x.x.x.x.x.x.x.x.x.x.x.x.z.z.z.z.z.z.z.z.z.z.z.z.z.z.z.z.x.x.x.x.x.x.x.x.x.x.x.x.x.x.x.x.x.x.x.x.x.x.x.x.x.x.x.x.x.x.x.x.v.v.v.x.v.v.v.v.v.v.v.v.x.x.x.v.x.x.x.x.x.x.x.x.x.x.x.x.x.x.v.v.x.C.x.$XZXHXPXDX;Xc.m.x.v.c.v.x.x.x.x.x.x.x.x.x.x.x.z.z.x.z.z.z.z.z.z.z.z.z.z.z.q.q.z.z.z.q.q.q.z.z.z.q.q.q.q.q.q.q.q.q.q.q.q.q.q.q.q.",
"0.0.0.0.0.0.q.q.q.q.q.q.q.q.q.q.q.q.q.q.z.z.w.w.q.q.z.z.z.z.z.z.z.z.z.z.z.z.z.z.z.z.z.z.z.z.x.x.x.x.v.j.jXGXHXSXsXh.m.M.B.B.x.c.x.x.x.x.x.x.x.x.x.x.x.x.x.x.v.v.x.x.x.x.x.x.x.x.x.x.x.x.x.x.x.x.x.x.x.x.x.x.x.x.x.x.x.x.x.x.x.x.x.x.x.x.x.x.x.x.x.x.x.x.x.z.z.z.x.z.z.z.z.z.z.x.z.z.z.x.x.x.x.x.x.x.x.x.x.x.x.x.x.v.v.v.v.v.v.v.G.G.C.C.F.Z.H.H.H.H.!.W.-XbX|.J.!.!.!.H.H.Z.C.C.C.C.C.v.v.v.x.x.x.x.x.x.v.v.v.v.v.v.v.C.G.H.!.^.Q.8X&X).~.H.G.N.x.x.x.z.x.c.x.c.h.Z.8X8XD.a.4.4.2.*.+.+.%.*.>.-.*.-.-.-.-.-.;.-.2.2.2.2.2.2.;.2.-.1.1.1.2.1.2.1.-.1.;.1.2.1.=.1.-.-.-.=.-.-.-.=.-.=.-.=.-.=.-.=.-.=.-.=.-.=.=.=.-.=.-.=.-.=.%.*.%.%.*.%.O.%.O.O.*.*.;.*.O.O.%.>.H D K K P G ;XiXW.Z.C.c.x.x.x.c.c.c.N.G.P.J.).[.9X.XQ.!.G.H.C.C.v.v.v.x.x.x.x.x.x.x.x.v.v.v.v.v.C.C.C.G.H.H.J.J.Z.(.(.W.lXhX{.~.H.!.H.Z.Z.Z.C.C.C.C.C.C.v.v.x.x.x.x.v.x.x.x.x.x.x.x.x.x.x.x.x.x.z.z.z.z.z.z.z.z.z.z.z.z.z.z.z.z.x.x.x.x.x.x.x.x.x.x.x.x.x.x.x.x.x.x.x.x.x.x.x.x.x.x.x.x.x.x.x.x.v.v.x.x.x.x.v.x.v.v.x.x.x.x.v.v.x.x.x.x.x.x.x.x.x.x.x.x.x.v.v.v.x.C.x.$XZXHXPXDX;Xc.m.x.v.x.v.x.x.x.x.x.x.x.x.x.x.x.z.x.x.z.z.z.z.z.z.z.z.z.z.z.z.z.z.z.q.q.q.q.z.q.z.q.q.q.q.q.q.q.q.q.q.q.q.q.q.q.q.",
"0.0.0.0.0.q.q.q.q.q.q.q.q.q.q.q.q.q.q.q.q.z.w.w.q.q.q.z.z.z.z.z.z.z.z.z.z.z.z.z.z.z.z.z.z.z.z.x.x.x.v.I.jXGXHXSXpXh.m.M.B.B.x.x.x.x.x.x.x.x.x.x.x.x.x.x.x.x.x.x.x.x.x.x.x.x.x.x.x.x.x.x.x.x.x.x.x.x.x.x.x.x.x.x.x.x.x.x.x.x.x.x.x.x.x.x.x.x.x.x.x.x.x.x.x.z.z.z.x.z.z.z.z.z.z.x.z.z.z.x.x.z.z.x.x.x.x.x.x.x.x.x.x.v.v.v.v.v.v.v.G.G.C.C.Z.Z.H.H.J.H.!.W.-XbX{.!.!.!.!.H.H.H.C.C.C.C.C.v.v.v.x.x.x.x.x.x.x.v.v.x.v.v.C.C.C.H.!.(.Q.8X X(.(.H.C.G.x.x.x.z.x.x.x.c.Z.E.6X6XD.c.z.0.e.r.;.-.-.2.2.2.1.1.1.1.1.4.4.4.4.4.4.4.4.4.4.4.2.2.2.2.2.1.4.4.1.1.1.2.2.2.2.2.1.1.1.1.1.2.2.2.1.1.1.1.1.1.1.1.2.2.2.2.2.2.2.1.2.6.2.4.1.2.1.1.4.4.0.0.0.4.2.2.2.2.2.2.1.1.5.t.Q K K K K G ;XiXW.Z.C.c.x.x.x.c.c.v.v.G.P.~.).[.9X.X^.(.G.G.C.C.v.v.v.x.x.x.x.x.x.x.x.v.v.v.v.v.C.C.C.C.Z.H.J.J.H.(.(.Y.lXhX{.~.H.H.H.Z.H.Z.C.C.C.C.C.C.v.v.x.x.x.v.v.x.x.x.x.x.x.x.x.x.x.x.x.x.z.z.z.z.z.z.z.z.z.z.z.z.z.z.z.z.x.x.x.x.x.x.x.x.x.x.x.x.x.x.x.x.x.x.x.x.x.x.x.x.x.x.x.x.x.x.x.x.v.v.x.x.x.x.x.x.v.v.x.x.x.x.v.v.x.x.x.x.x.x.x.x.x.x.x.x.x.v.v.v.x.C.x.$XAXHXPXGXrXc.m.x.x.x.x.x.x.x.x.x.x.x.x.x.x.x.x.x.x.z.z.z.z.z.z.z.z.z.z.z.z.z.z.z.q.q.q.q.q.q.z.q.q.q.q.q.q.q.q.q.q.q.q.q.q.q.q.",
"0.0.0.0.0.0.0.0.0.0.q.q.q.q.q.q.q.q.q.q.q.q.q.q.q.q.q.z.q.z.z.z.q.q.z.z.z.z.z.z.z.z.z.z.z.z.M.x.x.x.B.I.jXGXHXSXpXs.m.M.M.x.x.x.x.x.x.x.x.x.x.x.x.x.x.x.x.x.x.x.x.x.x.x.x.x.x.x.x.x.x.x.x.x.x.x.x.x.x.x.x.x.x.x.x.x.x.x.x.x.x.x.x.x.x.x.x.x.x.x.x.x.x.x.x.x.x.x.x.x.x.z.z.x.x.x.x.x.x.x.x.x.x.x.x.x.x.x.x.x.x.x.x.v.v.v.C.C.C.C.G.G.G.G.Z.H.H.H.P.H.J.D.eXbX{.!.!.J.J.J.H.H.H.G.C.C.C.v.v.v.v.x.c.c.c.x.x.x.x.x.v.v.C.C.C.H.H.(.).9X X(.(.Z.H.C.v.x.x.x.x.x.x.v.Z.W.6X6XD.c.z.q.q.q.z.4.<.A.a.T.Y.F.A.V.A.A.A.A.A.A.n.s.s.s.s.a.z.x.z.z.z.a.4.4.4.4.4.4.4.4.4.4.4.3.3.3.3.3.3.3.4.4.4.4.4.4.4.4.d.d.d.d.d.d.d.d.n.f.n.n.n.n.A.A.A.S.K.K.T.Y.Y.Y.S.T.T.S.Y.3.a.b.) K K K ( K ;X9XW.Z.C.v.B.x.c.c.c.v.C.G.H.!.).).9X).(.(.Z.Z.C.C.v.v.v.v.x.x.x.x.x.x.v.v.v.v.v.G.G.G.G.C.Z.Z.J.J.!.Z._.D.hXhXD.~.J.J.H.H.H.H.G.G.C.C.C.C.v.v.v.x.x.x.x.x.x.x.x.x.x.x.x.x.x.x.x.x.x.x.z.z.z.z.z.z.z.z.z.z.z.z.x.x.x.x.x.x.x.x.x.x.x.x.x.x.x.x.x.x.x.x.x.x.x.x.x.x.x.x.x.x.x.x.x.x.x.x.x.x.x.x.x.x.x.x.x.x.x.x.x.x.x.v.x.v.x.v.x.v.v.v.v.v.v.v.v.v.x.v.x.$XAXHXIXHXrXc.x.x.x.z.M.M.x.x.x.x.x.x.x.x.z.x.z.z.z.z.z.z.z.z.z.z.z.z.z.z.z.z.q.q.w.w.q.q.q.q.q.q.q.q.q.q.q.q.q.q.q.q.q.q.q.q.q.",
"0.0.0.0.0.0.0.0.0.0.q.q.q.q.q.q.q.q.q.q.q.q.q.q.q.q.q.w.q.q.w.w.q.q.z.z.z.z.z.z.z.z.z.z.z.z.M.x.x.x.B.U.jXGXHXSXpXs.m.M.M.z.x.x.x.x.x.x.x.x.x.x.x.x.x.x.x.x.x.x.x.x.x.x.x.x.x.x.x.x.x.x.x.x.x.x.x.x.x.x.x.x.x.x.x.x.x.x.x.x.x.x.x.x.x.x.x.x.x.x.x.x.x.x.x.x.x.x.x.x.x.z.z.x.x.x.x.x.x.x.x.x.x.x.x.x.x.x.x.x.x.x.x.v.v.v.C.C.C.C.G.G.G.G.Z.H.H.J.P.L.J.D.eXbX{.!.!.J.J.J.H.H.H.G.C.C.C.v.v.v.v.x.c.c.c.c.x.x.x.x.v.v.C.C.C.H.H.!.).9X X(.(.Z.H.C.v.x.x.x.x.x.c.v.C.(.6X6XD.c.z.q.q.q.x.c.{.8X&X;X8X8X8X8X8X8X;X&X&X&X&X&X&X&X%X&X%X%X%X%X%X%X%X%X%X%X%X%X%X%X%X%X=X=X=X=X%X%X%X%X%X%X%X%X%X%X%X%X%X%X%X%X%X%X%X%X%X%X%X%X&X&X&X&X&X&X;X;X;X8X8X8X8X8X;X%X8XY.V.m.( K K K Q K :X9XW.Z.C.v.B.B.c.c.c.v.C.Z.Z.!.). X9X).(.(.Z.Z.C.C.v.v.v.v.x.x.x.x.x.x.v.v.v.v.v.G.G.G.G.Z.Z.Z.J.J.!.H._.Y.hXhXY.L.J.H.H.H.H.H.G.G.C.C.C.C.v.v.v.v.x.x.x.x.x.x.x.x.x.x.x.x.x.x.z.x.x.x.z.z.z.z.z.z.z.z.z.z.z.z.x.x.x.x.x.x.x.x.x.x.x.x.x.x.x.x.x.x.x.x.x.x.x.x.x.x.x.x.x.x.x.x.x.x.x.x.x.x.x.x.x.x.x.x.x.x.x.x.x.x.x.x.x.x.x.x.x.x.v.v.v.x.v.v.v.v.x.v.x.$XAXHXIXHXrXc.x.x.x.z.M.M.x.x.x.x.x.x.x.x.x.x.z.z.z.z.z.z.z.z.z.z.z.z.z.z.z.z.q.q.w.w.q.q.q.q.q.q.q.q.q.q.q.q.q.q.q.q.q.q.q.q.q.",
"0.q.q.q.q.q.0.0.0.0.q.q.q.q.q.q.q.q.q.q.q.q.q.q.q.q.q.q.q.q.z.z.q.z.z.z.z.z.z.z.z.z.z.z.z.z.z.x.x.x.B.U.jXGXHXSXpXs.m.M.M.x.x.x.x.x.x.x.x.x.x.x.x.x.x.x.x.x.x.x.x.x.x.x.x.x.x.x.x.x.x.x.x.x.x.x.x.x.x.x.x.x.x.x.x.x.x.x.x.x.x.x.x.x.x.x.x.x.x.x.x.x.x.x.x.x.x.x.x.x.x.z.z.x.x.x.x.x.x.x.x.x.x.x.x.x.x.x.x.x.x.x.x.v.v.v.C.C.C.C.G.G.G.G.Z.Z.H.J.H.L.J.D.eXbX{.!.J.J.J.H.H.H.G.G.C.C.C.C.v.v.x.x.v.c.c.c.x.x.x.v.v.v.C.C.C.H.H.!.W.9X X(.).Z.H.C.v.x.x.x.x.x.v.v.Z.(.6X6XD.v.z.z.z.z.x.c.{.8XV.a.a.a.c.c.m.m.m.c.m.m.m.x.c.c.c.c.n.n.n.n.n.n.n.n.f.f.f.f.f.f.f.n.n.n.b.b.b.b.d.d.a.d.d.d.d.d.d.c.c.c.c.c.c.c.c.c.V.V.S.S.S.S.S.S.A.A.m.m.S.A.f.f.4.4.3.a.8XF.s.a.( K K K Q K :X9XW.H.C.v.B.B.c.c.v.v.C.Z.Z.!.). X9X).W.(.Z.Z.C.C.v.v.v.v.x.x.x.x.x.x.v.v.v.v.v.N.G.G.G.H.Z.Z.J.J.H.Z._.Y.hXhXY.H.J.J.H.H.H.H.G.G.C.C.C.C.v.v.v.v.v.v.x.x.x.x.x.x.x.x.x.x.x.x.z.x.x.x.z.z.z.z.z.z.z.z.z.z.z.z.x.x.x.x.x.x.x.x.x.x.x.x.x.x.x.x.x.x.x.x.x.x.x.x.x.x.x.x.x.x.x.x.x.x.x.x.x.x.x.x.x.x.x.x.x.x.x.x.x.x.x.x.x.x.x.x.x.x.x.x.x.x.x.x.x.x.x.v.x.$XAXHXIXHXrXc.x.x.v.x.M.M.x.x.x.x.x.x.x.x.x.x.z.z.z.z.z.z.z.z.z.z.z.z.q.z.z.z.q.q.z.z.q.q.q.q.q.q.q.q.q.q.q.q.q.q.q.q.q.q.q.q.q.",
"q.q.q.q.q.q.0.0.0.0.q.q.q.q.q.q.q.q.q.q.q.q.q.q.q.q.q.q.q.q.z.z.q.q.z.z.z.z.z.z.z.z.z.z.z.z.M.x.x.x.B.U.jXGXHXSXpXs.m.M.M.z.z.x.x.x.x.x.x.x.x.x.x.x.x.x.x.x.x.x.x.x.x.x.x.x.x.x.x.x.x.x.x.x.x.x.x.x.x.x.x.x.x.x.x.x.x.x.x.x.x.x.x.x.x.x.x.x.x.x.x.x.x.x.x.x.x.x.x.x.x.z.z.x.x.x.x.x.x.x.x.x.x.x.x.x.x.x.x.x.x.x.x.v.v.v.C.C.C.C.G.G.G.G.Z.Z.H.H.H.L.H.D.eXbXW.!.J.J.J.H.H.H.G.G.C.C.C.C.v.v.x.x.v.c.c.c.x.x.x.x.v.v.C.C.C.H.H.!.W.9X X(.(.Z.H.C.v.x.x.x.x.x.v.C.H.!.6X6XD.v.x.z.q.z.x.c.{.8Xs. .......1.1.1.1.4.4.4.4.0.4.4.4.4.4.p.4.a.a.a.a.a.3.3.3.3.3.3.4.4.3.3.4.3.4.3.4.a.a.a.a.a.a.a.a.a.a.z.a.a.a.a.z.z.4.4.a.a.a.4.4.3.p.3.4.1.1.<.,. .,...3.a.pXW.V.m.( K K K ( K :X9XW.H.C.v.B.B.c.c.v.v.C.Z.Z.!.). X9X).W.(.Z.Z.C.C.v.v.v.v.x.x.x.x.x.x.v.v.v.v.v.N.G.G.G.Z.Z.H.J.J.H.Z._.Y.hXhXD.H.J.H.H.H.H.G.G.G.C.C.C.C.v.v.v.v.v.x.x.x.x.x.x.x.x.x.x.x.x.x.z.x.x.x.z.z.z.z.z.z.z.z.z.z.z.z.x.x.x.x.x.x.x.x.x.x.x.x.x.x.x.x.x.x.x.x.x.x.x.x.x.x.x.x.x.x.x.x.x.x.x.x.x.x.x.x.x.x.x.x.x.x.x.x.x.x.v.x.x.x.x.x.v.v.x.x.x.x.x.x.x.x.x.v.x.$XAXHXIXHXrXc.x.x.v.x.M.M.x.x.x.x.x.x.z.z.x.x.z.z.z.z.z.z.z.z.z.z.z.z.q.q.z.z.q.z.z.z.q.q.q.q.q.q.q.q.q.q.q.q.q.q.q.q.q.q.q.q.q.",
"0.0.q.q.q.0.0.0.0.0.0.0.q.q.q.q.q.q.q.q.q.q.q.q.q.q.w.q.q.q.z.z.z.z.q.q.z.z.z.z.z.z.z.z.z.z.z.z.z.x.B.U.jXGXHXDXpXs.m.M.M.z.z.x.x.x.x.x.x.x.x.x.x.x.x.x.x.x.x.x.x.x.x.x.x.x.x.x.x.x.x.x.x.x.x.x.x.x.x.x.x.x.x.x.x.x.x.x.x.x.x.x.x.x.x.x.x.x.x.x.x.x.x.x.x.x.x.x.x.x.x.z.z.x.x.x.x.x.x.x.x.x.x.x.x.x.x.x.x.x.x.x.x.v.v.v.v.C.C.C.G.G.G.G.Z.Z.H.J.H.H.H.D.eXbXW.J.J.J.J.H.H.H.G.G.C.C.C.C.v.v.v.v.v.c.c.c.x.x.x.x.v.v.C.C.C.H.H.!.W.8X X(.(.Z.H.C.v.x.x.x.x.x.v.C.H.!.6X6X(.C.x.z.z.x.x.c.{.9X}.c.2.-.%.-.-.1.1.1.-.-.1.1.1.1.1.1.1.1.1.1.1.1.1.1.1.1.1.1.2.1.1.1.1.1.1.1.3.3.4.3.1.3.1.1.1.3.3.3.1.1.2.1.1.1.1.1.4.4.4.4.4.4.1.3.<.3.4.1.3.3.<.<.1.1.a.A.pXF.a.z. .K P K ( K :X8XW.H.C.v.B.B.c.c.v.v.C.Z.Z.E.). X9X).W.(.Z.Z.C.C.v.v.v.v.x.x.x.x.x.x.x.v.v.v.N.N.G.G.G.C.Z.Z.J.J.H.Z._.Y.hXhXD.!.H.H.H.H.H.G.G.G.C.C.C.C.v.v.v.v.v.v.x.x.x.x.x.x.x.x.x.x.x.x.z.x.x.x.z.z.z.z.z.z.z.z.z.z.z.z.x.x.x.x.x.x.x.x.x.x.x.x.x.x.x.x.x.x.x.x.x.x.x.x.x.x.x.x.x.x.x.x.x.x.x.x.x.x.x.x.x.x.x.x.x.x.x.x.x.x.x.x.x.x.x.v.v.v.x.x.x.x.v.v.v.x.x.v.x.$XCXHXIXHXrXc.x.x.v.x.M.M.z.x.x.x.z.z.z.z.x.x.z.z.z.z.z.z.z.z.z.z.z.z.q.q.z.z.q.q.z.z.q.q.q.q.q.q.q.q.q.q.q.q.q.q.q.q.q.q.q.q.q.",
"0.q.q.q.q.0.0.0.0.0.0.0.q.q.q.q.q.q.q.q.q.q.q.q.q.q.w.q.q.w.z.z.z.z.q.q.z.z.z.z.z.z.z.z.z.z.z.z.z.x.B.I.jXGXHXDXpXs.m.M.M.z.z.x.x.x.x.x.x.x.x.x.x.x.x.x.x.x.x.x.x.x.x.x.x.x.x.x.x.x.x.x.x.x.x.x.x.x.x.x.x.x.x.x.x.x.x.x.x.x.x.x.x.x.x.x.x.x.x.x.x.x.x.x.x.x.x.x.x.x.x.z.z.x.x.x.x.x.x.x.x.x.x.x.x.x.x.x.x.x.x.x.x.v.v.v.v.C.C.C.G.G.G.C.Z.Z.H.J.H.P.H.D.eXbXW.J.J.J.H.H.H.H.G.G.C.C.C.C.v.v.v.v.v.c.v.c.x.x.x.v.x.v.C.C.C.H.H.(.W.8X X(.(.Z.H.C.v.x.x.x.x.x.v.C.H.E.6X6X(.C.c.x.x.x.x.c.{.8XZ.a.M.4.1.2.1.1.1.1.1.1.1.1.1.1.1.1.4.4.4.4.4.4.4.4.4.4.4.4.4.4.4.4.4.1.1.1.3.1.1.1.3.3.3.1.3.4.4.4.4.2.2.2.2.2.2.2.1.1.1.1.1.1.1.1.,.,.2.-...,.,.P 1.4.c.D.8XD.C.m. .K P K ( K :X8XW.H.C.v.B.B.c.c.v.v.C.Z.Z.E.). X9X).W.(.Z.Z.C.C.v.v.v.v.x.x.x.x.x.x.x.v.v.v.N.N.G.G.G.C.Z.Z.J.J.H.Z._.Y.hXhXD.H.H.H.H.H.H.G.G.C.C.C.C.C.v.v.v.v.v.v.x.x.x.x.x.x.x.x.x.x.x.x.z.x.x.x.z.z.z.z.z.z.z.z.z.z.z.z.x.x.x.x.x.x.x.x.x.x.x.x.x.x.x.x.x.x.x.x.x.x.x.x.x.x.x.x.x.x.x.x.x.x.x.x.x.x.x.x.x.x.x.x.x.x.x.x.x.x.x.x.x.v.x.x.v.v.x.x.x.x.x.x.x.x.x.v.x.$XCXHXIXHXrXc.x.x.x.x.M.M.z.x.x.z.z.z.z.z.x.x.z.z.z.z.z.z.z.z.z.z.z.z.q.q.z.z.q.q.z.z.q.q.q.q.q.q.q.q.q.q.q.q.q.q.q.q.q.q.q.q.q.",
"0.0.q.q.0.0.0.0.0.0.q.q.q.q.q.q.q.q.q.q.q.q.q.q.q.q.q.q.q.q.z.z.z.z.q.q.z.z.z.z.z.z.z.z.z.z.z.z.z.x.B.I.nXGXHXDXpXs.m.M.M.x.x.x.x.x.x.x.x.x.x.x.x.x.x.x.x.x.x.x.x.x.x.x.x.x.x.x.x.x.x.x.x.x.x.x.x.x.x.x.x.x.x.x.x.x.x.x.x.x.x.x.x.x.x.x.x.x.x.x.x.x.x.x.x.x.x.x.x.x.x.z.z.x.x.x.x.x.x.x.x.x.x.x.x.x.x.x.x.x.x.x.x.x.x.v.v.v.C.C.G.G.G.C.C.Z.H.P.H.P.H.D.eXbXW.J.J.H.H.H.H.H.G.G.C.C.C.C.v.v.v.v.v.v.v.v.x.v.v.v.v.v.C.C.C.H.H.(.W.8X X(.(.Z.H.C.v.v.x.x.x.x.v.C.H.E.6X6X(.C.x.x.q.z.x.S. X9XZ.c.z.4.4.b.I.I.I.I.Y.Y.U.I.I.I.I.I.f.f.f.f.f.d.d.d.d.d.d.d.d.d.d.d.b.b.b.b.b.b.z.4.M.b.z.z.z.z.4.q.z.z.z.z.z.x.x.x.v.N.K.K.K.K.P.K.T.T.T.R.R.Y.A.s.z.x.v.L.8XD.v.x...K ( Q ) K :X8XW.H.C.v.B.B.c.c.C.v.C.Z.Z.E.).).6X).E.(.Z.Z.C.C.v.v.v.v.x.x.x.x.x.x.x.v.v.v.N.G.G.G.C.C.Z.Z.J.J.H.Z._.Y.hXhXY.H.H.H.H.H.G.C.G.C.C.C.C.C.v.v.v.v.v.x.x.x.x.x.x.x.x.x.x.x.x.x.z.x.x.x.z.z.z.z.z.z.z.z.z.z.z.z.x.x.x.x.x.x.x.x.x.x.x.x.x.x.x.x.x.x.x.x.x.x.x.x.x.x.x.x.x.x.x.x.x.x.x.x.x.x.x.x.x.x.x.x.x.x.x.x.x.x.x.x.x.x.x.x.x.x.x.x.x.x.x.x.x.x.x.v.x.$XCXHXIXHXrXc.x.x.x.x.M.M.z.x.z.z.z.z.z.z.x.x.z.z.z.z.z.z.z.z.z.z.z.z.z.z.z.z.q.q.z.z.q.q.q.q.q.q.q.q.q.q.q.q.q.q.q.q.q.q.q.q.q.",
"0.0.0.0.0.0.0.0.0.0.q.q.q.q.q.q.q.q.q.q.q.q.q.q.q.q.q.q.q.q.z.z.z.z.q.q.z.z.z.z.z.z.z.z.z.z.z.z.z.x.B.I.jXGXHXDXpXs.m.M.M.x.x.x.x.x.x.x.x.x.x.x.x.x.x.x.x.x.x.x.x.x.x.x.x.x.x.x.x.x.x.x.x.x.x.x.x.x.x.x.x.x.x.x.x.x.x.x.x.x.x.x.x.x.x.x.x.x.x.x.x.x.x.x.x.x.x.x.x.x.x.z.z.x.x.x.x.x.x.x.x.x.x.x.x.x.x.x.x.x.x.x.x.x.x.v.v.v.C.C.G.G.G.C.C.Z.H.P.H.H.H.D.eXbXW.J.J.J.H.H.H.H.G.G.C.C.C.C.v.v.v.v.v.v.v.v.v.v.v.v.x.v.C.C.C.H.H.(.W.8X XW.(.Z.H.C.v.x.x.x.c.x.v.C.H.E.6X6X(.C.x.x.v.x.c.V.).6XZ.c.m.d.I.%X=X;X;X;X;X;X;X;X;X;X;X;X=X=X=X=X=X=X%X%X%X%X%X%X%X%X%X%X%X%X%X%XT.%X%X%X%XT.T.T.R.U.m.M.v.v.v.K.K.K.K.T.|.|.%X%X%X%X&X&X=X;X;X=X=X;X&X|.m.x.c.T.&X}.C.z...K ( Q ) K :X8XW.H.C.v.B.N.c.V.C.v.C.Z.Z.E.).).6X).E.!.Z.Z.C.C.v.v.v.v.x.x.x.x.x.x.x.v.v.v.N.G.G.G.C.C.Z.Z.J.J.H.Z._.Y.hXhXY.H.H.H.H.H.G.C.G.C.C.C.C.C.v.v.v.v.v.x.x.x.x.x.x.x.x.x.x.x.x.x.z.x.x.x.z.z.z.z.z.z.z.z.z.z.z.z.x.x.x.x.x.x.x.x.x.x.x.x.x.x.x.x.x.x.x.x.x.x.x.x.x.x.x.x.x.x.x.x.x.x.x.x.x.x.x.x.x.x.x.x.x.x.x.x.x.x.x.x.v.v.x.x.x.x.x.x.x.x.x.x.x.x.x.v.x.$XCXHXIXHXrXc.x.x.x.x.M.M.z.z.z.z.z.z.z.z.x.x.z.z.z.z.z.z.z.z.z.z.z.z.z.z.z.q.q.q.z.z.q.q.q.q.q.q.q.q.q.q.q.q.q.q.q.q.q.q.q.q.q.",
"0.0.0.0.q.0.0.0.0.0.0.0.0.q.q.q.q.q.q.q.q.q.q.q.q.q.q.q.q.q.q.q.z.q.q.z.z.z.z.q.q.q.z.z.z.z.z.z.z.x.B.U.jXGXHXSXpXs.m.M.x.x.z.x.x.x.x.x.x.x.x.x.x.x.x.x.x.x.x.x.x.x.x.x.x.x.x.x.x.x.x.x.x.x.x.x.x.x.x.x.x.x.x.x.x.x.x.x.x.x.x.x.x.x.x.x.x.x.x.x.x.x.x.x.x.x.x.x.x.x.x.x.z.z.z.x.x.x.x.x.x.x.x.x.x.v.v.v.x.x.x.v.v.v.v.v.v.v.C.C.N.C.G.C.C.C.P.H.H.P.H.D.eXbXW.H.J.J.H.H.H.H.G.G.C.C.v.v.v.v.v.v.c.c.x.x.x.x.x.x.v.C.C.C.C.H.H.!.W.8X XE.!.Z.H.C.v.v.x.x.x.x.v.C.H.E.3X6X(.C.v.x.x.x.x.C.).6XZ.c.a.n.n.%X%X<. . .3.<.<.p.p.p.p.p.b.e.e.e.e.0.0.4.e.e.r.e.r.e.r.r.4.4.4.4.4.4.4.4.4.e.e.e.z.z.z.z.b.b.b.b.b.b.M.b.4.b.b.4.4.d.4.a.p.4.2.{ ( 3.;X}.x.x.c.L.8X(.C.c...( K ( ) P $X8XE.H.G.N.B.N.c.c.C.v.C.Z.Z.E.).).9XQ.).Z.Z.C.C.C.v.v.v.v.v.x.x.x.x.x.v.v.v.v.v.G.G.G.G.G.Z.Z.H.H.H.H.L.Y.hXvXD.H.H.H.H.H.H.H.G.C.C.C.v.v.v.v.v.v.v.v.x.x.x.x.x.x.x.x.x.x.x.x.z.x.x.x.x.x.x.z.z.z.z.z.z.z.x.x.x.x.x.x.x.x.x.x.x.x.x.x.x.x.x.x.x.x.x.x.x.x.x.x.x.x.x.x.x.x.x.x.x.x.x.x.x.x.x.x.x.x.x.x.x.x.x.x.x.x.x.x.x.x.x.x.x.x.x.x.x.x.x.x.x.x.x.x.x.$XAXHXIXHXrXc.x.z.x.x.x.M.z.x.z.z.z.z.z.z.x.x.z.z.z.z.z.z.z.z.z.z.q.q.q.q.z.z.z.q.q.q.q.q.q.q.q.q.q.q.q.q.q.q.q.q.q.q.q.q.0.q.0.",
"0.0.0.0.q.q.0.0.0.0.0.0.0.0.q.q.q.q.q.q.q.q.q.q.q.q.q.q.q.q.q.q.z.z.q.z.z.z.q.q.q.q.z.z.z.z.z.z.z.x.B.U.jXGXHXSXpXs.m.M.x.x.z.x.x.x.x.x.x.x.x.x.x.x.x.x.x.x.x.x.x.x.x.x.x.x.x.x.x.x.x.x.x.x.x.x.x.x.x.x.x.x.x.x.x.x.x.x.x.x.x.x.x.x.x.x.x.x.x.x.x.x.x.x.x.x.x.x.x.x.x.x.z.x.z.x.x.x.x.x.x.x.x.x.x.v.x.v.x.x.v.v.v.v.v.v.v.v.C.C.N.C.G.C.C.C.P.P.H.P.H.D.eXbXW.H.J.J.H.H.H.H.G.G.C.C.C.C.v.v.v.v.x.c.v.v.v.v.x.x.v.C.C.C.C.H.H.!.W.9X XE.!.Z.H.C.v.v.x.x.x.x.v.C.H.E.6X6X(.C.v.x.x.x.x.C.).6XZ.c.z.c.z.%X%X4.1.,.,.,.,.,.,.3.3.3.1.2.2.2.1.2.2.2.2.2.5.5.5.2.2.1.1.1.1.1.1.1.1.1.1.1.1.4.4.4.4.4.4.4.4.3.1.1.1.1.1.3.3.3.4.3.1.,. . .-.2.3.n.;XD.x.x.c.(.6X(.C.c...( K ( ( P $X8XE.H.G.v.B.N.c.V.C.v.C.Z.Z.E.(.).9XW.(.Z.H.C.C.C.v.v.v.v.v.v.x.x.x.x.v.v.v.v.v.N.G.G.G.C.Z.Z.H.H.H.H.L.Y.hXvXD.J.H.H.H.H.H.H.G.C.C.C.v.v.v.v.v.v.v.v.x.x.x.x.x.x.x.x.x.x.x.x.z.x.z.z.x.x.x.z.z.z.z.z.z.x.x.x.x.x.x.x.x.x.x.x.x.x.x.x.x.x.x.x.x.x.x.x.x.x.x.x.x.x.x.x.x.x.x.x.x.x.x.x.x.x.x.x.x.x.x.x.x.x.x.x.x.x.x.x.x.x.x.x.x.x.x.x.x.x.x.x.x.x.x.x.x.$XAXHXIXHXrXc.x.z.x.x.x.M.z.x.z.z.z.z.z.z.x.x.z.z.z.z.z.z.z.z.z.z.q.q.q.q.q.q.z.q.q.q.q.q.q.q.q.q.q.q.q.q.q.q.q.q.q.q.q.q.0.0.0.",
"0.0.0.0.q.q.0.0.q.q.0.0.0.0.0.0.q.q.q.q.q.q.q.q.w.q.q.q.q.q.q.q.q.q.q.q.z.z.z.z.z.z.z.z.z.z.z.z.z.c.B.U.jXGXHXSXpXs.m.M.x.x.z.x.x.x.x.x.x.x.x.x.x.x.x.x.x.x.x.x.x.x.x.x.x.x.x.x.x.x.x.x.x.x.x.x.x.x.x.x.x.x.x.x.x.x.x.x.x.x.x.x.x.x.x.x.x.x.x.x.x.x.x.x.x.x.x.x.x.x.x.x.x.x.x.x.x.x.x.x.x.x.x.x.x.x.x.x.x.x.x.x.x.x.v.v.v.v.C.C.N.v.G.C.C.C.H.H.H.P.H.D.eXbXW.H.J.J.H.H.H.H.G.G.C.C.C.C.v.v.v.v.v.c.v.c.v.v.x.v.v.C.C.C.C.H.H.!.W.8X XE.!.Z.H.C.v.v.x.x.x.x.v.C.H.E.6X6X(.C.v.x.x.x.v.C.).6XZ.v.x.v.x.%X%Xx.4.4.1.4.4.4.1.1.1.1.4.3.3.3.3.3.3.3.3.3.3.3.3.3.6.6.4.1.4.4.4.4.4.4.4.4.4.4.4.4.4.4.3.3.3.3.4.4.4.4.3.3.3.3.3.3.3.3.d.3.2.4.z.A.&X(.c.x.c.(.6XW.C.x...( K ( ( P $X8XE.H.C.v.B.N.c.V.C.v.C.Z.Z.E.(.).9XW.(.Z.H.C.C.C.v.v.v.v.v.v.v.x.x.x.v.v.v.v.v.N.G.G.C.C.Z.Z.H.H.H.H.L.Y.hXxXD.J.H.H.G.H.G.G.G.C.C.C.C.C.v.v.v.v.v.v.x.x.x.x.x.x.x.x.x.x.x.x.z.x.z.z.x.x.x.z.z.z.z.z.z.x.x.x.x.x.x.x.x.x.x.x.x.x.x.x.x.x.x.x.x.x.x.x.x.x.x.x.x.x.x.x.x.x.x.x.x.x.x.x.x.x.x.x.x.x.x.x.x.x.x.x.x.x.x.x.x.x.x.x.x.x.x.x.x.x.x.x.x.x.x.x.x.$XAXHXIXHXrXz.x.z.x.x.x.M.z.x.z.z.z.z.z.z.z.z.z.z.z.z.z.z.z.z.z.z.z.q.q.q.q.q.q.q.q.q.q.q.q.q.q.q.q.q.q.q.q.q.q.q.q.q.q.q.0.0.q.",
"0.0.0.0.q.q.q.0.q.q.q.0.0.0.0.0.q.q.q.q.q.q.q.q.q.q.q.q.q.q.q.q.q.q.q.q.z.z.z.z.z.z.z.z.z.z.z.z.z.c.B.U.jXGXHXSXiXs.m.M.x.x.z.x.x.x.x.x.x.x.x.x.x.x.x.x.x.x.x.x.x.x.x.x.x.x.x.x.x.x.x.x.x.x.x.x.x.x.x.x.x.x.x.x.x.x.x.x.x.x.x.x.x.x.x.x.x.x.x.x.x.x.x.x.x.x.x.x.x.x.x.x.x.x.x.x.x.x.x.x.x.x.x.x.x.x.x.x.x.x.x.x.v.v.v.v.v.v.C.C.N.v.G.C.C.Z.H.H.H.H.H.F.eXbXW.H.J.H.H.H.H.H.G.G.C.C.C.C.v.v.v.v.v.c.c.c.v.v.x.v.v.C.C.C.C.H.H.!.W.8X XW.!.Z.H.C.v.v.x.x.x.v.C.C.H.E.6X&XW.C.v.x.x.x.v.C.).6XZ.C.x.N.x.|.%Xx.q.z.T.T.T.T.%X%X%X%X%X%X%X%X%X%XT.T.T.T.T.T.T.Y.T.Y.R.R.T.T.T.T.T.T.T.T.T.T.T.T.T.T.T.T.T.T.T.|.|.|.%X%X%X%X%X%X%X%XT.T.K.q.a.F.8X}.c.x.c.(.6XW.C.v...( K X.( P $X8XW.H.C.C.B.N.C.V.C.v.C.Z.Z.E.(.).7XW.W.Z.H.C.C.C.v.v.v.v.v.v.x.x.x.x.v.v.v.v.v.N.G.G.C.C.Z.Z.H.H.Z.H.L.Y.hXvXY.P.H.H.G.G.G.C.C.C.C.C.C.C.v.v.v.v.v.v.x.x.x.x.x.x.x.x.x.x.x.x.z.x.x.x.x.x.x.z.z.z.z.z.z.x.x.x.x.x.x.x.x.x.x.x.x.x.x.x.x.x.x.x.x.x.x.x.x.x.x.x.x.x.x.x.x.x.x.x.x.x.x.x.x.x.x.x.x.x.x.x.x.x.x.x.x.x.x.x.x.x.x.x.x.x.x.x.x.x.x.x.x.x.x.x.x.$XAXHXIXHXrXc.x.z.x.x.x.M.z.x.z.z.z.z.z.z.z.z.z.z.z.z.z.z.z.z.z.z.z.q.q.q.q.q.q.q.q.q.q.q.q.q.q.q.q.q.q.q.q.q.q.q.q.q.q.q.0.q.q.",
"0.0.0.0.q.q.0.0.0.0.0.0.q.q.q.0.q.q.q.q.q.q.q.q.q.q.q.q.q.q.q.q.q.q.z.z.z.z.z.z.z.z.z.z.z.z.z.z.z.x.B.U.jXGXHXSXiXs.m.M.x.z.z.x.x.x.x.x.x.x.x.x.x.x.x.x.x.x.x.x.x.x.x.x.x.x.x.x.x.x.x.x.x.x.x.x.x.x.x.x.x.x.x.x.x.x.x.x.x.x.x.x.x.x.x.x.x.x.x.x.x.x.x.x.x.x.x.x.z.z.x.x.x.x.x.x.x.x.x.x.x.x.x.x.x.x.x.x.x.v.v.x.v.v.v.v.v.v.C.C.N.C.G.C.C.Z.H.H.H.H.H.F.eXbXW.H.H.H.H.H.H.G.G.G.C.C.C.C.v.v.x.v.v.c.c.c.x.x.x.v.v.v.C.C.G.H.H.!.D.8X XW.!.Z.H.C.C.v.v.x.x.v.C.C.H.Z.6X&XD.C.x.x.x.x.v.C.).6X!.C.x.v.v.|.%Xx.z.x.T.v.0.2.0.0.2.2.q.e.e.z.b.b.b.b.b.b.b.b.e.b.e.b.b.b.b.b.b.b.b.b.b.b.b.b.b.b.b.z.b.z.b.z.z.z.z.b.b.4.3.d.4.3.3.3.p.|.|.x.z.D.8XW.c.v.V.(.6XE.C.v...( P ( ( P $X8XW.Z.C.C.B.N.C.V.C.C.C.Z.Z.E.(.).9XW.W.Z.Z.C.C.C.C.v.v.v.v.v.x.x.x.x.x.v.v.v.N.N.G.G.C.C.Z.Z.H.H.Z.L.L.Y.hXvXY.P.H.H.H.G.G.G.G.C.C.C.C.C.v.v.v.v.v.v.x.x.x.x.x.x.x.x.x.x.x.x.z.x.x.x.x.x.x.z.z.z.z.z.z.x.x.x.x.x.x.x.x.x.x.x.x.x.x.x.x.x.x.x.x.x.x.x.x.x.x.x.x.x.x.x.x.x.x.x.x.x.x.x.x.x.x.x.x.x.x.x.x.x.x.x.x.x.x.x.x.x.x.x.x.x.x.x.x.x.x.x.x.x.x.x.x.$XAXHXIXHXrXc.x.z.x.x.x.M.z.x.z.z.z.z.z.z.z.z.z.z.z.z.z.z.z.z.z.z.z.z.z.z.z.q.q.q.q.q.q.q.q.q.q.q.q.q.q.q.q.q.q.q.q.q.q.q.q.q.0.",
"0.0.0.0.q.q.0.0.0.0.0.0.q.q.q.q.q.q.q.q.q.q.q.q.q.q.q.q.q.q.q.q.z.q.z.z.z.z.q.q.q.z.z.z.z.z.z.z.z.x.B.U.jXGXHXSXpXs.m.M.x.z.z.x.x.x.x.x.x.x.x.x.x.x.x.x.x.x.x.x.x.x.x.x.x.x.x.x.x.x.x.x.x.x.x.x.x.x.x.x.x.x.x.x.x.x.x.x.x.x.x.x.x.x.x.x.x.x.x.x.x.x.x.x.x.x.x.x.z.z.x.x.x.x.x.x.x.x.x.x.x.x.x.x.x.x.x.x.x.v.v.v.v.v.v.v.v.v.C.C.N.v.G.C.C.Z.H.H.H.H.H.F.eXbXW.H.J.H.H.H.H.C.G.C.C.C.C.C.v.v.x.v.v.c.v.v.x.x.x.x.v.v.C.C.G.H.H.!.D.8X XW.!.Z.H.C.C.v.v.x.x.v.C.C.H.Z.&X&XD.C.v.x.x.x.v.C.Q.6X!.C.c.C.v.|.&Xc.x.v.&Xm.=...=.%...1.-.-.-.-.-.-.-.-.2.2.2.2.2.2.-.1.1.1.1.1.1.1.1.1.1.1.1.1.1.1.1.1.....=...,.1.1.1.3.,.1.4...,.,.P  .|.%Xx.a.F.6XW.c.v.V.(.6XW.V.v...( ( X.X.P $X8XW.Z.C.C.B.N.C.V.C.C.C.Z.Z.E.(.).7XW.W.Z.Z.C.C.C.C.v.v.v.v.x.x.x.x.x.x.v.v.v.N.G.N.G.C.C.Z.Z.H.H.Z.L.L.Y.hXvXY.P.H.H.H.G.G.G.C.C.C.C.C.C.v.v.v.v.v.v.x.x.x.x.x.x.x.x.x.x.x.x.z.x.x.x.x.x.x.z.z.z.z.z.z.x.x.x.x.x.x.x.x.x.x.x.x.x.x.x.x.x.x.x.x.x.x.x.x.x.x.x.x.x.x.x.x.x.x.x.x.x.x.x.x.x.x.x.x.x.x.x.x.x.x.x.x.x.x.x.x.x.x.x.x.x.x.x.x.x.x.x.x.x.x.x.x.$XAXHXIXHXrXc.x.z.x.x.x.M.z.x.z.z.z.z.z.z.z.z.z.z.z.z.z.z.z.z.z.z.z.z.z.z.z.z.q.q.q.q.q.q.q.q.q.q.q.q.q.q.q.q.q.q.q.q.q.q.q.q.q.",
"0.0.0.0.0.0.0.0.0.0.0.0.q.q.q.q.q.q.q.q.q.q.q.q.q.q.q.q.q.q.q.q.q.z.z.z.z.q.q.q.q.q.q.z.z.z.z.z.z.x.B.U.jXGXHXSXpXs.m.M.x.x.z.x.x.x.x.x.x.x.x.x.x.x.x.x.x.x.x.x.x.x.x.x.x.x.x.x.x.x.x.x.x.x.x.x.x.x.x.x.x.x.x.x.x.x.x.x.x.x.x.x.x.x.x.x.x.x.x.x.x.x.x.x.x.x.x.x.z.x.x.x.x.z.z.x.x.x.x.x.x.x.x.x.x.v.x.x.x.v.v.v.v.v.v.v.C.C.C.C.N.C.G.C.C.Z.H.H.H.H.H.F.eXxXW.H.J.H.H.H.C.C.G.C.C.C.v.v.v.v.v.v.v.c.x.v.x.x.x.x.v.v.C.C.G.H.H.!.D.8X XF.!.Z.H.C.C.v.v.v.x.v.C.C.H.Z.&X&XD.C.v.x.x.x.v.C.{.6X!.C.s.V.V. X&Xc.c.V.&Xn.3.I.T.Y.Y.%XT.T.T.T.T.T.R.R.R.R.R.U.U.U.U.U.U.I.I.I.I.I.I.I.U.U.U.U.U.U.U.m.m.m.m.R.K.T.T.T.T.R.T.T.U.T.%Xb.p.%X|.x.a.F.6X(.c.C.V.(.6XW.V.V... .( ( X.P $X8XW.Z.C.C.B.N.C.V.C.C.C.Z.Z.E.(.).6XW.W.Z.Z.C.C.C.v.v.v.v.v.v.x.v.x.x.x.v.v.v.N.G.N.v.C.C.C.Z.H.H.Z.H.L.Y.hXvXY.H.H.H.H.C.H.C.C.C.C.C.C.C.v.v.v.v.v.v.x.x.x.x.x.x.x.x.x.x.x.x.z.x.x.x.x.x.x.z.z.z.z.z.z.x.x.x.x.x.x.x.x.x.x.x.x.x.x.x.x.x.x.x.x.x.x.x.x.x.x.x.x.x.x.x.x.x.x.x.x.x.x.x.x.x.x.x.x.x.x.x.x.x.x.x.x.x.x.x.x.x.x.x.x.x.x.x.x.x.x.x.x.x.x.m.x.$XAXHXIXHXrXc.x.z.x.x.x.z.z.x.z.z.z.z.z.z.z.z.z.z.z.z.z.q.z.z.z.z.q.q.q.q.z.z.z.q.q.q.q.q.q.q.q.q.q.q.q.q.q.q.q.q.q.q.q.q.q.0.q.",
"0.0.0.0.0.0.0.0.0.0.0.0.q.q.q.q.q.q.q.q.q.q.q.q.q.q.q.q.q.q.q.q.q.z.z.z.q.q.q.q.q.q.q.q.z.z.z.z.z.x.B.U.jXGXHXSXpXs.m.M.z.x.z.x.x.x.x.x.x.x.x.x.x.x.x.x.x.x.x.x.x.x.x.x.x.x.x.x.x.x.x.x.x.x.x.x.x.x.x.x.x.x.x.x.x.x.x.x.x.x.x.x.x.x.x.x.x.x.x.x.x.x.x.x.x.x.x.x.z.x.x.x.x.z.x.x.x.x.x.x.x.x.x.x.x.x.x.x.x.v.v.v.v.v.v.v.C.C.C.C.N.C.G.C.C.Z.H.H.H.H.H.F.eXxXW.H.H.H.H.H.G.C.G.C.C.C.v.v.v.v.v.x.v.x.v.x.x.x.x.x.v.v.C.G.G.H.J.!.D.8X XF.!.Z.H.C.C.v.v.x.x.v.C.C.H.Z.&X&XD.C.v.x.x.x.C.V.{.6X(.C.V.V.h. X&XV.s.V.&XA.a.T.T.p.,.3.4.4.4.4.4.4.a.4.a.a.a.p.a.d.4.4.6.6.4.4.4.a.a.d.d.d.d.d.d.p.p.a.4.4.4.4.4.4.4.4.a.3.4.3.,.m.T.z.s.|.|.x.V.Z.&XE.V.C.C.(.&XW.V.V... .(  .( P $X8XW.Z.C.C.N.N.C.C.C.C.C.Z.Z.E.(.).8XW.E.Z.H.C.G.C.v.v.v.v.v.x.x.v.x.x.x.v.v.v.N.G.N.N.C.C.C.Z.H.H.H.H.L.Y.kXvXY.P.H.H.H.C.H.C.C.C.C.C.C.C.v.v.v.v.v.v.x.x.x.x.x.x.x.x.x.x.x.x.x.x.x.x.x.x.x.z.z.z.z.z.z.x.x.x.x.x.x.x.x.x.x.x.x.x.x.x.x.x.x.x.x.x.x.x.x.x.x.x.x.x.x.x.x.x.x.x.x.x.x.x.x.x.x.x.x.x.x.x.x.x.x.x.x.x.x.x.x.x.x.x.x.x.x.x.x.x.x.x.x.x.x.m.x.$XAXHXIXHXrXc.x.x.x.x.x.z.z.x.z.z.z.z.z.z.z.z.z.z.z.z.z.q.z.z.z.z.q.q.q.q.z.z.z.q.q.q.q.q.q.q.q.q.q.q.q.q.q.q.q.q.q.q.q.q.q.q.q.",
"0.0.0.0.0.0.0.0.0.0.0.0.0.q.q.0.q.q.q.q.q.q.q.q.q.q.q.q.q.q.q.q.q.q.q.q.q.q.w.w.q.q.q.w.w.w.z.z.z.x.B.I.nXGXHXDXiXs.m.M.x.z.z.z.x.x.x.x.z.z.x.x.x.x.x.x.x.x.x.x.x.x.x.x.x.x.x.x.x.x.x.x.x.x.x.x.x.x.x.x.x.x.x.x.x.x.x.x.x.x.x.x.x.x.x.x.x.x.x.x.x.x.x.x.x.x.x.x.x.x.x.x.x.x.x.x.x.x.x.x.x.x.x.x.x.v.v.v.x.x.x.x.x.v.v.v.v.v.C.C.G.G.G.C.C.Z.H.H.H.H.H.F.eXxXW.H.H.H.H.H.G.G.G.G.C.C.C.C.v.v.v.x.v.v.x.x.x.x.v.v.v.C.C.C.G.H.H.H.D.8X|.W.H.H.G.C.C.C.v.v.c.v.v.G.P.D.&X&XD.K.C.x.x.v.v.F.).6X(.G.V.V.V.|. XV.s.V.&XS.3.T.%X,.p.,.d.d.b.d.3.I.3.d.p.p.d.g.d.g.d.d.7.7.6.4.p.p.3.6.6.6.d.d.p.p.a.a.a.c.a.a.f.d.d.d.d.p.p.d.1.m.|.a.s. X|.c.c.F.6X(.C.C.C.(.&XW.Z.v...(  . . . .$X8XD.Z.Z.C.v.v.v.C.C.C.C.Z.Z.Z.W.).8XW.W.Z.H.C.G.C.v.v.v.v.v.v.v.v.v.v.v.v.v.v.N.N.G.G.C.C.C.Z.H.H.H.K.L.Y.aXcXY.H.H.H.G.C.C.C.C.C.C.C.C.v.v.x.v.x.x.x.x.x.x.x.x.x.x.x.x.x.x.x.x.x.x.x.x.x.x.z.z.z.z.z.z.x.x.x.x.x.x.x.x.x.x.x.x.x.x.x.x.x.x.x.x.x.x.x.x.x.x.x.x.x.x.x.x.x.x.x.x.x.x.x.x.x.x.x.x.x.x.x.x.x.x.x.x.x.x.x.x.x.x.x.x.x.x.x.x.x.x.x.x.x.x.x.x.$XCXHXIXHXrXz.x.z.x.z.M.M.M.z.z.z.z.z.z.z.z.z.z.z.z.z.z.z.q.q.q.q.q.q.q.q.q.q.q.q.q.q.q.q.q.q.q.q.q.q.q.q.q.q.q.q.q.q.q.q.q.0.0.",
"0.0.0.0.0.0.0.0.0.0.0.0.0.q.q.0.q.q.q.q.q.q.q.q.q.q.q.q.q.q.q.q.q.q.q.q.q.q.w.w.q.q.q.q.w.z.z.z.x.z.B.U.nXGXHXDXiXs.m.M.x.z.z.z.x.x.x.x.z.x.x.x.x.x.x.x.z.x.x.x.x.x.x.x.x.x.x.x.x.x.x.x.x.x.x.x.x.x.x.x.x.x.x.x.x.x.x.x.x.x.x.x.x.x.x.x.x.x.x.x.x.x.x.x.x.x.x.x.x.x.x.x.x.x.x.x.x.x.x.x.x.x.x.x.x.v.v.v.x.x.x.x.x.v.v.x.v.v.v.C.G.G.G.C.C.Z.H.H.H.H.P.F.eXxXW.H.H.H.H.G.G.G.G.G.C.C.C.C.v.v.v.x.v.v.x.x.x.v.v.v.v.C.C.C.G.G.J.H.F.8X|.D.H.H.G.C.C.C.v.c.c.v.v.G.P.D.&X&XD.K.C.x.x.v.v.F.).6X(.G.v.C.C.|. XC.s.C.&XZ.a.}.%Xa.U.1. .6.6.d.3.p.<.d.d.d.d.f.d.f.d.d.j.j.b.d.d.d.d.d.I.I.I.I.n.n.n.n.c.A.n.n.I.I.I.I.Y.I.f.%XS.A.%XS.s.|.|.c.c.F.&X(.C.C.C.}.&XW.Z.m.,.(  . . . .%X;XD.F.Z.C.C.v.v.v.C.C.C.Z.Z.Z.W.).8XE.W.Z.H.C.G.C.v.v.v.v.v.v.v.v.v.v.v.v.v.v.v.v.G.G.G.C.C.C.H.P.H.K.L.Y.kXcXY.H.H.H.G.C.C.C.C.C.C.C.C.v.v.x.v.x.x.x.v.x.x.x.x.x.x.x.x.x.x.x.x.x.z.z.x.x.x.z.z.z.z.z.z.x.z.z.x.x.x.x.x.x.x.x.x.x.x.x.x.x.x.x.x.x.x.x.x.x.x.x.x.x.x.x.x.x.x.x.x.x.x.x.x.x.x.x.x.x.x.x.x.x.x.x.x.x.x.x.x.x.x.x.x.x.x.x.x.x.x.x.x.x.x.x.x.$XCXHXIXHXrXz.x.z.c.z.M.b.M.z.z.z.z.z.z.z.z.z.z.z.z.z.z.z.z.q.q.q.q.q.q.q.q.q.q.q.q.q.q.q.q.q.q.q.q.q.q.q.q.q.q.q.q.q.q.q.q.q.0.",
"0.0.0.0.0.0.0.0.0.0.0.0.0.q.0.0.q.q.q.q.q.q.q.q.q.q.q.q.q.q.q.q.q.q.q.q.q.q.z.z.q.q.q.q.q.q.z.z.x.z.B.U.nXGXHXDXiXp.m.M.x.z.z.z.x.z.x.x.z.x.x.x.x.x.x.x.z.z.x.x.x.x.x.x.x.x.x.x.x.x.x.x.x.x.x.x.x.x.x.x.x.x.x.x.x.x.x.x.x.x.x.x.x.x.x.x.x.x.x.x.x.x.x.x.x.x.x.x.x.x.x.x.x.z.x.x.x.x.x.x.x.x.x.x.x.v.v.v.x.x.v.v.x.v.x.x.v.v.C.C.N.G.G.C.C.Z.G.H.G.H.H.F.eXxXW.Z.H.H.H.G.G.G.G.G.C.C.C.C.v.v.v.x.v.v.x.x.x.x.v.v.v.C.C.C.G.H.H.H.F.8X|.D.H.H.G.C.C.C.v.c.c.v.v.G.P.D.&X XD.K.C.x.x.v.v.F.Q.6XL.G.v.C.C.|. XC.V.C.&XS.a.}.|.d.T...,.U.b.U.b.n.f.I.f.f.f.f.f.f.f.f.I.I.n.s.c.c.c.n.n.n.f.f.f.s.n.n.c.m.n.n.I.I.j.I.d.f.3.T.m.a.|.a.s.|.|.c.V.F.&XW.C.C.C.}.&XW.Z.m.,.(  . . . .%X;XD.Z.Z.C.C.v.v.v.C.C.C.H.Z.Z.W.).8XE.W.Z.H.C.G.C.N.v.v.v.x.v.x.x.x.x.v.v.v.v.v.v.N.G.G.C.C.C.G.P.G.K.L.Y.kXcXY.H.H.H.G.C.C.C.C.C.C.C.C.v.v.x.x.x.v.x.x.x.x.x.x.x.x.x.x.x.x.x.x.x.z.z.x.x.x.z.z.z.z.z.z.x.z.z.x.x.x.x.x.x.x.x.x.x.x.x.x.x.x.x.x.x.x.x.x.x.x.x.x.x.x.x.x.x.x.x.x.x.x.x.x.x.x.x.x.x.x.x.x.x.x.x.x.x.x.x.x.x.x.x.x.x.x.x.x.x.x.x.x.x.x.x.x.$XCXHXIXJXrXz.x.z.x.z.M.M.M.z.z.z.z.z.z.z.z.z.z.z.z.z.z.z.z.z.q.q.z.z.q.q.q.q.q.q.q.q.q.q.q.q.q.q.q.q.q.0.q.q.q.q.q.q.q.q.0.0.0.",
"0.0.0.0.0.0.0.0.0.0.0.0.q.q.0.0.q.q.q.q.q.q.q.q.q.q.q.q.q.q.q.q.q.q.q.q.q.q.z.w.q.q.q.q.q.q.z.z.x.z.x.U.nXGXHXDXiXp.m.M.x.z.z.z.z.z.x.x.x.x.x.x.x.x.x.z.z.z.x.x.x.x.x.x.x.x.x.x.x.x.x.x.x.x.x.x.x.x.x.x.x.x.x.x.x.x.x.x.x.x.x.x.x.x.x.x.x.x.x.x.x.x.x.x.x.x.x.x.x.x.x.x.x.z.x.x.x.x.x.x.x.x.x.x.x.x.x.x.x.x.v.v.x.v.x.x.v.v.C.C.N.C.G.C.C.C.G.P.G.H.H.F.eXxXW.H.H.H.H.G.G.C.G.G.C.C.C.C.v.v.v.x.v.v.x.x.x.x.v.v.v.C.C.C.G.H.H.L.F.8X|.D.H.H.G.C.C.C.v.c.c.v.v.G.P.D.&X XD.K.C.x.x.v.v.F.Q.6XL.C.v.C.V.|.|.C.V.Z.&XV.s.T.T.c.T.P U.%XY.%XT.%X%XY.T.T.T.T.T.T.T.T.T.T.T.T.T.T.T.T.Y.T.Y.Y.Y.D.D.L.T.T.T.T.%XT.T.%XI.=XY.%XT.S.&Xc.h.|.|.c.V.F.&XW.C.C.C.(.&XW.Z.m.1.(  . . . .T.;XD.Z.Z.C.C.v.v.v.v.C.C.H.Z.Z.W.).8XE.W.Z.H.C.G.C.N.v.v.v.x.x.x.x.x.x.v.v.v.v.v.v.N.G.G.C.C.C.G.P.G.G.L.Y.kXcXY.H.H.H.C.C.G.C.C.C.C.C.C.v.v.x.x.x.v.x.x.x.x.x.x.x.x.x.x.x.x.x.x.x.z.x.x.x.x.z.z.z.z.z.z.x.x.x.x.x.x.x.x.x.x.x.x.x.x.x.x.x.x.x.x.x.x.x.x.x.x.x.x.x.x.x.x.x.x.x.x.x.x.x.x.x.x.x.x.x.x.x.x.x.x.x.x.x.x.x.x.x.x.x.x.x.x.x.x.x.x.x.x.x.x.x.x.$XCXHXIXJXrXz.x.z.x.z.M.M.M.z.z.z.z.z.z.z.z.z.z.z.z.z.z.z.z.z.q.q.z.z.q.q.q.q.q.q.q.q.q.q.q.q.q.q.q.q.q.0.q.q.q.q.q.q.q.q.q.q.q.",
"0.0.0.0.0.0.0.0.q.q.q.q.0.q.q.0.q.q.q.q.q.q.q.q.q.q.q.q.q.q.q.q.q.q.q.q.q.q.z.z.q.q.q.z.q.q.q.z.x.z.x.U.nXHXHXDXiXp.m.M.x.z.z.z.z.x.x.x.x.x.x.x.x.z.x.x.x.x.x.x.x.x.x.x.x.x.x.x.x.x.x.x.x.x.x.x.x.x.x.x.x.x.x.x.x.x.x.x.x.x.x.x.x.x.x.x.x.x.x.x.x.x.x.x.x.x.x.x.x.x.x.x.x.x.x.x.x.x.x.x.x.x.x.x.x.x.x.x.x.x.x.v.v.v.v.v.v.C.C.C.N.C.G.C.C.Z.G.P.G.H.H.F.eXxXW.H.H.H.G.G.G.C.C.C.C.v.v.v.v.v.v.x.v.x.x.x.x.x.x.x.v.C.C.C.G.G.H.L.F.8X|.D.H.H.G.C.C.v.c.c.c.v.v.G.G.Z.&X XD.K.C.x.x.C.v.F.Q.6X(.C.v.C.C.|.|.C.V.C.&XD.c.}.T.m.T.P Y.%XY.Y.Y.T.%XY.T.T.T.T.T.T.T.T.L.D.L.D.D.L.L.D.}.}.T.}.T.}.}.}.|.|.T.T.%XT.T.%XY.&XS.}.S.c. Xs.V.|._.v.C.D.&XW.C.C.C.(.&XW.Z.m.1. ... . . .}.;XD.F.Z.C.C.v.v.v.v.C.C.Z.Z.F.W.).8XW.W.Z.H.C.G.C.N.v.v.v.v.v.x.x.x.x.v.v.v.v.N.N.C.C.G.C.C.C.G.P.G.K.L.Y.kXcXA.H.H.G.G.C.C.C.C.C.C.C.C.v.v.v.v.x.v.v.x.x.x.x.x.x.x.x.x.x.x.x.x.x.x.x.x.x.x.z.z.z.z.z.z.x.x.x.x.x.x.x.x.x.x.x.x.x.x.x.x.x.x.x.x.x.x.x.x.x.x.x.x.x.x.x.x.x.x.x.x.x.x.x.x.x.x.x.x.x.x.x.x.x.x.x.x.x.x.x.x.x.x.x.x.x.x.x.x.x.x.x.x.x.x.v.x.$XCXHXIXJXrXz.x.z.x.z.M.w.M.z.z.z.z.z.z.z.z.z.z.z.z.z.z.z.z.z.z.z.z.z.q.q.q.q.q.q.q.q.q.q.q.q.q.q.q.q.0.0.q.q.q.q.q.q.q.q.0.0.0.",
"0.0.0.0.0.0.0.0.q.q.0.q.0.q.q.q.q.q.0.q.q.q.q.q.q.q.q.q.q.q.q.q.q.q.q.q.q.q.z.z.q.q.w.z.q.q.q.z.x.z.x.U.nXHXHXDXiXp.m.M.x.z.z.z.x.x.x.x.x.z.x.x.z.z.x.x.x.x.x.x.x.x.x.x.x.x.x.x.x.x.x.x.x.z.x.x.x.x.x.x.x.x.x.x.x.x.x.x.x.x.x.x.x.x.x.x.x.x.x.x.x.x.x.x.x.x.x.x.x.x.x.x.x.x.x.x.x.x.x.x.x.x.x.x.x.x.x.x.x.x.v.v.x.v.v.v.v.v.C.C.v.C.v.C.C.C.G.P.G.H.H.F.eXxXW.Z.H.H.G.G.C.C.C.C.C.v.v.v.v.v.v.x.v.v.x.x.x.x.x.x.v.C.C.C.G.G.H.L.F.8X|.D.H.H.G.C.C.C.c.c.c.v.v.G.G.Z.&X XD.K.C.v.x.C.v.F..X6X(.C.C.C.C.|.|.C.V.C.&XL.c.L.T.m.T.P A.%XT.A.<.p.a.c.a.s.s.c.c.c.n.c.V.V.V.c.c.c.c.c.V.V.c.c.V.V.V.V.c.c.a.d.s.p.p.f.%X&XS.|.L.c.|.V.V.|._.v.C.D.&XW.C.C.C.(.&XW.Z.m.1. ... . . .}.;XD.Z.Z.C.C.v.v.v.v.v.C.Z.Z.F.W.).8XW.W.Z.H.C.G.C.N.v.v.v.v.v.x.x.v.x.v.v.v.v.N.N.v.C.C.C.C.C.G.P.G.G.L.Y.aXcXA.H.G.G.C.C.C.C.C.C.C.C.C.v.v.v.v.x.v.v.x.x.x.x.x.x.x.x.x.x.x.x.x.x.x.x.x.x.x.z.z.z.z.z.z.x.x.x.x.x.x.x.x.x.x.x.x.x.x.x.x.x.x.x.x.x.x.x.x.x.x.x.x.x.x.x.x.x.x.x.x.x.x.x.x.x.x.x.x.x.x.x.x.x.x.x.x.x.x.x.x.x.x.x.x.x.x.x.x.x.x.x.x.x.x.v.x.$XCXHXIXHXrXz.x.z.x.z.M.M.z.z.z.z.z.z.z.z.z.z.z.z.z.z.q.q.z.z.z.z.z.z.q.q.q.q.q.q.q.q.q.q.q.q.q.q.q.q.0.0.q.q.q.q.q.q.q.q.0.0.0.",
"0.0.0.0.0.0.0.0.0.0.0.0.q.q.q.q.0.0.0.q.q.q.q.q.q.q.q.q.q.q.q.q.q.q.q.q.q.q.w.w.q.q.w.z.w.q.w.z.z.z.x.U.nXHXHXDXiXs.m.M.x.z.z.z.x.x.x.x.z.z.x.x.x.x.x.x.x.x.x.x.x.x.x.x.x.x.z.x.x.x.x.x.z.z.x.x.x.x.x.x.x.x.x.x.x.x.x.x.x.x.x.x.x.x.x.x.x.x.x.x.x.x.x.x.x.x.x.x.x.x.x.x.x.x.x.x.x.x.x.x.x.x.x.x.x.x.x.x.x.x.x.x.x.v.v.v.v.v.v.v.v.v.v.C.C.C.G.G.G.G.H.F.eXcXW.Z.H.H.G.G.C.C.C.C.C.C.C.v.v.v.v.x.x.x.x.x.x.x.x.x.v.C.C.C.G.G.H.H.F.8X|.D.H.H.G.C.v.v.c.c.c.v.C.G.G.Z.&X XD.K.C.x.x.C.C.F..X6X(.C.C.C.C.|.|.Z.V.C. X(.c.D.|.c.T.P D.&X|.s. .3.<.a.c.c.c.c.c.c.V.V.V.V.V.V.A.A.V.V.V.V.V.c.c.c.c.c.s.a.a.p.p.<.3.f.%X%XD.}.L.V.(.V.V.|._.v.Z.D.&XW.C.C.C.(.&XW.Z.m.1. ... . . .}.;XD.F.Z.C.C.v.v.v.v.v.C.Z.Z.F.W.(.8XW.W.Z.H.C.G.C.v.v.v.v.v.v.v.x.v.v.v.v.v.v.N.N.v.C.C.C.C.C.G.G.G.G.L.Y.aXvXA.H.H.H.C.C.C.C.C.C.C.C.C.C.v.v.v.x.v.x.v.x.x.x.x.x.x.x.x.x.x.x.x.x.x.x.x.x.x.z.z.z.z.z.z.x.x.x.x.x.x.x.x.x.x.x.x.x.x.x.x.x.x.x.x.x.x.x.x.x.x.x.x.x.x.x.x.x.x.x.x.x.x.x.x.x.x.x.x.x.x.x.x.x.x.x.x.x.x.x.x.x.x.x.x.x.x.x.x.x.x.x.x.x.x.x.x.$XCXHXIXHXrXz.x.z.x.x.M.z.w.z.z.z.z.z.q.q.q.q.q.z.z.q.q.q.z.z.q.q.q.q.q.q.q.q.q.q.q.q.q.q.q.q.q.q.q.q.0.0.q.q.q.q.q.q.q.q.0.0.0.",
"0.0.0.0.0.0.0.0.0.0.0.0.q.q.q.q.0.0.0.q.q.q.q.q.q.q.q.q.q.q.q.q.q.q.q.q.q.q.w.z.q.q.w.z.w.w.w.z.z.z.x.U.nXHXHXDXiXs.m.M.x.z.z.z.x.x.x.x.z.z.x.x.x.x.x.x.x.x.x.x.x.x.x.x.x.x.x.z.x.x.x.x.z.z.x.x.x.x.x.x.x.x.x.x.x.x.x.x.x.x.x.x.x.x.x.x.x.x.x.x.x.x.x.x.x.x.x.x.x.x.x.x.x.x.x.x.x.x.x.x.x.x.x.x.x.x.x.x.x.x.x.x.x.v.v.v.v.v.C.v.v.v.C.C.C.C.G.G.C.G.G.F.eXcXW.Z.H.H.G.G.C.C.C.C.C.C.C.v.v.v.v.x.x.x.x.x.x.x.x.x.v.C.C.C.G.G.H.H.F.8X|.D.H.H.G.C.v.v.c.c.c.v.C.G.G.Z.&X XD.K.C.x.x.C.C.F..X6X(.C.C.C.C.|.|.Z.V.C. X(.c.D.|.c.T. .F.|.|.s.<.c.p.c.s.c.c.c.V.V.C.C.Z.Z.F.A.A.A.A.V.C.Z.C.C.V.V.V.V.c.c.a.a.a.p.a.D.|.&X}.F.Z.(._.V.V.|._.v.Z.D.&XW.C.C.C.(.&XW.Z.m.1..... . . .}.;XD.F.Z.C.C.v.v.v.v.v.C.Z.Z.F.W.(.8XW.W.Z.H.C.G.C.v.v.v.v.v.v.x.x.x.x.v.v.v.v.N.N.v.v.C.C.C.C.G.G.G.G.L.Y.aXvXA.H.H.H.C.C.C.C.C.C.C.C.C.C.v.v.v.x.x.x.x.x.x.x.x.x.x.x.x.x.x.x.x.x.x.x.x.x.x.z.z.z.z.z.z.x.x.x.x.x.x.x.x.x.x.x.x.x.x.x.x.x.x.x.x.x.x.x.x.x.x.x.x.x.x.x.x.x.x.x.x.x.x.x.x.x.x.x.x.x.x.x.x.x.x.x.x.x.x.x.x.x.x.x.x.x.x.x.x.x.x.x.x.x.x.x.x.$XCXHXIXHXrXc.x.z.x.z.M.z.w.z.z.z.z.z.q.q.q.q.z.z.q.q.q.q.z.z.q.q.q.q.q.q.q.q.q.q.q.q.q.q.q.q.q.q.q.q.0.0.q.q.q.q.q.q.q.q.0.0.q.",
"0.0.0.0.0.0.0.0.0.0.0.0.q.q.0.0.0.0.q.q.q.q.q.q.q.q.q.q.q.q.q.q.q.q.q.q.q.q.q.q.q.q.w.q.q.q.z.z.z.z.x.U.nXHXHXDXiXp.m.b.z.z.z.z.z.z.z.z.z.z.z.z.z.z.z.z.z.z.z.z.x.x.x.x.x.x.x.x.x.x.x.x.x.z.x.x.x.x.x.x.x.x.x.x.x.x.x.x.x.x.x.x.x.x.x.x.x.x.x.x.x.x.x.x.x.x.x.x.x.x.x.x.x.x.x.x.x.x.x.x.x.x.x.x.x.x.x.x.x.v.v.v.x.v.v.v.v.C.v.v.v.G.G.C.S.C.G.G.C.L.G.A.eXcXD.Z.H.H.C.C.C.C.C.C.C.C.C.C.v.v.x.x.x.v.x.x.x.v.v.v.v.v.C.C.C.C.H.Z.F.8X|.D.H.H.G.C.C.C.v.v.v.v.C.G.G.Z.&X XD.K.C.v.x.v.c.Z.Q.6XH.G.C.C.C.|.|.C.V.V.&XD.c.L.}.V.L. .F. X}.h.<.s.a.c.c.c.C.C.C.C.C.C.V.V.A.OXOXOXc.C.Z.Z.C.S.S.V.C.C.v.c.V.s.s.a.p.D.|. XD.(.Z.C.(.V.V.|.|.C.C.Z.&XF.C.v.H.(.&XW.C.S.1. ... . . .T.;XD.F.Z.C.C.v.v.v.C.C.C.Z.Z.Z.F.(.8XF.Z.Z.H.C.G.C.N.N.v.v.v.x.x.x.x.x.v.v.v.v.N.v.N.G.G.C.C.C.G.P.G.K.K.A.aXcXY.H.H.G.G.C.C.C.C.C.C.C.C.v.v.v.v.x.x.x.x.x.x.x.x.x.x.x.x.x.x.x.x.x.x.x.z.z.z.z.z.z.z.z.z.x.x.x.x.x.x.x.x.x.x.x.x.x.x.x.x.x.x.x.x.x.x.x.x.x.x.x.x.x.x.x.x.x.x.x.x.x.x.x.x.x.x.x.x.x.x.x.x.x.x.x.x.x.x.x.x.x.z.z.z.x.x.x.x.x.x.x.x.x.x.x.z.$XCXHXIXHXrXz.x.z.c.z.M.w.w.z.z.z.z.z.q.q.z.z.q.q.q.q.q.q.q.q.q.q.q.q.q.q.q.q.q.q.q.q.q.q.q.q.q.q.q.q.q.q.0.0.q.q.q.q.q.q.q.0.0.",
"0.0.0.0.0.0.0.0.0.0.0.0.q.q.0.0.0.0.q.q.q.q.q.q.q.q.q.q.q.q.q.q.q.q.q.q.q.q.q.q.q.q.w.w.q.q.z.z.z.z.x.U.nXHXHXDXiXp.m.b.z.z.z.z.z.z.z.z.z.z.z.z.z.z.z.z.z.z.z.z.x.x.x.x.x.x.x.x.x.x.x.x.z.z.x.x.x.x.x.x.x.x.x.x.x.x.x.x.x.x.x.x.x.x.x.x.x.x.x.x.x.x.x.x.x.x.x.x.x.x.x.x.x.x.x.x.x.x.x.x.x.x.x.x.x.x.x.x.x.v.v.v.x.v.v.v.v.C.v.v.v.v.G.C.S.C.G.G.C.L.G.A.eXcXD.Z.H.H.C.C.C.C.G.C.C.C.C.C.v.v.x.x.v.v.x.v.x.x.v.v.v.v.C.C.C.C.H.Z.F.8X|.D.H.H.G.C.C.C.v.v.c.v.C.G.G.F.&X XD.K.C.v.v.v.c.Z.Q.6XH.G.C.C.C.|.|.C.C.V.&XD.c.D.}.V.L. .F. X).h.<.s.s.c.c.C.C.C.C.C.C.C.Z.L.%X+X6.U.T.D.C.Z.Z.S.S.S.C.C.C.c.v.c.s.s.p.D.|. XD.(.Z.C.(.V.V.|.|.C.C.Z.&XF.C.v.H.(. XW.C.S.1. ... . . .T.;XD.F.Z.C.C.v.v.v.C.C.C.Z.Z.Z.F.(.8XF.Z.Z.H.C.G.v.N.N.v.v.v.x.v.v.x.x.v.v.v.v.v.v.G.G.G.C.C.C.G.G.G.K.K.A.aXcXY.H.H.G.G.C.C.C.C.C.C.C.C.v.v.v.v.x.x.x.x.x.x.x.x.x.x.x.x.x.x.x.x.x.x.x.z.z.z.z.z.z.z.z.z.x.z.x.x.x.x.x.x.x.x.x.x.x.x.x.x.x.x.x.x.x.x.x.x.x.x.x.x.x.x.x.x.x.x.x.x.x.x.x.x.x.x.x.x.x.x.x.x.x.x.x.x.x.x.x.x.x.x.x.x.x.x.x.x.x.x.x.x.x.x.x.z.$XCXHXIXHXrXz.x.z.c.z.M.w.w.z.z.z.z.z.q.q.z.z.q.q.z.q.q.q.q.q.q.q.q.q.q.q.q.q.q.q.q.q.q.q.q.q.q.q.q.q.q.q.0.0.q.q.q.q.q.q.q.q.0.",
"0.0.0.0.0.0.0.0.0.0.0.0.0.0.0.0.0.0.q.q.0.0.q.q.q.q.q.q.q.q.q.q.q.q.q.q.q.q.q.q.q.q.q.q.q.q.z.z.x.z.B.U.nXHXHXDXiXp.m.z.z.z.z.z.z.z.z.z.z.z.z.z.z.z.z.z.z.z.z.z.z.x.x.x.x.x.x.x.x.x.x.x.x.x.x.x.x.x.x.x.x.x.x.x.x.x.x.x.x.x.x.x.x.x.x.x.x.x.x.x.x.x.x.x.x.x.x.x.x.x.x.x.x.x.x.x.x.x.x.x.x.x.x.x.x.x.x.x.x.v.v.v.x.v.v.v.v.C.C.v.v.C.G.C.C.C.G.G.C.L.G.A.eXcXD.Z.H.G.C.C.G.C.G.G.C.C.v.v.v.v.x.x.v.v.v.v.x.v.v.v.v.C.C.C.C.C.H.Z.F.8X|.D.H.H.C.C.C.C.v.c.c.v.v.G.G.F.&X XD.K.C.x.x.v.v.Z.Q.&XH.G.C.C.C.|.|.C.C.C.&XD.V.D.T.V.L. .F. X).V.p.s.c.v.v.C.C.C.C.C.Z.Z.C.C.R.S f V U.S.C.Z.Z.C.S.S.C.C.C.v.V.c.c.s.s.D.|. XW.(.Z.V.(.V.V.|._.C.C.Z.&XF.C.v.H.(.&XW.C.S.1. ... . . .T.;XD.F.Z.C.C.v.v.v.C.C.C.Z.Z.Z.W.).8XW.Z.Z.H.C.G.v.N.N.v.v.v.x.v.v.x.v.v.v.v.v.N.N.N.G.G.C.C.C.G.G.G.K.K.A.aXcXY.H.G.C.C.C.C.C.C.C.C.C.C.v.v.v.v.x.x.x.x.x.x.x.x.x.x.x.x.x.x.x.x.x.x.x.z.z.z.z.z.z.z.z.z.x.z.z.x.x.x.x.x.x.x.x.x.x.x.x.x.x.x.x.x.x.x.x.x.x.x.x.x.x.x.x.x.x.x.x.x.x.x.x.x.x.x.x.x.x.x.x.x.x.x.x.x.x.x.x.x.x.x.x.x.x.x.x.x.x.x.x.x.x.x.x.z.$XCXHXIXHXrXz.x.z.c.z.M.w.w.z.z.z.z.z.z.q.z.z.q.q.z.z.q.q.q.q.q.q.q.q.q.q.q.q.q.q.q.q.q.q.q.q.q.q.q.q.q.q.0.0.0.q.0.0.q.q.q.q.0.",
"0.0.0.0.0.0.0.0.0.0.0.0.0.0.0.0.0.0.q.q.q.0.q.q.q.q.q.q.q.q.q.q.q.q.q.q.q.q.q.q.q.q.q.q.q.q.z.z.z.z.B.U.nXHXHXDXiXp.m.z.z.z.z.z.z.z.z.z.z.z.z.z.z.z.z.z.z.z.z.z.x.x.x.x.x.x.x.x.x.x.x.z.x.x.x.x.x.x.x.x.x.x.x.x.x.x.x.x.x.x.x.x.x.x.x.x.x.x.x.x.x.x.x.x.x.x.x.x.x.x.x.x.x.x.x.x.x.x.x.x.x.x.x.x.x.x.x.x.x.v.v.v.x.v.v.v.v.C.C.C.N.v.G.C.C.C.G.G.C.L.G.A.eXcXD.Z.G.G.C.C.G.C.G.G.C.C.v.v.v.v.x.x.v.v.v.v.x.v.v.v.v.C.C.C.C.C.H.Z.F.8X|.D.Z.H.G.C.C.C.v.c.c.v.v.G.G.F.&X XD.S.C.x.x.v.v.F.Q. XH.H.C.C.C.|.|.C.C.C.&XL.V.D.L.V.L. .W. X).V.p.c.c.C.C.C.C.C.Z.Z.Z.Z.H.P.t.f 9 f 7.T.H.H.H.Z.D.S.C.C.C.C.C.c.V.c.s.D.|. XD.(.D.V.}.V.V.|._.C.C.D.&XF.C.v.H.(. XW.S.S.1. ... . . .T.;XD.F.Z.C.C.v.v.v.G.C.C.Z.Z.Z.W.).8XW.Z.Z.H.C.C.v.N.N.v.v.v.x.v.v.x.v.v.v.v.v.N.N.N.G.G.C.C.C.G.G.C.K.K.A.aXcXY.H.G.C.C.C.C.C.C.C.C.C.C.v.v.v.v.x.x.x.x.x.x.x.x.x.x.x.x.x.x.x.x.x.x.x.z.z.z.z.z.z.z.z.z.z.z.z.x.x.x.x.x.x.x.x.x.x.x.x.x.x.x.x.x.x.x.x.x.x.x.x.x.x.x.x.x.x.x.x.x.x.x.x.x.x.x.x.x.x.x.x.x.x.x.x.x.x.x.x.x.x.x.x.x.x.x.x.x.x.x.x.x.x.x.x.z.$XCXHXIXJXrXz.x.z.c.z.M.w.w.z.z.z.z.z.z.z.z.z.q.z.z.z.q.q.z.q.q.q.q.q.q.q.q.q.q.q.q.q.q.q.q.q.q.q.q.q.q.q.0.0.0.0.0.0.0.0.0.0.0.",
"0.0.0.0.0.0.0.0.0.0.0.0.0.0.0.0.0.0.q.q.q.q.q.q.q.q.q.q.q.q.q.q.q.q.q.q.q.q.q.q.q.q.q.q.q.q.q.z.z.z.B.U.nXGXHXDXiXs.M.z.z.z.z.z.z.z.z.z.z.z.z.z.z.z.z.z.z.z.z.z.x.x.x.x.x.x.x.x.x.z.z.z.x.x.x.x.x.x.x.x.x.x.x.x.x.x.x.x.x.x.x.x.x.x.x.x.x.x.x.x.x.x.x.x.x.x.x.x.x.x.x.x.x.x.x.x.x.x.x.x.x.x.x.x.x.v.v.v.x.x.x.x.x.v.x.v.v.v.C.v.v.v.v.C.S.C.G.G.C.K.G.A.eXcXD.Z.G.G.C.C.C.C.C.C.C.C.v.v.v.v.x.x.x.x.x.x.x.x.x.v.v.v.C.C.C.C.H.Z.F.8X|.F.Z.H.G.C.C.C.C.c.v.v.C.G.G.F.&X XD.K.C.x.x.C.v.F.Q. XH.G.C.C.C.|.|.C.C.Z.&XD.V.Z.L.C.L. .W. X).Z.p.V.c.C.C.C.C.Z.Z.Z.Z.Z.G.|.t.l f l 7.%XH.H.H.H.D.S.Z.C.G.C.C.V.C.V.s.D. X|.W.}.L.S.}.V.Z.|._.C.F.F.&XF.C.v.H.L. XW.C.S.1..... . . .T.&XD.F.Z.C.C.v.v.v.v.C.C.C.Z.Z.W.).8XF.Z.Z.H.C.C.v.N.v.v.v.v.x.x.v.v.v.v.v.v.v.N.N.C.C.C.C.C.C.G.G.C.K.G.A.aXcXA.H.C.C.C.C.C.C.C.C.C.C.v.v.v.x.v.x.v.v.v.x.x.x.x.x.x.x.x.x.x.x.x.x.x.x.z.z.z.z.z.z.z.z.z.x.x.x.x.x.x.x.x.x.x.x.x.x.x.x.x.x.x.x.x.x.x.x.x.x.x.x.x.x.x.x.x.x.x.x.x.x.x.x.x.x.x.x.x.x.x.x.x.x.x.x.x.x.z.x.x.x.x.z.x.x.x.x.x.x.x.x.x.x.x.x.z.$XCXHXIXJXrXz.x.z.c.z.M.w.z.z.z.z.z.z.z.z.z.z.q.q.z.q.q.q.z.z.q.q.q.q.q.q.q.q.q.q.q.q.q.q.q.q.q.q.q.q.q.q.0.0.0.0.0.0.q.q.q.0.0.",
"0.0.0.0.0.0.0.0.0.0.0.0.0.0.0.0.0.0.q.q.q.q.q.q.0.q.0.0.q.0.0.0.q.q.q.q.q.q.q.q.q.q.q.q.q.q.q.z.z.z.B.U.nXGXHXDXiXs.m.z.z.z.z.z.z.z.z.z.z.z.z.z.z.z.z.z.z.z.z.z.z.z.z.z.z.z.z.z.x.x.z.z.x.x.x.x.x.x.x.x.x.x.x.x.x.x.x.x.x.x.x.x.x.x.x.x.x.x.x.x.x.x.x.x.x.x.x.x.x.x.x.x.x.x.x.x.x.x.x.x.x.x.x.x.x.v.v.v.x.x.x.x.x.v.x.v.v.C.C.v.v.v.v.C.C.C.G.G.C.K.G.A.eXcXD.C.H.C.C.C.C.C.C.C.C.C.v.v.v.v.x.x.x.x.x.x.x.v.v.v.v.v.C.C.C.C.H.Z.F.8X|.F.Z.H.C.C.C.C.C.c.v.v.C.G.G.F.&X XD.K.C.x.x.C.v.F.Q. XZ.G.C.C.C.|.|.C.V.Z.&XL.C.C.L.C.L. .W. X).Z.a.S.C.C.C.C.C.Z.Z.Z.Z.H.G.T.+.n n b >.T.H.J.H.H.K.Z.Z.Z.H.C.C.C.C.V.s.D. X|.D.}.L.F.}.F.F.|.(.C.Z.F.&XF.C.C.H.(. XW.C.S.1..... . . .T.&XD.F.Z.C.C.v.v.v.C.C.C.C.Z.Z.W.).8XF.Z.Z.Z.C.C.v.N.N.v.v.v.x.v.v.v.v.v.v.v.v.v.N.v.C.C.C.C.C.G.G.C.G.G.A.aXcXA.Z.C.C.C.C.C.C.C.C.C.C.v.v.v.x.v.x.v.v.v.x.x.x.x.x.x.x.x.x.x.x.x.x.x.x.z.z.z.z.z.z.z.z.z.x.x.x.x.x.x.x.x.x.x.x.x.x.x.x.x.x.x.x.x.x.x.x.x.x.x.x.x.x.x.x.x.x.x.x.x.x.x.x.x.x.x.x.x.x.x.x.x.x.x.x.x.x.x.x.x.x.x.x.x.x.x.x.x.x.x.x.x.x.x.x.x.$XCXHXIXHXrXz.x.z.c.z.M.w.z.z.z.z.z.z.z.z.z.z.q.q.z.z.q.q.z.z.q.q.q.q.q.q.q.q.q.q.q.q.q.q.q.q.q.q.q.q.q.q.0.0.0.0.0.0.q.q.0.0.0.",
"0.0.0.0.0.0.0.0.0.0.0.0.0.q.0.0.0.0.q.q.q.q.q.q.q.q.q.q.q.q.q.0.q.q.q.q.q.q.q.q.q.q.q.q.q.q.q.z.z.z.B.U.nXGXHXDXiXs.m.M.z.z.z.z.z.z.z.z.z.z.z.z.z.z.z.z.z.z.z.z.z.z.z.z.z.z.z.z.x.x.x.x.x.x.x.x.x.x.x.x.x.x.x.x.x.x.x.x.x.x.x.x.x.x.x.x.x.x.x.x.x.x.x.x.x.x.x.x.x.x.x.x.x.x.x.x.x.x.x.x.x.x.x.x.x.x.v.v.x.v.x.x.x.x.x.v.v.C.C.v.v.v.v.C.V.C.G.G.C.K.G.A.eXcXF.C.C.G.C.C.C.C.C.C.C.C.C.C.v.v.x.x.x.x.x.x.v.v.v.v.v.v.C.C.C.C.H.H.F.8X|.F.Z.H.C.C.C.C.v.v.v.v.v.G.G.F. X XD.C.C.x.x.C.C.F.Q. XZ.G.C.C.C._.|.C.F.F. X(.C.Z.H.C.L. .Z. X).C.s.S.V.C.C.G.H.H.H.Z.E.H.P.P.D n m b 7.T.J.J.J.J.H.H.Z.Z.H.C.C.C.C.V.s.D. X|.D.|.}.F.}.F.F.}.L.C.Z.D.&XF.C.C.G.L. XW.C.K.1..... . .P T.&XD.Z.Z.C.C.v.v.v.C.C.C.Z.Z.Z.W.).8XF.F.Z.Z.C.C.v.v.v.v.v.v.x.x.x.v.v.v.v.v.v.v.v.v.C.C.C.C.C.G.G.C.G.K.A.aXcXA.C.C.C.C.C.C.C.C.C.C.C.C.v.v.x.v.x.x.x.v.x.x.x.x.x.x.x.x.x.x.x.x.x.x.x.z.z.z.z.z.z.z.z.z.x.x.x.x.x.x.x.x.x.x.x.x.x.x.x.x.x.x.x.x.x.x.x.x.x.x.x.x.x.x.x.x.x.x.x.x.x.x.x.x.x.x.x.x.x.x.x.x.x.x.x.x.x.z.x.x.x.x.z.z.x.x.x.x.x.x.x.x.x.x.x.x.$XAXHXIXHXrXz.x.z.x.z.M.w.z.z.z.z.q.q.z.z.z.z.q.q.z.z.q.q.z.z.q.q.q.q.q.q.q.q.q.q.q.q.q.q.q.q.q.q.q.q.q.q.0.q.q.0.q.q.q.q.0.0.0.",
"0.0.0.0.0.0.0.0.0.0.0.0.q.q.0.0.0.0.q.q.0.q.q.q.q.q.q.q.q.q.q.q.q.q.q.q.q.q.q.q.q.q.q.q.q.q.q.z.z.z.x.U.nXGXHXDXiXs.m.z.z.z.z.z.z.z.z.z.z.z.z.z.z.z.z.z.z.z.z.z.z.z.z.z.z.z.z.z.x.x.x.x.x.x.x.x.x.x.x.x.x.x.x.x.x.x.x.x.x.x.x.x.x.x.x.x.x.x.x.x.x.x.x.x.x.x.x.x.x.x.x.x.x.z.x.x.x.x.x.x.x.x.x.x.x.x.v.v.x.x.x.x.x.v.v.v.v.C.v.v.v.v.v.C.V.C.C.G.C.H.G.A.eXcXF.C.G.G.C.C.C.C.C.C.C.C.C.C.v.v.x.v.v.v.x.x.x.v.v.v.v.v.C.C.C.C.H.Z.F.8X|.F.H.G.C.C.C.C.v.v.v.v.v.G.G.Z. X XS.C.C.x.x.C.C.F.Q. XZ.G.C.C.C.|.|.S.S.F. X(.C.Z.K.C.}. .Z. X).C.a.C.V.C.C.C.Z.Z.Z.E.E.H.L.R.n m m n u.R.P.J.!.H.H.H.H.H.H.C.C.C.C.C.s.D. X|.D.|.}.F.}.F.F.}.L.C.Z.D.&XF.G.C.G.L. XW.C.S.1....... .P T.&XD.Z.Z.C.C.v.v.N.C.C.C.Z.Z.Z.W.}.8XF.Z.C.Z.C.C.v.v.v.v.v.v.x.x.x.x.v.v.v.v.v.N.v.v.v.C.C.C.C.G.G.C.K.K.I.aXvXA.C.C.C.C.C.C.C.C.C.C.C.C.v.v.x.v.x.x.v.v.x.x.x.x.x.x.x.x.x.x.x.x.x.x.x.z.z.z.z.z.z.z.z.z.x.x.x.x.x.x.x.x.x.x.x.x.x.x.x.x.x.x.x.x.x.x.x.x.x.x.x.x.x.x.x.x.x.x.x.x.x.x.x.x.x.x.x.x.x.x.x.x.x.x.x.x.x.x.x.x.x.z.z.z.x.x.x.x.x.x.x.x.x.x.x.z.$XAXHXIXHXrXz.x.z.c.z.M.w.z.z.z.z.q.q.z.z.z.q.q.q.z.z.q.q.z.z.q.q.q.q.q.q.q.q.q.q.q.q.q.q.q.q.q.q.q.q.q.q.q.q.q.q.q.q.q.q.0.0.0.",
"2.2.2.2.2.0.0.0.0.0.0.0.0.0.0.0.q.q.q.0.0.0.q.q.q.q.q.q.q.q.q.q.q.q.q.q.q.q.q.q.q.q.q.q.q.z.q.z.z.z.x.I.mXHXHXDXiXa.M.b.x.z.z.z.z.z.z.z.z.z.z.z.z.z.z.z.z.z.z.z.z.z.z.z.z.z.z.z.z.z.z.z.z.z.z.z.z.z.z.z.z.z.z.z.z.z.z.x.x.x.x.x.x.x.x.x.x.x.x.x.x.x.x.x.x.x.x.x.z.z.z.z.z.z.z.z.z.z.z.x.x.x.x.x.x.x.x.x.x.x.x.x.x.x.x.v.v.v.v.v.v.v.v.C.C.C.C.G.C.C.G.Y.eXxXD.C.G.C.G.C.C.C.C.C.v.v.v.v.v.v.v.v.v.v.v.v.x.x.x.x.v.C.C.C.C.C.G.Z.F.8X|.F.H.G.G.G.C.C.v.c.c.v.C.G.G.S. X XF.C.C.v.v.C.C.Z.Q. XZ.G.C.C.C._.|.S.C.C.|.Z.C.C.D.S.T. .D. X).Z.c.C.C.Z.Z.Z.Z.Z.E.!.Z.P.R.b n n m n i./ M._._.Z.J.~.H.H.H.Z.H.C.C.C.V.(. X|.{.W.}.F.Y.S.C.|.L.C.C.(.|.Z.Z.C.Z.L. XL.C.S.1. . ... .P T.;XS.F.Z.C.C.C.N.N.C.G.C.C.L.Z.D.}.8XF.F.S.K.C.C.C.v.v.v.v.v.x.x.v.v.v.v.v.v.v.v.v.G.G.G.C.S.C.G.G.C.C.K.I.aXcXY.C.C.C.C.C.C.C.C.C.v.v.v.v.v.v.v.x.x.x.x.x.x.x.x.x.x.x.x.x.x.x.x.x.x.x.z.z.z.z.z.z.z.z.z.z.z.z.z.z.x.x.x.x.x.x.x.x.x.x.x.x.x.x.x.x.x.x.x.x.x.x.x.x.x.x.x.x.x.z.x.x.x.x.x.x.x.x.x.x.x.x.x.x.x.x.x.x.z.z.z.z.z.z.z.z.x.x.x.x.x.x.x.x.x.x.z.$XAXHXIXHXrXz.x.z.x.z.M.e.M.z.z.q.w.q.q.q.z.z.q.q.q.q.q.q.q.q.q.q.q.q.q.q.q.q.q.q.q.q.q.q.q.0.q.0.0.q.q.q.0.0.0.0.q.q.0.0.0.0.0.",
"2.2.2.2.2.0.0.0.0.0.0.0.0.0.0.0.q.q.0.0.0.0.q.0.q.q.q.q.q.q.q.q.q.q.q.q.q.q.q.q.q.q.q.q.q.q.q.q.z.z.x.k.mXHXHXDXiXa.n.b.x.z.w.x.z.z.z.z.z.z.z.z.z.z.z.z.z.z.z.z.z.z.z.z.z.z.z.z.z.z.z.z.z.z.z.z.z.z.z.z.z.z.z.z.z.z.z.x.x.x.x.x.x.x.x.x.x.x.x.x.x.x.x.x.x.x.x.x.z.z.z.z.z.z.z.z.z.z.z.x.x.x.x.x.x.x.x.x.x.x.x.x.x.x.x.v.v.v.v.v.N.v.v.C.C.C.C.G.C.Z.K.I.eXxXD.G.G.C.G.C.C.C.C.C.v.v.v.v.v.v.v.v.v.v.v.v.x.x.x.x.v.C.C.C.C.C.G.D.F.8X|.Z.H.G.G.G.C.C.v.c.c.v.C.C.K.S. X XF.C.C.v.v.C.C.Z.Q. XH.G.C.C.C._.|.S.S.C.|.Z.Z.C.D.S.T. .D. X|.D.c.C.C.Z.Z.E.E.Z.!.(.H.T.+.n n m m n n m >.K.(.Z.!.~.H.J.Z.Z.H.C.C.C.V.(. X|.{.W.}.F.T.S.C._.L.C.C.(.|.H.Z.C.Z.L. XL.C.S.1. .......P OX;XS.F.C.C.C.C.N.C.C.C.C.C.H.F.D.}.8XD.D.S.K.C.C.C.N.v.v.v.v.x.v.v.v.v.v.v.v.v.v.v.N.G.C.C.S.C.G.G.C.C.K.I.aXcXY.C.C.C.C.C.C.C.C.C.v.v.v.v.v.v.v.x.x.x.x.x.x.x.x.x.x.x.x.x.x.x.x.x.x.x.z.z.z.z.z.z.z.z.z.z.z.z.z.z.x.x.x.x.x.x.x.x.x.x.x.x.x.x.x.x.x.x.x.x.x.x.x.x.x.x.x.x.z.z.x.x.x.x.x.x.x.x.x.x.x.x.x.x.x.x.x.x.z.z.z.z.z.z.z.z.x.x.x.x.x.x.x.x.x.x.z.$XAXHXIXHXrXz.x.z.x.z.M.e.M.z.w.w.q.q.q.q.z.z.q.q.q.q.q.q.q.q.q.q.q.q.q.q.q.q.q.q.q.0.0.q.0.0.q.0.q.q.0.0.0.0.0.0.q.q.0.0.0.0.0.",
"0.2.2.2.2.0.0.0.0.0.0.0.0.0.0.0.0.q.0.0.0.0.0.0.0.0.q.q.q.q.q.q.q.q.q.q.q.q.q.q.q.q.q.q.q.z.z.q.z.z.z.I.mXHXHXDXiXa.n.b.z.z.w.w.w.z.z.z.z.z.z.z.z.z.z.z.z.z.z.z.z.z.z.z.z.z.z.z.z.z.z.z.z.z.z.z.z.z.z.z.z.z.z.z.z.z.z.x.x.x.x.x.x.x.x.x.x.x.x.x.x.x.x.x.x.x.x.x.z.z.z.z.z.z.z.z.z.z.z.x.x.x.x.x.x.x.x.x.x.x.x.x.v.v.x.v.v.v.v.v.N.v.v.C.C.C.C.G.C.C.K.I.eXxXY.G.G.C.G.G.C.C.C.C.v.v.v.v.v.v.v.x.x.x.v.v.v.v.v.v.v.C.C.C.C.C.G.Z.A.8X|.F.H.G.G.G.C.C.v.c.c.v.C.C.G.S. X XF.C.C.C.v.C.v.Z.Q. XH.G.C.C.C.|.|.S.C.C.|.Z.Z.C.S.S.T. .D. X|.Z.c.C.C.Z.Z.Z.Z.Z.!._.P.K./ n n m m n n 8 T x.(.!.!.H.Z.!.Z.Z.Z.C.C.C.V.(. X|.{.W.|.F.L.S.C._.L.C.C.L.|.Z.Z.V.Z.L. XL.C.S.1. .......P OX;XS.D.C.C.C.C.v.v.C.G.C.C.H.F.D.}.8XD.D.S.K.C.C.v.N.v.v.v.x.v.v.v.x.x.x.v.v.v.v.v.N.G.C.C.S.C.G.G.C.C.K.A.aXcXY.C.C.C.C.C.C.C.C.C.v.v.v.v.v.v.v.x.v.v.x.x.x.x.x.x.x.x.x.x.x.x.x.x.x.x.z.z.z.z.z.z.z.z.z.z.z.z.z.z.x.x.x.x.x.x.x.x.x.x.x.x.x.x.x.x.x.x.x.x.x.x.x.x.x.x.x.x.x.x.x.x.z.z.z.x.x.x.x.z.x.x.x.x.x.x.x.x.z.z.z.z.z.z.z.z.x.x.x.x.x.x.x.x.x.x.z.$XAXHXIXHXrXz.x.z.x.z.M.e.z.z.q.q.q.q.q.q.w.w.q.q.q.q.q.q.q.q.q.q.q.q.q.q.q.q.q.q.q.0.q.q.0.0.0.0.0.0.0.0.0.0.0.0.q.0.0.0.0.0.0.",
"0.2.2.2.2.0.0.0.0.0.0.0.0.0.0.0.0.0.0.0.0.0.0.0.0.0.q.q.q.q.q.q.q.q.q.q.q.q.q.q.q.q.q.q.q.q.q.z.z.z.z.U.mXHXHXDXiXa.n.b.z.z.w.w.w.z.z.z.z.z.z.z.z.z.z.z.z.z.z.z.z.z.z.z.z.z.z.z.z.z.z.z.z.z.z.z.z.z.z.z.z.z.z.z.z.z.z.x.x.x.x.x.x.x.x.x.x.x.x.x.x.x.x.x.x.x.x.x.z.z.z.z.z.z.z.z.z.z.z.x.x.x.x.x.x.x.x.x.x.x.x.x.v.x.x.v.v.v.v.v.N.v.v.C.C.C.C.G.C.C.G.I.eXxXY.G.G.G.G.G.C.C.C.C.v.v.v.v.v.v.v.x.x.x.x.x.v.v.v.v.v.C.C.C.C.C.C.Z.F.8X}.F.C.G.G.G.C.C.v.c.c.v.C.C.G.S. X XF.C.C.C.x.C.v.Z.Q. XH.G.C.C.C.|.|.S.C.C.|.Z.C.C.S.S.T. .D. X).F.s.C.C.Z.Z.Z.Z.Z.Z.L.L.m.T m 8 v f f 8 8 b 0.L.!.!.H.Z.W.Z.Z.Z.C.C.C.V.(. X|.{.W.}.F.T.S.C._.(.C.C.(.|.Z.Z.V.Z.L. XH.C.S.1.........P T.;XS.D.C.C.C.C.v.v.C.C.C.C.H.F.D.}.8XF.D.S.K.C.C.v.N.v.v.v.x.v.v.v.x.x.x.v.v.v.v.v.N.G.C.C.S.C.G.G.C.C.K.A.aXcXY.C.C.C.C.C.C.C.C.v.v.v.v.v.v.v.v.x.v.v.x.x.x.x.x.x.x.x.x.x.x.x.x.x.x.x.z.z.z.z.z.z.z.z.z.z.z.z.z.z.x.x.x.x.x.x.x.x.x.x.x.x.x.x.x.x.x.x.x.x.x.x.x.x.x.x.x.z.x.x.x.x.z.z.x.x.x.z.z.z.x.x.x.x.x.x.x.x.z.z.z.z.z.z.z.z.z.z.z.z.z.z.z.z.x.x.x.$XAXHXIXHXrXz.x.z.x.z.M.e.z.z.z.w.q.q.q.q.w.w.q.q.q.q.q.q.q.q.q.q.q.q.q.q.q.q.q.q.q.0.q.q.0.0.0.0.0.0.0.0.0.0.0.0.0.0.0.0.0.0.0.",
"0.0.2.2.2.0.0.0.0.0.0.0.0.0.0.0.0.0.0.0.0.0.0.0.0.0.q.q.q.q.q.q.q.q.q.q.q.q.q.q.q.q.q.q.q.q.q.q.z.z.z.U.mXHXHXDXiXa.n.b.z.z.w.w.w.z.z.z.z.z.z.z.z.z.z.z.z.z.z.z.z.z.z.z.z.z.z.z.z.z.z.z.z.z.z.z.z.z.z.z.z.z.z.z.z.z.z.x.x.x.x.x.x.x.x.x.x.x.x.x.x.x.x.x.x.x.x.x.z.z.z.z.z.z.z.z.z.z.z.x.x.x.x.x.x.x.x.x.x.x.x.x.v.v.x.v.v.v.v.v.N.v.v.C.C.C.C.G.C.C.G.I.eXxXY.G.C.C.C.C.C.C.C.C.v.v.v.v.v.v.v.x.x.x.v.v.x.x.x.v.v.v.C.C.C.C.C.Z.F.8X|.F.C.G.G.G.C.C.v.c.c.c.C.C.G.S. X XS.C.C.v.c.C.v.V.Q. XH.G.C.C.C.|.}.V.S.C.|.Z.C.C.S.S.T. .D. X).F.s.C.C.Z.Z.!.Z.Z.G.L.T.M.n 9 O % % O $ ; b 9.L.H.!.E.F.Q.F.Z.Z.C.C.C.V.(. X|.{.D.}.V.L.V.C._.L.C.C.L.|.Z.Z.V.Z.L. XL.C.S.1.........P T.;XS.D.Z.C.C.C.v.v.v.C.C.C.H.F.F.}.8XF.C.S.K.C.C.C.N.v.v.v.x.x.x.x.x.x.x.v.v.v.v.v.v.v.C.C.S.C.G.G.C.C.K.A.aXcXY.C.C.C.C.C.C.C.C.C.v.v.v.v.v.v.v.x.v.v.x.x.x.x.x.x.x.x.x.x.x.x.x.x.x.x.z.z.z.z.z.z.z.z.z.z.z.z.z.z.x.x.x.x.x.x.x.x.x.x.x.x.x.x.x.x.x.x.x.x.x.x.x.x.x.z.z.z.x.x.x.x.x.x.x.x.x.x.x.x.x.x.x.x.x.x.x.x.z.z.z.z.z.z.z.z.z.z.z.z.z.z.z.z.x.x.z.$XAXHXIXHXrXz.x.z.x.z.M.w.w.q.q.w.z.q.q.q.w.w.q.q.q.q.q.q.q.q.q.q.q.q.q.q.q.q.q.q.q.q.q.q.q.q.0.0.0.0.0.0.0.0.0.0.0.0.0.0.0.0.0.",
"0.0.2.2.2.0.0.0.0.0.0.0.0.0.0.0.0.0.0.0.0.0.0.0.0.0.q.q.q.q.q.q.q.q.q.q.q.q.q.q.q.q.q.q.q.q.q.z.z.q.z.U.mXHXHXDXiXa.n.b.z.z.w.w.w.z.z.z.z.z.z.z.z.z.z.z.z.z.z.z.z.z.z.z.z.z.z.z.z.z.z.z.z.z.z.z.z.z.z.z.z.z.z.z.z.z.z.x.x.x.z.x.x.x.x.x.x.x.x.x.x.x.x.x.x.x.x.x.z.z.z.z.z.z.z.z.z.z.z.x.x.x.x.x.x.x.x.x.x.x.x.x.v.v.x.v.v.v.v.v.N.v.v.C.C.C.C.G.C.C.G.A.eXxXY.G.C.C.C.C.C.C.C.C.v.v.v.v.v.v.v.v.x.x.v.v.x.x.x.x.v.v.C.C.C.C.C.C.F.8X}.F.C.G.N.G.C.C.v.c.c.c.C.C.G.V. X XS.C.C.v.c.C.v.V.Q. XC.G.C.C.C.|.}.V.S.C.|.C.C.C.C.S.T. .F. X).F.s.Z.C.Z.Z.!.Z.(.K.L.T.2.b 8 o X X X o % b r.J.!.!.E.Q.W.F.Z.H.C.C.C.V.(.|.|.W.D.}.A.D.V.C._.L.C.C.L.|.Z.Z.V.Z.L. XL.C.S.1.........P T.;XS.D.C.C.C.C.v.v.v.C.C.C.Z.Z.S.}.8XF.C.S.G.C.C.v.v.v.v.v.x.x.x.x.v.v.x.v.v.v.v.v.v.v.v.C.V.C.G.G.C.C.K.A.aXvXY.C.C.C.C.C.C.C.C.C.v.v.v.v.v.v.v.x.x.x.x.x.x.x.x.x.x.x.x.x.x.x.x.x.x.x.z.z.z.z.z.z.z.z.z.z.z.z.z.z.x.x.x.x.x.x.x.x.x.x.x.x.x.x.x.x.z.z.z.z.z.z.z.z.x.x.z.z.x.x.x.x.x.x.x.x.x.x.x.x.z.z.z.z.z.z.z.z.z.z.z.z.z.z.z.z.z.z.z.z.z.z.z.z.x.x.z.$XAXHXIXHXrXz.x.z.x.z.M.e.w.w.q.q.z.q.q.q.z.w.q.q.q.q.q.q.q.q.q.q.q.q.q.q.q.q.q.q.q.q.q.q.q.q.0.0.0.0.q.q.0.0.0.0.0.0.0.q.0.0.0.",
"0.0.0.2.2.0.0.0.0.0.0.0.0.0.0.0.q.0.q.q.0.0.0.0.0.0.q.q.q.0.q.q.q.q.q.q.q.q.q.q.q.q.q.q.q.q.q.z.z.z.z.k.mXHXHXDXiXa.n.b.z.z.w.w.w.z.z.z.z.z.z.z.z.z.z.z.z.z.z.z.z.z.z.z.z.z.z.z.z.z.z.z.z.z.z.z.z.z.z.z.z.z.z.z.z.z.z.x.x.x.z.z.x.x.x.x.x.x.x.x.x.x.x.x.x.x.x.x.z.z.z.z.z.z.z.z.z.z.z.x.x.x.x.x.x.x.x.x.x.x.x.x.x.v.x.v.v.v.v.v.N.v.v.C.C.C.C.G.C.C.G.I.eXxXD.C.C.C.C.C.C.C.v.C.v.v.v.v.v.v.v.v.x.x.v.v.x.x.x.x.v.v.C.C.C.C.C.C.A.8X}.S.C.G.G.C.C.C.v.c.c.C.C.C.G.V. X XS.C.v.v.c.v.v.V.Q. XG.G.C.C.C._.}.V.S.C.|.C.C.C.S.S.T. .F. X).F.s.Z.C.Z.Z.!.Z.(.L.T.T.E D v o X   X X % b r.~.E.H.!.F.W.F.Z.H.C.C.C.V.(. X|.W.D.}.A.T.V.C._.L.C.V.L.|.Z.C.V.Z.L.|.L.C.S.6.........P T.;XS.D.Z.C.C.C.v.v.C.C.C.C.Z.Z.D.}.8XD.S.S.H.C.C.C.v.v.v.v.v.v.x.x.v.v.v.v.v.v.v.v.v.v.v.C.V.C.G.G.C.V.K.f.aXcXY.C.C.C.C.C.C.C.C.C.v.v.v.v.v.v.v.v.x.x.x.x.x.x.x.x.x.x.x.x.x.x.x.x.x.x.z.z.z.z.z.z.z.z.z.z.z.z.z.z.x.x.x.x.x.x.x.x.x.x.x.x.x.x.x.x.z.z.z.z.z.z.z.z.x.x.x.x.x.x.x.x.x.x.x.x.z.z.x.x.z.z.z.z.z.z.z.z.z.z.z.z.z.z.z.z.z.z.z.z.z.z.z.z.x.x.z.$XAXHXIXHXrXz.x.z.x.z.M.e.w.w.z.z.z.w.q.q.z.z.q.q.q.q.q.q.q.q.q.q.q.q.q.q.q.q.q.q.q.q.0.0.q.q.q.0.0.0.q.q.0.0.0.0.0.0.q.q.0.0.0.",
"0.0.0.0.2.0.0.0.0.0.0.0.0.0.0.0.q.q.q.q.0.0.0.0.0.0.q.q.q.0.q.q.q.q.q.q.q.q.q.q.q.q.q.q.q.z.z.q.z.q.z.k.mXHXHXDXiXa.n.b.z.z.w.w.z.z.z.z.z.z.z.z.z.z.z.z.z.z.z.z.z.z.z.z.z.z.z.z.z.z.z.z.z.z.z.z.z.z.z.z.z.z.z.z.z.z.z.x.x.x.x.z.x.x.x.x.x.x.x.x.x.x.x.x.x.x.x.x.z.z.z.z.z.z.z.z.z.z.z.x.x.x.z.x.x.x.x.x.x.x.x.x.x.x.x.v.v.v.v.v.N.v.v.C.C.C.C.G.C.C.G.I.eXxXD.C.C.C.C.C.C.C.v.v.v.v.v.v.v.v.v.v.x.x.v.v.x.x.x.x.v.v.C.C.C.C.C.C.A.8X}.S.C.G.C.C.C.C.v.c.c.V.C.C.G.V. X|.S.C.v.v.c.v.v.V.Q. XC.G.C.C.C._.}.V.C.C.|.C.C.C.S.S.T. .F. X).F.s.Z.C.H.Z.H.V.L.L.K.R.C A p X         O l t.(.E.H.H.F.W.Z.Z.H.C.C.C.c.L. X|.W.D.}.V.T.V.C._.L.C.V.L.|.Z.C.V.Z.L.|.L.C.S.1.........P T.;XS.D.Z.C.C.C.v.C.v.C.C.C.Z.F.D.}.8XS.S.S.H.C.C.C.N.v.v.v.v.v.x.x.v.v.v.v.v.v.v.v.v.v.v.C.C.C.C.G.C.V.K.f.aXcXY.C.C.C.C.C.C.C.C.C.v.v.v.v.v.v.v.v.x.x.x.x.x.x.x.x.x.x.x.x.x.x.x.x.x.x.z.z.z.z.z.z.z.z.z.z.z.z.z.z.x.x.x.x.x.x.x.x.x.x.x.x.x.x.x.x.z.z.z.z.z.z.z.z.x.x.x.x.x.x.x.x.x.x.x.z.z.x.x.x.z.z.z.z.z.z.z.z.z.z.z.z.z.z.z.z.z.z.z.z.z.z.z.z.x.x.z.$XAXHXIXHXrXz.x.z.x.z.M.e.w.w.z.z.z.w.q.q.z.z.q.q.q.q.q.q.q.q.q.q.q.q.q.q.q.q.q.q.q.q.0.0.q.q.q.0.0.0.q.q.0.0.0.0.0.0.q.q.0.0.0.",
"0.0.0.0.2.2.2.2.2.2.0.0.0.0.0.0.q.q.q.0.q.q.q.q.0.0.0.0.0.q.q.q.q.q.q.q.q.q.q.q.q.q.q.q.q.z.q.z.z.z.x.k.mXHXHXDXiXa.n.a.z.z.w.w.w.z.z.z.z.z.z.z.q.q.z.z.z.z.z.z.z.z.z.z.z.z.z.z.z.z.z.z.z.z.z.z.z.z.z.z.z.z.z.z.z.z.z.z.z.z.x.x.x.x.x.x.x.x.x.x.x.x.x.x.x.x.x.x.z.z.z.z.z.z.z.z.z.z.z.x.x.x.x.x.x.x.x.x.x.x.x.x.v.v.v.v.x.v.v.v.N.v.v.C.V.C.C.C.C.C.K.I.eXxXS.G.C.C.C.C.C.C.v.v.v.v.v.v.v.v.x.x.x.x.x.x.v.v.v.v.v.v.C.C.C.C.C.S.h.8X}.F.Z.G.G.G.C.C.v.c.c.C.C.C.G.V. X|.S.C.v.v.v.C.v.F.Q. XC.G.C.C.C.}.T.V.C.C.|.C.S.c.S.A.T. .F. X}.F.s.Z.C.Z.Z.Z.C.L.T.T.0.l L O       X X o L rXZ.E.~.H.H.Z.Z.Z.C.C.G.C.C.D. X|.W.D.}.n.K.V.V.}.K.V.C.L.|.S.S.C.S.Z. XL.V.S.1._ .. ... .I.;XA.S.C.C.v.C.v.v.C.C.C.C.Z.Z.F.}.8XF.C.S.C.v.C.v.v.v.v.v.v.v.v.v.v.v.v.v.v.v.v.v.v.v.v.C.V.C.C.G.C.C.G.f.aXcXY.C.C.C.C.C.C.C.v.v.v.v.v.v.v.x.v.x.x.x.x.x.x.x.x.x.x.x.x.x.x.x.x.x.z.z.z.z.z.z.z.z.z.z.z.z.z.z.z.z.x.x.x.x.x.x.x.x.x.x.x.x.x.x.x.x.z.z.z.z.z.z.z.z.z.z.z.z.z.z.z.z.z.z.z.z.z.z.z.z.z.z.z.z.z.z.z.z.z.z.z.z.z.z.z.z.z.z.z.z.z.z.z.z.z.x.z.$XAXHXIXHXrXz.x.z.x.z.M.e.w.w.q.q.q.q.q.q.q.q.q.q.q.q.q.q.q.q.q.q.q.q.q.q.q.q.q.q.q.q.0.0.0.0.0.0.0.0.0.0.0.0.0.0.0.0.0.0.0.0.0.",
"0.0.0.0.2.2.2.2.2.2.0.0.0.0.0.0.0.0.q.q.0.q.q.q.0.0.0.0.0.q.q.q.q.q.q.q.q.q.q.q.q.q.q.q.q.q.q.q.z.z.x.k.mXHXHXDXiXa.b.a.z.z.w.w.w.z.z.q.z.z.z.z.q.q.z.z.z.z.z.z.z.z.z.z.z.z.z.z.z.z.z.z.z.z.z.z.z.z.z.z.z.z.z.z.z.z.z.z.z.z.x.x.x.x.x.x.x.x.x.x.x.x.x.x.z.x.x.x.z.z.z.z.z.z.z.z.z.z.z.x.x.x.x.x.x.x.x.x.x.x.x.x.v.v.v.x.x.v.v.v.N.v.v.C.V.C.C.C.C.C.K.I.eXxXS.G.C.C.C.C.C.C.v.C.v.v.v.v.v.v.x.x.x.x.x.x.x.v.v.v.v.v.C.C.C.C.C.S.h.8X}.F.C.G.G.G.C.V.v.c.c.C.C.C.G.V. X|.S.C.v.v.c.C.v.F.Q. XC.G.C.C.C.}.T.V.S.C.|.C.S.c.S.A.T. .D. X}.F.s.Z.C.Z.Z.H.Z.C.T.R.Q V B o X     X X X y +XQ.E.!.H.J.P.Z.Z.C.C.G.C.C.D.|.}.{.D.}.n.K.m.C.}.D.V.C.L.|.S.S.C.S.D. XL.V.S.1._ .. ... .I.;XA.S.C.C.C.C.v.v.v.C.C.C.Z.Z.S.}.8XF.Z.S.C.v.C.v.v.v.v.v.v.x.v.v.v.v.x.v.v.v.v.v.v.v.C.C.V.C.C.G.C.C.G.f.aXcXY.C.C.C.C.C.C.C.v.v.v.v.v.x.v.x.x.x.x.x.x.x.x.x.x.x.x.x.x.x.x.x.x.x.z.z.z.z.z.z.z.z.z.z.z.z.z.z.z.z.x.x.x.x.x.x.x.x.x.x.x.x.x.x.x.x.z.z.z.z.z.z.z.z.z.z.z.z.z.z.z.z.z.z.z.z.z.z.z.z.z.z.z.z.z.z.z.z.z.z.z.z.z.z.z.z.z.z.z.z.z.z.z.z.z.x.z.$XAXHXIXHXrXz.x.z.x.z.M.e.w.w.q.q.q.q.q.q.q.q.q.q.q.q.q.q.q.q.q.q.q.q.q.q.q.q.q.q.q.q.0.0.0.0.0.0.0.0.0.0.0.0.0.0.0.0.0.0.4.4.4.",
"0.2.0.0.2.2.2.2.2.2.0.0.0.0.0.0.0.0.0.0.0.0.q.0.0.0.0.0.0.0.q.q.q.q.q.q.q.q.q.q.q.q.q.q.q.q.z.q.z.z.z.I.mXHXHXDXiXa.n.a.z.z.w.w.w.z.q.q.z.q.z.z.q.q.z.z.z.z.z.z.z.z.z.z.z.z.z.z.z.z.z.z.z.z.z.z.z.z.z.z.z.z.z.z.z.z.z.z.z.z.x.x.x.x.x.x.x.x.x.x.x.x.x.x.z.z.x.x.z.z.z.z.z.z.z.z.z.z.z.x.x.x.x.x.x.x.x.x.x.x.x.x.v.v.x.x.x.v.v.v.N.v.v.C.V.C.C.C.C.C.K.I.eXxXS.G.C.C.C.C.C.C.C.C.v.v.v.v.v.v.x.x.x.x.x.x.x.x.v.v.v.v.C.C.C.C.C.S.h.8X}.S.C.G.G.G.C.V.v.c.c.v.C.C.G.V. X|.F.V.v.v.c.C.v.F.Q. XC.G.C.C.C.(.T.V.S.C.|.Z.S.c.S.m.T. .D. X}.F.c.C.C.Z.C.C.L.V.%XT.) 8.1   X X   X X o * I {.Z.!.H.J.P.Z.Z.C.C.G.C.V.D.|.}.W.D.T.n.T.m.C.}.D.V.C.L.|.S.S.C.S.D. XK.V.S.1._ .. ... .I.;XA.S.C.C.C.C.v.v.v.C.C.C.Z.C.S.}.8XF.C.S.C.v.C.v.v.v.v.v.x.x.x.x.x.x.x.v.v.v.v.v.v.v.C.C.V.C.C.C.C.C.G.f.aXcXY.C.C.C.C.C.C.C.v.v.v.v.v.v.v.x.x.x.x.x.x.x.x.x.x.x.x.x.x.x.x.x.x.x.z.z.z.z.z.z.z.z.z.z.z.z.z.z.z.z.x.x.x.x.x.x.x.x.x.x.x.x.x.x.x.x.z.z.z.z.z.z.z.z.z.z.z.z.z.z.z.z.z.z.z.z.z.z.z.z.z.z.z.z.z.z.z.z.z.z.z.z.z.z.z.z.z.z.z.z.z.z.z.z.z.x.z.$XAXHXIXHXrXz.x.z.x.z.M.e.w.w.q.q.q.q.q.q.q.q.q.q.q.q.q.q.q.q.q.q.q.q.q.q.q.q.q.0.q.q.0.0.0.0.0.0.0.0.0.0.0.0.0.0.0.0.0.0.4.4.4.",
"2.2.0.0.2.2.0.0.2.2.0.0.0.0.0.0.0.0.0.0.0.0.0.0.q.0.0.0.0.q.0.0.q.q.q.q.q.q.q.q.q.q.q.q.q.z.q.z.z.z.z.I.mXHXHXDXiXa.n.a.z.z.w.w.z.z.q.q.q.q.z.z.q.q.z.z.z.z.z.z.z.z.z.z.z.z.z.z.z.z.z.z.z.z.z.z.z.z.z.z.z.z.z.z.z.z.z.z.z.z.x.x.x.x.x.x.x.x.x.x.x.x.x.z.z.z.x.x.z.z.z.z.z.z.z.z.z.z.z.x.x.x.x.x.x.x.x.x.x.x.x.x.v.v.x.x.x.v.v.v.N.v.v.v.V.C.C.C.C.C.K.I.eXxXS.G.C.C.C.C.C.C.C.C.v.v.v.v.v.v.x.x.v.v.x.x.x.x.v.v.v.v.C.C.C.C.C.S.h.8X}.S.C.G.G.C.C.C.v.c.c.v.C.C.G.V. X|.F.V.v.v.c.C.v.V.Q. XC.G.C.C.C.(.T.V.V.V.|.C.V.c.m.m.T. .Y. X}.S.s.C.C.C.H.Z.H.S.T.4.H M X   X X X X X o X B &XZ.H.H.P.G.Z.Z.C.C.G.C.C.D.|.}.D.F.Y.c.S.c.C.}.D.V.V.L._.C.S.C.S.Z.&XK.V.S.1._ .. ...P I.;XA.S.C.C.C.C.v.v.v.C.C.C.Z.C.S.}.8XF.S.S.C.v.C.v.v.v.v.v.x.x.x.x.x.x.x.v.v.v.v.v.v.v.C.C.V.C.C.C.C.C.G.f.aXcXY.C.C.C.C.C.C.v.v.v.v.v.v.v.v.x.x.x.x.x.x.x.x.x.x.x.x.x.x.x.x.x.x.x.z.z.z.z.z.z.z.z.z.z.z.z.z.z.z.z.x.x.x.x.x.x.x.x.x.x.x.x.x.x.x.x.z.z.z.z.z.z.z.z.z.z.z.z.z.z.z.z.z.z.z.z.z.z.z.z.z.z.z.z.z.z.z.z.z.z.z.z.z.z.z.z.z.z.z.z.z.z.z.z.z.x.z.$XAXHXIXHXtXz.x.z.x.z.M.w.q.q.q.q.q.q.q.q.q.q.q.q.q.q.q.q.q.q.q.q.q.q.q.q.q.q.q.0.q.q.0.0.0.0.0.0.0.0.0.0.0.0.0.0.0.0.0.0.4.4.4.",
"2.2.2.2.0.0.0.0.2.2.0.0.0.0.0.0.0.0.0.0.0.q.q.q.q.q.q.0.0.q.q.q.q.q.q.q.q.q.q.q.q.q.q.q.q.q.q.q.z.z.z.I.mXHXHXDXiXa.n.a.z.q.w.w.z.z.z.q.q.q.q.z.z.z.q.q.z.z.z.z.z.z.z.z.z.z.z.z.z.z.z.z.z.z.z.z.z.z.z.z.z.z.z.z.z.z.z.z.z.z.x.x.x.x.x.x.x.x.x.x.x.z.x.x.x.x.x.x.z.z.z.z.z.z.z.z.z.z.z.x.x.x.x.x.x.x.x.x.x.x.x.x.v.x.x.x.x.v.v.v.N.v.v.C.V.C.C.C.C.C.K.I.-XxXA.C.C.C.C.C.C.C.C.C.v.v.v.v.v.x.x.x.v.v.v.v.x.x.x.x.v.v.C.C.C.C.C.S.h.8X}.C.C.G.C.C.C.v.c.c.c.v.v.C.N.V.|.|.F.V.v.v.c.m.v.F.F. XC.G.C.C.C.(.T.V.V.V.|.S.C.c.c.m.T. .Y.%X}.S.c.C.C.C.H.Z.Z.L.S...) e X X o X X X X X   s $XC.H.H.H.C.Z.Z.C.C.G.C.v.D.}.}.D.F.D.c.K.c.C.}.D.V.V.L.|.S.S.V.S.D.%XL.V.S.1.( .. ... .I.;XA.F.C.C.C.C.v.v.v.C.C.C.Z.C.S.}.8XF.D.S.C.v.G.v.v.v.v.v.v.v.x.x.x.x.v.v.v.v.v.v.v.v.C.C.C.C.C.C.C.C.K.f.aXcXY.C.C.C.C.C.C.C.C.C.v.v.v.v.v.x.x.x.x.x.x.x.x.x.x.x.x.x.x.x.x.x.x.x.z.z.z.z.z.z.z.z.z.z.z.z.z.z.z.z.x.x.x.x.x.x.x.x.x.x.x.x.x.x.x.x.z.z.z.z.z.z.z.z.z.z.z.z.z.z.z.z.z.z.z.z.z.z.z.z.z.z.z.z.z.z.z.z.z.z.z.z.z.z.z.z.z.z.z.z.z.z.z.z.z.x.z.$XAXHXIXHXrXz.x.z.x.z.M.w.M.z.q.q.q.q.q.q.q.q.q.q.q.q.q.q.q.q.q.q.q.q.q.q.q.q.q.0.q.q.0.0.q.q.0.0.0.0.0.0.0.0.0.0.0.0.0.0.4.4.4.",
"2.2.2.2.0.0.0.0.2.2.0.0.0.0.0.0.0.0.0.0.0.0.q.0.q.q.0.0.0.q.q.q.q.q.0.q.q.q.q.q.q.q.q.q.q.q.q.z.z.z.z.I.mXHXHXDXiXa.n.a.z.q.w.w.w.z.z.z.q.q.q.z.z.z.q.q.z.z.z.z.z.z.z.z.z.z.z.z.z.z.z.z.z.z.z.z.z.z.z.z.z.z.z.z.z.z.z.z.z.z.x.x.x.x.x.x.x.x.x.x.z.z.x.x.x.x.x.x.z.z.z.z.z.z.z.z.z.z.z.x.x.x.x.x.x.x.x.x.x.x.x.x.v.x.x.x.x.v.v.v.N.v.v.C.V.C.C.C.C.C.K.I.yXxXA.C.C.C.C.C.C.C.C.C.v.v.v.v.v.v.x.x.v.v.v.v.x.x.x.x.v.v.C.C.C.C.C.S.h.8X}.C.C.G.C.C.C.V.c.c.c.c.v.C.N.V.|.{.V.V.v.v.c.v.v.F.F. XC.G.C.C.C.L.T.V.V.V.|.C.C.c.m.n.Y. .Y.%XT.S.z.C.C.C.C.C.C.L.T.4.U.e X   o X     X X   # I.P.P.H.Z.Z.Z.Z.C.C.C.v.c.D.}.}.D.A.S.c.K.c.C.}.D.V.V.L.|.S.S.V.S.D.%XD.V.S.1.( .. ... .I.;XA.F.C.C.C.C.v.v.v.C.C.C.C.V.F.(.8XF.S.S.C.v.G.v.v.v.v.v.v.v.x.x.x.x.v.v.v.v.v.v.v.v.C.C.C.C.C.G.C.C.K.f.aXcXY.C.C.C.C.C.C.C.C.C.v.v.v.v.v.x.x.x.x.x.x.x.x.x.x.x.x.x.x.x.x.x.x.x.z.z.z.z.z.z.z.z.z.z.z.z.z.z.z.z.x.x.x.x.x.x.x.x.x.x.x.x.x.x.x.x.z.z.z.z.z.z.z.z.z.z.z.z.z.z.z.z.z.z.z.z.z.z.z.z.z.z.z.z.z.z.z.z.z.z.z.z.z.z.z.z.z.z.z.z.z.z.z.z.z.x.z.$XAXHXIXHXrXz.x.z.x.z.z.w.M.z.q.q.q.q.q.q.q.q.q.q.q.q.q.q.q.q.q.q.q.q.q.q.q.q.q.q.q.q.0.0.q.q.0.0.0.0.0.0.0.0.0.0.0.0.0.0.0.0.0.",
"0.0.2.2.0.0.2.2.2.2.0.0.0.0.0.0.0.0.0.0.0.0.0.0.0.0.0.0.0.q.q.q.0.0.0.q.q.q.q.q.q.q.q.q.q.z.q.z.z.z.z.j.mXHXHXDXiXa.n.a.z.z.w.w.w.q.z.z.z.q.z.z.z.z.q.q.z.z.z.z.z.z.z.z.z.z.z.z.z.z.z.z.z.z.z.z.z.z.z.z.z.z.z.z.z.z.z.z.z.z.x.x.x.x.x.x.x.x.x.x.x.x.x.x.x.x.x.x.z.z.z.z.z.z.z.z.z.z.z.x.x.x.x.x.x.x.x.x.x.x.x.x.x.x.x.x.x.v.v.v.N.v.v.C.V.C.C.C.C.C.K.I.-XxXA.C.C.C.C.v.C.v.C.C.v.v.v.v.v.v.v.v.x.x.v.v.x.x.x.x.v.v.C.C.C.C.C.S.h.8X}.S.C.G.C.C.v.v.v.c.c.V.C.C.K.S.|.|.F.V.v.v.c.v.v.F.F. XC.C.C.C.C.L.T.V.V.c.|.C.C.c.c.n.Y. .Y.%XT.S.z.C.C.C.Z.Z.Z.V.R.6.U.j   . X X     X     X 7.P.K.F.E.Z.C.C.C.C.C.v.c.S.}.}.D.A.S.c.K.c.c.}.D.V.V.K.|.S.S.V.S.S.%XK.V.S.1.( .. ... .I.;XA.F.C.C.v.C.v.v.v.C.C.C.C.V.F.}.8XF.D.S.C.v.C.v.v.v.v.v.v.v.v.x.x.v.v.v.v.v.v.v.v.v.v.C.C.C.C.G.C.C.K.f.aXcXY.C.C.C.C.C.v.v.v.v.v.v.v.v.v.v.x.x.x.x.x.x.x.x.x.x.x.x.x.x.x.x.x.x.z.z.z.z.z.z.z.z.z.z.z.z.z.z.z.z.x.x.x.x.x.x.x.x.x.x.x.x.x.x.x.x.z.z.z.z.z.z.z.z.z.z.z.z.z.z.z.z.z.z.z.z.z.z.z.z.z.z.z.z.z.z.z.z.z.z.z.z.z.z.z.z.z.z.z.z.z.z.z.z.z.x.z.$XAXHXIXHXrXa.x.z.x.z.z.w.M.z.q.q.q.q.q.q.q.q.q.q.q.q.q.q.q.q.q.q.q.q.q.q.q.q.q.q.q.0.q.0.q.0.0.0.0.0.0.0.0.0.0.0.0.0.0.0.0.0.0.",
"0.0.0.0.0.2.2.2.2.2.0.0.0.0.0.0.0.0.0.0.0.0.0.0.0.0.0.0.0.q.q.q.0.0.0.q.q.q.q.q.q.q.q.q.q.z.z.q.z.q.z.j.mXHXHXDXiXa.n.a.z.z.w.w.w.z.z.z.z.z.z.z.z.z.q.q.z.z.z.z.z.z.z.z.z.z.z.z.z.z.z.z.z.z.z.z.z.z.z.z.z.z.z.z.z.z.z.z.z.z.x.x.x.x.x.x.x.x.x.x.x.x.x.x.x.x.x.x.z.z.z.z.z.z.z.z.z.z.z.x.x.z.z.x.x.x.x.x.x.x.x.x.x.x.x.x.x.v.v.v.N.v.v.C.V.C.C.N.C.v.K.I.yXxXA.C.C.C.C.C.C.v.C.v.v.v.v.v.v.v.v.x.x.x.x.x.x.x.x.x.v.v.C.C.C.C.C.S.h.8X}.S.C.G.v.v.v.v.v.c.c.v.C.C.K.V.|.|.V.V.v.x.c.v.v.F.F. XC.C.C.C.C.L.T.V.V.c.|.V.V.c.m.I.T. .Y.%XT.S.z.C.v.C.V.V.H.c.%X+X+XU o X X X     X     X  .T.H.V.Z.Z.C.C.C.C.C.v.c.S.}.}.Y.n.A.c.S.z.c.T.S.c.V.K.}.F.V.C.S.D.|.D.C.S.1.( ..( .. .I.;XA.S.C.C.v.C.v.v.v.C.C.C.C.C.F.}.8XF.D.S.C.v.C.v.v.v.v.v.v.v.v.v.v.v.v.v.v.v.v.v.v.v.v.C.V.C.C.G.C.C.K.f.aXcXY.C.C.C.C.C.v.C.v.v.v.v.v.v.v.v.x.x.x.x.x.x.x.x.x.x.x.x.x.x.x.x.x.x.z.z.z.z.z.z.z.z.z.z.z.z.z.z.z.z.x.x.x.x.x.x.x.x.x.x.x.x.x.x.x.x.z.z.z.z.z.z.z.z.z.z.z.z.z.z.z.z.z.z.z.z.z.z.z.z.z.z.z.z.z.z.z.z.z.z.z.z.z.z.z.z.z.z.z.z.z.z.z.z.z.x.z.$XAXLXIXHXrXa.x.z.x.q.w.w.M.z.q.q.q.q.q.q.q.q.q.q.q.q.q.q.q.q.q.q.q.q.q.q.q.q.q.q.q.0.q.q.q.0.0.0.0.0.0.0.0.0.0.0.0.0.0.0.0.0.0.",
"0.0.2.2.2.2.2.0.2.2.2.0.0.0.2.2.0.0.0.0.0.0.0.0.q.q.0.0.0.q.q.q.0.0.0.0.0.q.q.q.q.q.q.q.q.q.q.q.q.z.x.j.mXHXHXDXiXa.b.a.z.q.w.w.w.q.q.q.q.q.q.q.q.q.w.q.q.q.z.z.z.z.z.z.z.z.z.z.z.z.z.z.z.z.z.z.z.z.z.z.z.z.z.z.z.z.z.z.z.z.z.x.x.x.x.x.x.x.x.x.z.z.z.z.z.z.z.z.z.z.z.z.z.z.z.z.z.z.z.z.z.z.z.z.x.x.x.x.x.x.x.x.x.x.x.x.v.v.v.v.v.v.v.v.V.C.v.N.G.C.K.I.yXcXY.G.G.C.v.v.v.v.v.v.v.v.v.v.v.x.x.x.x.x.x.x.x.x.x.x.v.v.v.C.C.C.C.S.A.8X}.F.C.G.v.v.C.v.c.c.c.v.v.v.N.V.|.|.F.V.m.x.x.v.c.S.W. XC.G.C.C.V.L.L.c.A.m.|.S.m.c.n.U.+X .A.{.T.c.z.m.C.C.c.Z.v.D.OXG q v o X         . X X :  .L.H.!.V.D.V.V.m.m.c.c.V.S.|.L.Y.S.A.c.T.a.V.L.G.v.C.D.}.V.C.v.C.S.|.D.C.K.1.( .. ...P I.;XA.F.C.C.C.C.v.v.C.C.C.C.C.C.S.D.8XF.F.F.C.v.G.v.v.v.x.x.x.x.x.x.x.x.v.v.v.v.v.v.v.v.v.v.C.C.G.G.v.m.G.A.eXMXA.C.C.C.C.C.v.v.v.v.v.v.v.v.v.v.v.v.x.x.x.x.x.x.x.x.x.x.x.x.z.x.x.z.z.z.z.z.z.z.z.z.z.z.z.z.z.z.z.z.z.z.z.z.z.z.x.x.x.x.x.x.x.z.z.z.z.z.z.z.z.z.z.z.z.z.z.z.z.z.z.z.z.z.z.z.z.z.z.z.z.z.z.z.z.z.z.z.z.z.z.z.z.z.z.z.z.z.z.z.z.z.z.z.z.x.z.$XAXHXPXGX=Xz.x.z.x.z.z.q.q.q.q.q.q.q.q.q.q.q.q.q.q.q.q.q.q.q.q.q.q.q.0.0.q.q.q.0.0.0.q.q.0.0.0.0.0.0.0.0.2.2.0.0.0.0.0.0.0.0.0.",
"0.0.2.2.2.2.0.0.2.2.2.2.0.0.2.2.0.0.0.0.0.0.0.0.q.q.0.0.0.0.q.q.0.0.0.0.0.q.q.q.q.q.q.q.q.q.q.q.q.z.x.I.mXHXHXDXiXa.b.a.z.q.w.w.q.q.q.q.q.q.q.q.q.q.w.w.q.q.z.z.z.z.q.z.z.z.z.z.z.z.z.z.z.z.z.z.z.z.z.z.z.z.z.z.z.z.z.z.z.z.z.x.x.x.x.x.x.x.x.x.z.z.z.z.z.z.z.z.z.z.z.z.z.z.z.z.z.z.z.z.z.z.z.z.x.x.x.x.x.x.x.x.x.x.x.x.v.v.v.v.v.v.v.v.V.C.N.N.G.v.K.I.yXcXY.G.C.C.C.v.v.v.v.v.v.v.v.x.v.x.x.x.x.x.x.x.x.x.x.x.v.v.v.v.C.C.C.S.A.8X}.S.C.G.v.v.v.v.v.c.c.v.v.v.N.V.|.|.V.V.v.v.x.v.c.S.W.|.C.G.C.C.V.L.L.m.S.c.|.S.m.b.I.U.+XP F.|.|.m.c.m.c.c.L.Z.z.S.Y.g X o X X       . . X o B $XV.C.H.a.m.C.V.S.V.c.c.V.D.|.}.S.n.m.a.S.a.V.L.G.x.C.D.}.V.C.v.C.S. XD.v.K.1.( .. ...P I.;XA.F.C.C.C.C.v.v.C.C.C.C.C.C.S.L.8XF.F.F.C.v.N.v.v.v.x.x.x.x.x.x.x.x.v.v.v.v.v.v.v.v.v.v.V.C.v.G.v.v.G.A.eXMXA.C.C.C.C.C.v.v.v.v.v.v.v.v.v.v.v.v.x.x.x.x.x.x.x.x.x.x.x.x.z.x.x.z.z.z.z.z.z.z.z.z.z.z.z.z.z.z.z.z.z.z.z.z.z.z.x.x.x.x.x.x.x.x.z.z.z.z.z.z.z.z.z.z.z.z.z.z.z.z.z.z.z.z.z.z.z.z.z.z.z.z.z.z.z.z.z.z.z.z.z.z.z.z.z.z.z.z.z.z.z.z.z.z.z.x.z.*XAXLXPXGX;Xz.M.e.x.q.z.q.q.q.q.q.q.q.q.q.q.q.q.q.q.q.q.q.q.q.q.q.q.q.0.0.q.q.q.0.0.0.q.0.0.0.0.0.0.0.0.0.2.2.0.0.0.0.0.0.0.0.0.",
"0.2.2.2.0.0.0.0.2.2.2.0.0.0.0.0.0.0.0.0.0.0.0.0.0.0.0.0.0.0.q.q.0.0.q.q.0.q.q.q.q.q.q.q.q.q.q.q.q.z.x.I.mXHXHXDXiXa.b.a.z.q.w.w.q.q.q.q.q.w.q.q.q.q.q.q.q.q.z.z.q.q.q.q.z.z.z.z.z.z.z.z.z.z.z.z.z.z.z.z.z.z.z.z.z.z.z.z.z.z.z.x.x.x.x.x.x.x.x.x.z.z.z.z.z.z.z.z.z.z.z.z.z.z.z.z.z.z.z.z.z.z.z.z.x.x.x.x.x.x.x.x.x.x.x.x.v.v.v.v.v.v.v.m.V.C.N.N.G.v.K.I.yXxXY.C.C.C.C.v.v.v.v.v.v.v.v.v.x.x.x.x.x.x.x.x.x.x.x.x.v.v.v.v.C.C.C.S.A.8X}.S.C.G.v.v.v.v.v.c.c.v.v.v.G.V.|.|.A.m.v.v.x.v.c.S.F.|.v.N.C.C.V.L.T.m.S.m.|.S.c.z.b.I.+XP h.W.D.c.z.c.c.s.s.V.c.S.Y.B O X X       . . . X X B yXs.C.H.S.T.m.c.v.V.c.c.c.F.|.}.D.A.A.a.m.c.s.L.G.x.v.D.}.V.C.v.C.S. XD.v.K.1.( .. ...P I.;XA.F.C.C.C.C.v.v.C.C.C.C.C.C.S.L.8XF.F.F.C.v.N.v.v.v.x.x.x.x.x.x.x.x.v.v.v.v.v.v.v.v.v.v.V.C.C.G.v.v.G.A.eXMXA.C.v.v.C.C.v.v.v.v.v.v.v.v.v.v.v.v.x.x.x.x.x.x.x.x.x.x.x.x.x.x.x.x.z.z.z.z.z.z.z.z.z.z.z.z.z.z.z.z.z.z.z.z.z.z.x.x.x.x.x.x.x.x.x.x.z.z.z.z.z.z.z.z.z.z.z.z.z.z.z.z.z.z.z.z.z.z.z.z.z.z.z.z.z.z.z.z.z.z.z.z.z.z.z.z.z.z.z.z.z.z.z.z.z.x.z.*XZXLXPXGX;Xa.M.e.x.q.z.q.q.q.w.q.q.q.q.q.q.q.q.q.q.q.q.q.q.q.q.q.0.0.0.0.0.q.0.0.0.0.0.0.0.0.0.0.0.0.0.0.2.2.0.0.0.0.0.0.0.0.0.",
"0.0.2.2.0.0.0.0.2.2.2.0.0.0.0.0.0.0.0.0.0.0.0.0.0.0.0.0.0.0.0.q.q.q.q.q.0.q.q.q.q.q.q.q.q.q.q.q.q.z.x.I.mXHXHXDXiXa.z.a.z.q.w.w.w.q.q.q.w.w.q.q.q.q.q.q.q.q.z.z.z.q.q.q.z.z.z.z.z.z.z.z.z.z.z.z.z.z.z.z.z.z.z.z.z.z.z.z.z.z.z.x.x.x.x.x.x.x.x.x.z.z.z.z.z.z.z.z.z.z.z.z.z.z.z.z.z.z.z.z.z.z.z.z.x.x.x.x.x.x.x.x.x.x.x.x.x.v.v.v.v.v.v.m.V.C.N.N.C.v.K.I.yXxXA.C.C.C.v.v.v.v.v.v.v.v.v.v.x.x.x.x.x.x.x.x.x.x.x.x.v.v.v.v.C.C.C.S.h.8X}.S.C.G.v.v.v.v.v.c.c.v.v.v.N.V.|.|.A.m.v.x.x.v.c.S.F.|.v.N.v.V.c.L.T.m.m.c.|.c.c.a.b.I.R.P h.).D.z.a.c.V.V.s.C.C.C.f.B > X X .     . . . X O i *XA.c.c.T.a.S.C.V.c.c.s.c.V.}.L.S.A.T.a.c.a.s.L.G.x.v.D.}.V.C.v.v.S. XD.v.K.1.( .. ...P I.;XA.F.C.C.C.v.v.v.C.C.C.C.C.C.S.L.8XV.F.F.C.x.N.v.v.v.x.x.x.x.x.x.x.x.v.v.v.v.v.v.v.v.v.v.c.v.C.G.v.v.G.A.eXMXA.C.v.C.C.C.v.v.v.v.v.v.v.v.v.v.v.v.x.x.x.x.x.x.x.x.x.x.x.x.x.x.x.x.z.z.z.z.z.z.z.z.z.z.z.z.z.z.z.z.z.z.z.z.z.z.x.x.x.x.x.x.x.x.x.x.z.z.z.z.z.z.z.z.z.z.z.z.z.z.z.z.z.z.z.z.z.z.z.z.z.z.z.z.z.z.z.z.z.z.z.z.z.z.z.z.z.z.z.z.z.z.z.z.z.x.z.*XZXLXPXGX;Xz.M.e.x.q.z.q.w.w.w.q.q.q.q.q.q.q.q.q.q.q.q.q.q.q.q.q.q.0.0.0.0.0.0.0.0.0.0.0.0.0.0.0.0.0.0.0.2.2.0.0.0.0.0.0.0.0.0.",
"0.0.0.0.0.2.2.2.0.0.0.0.2.2.0.0.0.0.0.0.0.0.0.0.0.0.0.0.0.0.0.0.0.0.0.q.0.q.q.q.q.q.q.q.q.q.q.q.q.w.w.j.mXHXHXSXiXa.z.a.z.q.w.w.w.q.q.q.w.q.q.q.q.q.q.q.q.q.w.z.z.z.q.q.z.z.z.z.z.z.z.z.z.z.z.z.z.z.z.z.z.z.z.z.z.z.z.z.z.z.z.x.x.x.x.x.x.x.x.x.z.z.z.z.z.z.z.z.z.z.z.z.z.z.z.z.z.z.z.z.z.z.z.z.x.x.x.x.x.x.x.x.x.x.x.x.x.x.v.v.v.x.v.m.V.C.N.N.C.v.K.n.yXxXY.C.C.C.C.v.v.v.v.v.v.v.v.v.x.x.x.x.x.x.x.x.x.x.x.x.v.v.v.v.v.C.C.S.h.8X}.V.C.G.v.v.v.v.v.c.c.v.v.v.K.A.|.{.V.m.m.x.x.v.c.V.F.|.v.N.c.V.c.T.T.n.c.n.}.c.c.a.d.b.U.P h.{.T.z.a.z.s.s.c.c.z.C.d.B 1 X               X $ i OXD.C.c.T.d.c.c.a.a.a.a.s.A.T.T.A.s.Y.a.a.a.s.L.G.x.c.D.}.V.v.v.v.V. XD.c.K.1.( .. ...P I.;XA.V.C.C.C.v.v.v.C.C.C.G.C.C.S.D.8XV.F.V.C.v.N.v.v.v.v.v.x.x.x.x.x.x.x.x.v.v.v.v.v.v.v.v.V.C.v.G.v.v.G.A.eXMXA.C.v.v.C.C.v.v.v.v.v.v.v.v.v.x.x.x.x.x.x.x.x.x.x.x.x.x.x.x.x.x.x.x.z.z.z.z.z.z.z.z.z.z.z.z.z.z.z.z.z.z.z.z.z.z.x.x.x.x.x.x.x.x.x.x.z.z.z.z.z.z.z.z.z.z.z.z.z.z.z.z.z.z.z.z.z.z.z.z.z.z.z.z.z.z.z.z.z.z.z.z.z.z.z.z.z.z.z.z.z.z.z.z.z.x.z.*XZXLXPXGX;Xz.x.q.x.q.z.q.q.q.q.q.q.q.q.q.q.q.q.q.q.q.q.q.q.q.q.q.q.q.0.0.q.q.q.0.0.0.0.0.0.0.0.0.0.0.0.0.2.2.0.0.0.0.0.0.0.0.4.",
"0.0.0.0.0.2.2.2.0.0.0.0.2.2.2.0.0.0.0.0.0.0.0.0.0.0.0.0.0.0.0.0.0.0.0.0.0.q.q.q.q.q.q.q.q.q.q.q.q.w.w.j.mXHXHXSXiXa.z.a.q.q.w.w.w.q.q.w.q.q.q.q.q.q.q.q.q.q.w.w.z.z.z.z.z.z.z.z.z.z.z.z.z.z.z.z.z.z.z.z.z.z.z.z.z.z.z.z.z.z.z.x.z.z.z.z.z.z.z.z.z.z.z.z.z.z.z.z.z.z.z.z.z.z.z.z.z.z.z.z.z.z.z.z.x.x.x.x.x.x.x.x.x.x.x.x.x.x.x.x.v.x.v.m.V.C.N.N.C.v.K.n.yXxXA.C.C.C.C.v.v.v.v.v.v.v.v.v.x.x.x.x.x.x.x.x.x.x.x.x.v.v.v.v.v.C.C.S.A.8X}.V.C.G.v.v.v.v.v.c.c.v.v.v.N.c.|.{.V.m.x.x.x.x.c.V.F.{.v.N.c.V.c.T.T.n.c.c.}.c.c.a.d.d.U.P h.{.T.n.z.n.s.s.p.A.C.c.Y.oXB +             X o * Z j.a.C.c.c.n.m.c.s.s.s.s.n.A.T.%XY.d.S.a.a.a.s.L.G.x.c.D.}.V.v.v.v.V. XD.c.K.1.( .. ...P I.;XA.V.C.C.C.v.v.v.C.C.v.C.C.C.S.D.8XV.F.V.C.v.N.v.v.v.v.v.x.x.x.x.x.x.x.x.v.v.v.v.v.v.v.v.c.C.v.N.v.v.G.A.eXMXA.C.v.v.C.C.v.v.v.v.v.v.v.v.v.x.x.x.x.x.x.x.x.x.x.x.x.x.x.x.x.x.z.x.z.z.z.z.z.z.z.z.z.z.z.z.z.z.z.z.z.z.z.z.z.z.x.x.z.z.x.x.x.x.x.x.z.z.z.z.z.z.z.z.z.z.z.z.z.z.z.z.z.z.z.z.z.z.z.z.z.z.z.z.z.z.z.z.z.z.z.z.z.z.z.z.z.z.z.z.z.z.z.z.z.x.z.*XAXLXPXGX;Xz.x.q.x.q.z.q.q.q.q.q.q.q.q.q.q.q.q.q.q.q.q.q.q.q.q.q.q.q.0.0.q.q.q.0.0.0.0.0.0.0.0.0.0.0.0.0.2.2.0.0.0.0.0.0.0.0.4.",
"2.2.0.0.2.2.2.2.0.0.2.2.2.2.0.0.0.0.0.0.0.0.0.0.0.0.0.0.0.0.0.0.0.0.0.0.0.q.q.q.q.q.q.q.q.q.q.q.q.z.w.j.mXHXHXSXiXa.z.a.q.q.w.w.w.q.w.w.q.q.q.q.q.q.q.q.q.q.w.w.z.z.z.z.z.z.z.z.z.z.z.z.z.z.z.z.z.z.z.z.z.z.z.z.z.z.z.z.z.z.z.x.z.z.z.z.z.z.z.z.z.z.z.z.z.z.z.z.z.z.z.z.z.z.z.z.z.z.z.z.z.z.z.z.x.x.x.x.x.x.x.x.x.x.x.x.x.v.x.x.v.x.v.m.V.C.N.N.C.v.K.n.yXxXA.C.C.C.v.v.v.v.v.v.v.v.x.x.x.x.x.x.x.x.x.x.x.x.x.x.x.x.v.v.v.C.C.S.A.8X}.V.C.G.v.v.v.v.v.c.c.v.v.v.v.c.|.|.V.m.v.x.x.x.v.V.h.{.x.N.c.m.c.T.T.c.c.c.}.c.c.a.d.d.U.P Y.%XOXj.6.I.f.j.6.Y.S.4.j.uXU o             o O U oX%XS.K.V.n.U.I.d.d.d.f.d.d.f.j.%XOXd.Y.p.d.a.s.T.m.x.c.D.{.A.v.v.v.V. XD.c.K.1.( ..(  .P I.;XA.V.C.C.v.v.v.v.C.C.v.C.C.C.S.D.8XV.F.F.V.x.N.v.v.v.v.v.x.x.x.x.x.x.x.x.v.v.v.v.v.v.v.v.c.C.v.N.C.v.G.A.eXMXA.C.v.v.v.C.v.v.v.v.v.v.v.v.v.v.x.x.x.x.x.x.x.x.x.x.x.x.x.x.x.x.z.x.z.z.z.z.z.z.z.z.z.z.z.z.z.z.z.z.z.z.z.z.z.z.x.x.z.z.x.x.x.x.z.x.z.z.z.z.z.z.z.z.z.z.z.z.z.z.z.z.z.z.z.z.z.z.z.z.z.z.z.z.z.z.z.z.z.z.z.z.z.z.z.z.z.z.z.z.z.z.z.z.z.x.z.*XAXHXPXGX;Xa.x.q.x.q.z.q.q.q.q.q.q.q.q.q.q.q.q.q.q.q.q.q.q.q.q.q.q.q.0.0.q.q.q.0.0.0.q.0.0.0.0.0.0.0.0.0.0.0.0.0.0.0.0.0.0.0.4.",
"2.2.0.0.0.2.2.2.0.2.2.2.2.2.0.0.0.0.0.0.0.0.0.0.0.0.0.0.0.0.0.0.0.0.0.0.0.q.q.q.q.q.q.q.q.q.q.q.q.z.w.j.mXHXHXDXiXa.z.4.q.q.w.w.w.q.w.q.q.q.q.q.q.q.q.q.q.q.z.w.z.z.z.z.z.z.z.z.z.z.z.z.z.z.z.z.z.z.z.z.z.z.z.z.z.z.z.z.z.z.z.x.z.z.z.z.z.z.z.z.z.z.z.z.z.z.z.z.z.z.z.z.z.z.z.z.z.z.z.z.z.z.z.z.x.x.x.x.x.x.x.x.x.x.x.x.x.x.x.x.v.x.v.v.V.C.N.N.C.v.K.n.yXxXY.v.C.C.v.v.v.v.v.v.v.v.x.x.x.x.x.x.x.x.x.x.x.x.x.x.x.c.v.v.v.C.C.S.A.8X}.S.C.G.v.v.v.v.v.c.c.v.v.v.v.c.|.{.V.m.v.x.x.v.v.V.h.{.x.N.x.m.c.T.T.c.c.c.T.c.a.a.d.d.U.P XXOXj.P K K P P X.K K ( ( L p X           X o & U G K  .K P  .K P P P P P K G G  .OXOXj.Y.p.3.3.s.T.m.x.c.D.{.A.m.v.m.V. XD.c.K.1.) ..(  .P I.;XA.V.C.C.v.v.v.v.C.C.v.C.C.C.S.D.8XV.F.F.V.x.N.v.v.v.v.v.x.x.x.x.x.x.x.x.v.v.v.v.v.v.v.v.c.c.v.N.v.v.G.A.eXMXA.C.v.v.v.v.v.v.v.v.v.v.v.v.v.x.x.x.x.x.x.x.x.x.x.x.x.x.x.x.x.x.x.x.z.z.z.z.z.z.z.z.z.z.z.z.z.z.z.z.z.z.z.z.z.z.x.x.z.z.x.x.x.x.z.z.z.z.z.z.z.z.z.z.z.z.z.z.z.z.z.z.z.z.z.z.z.z.z.z.z.z.z.z.z.z.z.z.z.z.z.z.z.z.z.z.z.z.z.z.z.z.z.z.z.x.z.*XAXHXPXGX;Xa.x.q.x.q.z.q.q.q.q.q.q.q.q.q.q.q.q.q.q.q.q.q.q.q.q.q.0.q.0.0.q.q.q.0.0.0.q.q.0.0.0.0.0.0.0.0.0.0.0.0.0.0.0.0.0.0.4.",
"2.2.2.2.2.2.2.2.2.2.2.2.0.0.0.0.2.4.0.0.0.0.0.0.0.0.0.0.0.0.0.0.0.0.0.0.q.0.0.0.q.q.q.q.q.q.q.q.q.z.z.j.mXHXHXDXiXa.z.4.q.q.w.w.q.q.q.q.q.q.q.q.q.q.q.q.q.q.q.q.q.q.q.q.q.q.z.z.q.q.z.z.z.z.z.z.z.z.z.z.z.z.z.z.z.z.z.z.z.z.z.z.z.z.z.z.z.z.z.z.z.z.z.z.z.z.z.z.z.z.z.z.z.z.z.z.z.z.z.z.z.z.x.x.x.x.x.x.x.x.x.x.x.x.x.x.x.x.x.x.v.v.v.m.V.C.N.N.G.v.K.I.@XcXA.v.C.v.v.v.v.v.v.v.v.v.v.v.v.v.v.x.x.x.x.x.x.x.x.x.v.v.v.v.C.C.C.S.f.8X}.S.C.G.v.v.v.v.v.c.c.c.v.v.m.c.|.|.A.m.v.c.x.x.c.V.F.}.x.B.x.m.c.T.T.c.n.c.L.V.p.3.I.6.7. .+X8.G x x V Z Z M Z V Z K M 2 o X . X   X X O % k M G G Z Z Z V Z Z Z Z Z Z Z M Z X.OXOXj.d.d.3.s.T.m.x.z.T.{.A.v.v.x.V. XF.c.K.1.( ..(  .P I.;XA.V.C.C.C.v.v.v.C.C.C.C.C.C.S.D.8XF.F.V.C.v.N.v.v.x.x.x.x.x.x.x.x.x.x.x.x.x.x.x.v.v.v.v.c.C.v.N.C.v.G.n.eXMXA.C.v.v.C.C.v.v.v.v.v.v.x.x.v.v.x.x.x.x.x.x.x.x.x.x.x.x.z.z.z.z.z.z.z.z.z.z.z.z.z.z.z.z.z.z.z.z.z.z.z.z.z.z.z.z.z.z.x.x.x.x.x.x.x.x.z.z.z.z.z.z.z.z.z.z.z.z.z.z.z.z.z.z.z.z.z.z.z.z.z.z.z.z.q.q.z.z.q.q.q.q.z.z.z.q.q.q.q.q.z.q.q.z.z.x.q.*XZXHXPXGX;Xa.z.q.z.4.z.q.q.q.q.q.q.q.q.q.q.q.q.q.q.q.0.0.0.0.q.0.0.0.0.q.q.q.q.0.0.0.0.0.0.0.0.0.0.0.2.2.0.0.0.0.0.0.0.0.0.0.0.",
"2.2.2.2.2.2.2.2.2.2.2.2.2.2.0.0.2.4.0.0.0.0.0.0.0.0.0.0.0.0.0.0.0.0.0.0.q.0.0.0.q.q.q.q.q.q.q.q.q.z.w.j.mXHXHXSXiXa.z.4.q.q.w.w.q.q.q.q.q.q.q.q.q.q.q.q.q.q.q.q.q.q.z.q.q.q.z.z.q.q.z.z.z.z.q.z.z.z.z.z.z.z.z.z.z.z.z.z.z.z.z.z.z.z.z.z.z.z.z.z.z.z.z.z.z.z.z.z.z.z.z.z.z.z.z.z.z.z.z.z.z.z.x.x.x.x.x.x.x.x.x.x.x.x.x.x.x.x.x.x.v.v.v.m.V.C.N.N.G.v.K.I.@XcXA.v.v.v.v.v.v.v.v.v.v.v.v.x.v.v.v.v.x.x.x.x.x.x.x.x.v.v.v.v.C.C.C.S.f.8X}.V.C.G.v.v.v.v.v.c.c.c.v.v.m.c.|.|.n.m.v.c.x.x.x.V.F.}.x.B.x.m.c.T.Y.c.c.c.T.a.c.d.,.7.+XK Z M x V Z Z Z M A A C Z G N 2 X   X X X X o $ % v B A G Z G A A Z A A A A Z Z Z Z Z h 6.=X,.6.6.f.T.m.x.z.T.{.A.m.v.x.V.|.F.c.K.1.( ..(  .P I.=XA.V.C.C.C.v.v.v.C.C.v.C.C.C.S.D.8XF.F.V.C.v.N.v.v.x.x.x.x.x.x.x.x.x.x.x.x.x.x.x.v.v.v.v.c.C.v.N.C.v.G.n.eXMXA.C.v.C.C.C.v.v.v.v.v.v.x.v.v.v.x.x.x.x.x.x.x.x.x.x.x.x.z.z.z.z.z.z.z.z.z.z.z.z.z.z.z.z.z.z.z.z.z.z.z.z.z.z.z.z.z.z.x.x.x.x.z.x.x.x.z.z.z.z.z.z.z.z.z.z.z.z.z.z.z.z.z.z.z.z.z.z.z.z.z.z.z.z.q.q.z.z.q.q.z.q.z.z.q.q.q.q.q.q.q.q.q.z.z.x.q.*XZXHXPXGX;Xa.z.q.z.4.z.q.q.q.q.q.q.q.q.q.q.q.q.q.q.0.0.0.0.0.q.0.0.0.0.q.q.q.0.0.0.0.0.0.0.0.0.0.0.0.2.2.0.0.0.0.0.0.0.0.0.0.0.",
"2.2.2.2.2.2.2.2.2.2.2.2.2.2.2.2.2.4.0.0.0.0.0.0.0.0.0.0.0.0.0.0.0.0.0.0.0.0.0.0.q.q.q.q.q.q.q.q.q.w.w.j.mXHXHXSXiXa.z.4.q.q.w.w.q.q.q.q.q.q.q.q.q.q.q.q.q.q.q.q.q.q.q.q.q.q.z.z.q.q.z.z.z.q.q.q.z.z.z.z.z.z.z.z.z.z.z.z.z.z.z.z.z.z.z.z.z.z.z.z.z.z.z.z.z.z.z.z.z.z.z.z.z.z.z.z.z.z.z.z.z.z.x.x.x.x.x.x.x.x.x.x.x.x.x.x.x.x.x.x.v.v.x.m.V.C.N.N.C.v.N.I.@XcXA.v.v.v.v.v.v.v.v.v.v.v.x.x.v.v.x.x.x.x.x.x.x.x.x.x.c.v.v.v.C.C.C.S.f.8X}.V.C.G.v.v.v.v.v.c.c.c.v.v.v.c.$X$Xn.c.v.c.x.x.c.V.F.{.c.B.c.m.c.T.Y.c.c.c.T.a.c.6.6.oXoXV h h l x x x z N B N V V V N 6 o o X X O , 5 < ; c V V V V V A V V V V V V V M M j Z M M ( +XU.6.f.T.m.x.z.T.{.s.m.v.x.V. XF.c.K.1.( ..(  .P j.=XA.V.C.C.C.v.v.v.C.c.v.C.C.C.C.D.8XF.F.V.C.v.N.v.v.x.x.x.x.x.x.x.x.x.x.x.x.x.x.x.v.x.v.v.V.C.v.N.C.v.C.A.eXMXA.C.v.v.C.v.v.v.v.v.v.v.v.v.v.x.x.x.x.x.x.x.x.x.x.x.x.x.z.z.z.z.z.z.z.z.z.z.z.z.z.z.z.z.z.z.z.z.z.z.z.z.z.z.z.z.z.z.x.x.x.x.z.z.x.x.z.z.z.z.z.z.z.z.z.z.z.z.z.z.z.z.z.z.z.z.z.z.z.z.z.z.z.z.q.q.z.z.z.z.z.z.z.z.z.z.z.z.q.q.q.q.q.z.z.x.z.*XZXHXPXGX;Xa.z.q.z.q.z.q.q.q.q.q.q.q.q.q.q.q.q.q.q.q.0.0.q.q.q.0.0.0.0.0.0.0.0.0.0.0.0.0.0.0.0.0.0.0.2.2.0.0.0.0.0.0.0.0.0.0.0.",
"2.2.2.2.2.2.2.2.2.2.2.2.2.2.2.2.2.4.0.0.0.0.0.0.0.0.0.0.0.0.0.0.0.0.0.0.0.0.0.0.0.0.q.q.q.q.q.q.q.w.w.j.mXHXHXSXiXa.z.4.q.q.w.w.q.q.q.q.q.q.q.q.q.q.q.q.q.q.q.q.q.q.q.q.q.q.z.z.q.q.z.z.z.q.q.q.z.z.z.z.z.z.z.z.z.z.z.z.z.z.z.z.z.z.z.z.z.z.z.z.z.z.z.z.z.z.z.z.z.z.z.z.z.z.z.z.z.z.z.z.z.z.x.x.x.x.x.x.x.x.x.x.x.x.x.x.x.x.x.x.v.v.x.m.V.C.N.N.C.v.N.I.@XxXA.v.v.v.v.v.v.v.v.v.x.x.x.x.v.x.x.x.x.x.x.x.x.x.x.x.c.c.v.v.v.C.C.V.f.8X}.V.C.C.v.v.v.c.v.c.c.c.v.v.m.c.|.|.n.c.v.x.x.x.c.c.h.{.x.v.c.m.c.T.S.c.c.c.T.m.3.,.U.7.G h N M c c x x N N c c x b x N k * o > 1 a a v v k N M M x x x x x c c c c z l l h z d M d 8 K u.7.f.T.m.x.z.T.{.s.m.v.m.V.|.A.c.K.1.( ..(  .P j.=Xn.V.C.C.C.v.v.v.C.c.v.C.C.C.C.D.8XF.F.V.C.v.N.v.v.x.x.x.x.x.x.x.x.x.x.x.x.x.x.x.v.x.x.v.c.C.v.v.C.v.C.f.eXMXA.C.v.v.v.v.v.v.v.v.v.v.v.x.v.x.x.x.x.x.x.x.x.x.x.x.x.x.z.z.z.z.z.z.z.z.z.z.z.z.z.z.z.z.z.z.z.z.z.z.z.z.z.z.z.z.z.z.x.x.x.z.z.z.x.x.z.z.z.z.z.z.z.z.z.z.z.z.z.z.z.z.z.z.z.z.z.z.z.z.z.z.z.z.q.q.q.q.z.z.z.z.z.z.z.z.z.z.q.q.z.z.z.z.z.x.z.*XZXHXPXGX;Xa.z.q.z.q.z.q.q.q.q.q.q.q.q.q.q.q.q.q.q.q.0.0.q.q.q.0.0.0.0.0.0.0.0.0.0.0.0.0.0.0.0.0.0.0.2.2.0.0.0.0.0.0.0.0.4.4.4.",
"2.2.2.2.2.2.2.2.2.2.2.2.0.0.2.2.2.4.0.0.0.0.0.0.0.0.0.0.0.0.0.0.0.0.0.0.q.q.q.0.0.0.0.q.0.0.0.q.q.w.w.j.mXHXHXDXiXa.z.4.q.q.w.w.q.q.q.q.q.q.q.q.q.q.q.q.q.q.q.q.q.q.z.z.q.q.z.z.z.z.z.z.z.z.z.z.z.z.z.z.z.z.z.z.z.z.z.z.z.z.z.z.z.z.z.z.z.z.z.z.z.z.z.z.z.z.z.z.z.z.z.z.z.z.z.z.z.z.z.z.z.z.x.x.x.x.x.x.x.x.x.x.x.x.x.x.x.v.v.v.x.x.x.v.V.C.N.N.C.v.N.I.@XxXA.v.v.v.v.v.v.v.x.x.x.x.v.x.x.x.x.x.x.x.x.x.x.x.x.x.c.c.v.v.v.C.C.V.f.8X}.V.C.C.v.v.v.v.c.c.c.c.v.v.m.c.|.|.n.m.v.x.x.x.x.c.h.{.c.v.x.x.c.K.K.c.c.c.T.n.d.6.u.G h g d h l l x z j j c c b b x A B a 2 B B B B y.y.L Z V M M M x x x x c c c l l h h z d r z d l y.7.j.T.m.x.z.T.{.s.m.x.x.V.|.A.c.m.1.) ..(  .P j.=Xn.V.V.C.v.v.v.v.C.c.v.C.C.C.C.D.8XF.F.V.C.x.N.v.v.x.x.x.x.x.x.x.x.x.x.x.x.x.x.x.v.v.v.v.c.C.v.v.C.v.v.f.eXMXA.C.v.v.v.v.v.v.v.v.v.v.x.x.x.x.x.x.x.x.x.x.x.x.x.x.x.x.z.z.z.z.z.z.z.z.z.z.z.z.z.z.z.z.z.z.z.z.z.z.z.z.z.z.z.z.z.z.x.z.x.x.x.x.x.x.z.z.z.z.z.z.z.z.z.z.z.z.z.z.z.z.z.z.z.z.z.z.z.z.z.z.z.z.z.z.z.z.z.z.z.z.z.z.z.z.z.z.z.z.z.z.z.z.z.x.q.*XFXLXPXGX;Xa.z.q.z.q.z.q.q.q.q.q.q.q.q.q.q.q.0.0.q.q.q.0.q.q.0.0.0.0.q.0.0.0.0.0.0.0.0.0.0.0.0.0.0.0.0.0.0.0.0.0.0.0.0.0.4.4.4.",
"2.2.2.2.2.2.2.2.2.2.2.2.0.0.2.0.2.4.0.0.0.0.0.0.0.0.0.0.0.0.0.0.0.0.0.0.q.q.q.0.0.0.0.0.q.q.0.0.q.w.w.j.mXHXHXDXiXa.z.4.q.q.q.w.q.q.q.q.q.q.q.q.q.q.q.q.q.q.q.q.q.q.z.z.q.q.z.z.z.z.z.q.z.z.z.z.z.z.z.z.z.z.z.z.z.z.z.z.z.z.z.z.z.z.z.z.z.z.z.z.z.z.z.z.z.z.z.z.z.z.z.z.z.z.z.z.z.z.z.z.z.z.x.x.x.x.x.x.x.x.x.x.x.x.x.x.x.v.v.v.x.x.x.v.V.C.v.N.C.v.B.I.@XxXA.v.v.v.v.v.v.x.x.x.x.x.x.x.x.x.x.x.x.x.x.x.x.x.x.x.c.c.x.v.v.C.C.S.f.8X}.V.C.C.x.v.v.v.c.c.c.c.x.v.v.c.|.|.n.c.m.x.x.x.x.c.h.{.c.v.c.x.c.K.K.c.c.z.T.3.U.j.P x x c M M b b V A N N c c b b x M B k N B z z A y.L z M M x M M x x x M M x M N N c c c B V M A A L y.j.T.M.x.z.T.{.s.m.x.x.c.|.A.c.m.1.) ( ( ( P j.=Xn.V.V.C.v.v.v.v.v.c.v.C.C.C.V.D.8XF.V.V.C.x.N.v.v.x.x.x.x.x.x.x.x.x.x.x.x.x.x.x.v.x.v.v.c.c.v.v.v.v.v.f.eXMXA.C.v.v.v.v.v.v.v.v.v.x.x.x.x.x.x.x.x.x.x.x.x.x.x.x.x.x.z.z.z.z.z.z.z.z.z.z.z.z.z.z.z.z.z.z.z.z.z.z.z.z.z.z.z.z.z.z.z.z.x.x.x.x.x.x.z.z.z.z.z.z.z.z.z.z.z.z.z.z.z.z.z.z.z.z.z.z.z.z.z.z.z.z.z.z.z.z.q.q.q.q.q.q.q.q.z.z.q.q.z.z.z.z.z.x.z.*XFXHXPXGX;Xa.z.q.z.q.z.q.q.q.q.q.q.q.q.q.q.q.q.q.q.q.q.0.q.q.0.0.0.0.q.q.0.0.0.0.0.0.0.0.0.0.0.0.0.0.0.0.0.0.0.0.0.0.0.0.4.4.4.",
"2.2.2.2.2.2.2.2.2.2.2.2.0.0.0.0.0.0.0.0.0.0.0.0.0.0.0.0.0.0.0.0.0.0.0.0.q.q.0.0.0.0.0.0.0.q.q.q.q.z.z.j.mXHXHXDXiXa.d.4.z.q.w.w.q.q.q.q.q.q.q.q.q.q.q.q.q.q.q.q.q.q.z.z.q.q.z.z.z.z.q.q.q.q.z.z.z.z.z.z.z.z.z.z.z.z.z.z.z.z.z.z.z.z.z.z.z.z.z.z.z.z.z.z.z.z.z.z.z.z.z.z.z.z.z.z.z.z.z.z.z.z.x.x.x.x.x.x.x.x.x.x.x.x.x.x.x.x.v.v.x.x.x.v.c.C.v.N.C.v.B.I.@XxXA.v.v.v.v.v.v.x.x.x.x.x.x.x.x.x.x.x.x.x.x.x.x.x.x.x.c.c.v.v.v.C.C.S.h.8X}.C.C.C.v.v.v.c.c.c.c.c.x.x.v.s.|.|.n.c.m.x.x.x.x.n.h.{.x.v.x.x.x.K.S.z.c.z.T.3.U.P M l c A V V b x x x N j c c x x x z g k h f f f l f f l x z z N c c c x x M M M M N N N N h L N V M 8 I j.T.M.M.z.T.{.s.m.x.x.c.|.A.c.m.1.) ..( ( P j.=Xn.V.V.C.c.c.v.v.v.V.v.C.C.v.V.D.8XF.V.V.C.x.N.v.v.x.x.x.x.x.x.x.x.x.x.x.x.v.x.x.v.x.x.c.c.c.v.v.v.v.v.f.eXMXA.C.v.v.v.v.v.v.x.x.x.x.x.x.x.x.x.x.x.x.x.x.x.x.x.x.x.x.z.z.z.z.z.z.z.z.z.z.z.z.z.z.z.z.z.z.z.z.z.z.z.z.z.z.z.z.z.z.x.x.x.x.x.x.x.x.z.z.z.z.z.z.z.z.z.z.z.z.z.z.z.z.z.z.z.z.z.z.z.z.q.z.q.q.z.z.q.q.q.q.q.q.q.q.q.q.q.q.q.q.q.q.z.z.z.x.z.*XFXLXPXGX;Xa.z.q.z.q.z.q.q.q.q.q.q.q.q.q.q.q.q.q.q.q.0.0.q.0.0.0.0.0.0.q.0.q.q.0.0.0.0.0.0.0.0.0.0.0.0.2.0.0.0.0.0.0.0.0.2.2.4.",
"2.2.2.2.2.2.2.2.2.2.2.2.0.0.0.0.0.0.0.0.0.0.0.0.0.0.0.0.0.0.0.0.0.0.0.0.0.0.0.0.0.0.0.0.0.q.q.q.q.z.w.I.mXHXHXDXiXp.z.4.q.q.q.q.q.q.q.q.q.q.q.q.q.q.q.q.q.q.q.q.q.q.z.z.q.q.z.z.z.z.q.q.q.z.z.z.z.z.z.z.z.z.z.z.z.z.z.z.z.z.z.z.z.z.z.z.z.z.z.z.z.z.z.z.z.z.z.z.z.z.z.z.z.z.z.z.z.z.z.z.z.z.x.x.z.x.x.x.x.x.x.x.x.x.x.x.x.x.v.v.x.x.x.v.c.C.v.N.C.v.B.I.@XvXA.v.v.v.v.v.v.x.x.x.x.x.x.x.x.x.x.x.x.x.x.x.x.x.x.x.c.c.v.v.v.v.C.V.h.8XW.C.C.C.v.v.x.c.c.c.c.c.x.x.v.s.|.|.c.c.m.z.z.c.x.c.h.{.c.m.x.x.x.K.S.z.c.d.T.+X8.f d h f l h z x x x x z z c c l x V z g j x l x l b l x V x x c N c c c c x x x x z z z l z h g f f g h g oXOXM.x.z.}.T.s.m.x.x.c.|.F.c.m.1.) ..(  .P j.=Xn.V.V.v.c.c.v.v.v.c.v.C.C.v.V.S.8XF.F.V.C.v.N.v.v.x.x.x.x.x.x.x.x.x.x.x.x.v.x.x.v.x.x.c.c.c.v.v.v.v.v.f.eXMXA.C.v.v.v.v.v.x.x.x.x.x.x.x.x.x.x.x.x.x.x.x.x.x.x.x.x.x.z.z.z.z.z.z.z.z.z.z.z.z.z.z.z.z.z.z.z.z.z.z.z.z.z.z.z.z.z.z.x.x.x.x.x.x.x.x.z.z.z.z.z.z.z.z.z.z.z.z.z.z.z.z.z.z.z.z.z.z.z.z.q.q.q.q.q.q.q.q.q.q.0.0.q.q.q.q.0.0.0.q.q.q.q.q.z.x.q.*XFXLXPXGX;Xa.z.q.z.q.q.q.q.q.q.q.q.q.q.q.q.q.q.q.0.0.0.0.q.q.q.0.0.0.0.q.q.q.q.q.0.0.0.0.0.0.0.0.0.0.2.2.0.0.0.0.0.0.0.0.2.2.4.",
"2.2.2.2.2.2.2.2.2.2.2.2.2.2.2.2.2.2.2.2.2.0.0.0.0.0.0.0.0.0.0.0.0.0.0.0.0.0.0.0.0.0.0.0.0.q.q.q.4.q.w.I.nXHXHXDXiXa.z.0.q.q.q.q.q.q.q.q.q.q.q.q.q.q.q.q.q.q.q.q.q.q.q.q.q.q.q.q.z.z.q.q.q.q.q.q.z.z.z.z.z.z.q.q.z.z.z.z.z.z.z.z.z.z.z.z.z.z.z.z.z.z.z.z.z.z.z.z.z.z.z.z.z.z.z.z.z.z.z.z.z.z.z.z.z.z.z.x.x.x.x.x.x.x.x.x.x.x.x.x.x.x.x.c.c.c.v.N.C.v.N.I.@XcXY.v.v.v.v.v.v.v.v.x.v.v.v.v.x.x.x.x.x.x.x.x.x.x.x.x.c.c.c.x.v.v.C.V.h.8XT.V.C.C.v.v.x.c.v.c.c.c.x.x.m.s.|.|.c.x.c.s.c.c.x.c.A.|.m.M.b.M.z.S.C.c.s.g.uX8.l d g g h l l l l l l z z l z z x x x z z z x x x x x x x x x x x x x x x x x x x z l l l l h h h h h g f f Z +XY.c.s.L.L.m.n.M.c.c.|.V.s.A.1.( ( ( ( K I.=Xc.V.C.C.C.v.v.v.v.v.v.C.v.V.C.S.8XA.V.V.C.v.v.v.v.x.x.x.x.x.x.x.x.x.x.x.x.x.x.x.v.v.v.v.c.v.v.v.v.m.N.f.eXMXF.C.v.v.v.x.x.x.x.x.x.x.x.x.x.x.x.x.x.x.x.x.x.x.x.x.z.z.z.z.z.z.z.z.z.z.z.z.z.z.z.z.q.q.q.z.z.z.z.z.z.z.z.z.z.z.z.z.z.z.z.z.z.z.z.z.z.z.z.z.q.q.q.z.z.z.q.q.q.q.z.z.q.q.q.q.z.z.w.w.q.q.q.q.q.q.q.q.q.q.q.q.q.q.q.q.q.q.q.q.q.q.q.z.z.x.q.*XFXLXPXGX=Xa.z.e.z.4.q.q.q.q.q.q.q.q.q.q.q.q.q.q.q.q.0.0.0.0.0.0.q.q.q.q.0.0.0.0.0.0.0.0.0.0.0.0.0.0.0.0.2.2.0.0.0.0.0.0.4.4.4.",
"2.2.2.2.2.2.2.2.2.2.2.2.2.2.2.2.2.2.2.2.2.0.0.0.0.0.0.0.0.0.0.0.0.0.0.0.0.0.0.0.0.0.0.0.0.0.q.q.4.z.w.U.nXHXHXDXiXp.b.q.w.q.q.q.q.q.q.q.q.q.q.q.q.q.q.q.q.q.q.q.q.q.q.q.q.q.q.q.z.z.q.q.q.q.q.q.q.q.z.z.z.z.q.q.z.z.z.z.z.z.z.z.z.z.z.z.z.z.z.z.z.z.z.z.z.z.z.z.z.z.z.z.z.z.z.z.z.z.z.z.z.z.z.z.z.z.z.x.x.x.x.x.x.x.x.x.x.x.x.x.x.x.x.m.V.V.v.N.C.v.N.n.@XcXY.v.v.v.v.v.v.v.v.x.x.v.v.v.x.x.x.x.x.x.x.x.x.x.x.x.c.c.c.x.v.v.C.V.f.8XT.V.C.C.v.v.x.c.c.c.c.c.x.c.m.s.|.|.c.x.c.s.s.c.x.x.A.|.m.b.b.b.z.K.C.p.s.U.y.L z l z x M M x c x x x x x x x x x x x x x x V V b V V V V V V V V V V V V x b b b b x x x x x x x M x x M M M y.j.f.c.D.S.c.n.m.c.c.|.F.s.A.,.( ( ( ( K d.=Xc.V.C.C.v.v.v.v.v.v.v.v.v.V.S.S.8XA.V.V.C.v.v.v.v.x.v.x.x.x.x.x.x.x.x.x.x.x.x.x.v.v.v.v.v.v.v.N.v.x.N.f.eXMXF.C.v.v.v.x.x.x.x.x.x.x.x.x.x.x.x.x.x.x.x.x.x.x.x.x.z.z.z.z.z.z.z.z.z.z.z.z.z.z.z.z.q.q.q.z.z.z.z.z.z.z.z.z.z.z.z.z.z.z.z.z.z.z.z.z.z.z.q.z.q.q.q.z.z.z.q.z.q.q.z.z.q.w.q.q.z.z.w.w.q.q.q.q.q.q.q.q.q.q.q.q.q.q.q.q.q.q.q.q.q.q.q.z.z.x.q.*XFXLXPXGX=Xa.b.e.z.4.q.q.q.q.q.q.q.q.q.q.q.q.q.q.q.q.0.0.q.0.0.0.0.q.q.q.0.0.0.0.0.0.0.0.0.0.0.0.0.0.0.0.2.2.2.2.0.0.0.0.4.4.4.",
"2.2.2.2.2.2.2.2.2.2.2.2.2.2.2.2.0.2.2.2.2.0.0.0.0.0.0.0.0.0.0.0.0.0.0.0.0.0.0.0.q.q.0.0.0.0.0.q.4.z.w.U.nXHXHXDXiXp.b.q.w.q.q.q.q.q.q.q.q.q.q.q.q.q.q.q.q.q.q.q.q.q.q.q.q.q.q.q.z.z.z.q.z.z.q.z.q.q.q.z.z.z.z.q.z.z.z.z.z.z.z.z.z.z.z.z.z.z.z.z.z.z.z.z.z.z.z.z.z.z.z.z.z.z.z.z.z.z.z.z.z.z.z.z.z.z.z.x.x.x.x.x.x.x.x.x.x.x.x.x.x.x.x.c.V.c.v.N.v.v.N.n.@XcXY.v.v.v.v.v.v.v.x.x.x.x.v.x.x.x.x.x.x.x.x.x.x.x.x.x.c.c.c.x.x.v.C.V.s.8XT.V.C.C.x.v.x.c.c.c.c.c.x.c.m.s.|.|.c.x.c.s.s.c.x.x.A.|.c.x.x.m.x.S.C.a.f.j.Z M z c N M M V V b V V V V V b b b b b x b V V V V Z Z Z Z Z Z Z Z Z Z V V V V V V V V V V V V L A A A A L L L M Z P OXI.T.|.c.c.c.c.c.%XA.s.n.,.( ( ( ( K d.=Xc.c.C.C.v.v.x.v.v.C.v.v.v.V.S.S.8XA.F.V.C.v.v.v.v.v.v.x.x.x.x.x.x.x.x.x.x.x.x.x.v.v.v.v.v.v.v.v.x.v.N.f.eXMXA.C.v.v.v.x.v.x.x.x.x.x.x.x.x.x.x.x.x.x.x.x.x.x.x.x.z.z.z.z.z.z.z.z.z.z.z.z.z.z.z.z.z.q.z.z.z.z.z.z.z.z.z.z.z.z.z.z.z.z.z.z.z.z.z.z.q.q.z.q.q.q.z.z.z.z.z.z.z.z.z.z.w.w.w.w.z.z.z.w.q.q.q.q.q.q.w.w.q.q.q.q.q.q.q.q.q.q.q.q.q.q.w.z.z.x.q.*XFXLXPXGX=Xa.b.q.z.4.q.q.q.q.q.q.q.q.q.q.q.q.q.q.q.q.0.0.q.q.0.0.0.0.0.q.0.0.0.0.0.0.0.0.0.0.0.0.0.0.0.0.2.2.2.2.2.0.0.0.4.4.2.",
"2.2.2.2.2.2.2.2.2.2.2.2.2.2.2.2.0.2.2.2.2.0.0.0.0.0.0.0.0.0.0.0.0.0.0.0.0.0.0.0.q.q.q.0.0.0.0.q.4.z.w.U.nXHXHXDXiXp.b.q.w.q.q.q.q.q.q.q.q.q.q.q.q.q.q.q.q.q.q.q.q.q.q.q.q.q.q.q.z.z.z.q.z.z.z.z.q.q.q.z.z.z.q.q.q.z.z.z.z.z.z.z.z.z.z.z.z.z.z.z.z.z.z.z.z.z.z.z.z.z.z.z.z.z.z.z.z.z.z.z.z.z.z.z.z.z.z.x.x.x.x.x.x.x.x.x.x.x.x.x.x.x.x.c.V.c.v.N.v.v.N.n.@XcXY.v.v.v.v.v.v.v.x.x.x.x.x.x.x.x.x.x.x.x.x.x.x.x.x.x.c.c.c.x.v.v.V.V.h.8XT.V.C.C.x.v.x.c.c.c.c.c.x.c.c.s.|.|.c.x.c.s.s.c.x.x.A.}.c.c.c.v.z.m.Y.I.<.G d h z z z x x x x x x x x x x x x x x x x x x x V V V V V V V V V V V V V V V V x x x x x x x x z z l l l l h h h r z 8.j.T.S.a.c.c.c.c.%XS.c.I.,.( ( ( ( K d.=Xc.c.C.C.v.v.x.v.c.C.v.v.v.V.S.S.8XA.F.V.C.v.v.v.v.v.v.x.x.x.x.x.x.x.x.x.x.x.x.x.v.v.v.v.v.v.v.v.x.v.N.f.eXMXA.v.v.v.v.x.v.v.v.v.x.x.x.x.x.x.x.x.x.x.x.x.x.x.x.x.z.z.z.z.z.z.z.z.z.z.z.z.z.z.z.z.z.z.z.z.z.z.z.z.z.z.z.z.z.z.z.z.z.z.z.z.z.z.z.z.q.q.q.q.z.z.z.z.z.z.z.z.z.z.z.z.w.w.w.z.z.z.w.w.q.q.q.q.q.q.w.q.q.q.q.q.q.q.q.q.q.q.q.q.q.q.q.q.z.x.q.*XFXLXPXGX=Xa.b.q.z.4.q.q.q.q.q.q.q.q.q.q.q.q.q.q.q.q.0.0.q.q.0.0.0.0.0.0.0.0.0.0.0.0.0.0.0.0.0.0.0.0.0.0.2.2.2.2.2.0.0.0.4.2.2.",
"2.2.2.2.2.2.2.2.2.2.2.2.2.2.2.2.0.0.2.2.2.0.0.0.0.0.0.0.0.0.0.0.0.0.0.0.0.0.0.0.q.q.0.0.0.q.q.q.4.z.w.U.mXHXHXDXiXp.b.0.w.q.q.q.q.q.q.q.q.q.q.q.q.q.q.q.q.q.q.q.q.q.q.q.q.q.q.q.q.z.z.z.z.q.q.q.z.z.z.z.z.z.z.z.q.q.z.z.z.z.z.z.z.z.z.z.z.z.z.z.z.z.z.z.z.z.z.z.z.z.z.z.z.z.z.z.z.z.z.z.z.z.z.z.z.z.z.x.x.x.x.x.x.x.x.x.x.x.x.x.x.x.x.c.c.v.v.N.v.v.N.n.@XcXY.x.v.v.v.v.v.v.v.x.x.x.x.x.x.x.x.x.x.x.x.x.x.x.x.x.c.c.c.x.v.v.C.V.h.8XT.V.v.v.x.v.x.c.c.c.c.c.x.c.c.s.|.|.x.x.c.s.s.c.z.x.V.}.c.c.c.s.a.Y.T.<.G d d h l l l l x l l l l x x x x x x x x x x x x x V V V V V V V V V V V V M x x x x x x x x x x x x x x x z l h h d z d x y.=Xn.V.V.c.c.m.%XS.n.I.,.( ( ( ( K d.=Xc.c.C.C.v.v.x.x.c.c.v.v.v.v.V.S.8XA.V.V.C.v.N.v.v.v.v.x.x.x.x.x.x.x.x.x.x.x.x.x.v.v.x.v.c.v.v.v.x.x.N.f.eXMXA.v.v.v.v.v.v.v.v.v.x.x.x.x.x.x.x.x.x.x.x.x.x.x.z.x.z.z.z.z.z.z.z.z.q.q.q.z.q.q.q.q.z.z.z.z.z.z.z.z.z.z.z.z.z.z.z.z.z.z.z.z.z.z.z.z.q.z.z.z.q.q.z.z.q.z.z.z.z.q.q.q.z.z.z.z.w.z.z.z.q.q.w.w.w.q.q.q.q.q.q.q.q.q.q.q.q.q.q.q.q.q.q.q.z.x.q.*XFXLXPXGX=Xa.b.q.z.q.q.q.q.q.q.q.q.q.q.q.q.q.q.q.q.q.0.0.0.0.0.0.0.0.0.0.0.0.0.0.0.0.0.0.0.0.0.0.0.0.0.0.2.2.2.2.2.0.0.0.2.2.2.",
"2.2.2.2.2.2.2.2.2.2.2.2.2.2.2.2.0.0.2.2.2.0.0.0.0.0.0.0.0.0.0.0.0.0.0.0.0.0.0.0.0.q.0.0.q.q.q.q.4.z.w.U.nXHXHXDXiXp.b.0.w.q.q.q.q.q.q.q.q.q.q.q.q.q.q.q.q.q.q.q.q.q.q.q.q.q.q.q.q.z.z.z.z.q.q.q.z.z.z.z.z.z.z.z.q.q.z.z.z.z.z.z.z.z.z.z.z.z.z.z.z.z.z.z.z.z.z.z.z.z.z.z.z.z.z.z.z.z.z.z.z.z.z.z.z.z.z.x.x.x.x.x.x.x.x.x.x.x.x.x.x.x.x.c.c.v.v.N.v.v.N.n.@XcXY.x.v.v.v.v.v.v.x.x.x.x.x.x.x.x.x.x.x.x.x.x.x.x.x.x.c.c.x.x.v.v.C.V.s.;XT.V.C.v.x.v.x.c.c.c.c.c.x.c.c.a.|.}.x.x.c.a.s.c.z.x.V.}.c.c.c.a.s.%XOXG j d z z l l l l c x x x x x x x x x V V V V V V V V V V V V V V V V V V V V V V V V V V M M x x x x l z z z l l h h h h g f z +X%X3.c.c.c.m.%XS.m.U.,.( ( ( ( K d.=Xn.c.C.C.c.c.x.c.c.c.v.v.v.v.V.S.8XF.A.V.C.x.N.v.v.v.v.x.x.x.x.x.x.x.x.x.x.x.x.x.x.v.x.v.c.v.v.v.x.x.v.f.eXMXA.v.v.v.v.x.v.v.x.v.x.x.x.x.x.x.x.x.x.x.x.x.z.x.z.z.z.z.z.z.z.z.z.z.q.q.q.z.q.q.z.q.z.z.z.z.z.z.z.z.z.z.z.z.z.z.z.z.z.z.z.z.z.z.z.z.z.z.z.z.q.q.z.z.q.z.z.z.z.z.q.q.z.q.z.z.w.z.z.z.q.q.w.w.q.q.q.q.q.q.q.q.q.0.0.0.q.q.q.q.q.q.q.q.z.x.q.*XFXLXPXGX=Xa.b.q.z.q.q.q.q.q.q.q.q.q.q.q.q.q.q.q.q.q.0.0.0.0.0.0.0.0.0.0.0.0.0.0.0.0.0.0.0.0.0.0.0.0.0.0.2.2.2.2.2.0.0.0.2.2.2.",
"2.2.2.2.2.2.2.2.2.2.2.2.2.2.2.2.0.0.0.2.2.0.0.0.0.0.0.0.0.0.0.0.0.0.0.0.0.0.0.0.0.0.0.0.q.q.q.q.4.z.w.U.nXHXHXDXiXp.b.q.w.q.q.q.q.q.q.q.q.q.q.q.q.q.q.q.q.q.q.q.q.q.q.q.q.q.q.q.q.q.z.z.q.q.q.q.z.z.q.q.q.q.z.z.q.z.z.z.z.z.z.z.z.z.z.z.z.z.z.z.z.z.z.z.z.z.z.z.z.z.z.z.z.z.z.z.z.z.z.z.z.z.z.z.z.z.z.x.x.x.x.x.x.x.x.x.x.x.x.x.x.x.x.c.c.v.v.N.v.v.N.n.@XcXY.x.v.v.v.v.v.x.x.x.x.x.x.x.x.x.c.c.x.x.x.x.x.x.x.x.x.x.x.x.v.v.C.V.s.8XT.c.v.v.x.v.x.c.c.c.c.c.x.c.m.a.|.}.x.x.m.a.a.c.z.x.V.}.c.c.s.s.j.OX8.M x M M M x M x x b V V V V V V V V V V V V V V V V Z Z Z Z Z Z Z Z Z A A A V Z V V V Z Z Z Z V V V V V V A A A A A A L N U U z y.+XI.c.c.c.v.|.S.M.U.,.( ( ( ( K d.=Xc.c.c.C.c.c.x.c.c.c.v.v.v.m.S.S.8XF.A.V.C.x.v.v.v.x.x.x.x.x.x.x.x.x.x.x.x.x.x.x.x.v.x.x.c.v.v.v.x.x.v.f.eXMXA.v.v.v.v.x.x.x.x.x.x.x.x.x.x.x.x.x.x.x.x.z.z.z.z.z.z.z.z.z.z.z.z.z.q.q.z.z.z.z.z.z.q.q.q.q.z.z.z.z.z.z.z.z.z.z.z.z.z.z.z.z.z.z.z.z.z.z.z.z.q.z.z.z.q.q.z.z.z.z.q.q.q.q.w.w.w.w.z.z.q.q.q.q.q.q.q.q.q.q.q.q.0.0.0.0.q.q.q.q.q.q.q.z.z.x.q.*XFXLXPXGX=Xa.b.q.z.4.q.q.q.q.q.q.q.q.q.q.q.q.q.q.q.0.0.0.0.0.0.0.0.0.q.q.0.0.0.0.0.0.0.0.0.0.0.0.0.0.0.0.0.0.2.2.0.0.0.0.2.2.4.",
"2.2.2.2.2.2.2.2.2.2.2.2.2.2.2.2.0.0.0.0.2.0.0.0.0.0.0.0.0.0.0.0.0.0.0.0.0.0.0.0.0.0.0.0.q.q.q.q.4.z.w.U.mXHXHXDXiXp.b.q.w.q.q.q.q.q.q.q.q.q.q.q.q.q.q.q.q.q.q.q.q.q.q.q.q.q.q.q.q.q.z.q.q.q.q.q.z.z.z.q.q.q.z.z.z.z.z.z.z.z.z.z.z.z.z.z.z.z.z.z.z.z.z.z.z.z.z.z.z.z.z.z.z.z.z.z.z.z.z.z.z.z.z.z.z.z.z.x.x.x.x.x.x.x.x.x.x.x.x.x.x.x.x.c.c.v.v.N.v.v.N.n.@XcXY.x.v.v.v.x.v.x.x.x.x.x.x.x.x.c.c.c.x.x.x.x.x.x.x.x.x.x.x.x.v.v.C.V.s.8XT.c.v.v.x.v.x.c.c.c.c.c.x.c.m.a.|.|.x.x.m.a.a.c.z.x.V.}.c.c.a.U.j.X.A M L A A Z A A A Z A L A A Z V V V V M V V V V V V Z Z Z Z Z Z Z V V V V V V V Z V V V Z Z Z Z A A A A A A A A A A L L A L L L U l d oXI.c.c.v.|.S.c.U.,.( ( ( ( K d.=Xc.c.v.C.c.c.x.c.c.c.v.v.x.m.S.S.8XA.A.c.C.x.v.v.v.x.x.x.x.x.x.x.x.x.x.x.x.x.x.x.x.v.x.x.c.v.v.v.x.x.v.f.eXMXA.v.v.v.v.x.x.x.x.x.x.x.x.x.x.x.x.x.x.x.x.z.z.z.z.z.z.z.z.z.z.z.z.z.z.z.z.z.z.z.z.z.q.q.q.q.z.z.z.z.z.z.z.z.z.z.z.z.z.z.z.z.z.z.z.z.z.z.z.z.q.q.z.z.q.q.z.z.z.z.z.q.q.q.q.w.w.w.z.z.q.q.q.q.q.q.q.q.q.q.q.q.0.0.0.0.q.q.q.q.q.q.q.z.z.x.q.*XFXLXPXGX=Xa.b.q.z.4.q.q.q.q.q.q.q.q.q.q.q.q.q.q.0.0.0.0.0.0.0.0.0.0.q.q.0.0.0.0.0.0.0.0.0.0.0.0.0.0.0.0.0.0.2.2.2.0.0.0.2.2.2.",
"2.2.2.2.2.2.2.2.2.2.2.2.2.2.2.2.2.2.2.2.2.2.2.2.0.0.0.0.0.0.0.0.2.2.0.0.0.0.0.0.0.0.0.0.0.0.0.q.a.q.w.U.nXHXHXSXiXp.b.0.q.q.q.q.q.q.q.0.0.0.0.0.q.q.q.q.q.q.q.q.q.q.q.q.q.q.q.q.q.q.q.q.q.q.q.q.z.z.z.q.q.q.z.z.q.q.q.z.z.z.z.z.z.z.z.z.z.z.z.z.z.z.z.z.z.z.z.z.z.z.z.z.z.z.z.z.z.z.z.z.z.z.z.z.z.z.z.z.z.z.x.x.x.x.x.x.x.x.x.x.x.x.x.c.c.c.v.v.v.v.v.f.@XvXY.x.v.v.v.v.x.x.x.x.x.x.x.x.x.x.x.x.x.x.x.x.c.x.x.x.c.c.c.v.v.v.v.c.f.8X}.V.C.v.x.v.x.c.c.c.z.c.x.c.c.a.}.|.x.M.m.d.a.z.x.q.n.|.a.A.I.j.K h 8 f v f h l x x M x x x b M M M V V V V V V V V V V V V V V V V V V V V V V V V V V V V V V V V V V V V M M M M M x x M z h d d d f f f 8.U.A.p.|.c.x.b.1.( ) ) ( K d.;Xn.V.C.C.v.v.x.v.v.c.v.v.m.V.S.S.8XA.s.A.c.v.v.v.v.x.x.x.x.x.x.x.x.x.x.x.x.x.x.x.x.v.x.x.c.v.v.v.v.x.v.f.eXMXY.v.v.v.v.v.x.x.x.v.x.x.x.x.x.x.x.x.x.x.x.x.x.x.z.z.z.z.z.z.z.z.z.z.z.z.z.z.z.z.z.z.q.q.q.z.z.z.z.z.z.z.z.z.z.z.z.z.z.z.z.z.z.z.z.z.q.z.z.z.z.q.q.q.q.q.z.z.z.q.q.q.q.q.q.q.q.q.q.q.q.q.q.q.q.q.q.q.q.q.q.0.0.0.0.0.q.q.q.q.q.q.q.q.z.x.q.*XFXLXPXGX=Xa.b.4.z.4.q.0.q.q.q.0.0.0.q.q.0.0.0.0.q.q.q.q.0.0.0.0.0.0.0.0.0.0.0.0.0.0.4.4.0.0.0.2.2.2.0.0.0.0.2.2.2.2.2.2.4.4.4.",
"2.2.2.2.2.2.2.2.2.2.2.2.2.2.2.2.2.2.2.2.2.2.2.2.0.0.0.0.0.0.0.0.2.0.0.0.0.0.0.0.0.0.0.0.0.0.0.q.4.q.w.U.nXHXHXSXiXp.b.0.q.q.q.q.q.q.q.q.0.0.0.0.q.q.q.q.q.q.q.q.q.q.q.q.q.q.q.q.q.q.q.q.q.q.q.q.z.z.q.q.q.q.z.z.z.q.q.z.z.z.z.z.z.z.z.z.z.z.z.z.z.z.z.z.z.z.z.z.z.z.z.z.z.z.z.z.z.z.z.z.z.z.z.z.z.z.z.z.z.z.x.x.x.x.x.x.x.x.x.x.x.x.x.c.c.c.v.v.v.v.v.f.@XvXY.x.v.v.x.x.x.x.x.x.x.x.x.x.x.x.x.x.x.x.x.x.c.x.x.x.c.c.c.v.v.v.v.c.f.8X{.V.C.v.x.v.x.c.c.c.z.c.x.x.c.a.}.|.x.x.c.s.m.a.z.c.Y.%X3.d.+XG f h c f f c h l z x x x x x x x x x x x M M V V V V V V V V V V V V V V V V V V V V V V V V V V V x M M M x M M M M x x z z z j h h g g f f d X.Y.S.&Xc.c.R.1.( ( ( ( K d.=Xn.V.C.V.v.v.x.v.c.c.v.v.m.V.S.S.8XA.s.A.c.v.v.v.v.x.x.x.x.x.x.x.x.x.x.x.x.x.x.x.x.v.x.x.c.v.v.v.v.x.v.f.eXMXY.c.v.v.v.x.x.x.x.v.x.x.x.x.x.x.x.x.x.x.x.x.x.x.z.z.z.z.z.z.z.z.z.z.z.z.z.z.z.z.z.z.q.q.z.z.z.z.z.z.z.z.z.z.z.z.z.z.z.z.z.z.z.z.z.z.q.z.q.z.z.z.z.q.q.q.z.z.z.z.q.q.q.q.q.q.q.q.q.q.q.q.q.q.q.q.q.q.q.q.q.q.q.0.0.0.q.q.q.q.q.q.q.q.z.x.q.*XFXLXPXGX=Xa.z.4.z.4.q.0.q.q.q.0.0.0.q.0.0.0.0.0.q.q.q.0.0.0.0.0.0.0.0.0.0.0.0.0.0.0.4.4.0.0.0.2.2.2.0.0.0.0.2.2.2.2.0.0.4.4.4.",
"2.2.2.2.2.2.2.2.2.2.2.2.2.2.2.2.2.2.2.2.2.2.2.2.0.0.0.0.0.0.0.0.0.0.0.0.0.0.0.0.0.0.0.0.0.0.0.q.a.q.w.U.nXHXHXSXiXp.b.0.q.q.q.q.q.q.q.q.q.q.q.q.0.0.0.q.q.q.q.q.q.q.q.q.q.q.q.q.q.q.q.q.q.q.q.q.z.z.q.q.q.q.q.q.z.z.q.z.z.z.z.z.z.z.z.z.z.z.z.z.z.z.z.z.z.z.z.z.z.z.z.z.z.z.z.z.z.z.z.z.z.z.z.z.z.z.z.z.z.z.x.x.x.x.x.x.x.x.x.x.x.x.x.c.c.c.v.v.v.v.v.n.@XcXY.x.v.v.v.x.x.x.x.x.x.x.x.x.x.x.x.x.x.x.x.x.x.x.x.x.c.c.c.x.v.v.v.c.h.8XT.V.v.v.x.v.x.c.c.c.z.c.x.x.c.d.|.|.x.x.c.s.a.c.m.M.I.%XI.+XK h 8 f v f f v z z z x x x x x x x x x x x x x x V V V V V V V V V V V V V V V V V V V V V V V x x x x x x x x x x x x z z l l z z h h h g f f f x 6.Y.|.4.c.b.1.K ( ( ( K d.=Xn.c.C.V.v.v.x.x.c.c.v.v.m.m.S.A.8XA.s.A.c.v.v.v.v.x.x.x.x.x.x.x.x.x.x.x.x.x.x.x.x.v.x.c.c.v.v.v.v.x.v.f.eXMXY.c.v.v.x.x.x.x.x.x.x.x.x.x.x.x.x.x.x.x.x.x.x.x.z.z.z.z.z.z.z.z.z.z.q.z.z.z.z.z.z.z.z.z.z.z.z.z.q.q.z.z.z.z.z.z.z.z.z.z.z.z.z.z.z.z.q.q.z.z.z.z.q.z.q.q.q.z.q.q.q.q.q.q.w.q.q.w.w.q.q.q.q.q.q.q.q.q.q.q.q.q.q.q.q.q.q.q.q.q.q.q.q.q.z.x.q.*XFXLXPXGX=Xa.b.4.z.4.q.0.0.0.q.0.0.0.0.0.q.q.0.0.0.0.0.0.0.0.0.0.0.0.0.0.0.0.0.0.0.0.4.4.0.0.2.2.2.2.0.0.0.0.0.2.0.0.0.0.4.4.4.",
"2.2.2.2.2.2.2.2.2.2.2.2.2.2.2.2.2.2.2.2.2.2.0.0.2.2.2.2.2.2.2.2.0.0.0.0.0.0.0.0.0.0.0.0.0.0.0.q.a.q.w.U.nXHXHXSXiXp.b.0.q.q.q.q.q.q.q.q.q.q.q.q.0.0.0.q.q.q.q.q.q.q.q.q.q.q.q.q.q.q.q.q.q.q.q.q.z.z.z.q.q.q.q.q.z.z.q.z.z.z.z.z.z.z.z.z.z.z.z.z.z.z.z.z.z.z.z.z.z.z.z.z.z.z.z.z.z.z.z.z.z.z.z.z.z.z.z.z.z.z.x.x.x.x.x.x.x.x.x.x.x.x.c.c.c.c.v.v.v.v.v.f.@XcXY.x.v.v.v.v.x.x.x.x.x.x.x.x.x.x.x.c.x.x.x.x.x.x.x.x.c.c.c.x.v.v.v.c.f.8XT.V.v.v.x.v.x.c.c.c.z.c.x.x.m.d.|.|.x.x.c.s.3.m.m.4.d.=Xj.X.f h l g f v v l z z z z z x x x x x x x x x x x x x x x x M M M V V V V V V V V M V V V V V V x x x x x x x x x z z z z z z l z h z l h h f f f g f h ,.=XA.m.T.,.K ( ( ( K j.=Xn.c.C.C.v.c.x.x.c.c.v.v.v.m.S.A.8XA.s.A.c.v.v.v.v.x.x.x.x.x.x.x.x.x.x.x.x.x.x.x.x.v.x.c.c.v.v.v.v.x.v.f.eXMXY.v.x.x.x.x.x.x.x.x.x.x.x.x.x.x.x.x.x.x.x.x.x.x.z.z.z.z.z.z.z.z.z.z.q.z.z.z.z.z.z.z.z.z.z.z.z.z.q.q.z.z.z.z.z.z.z.z.z.z.z.z.z.z.z.z.q.q.z.z.z.z.q.q.q.q.z.z.q.q.q.q.q.w.w.q.w.w.q.q.q.q.q.q.q.q.q.q.q.q.q.q.q.q.q.q.q.q.q.q.q.q.q.q.z.x.q.*XFXLXPXGX=Xa.b.4.z.4.q.0.0.0.0.0.0.0.0.0.q.q.0.0.0.0.0.0.0.0.0.0.0.0.0.0.0.0.0.0.0.0.4.4.0.0.2.2.2.2.0.0.0.0.2.2.0.0.0.0.4.4.4.",
"2.2.2.2.2.2.2.2.2.2.2.2.2.2.2.2.2.2.2.2.0.0.0.0.0.2.0.0.2.2.2.2.2.2.0.0.0.0.0.0.0.0.0.0.0.0.0.q.a.q.w.U.nXHXHXSXiXp.b.0.q.q.q.q.q.q.q.q.q.q.q.q.q.q.q.q.q.q.q.q.q.q.q.q.q.q.q.q.q.q.q.q.q.q.q.q.q.q.q.q.z.q.q.q.z.z.z.z.z.z.z.z.z.z.z.z.z.z.z.z.z.z.z.z.z.z.z.z.z.z.z.z.z.z.z.z.z.z.z.z.z.z.z.z.z.z.z.z.z.z.x.x.x.x.x.x.x.x.x.x.x.x.x.c.c.c.v.v.v.v.v.n.@XcXY.x.v.v.v.v.v.x.x.x.x.c.x.x.x.x.x.x.x.x.x.x.x.x.x.x.c.c.c.x.v.v.v.V.f.;XT.m.v.v.x.v.x.c.z.c.z.c.x.x.M.a.|.|.x.x.c.s.s.z.4.b.+XyXX.f f f h l l l z z z z z z z z x x x x x x x x M V M M M M V V V V V V V V M M M M M M V V V V M x M M x x M M x x x x x M x x x x z z x z z l j j f l r Z =XY.3.I.1.K ( ( ( K d.=Xn.c.v.c.x.c.x.x.c.c.x.v.v.m.m.A.8XA.s.A.c.v.v.v.v.x.x.x.x.x.x.x.x.x.x.x.x.x.x.x.v.v.x.c.c.c.v.v.v.x.v.f.eXMXF.v.x.v.x.x.x.x.x.x.x.x.x.x.x.x.x.x.x.x.x.x.x.z.z.z.z.z.z.z.z.z.z.z.q.z.z.z.z.z.q.q.z.z.z.z.z.z.q.q.z.z.z.z.z.z.z.z.z.z.z.z.z.z.z.z.q.z.z.z.q.q.q.q.z.q.q.q.q.z.z.z.q.q.q.q.q.q.q.q.q.q.q.q.q.q.q.q.q.q.q.q.q.q.q.q.q.q.q.q.q.q.q.q.z.x.q.*XFXLXPXGX=Xa.z.q.z.4.q.0.q.q.q.0.0.0.q.q.q.0.0.0.0.0.0.0.0.0.0.0.0.0.0.0.0.0.0.0.0.0.0.0.0.2.2.2.2.0.0.0.0.0.0.0.0.2.2.2.2.2.2.",
"2.2.2.2.2.2.2.2.2.2.2.2.2.2.2.2.2.2.2.2.0.0.0.0.0.2.2.0.2.2.2.2.2.2.0.0.0.0.0.0.0.0.0.0.0.0.0.q.a.q.w.U.nXHXHXSXiXp.b.0.q.q.q.0.q.q.q.q.q.q.0.q.q.q.q.q.q.q.q.q.q.q.q.q.q.q.q.q.q.q.q.q.q.q.q.q.q.q.q.q.z.q.q.q.z.z.z.z.z.z.z.z.z.z.z.z.z.z.z.z.z.z.z.z.z.z.z.z.z.z.z.z.z.z.q.q.z.z.z.z.z.z.z.z.z.z.z.z.z.z.x.x.x.x.x.x.x.x.x.x.x.x.x.c.c.c.x.v.v.v.v.n.@XcXY.x.v.v.v.v.v.x.x.x.c.c.x.x.x.x.x.c.x.x.x.x.c.x.x.x.c.c.c.x.v.v.v.V.f.;XT.c.v.v.x.x.x.c.z.c.z.c.x.x.M.a.|.}.x.x.c.s.V.a.4.+X+X+XK l A V x x x x x M M M M M M M V V V b b b M V V V V V V V V V V V V V V V V V V V M V V V V V V M V V V V M M M M M M V V V V V V V Z A A A A A A U U I 8.7.j.OXI...K ( ( ( K d.=Xn.c.c.c.x.c.x.c.c.c.v.x.m.m.m.A.8XA.s.A.c.v.v.v.v.x.x.x.x.x.x.x.x.x.x.x.x.x.x.x.v.v.x.c.c.c.v.v.v.x.v.f.eXMXF.c.v.v.x.x.x.x.x.x.x.x.x.x.x.x.x.x.x.x.x.x.z.z.z.z.z.z.z.z.z.z.z.z.q.q.q.q.z.z.q.q.z.z.z.q.z.z.q.z.z.z.z.z.z.z.z.z.z.z.z.z.z.z.z.z.z.z.z.z.z.q.q.q.z.q.q.q.q.z.z.z.q.q.q.q.q.q.q.q.q.q.q.q.q.q.q.q.q.q.q.q.q.q.q.q.q.q.q.q.q.q.q.q.z.x.q.*XFXLXPXGX=Xa.z.q.z.4.q.0.q.q.q.0.0.q.q.q.q.0.0.0.0.0.0.0.0.0.0.0.0.0.0.0.0.0.0.0.0.0.0.0.0.0.2.2.2.2.0.0.0.0.0.0.0.0.2.2.2.2.2.",
"2.2.2.2.2.2.2.2.2.2.2.2.2.2.2.2.2.2.2.2.0.0.2.2.2.2.0.0.0.0.0.0.2.2.0.0.0.0.0.0.0.0.0.0.0.0.0.0.a.q.w.U.nXHXHXSXiXp.b.0.q.q.0.0.q.0.q.q.q.0.0.0.q.q.q.q.q.q.q.q.q.q.q.q.q.q.q.q.q.q.q.q.q.q.q.q.q.q.z.z.z.z.q.q.q.q.z.z.z.z.z.z.z.z.z.z.z.z.z.z.z.z.z.z.z.z.z.z.q.q.z.z.z.z.q.q.z.z.z.z.z.z.z.z.z.z.z.z.z.z.x.x.x.x.x.x.x.x.x.x.x.x.x.c.c.c.x.x.v.v.v.n.@XcXY.x.v.v.v.v.v.x.x.x.c.c.x.x.x.x.c.c.x.x.x.x.c.x.x.x.c.c.c.c.v.v.C.V.f.;XT.c.v.v.x.x.x.c.z.c.c.c.x.x.M.a.|.}.x.x.c.s.s.a.b.+XP G G I L L L A V Z Z Z N N N N V V V V V V b b x V V V V V V V V V V V V V V V V V V V b b V V V V V V V V V V V V V V M V V V V V V V A A A A A G G G G V L L f Z U.U...K Q Q ( K j.=Xn.c.c.c.c.c.x.c.c.c.x.x.x.m.m.A.8XA.s.V.c.m.v.v.x.x.x.x.x.x.x.x.x.x.x.x.x.x.x.x.x.v.x.x.c.c.v.v.v.x.v.f.yXMXF.c.x.x.x.x.x.x.x.x.x.x.x.x.x.x.x.x.x.x.x.z.z.z.z.z.z.z.z.z.z.q.q.z.q.q.q.q.z.z.q.q.q.q.q.q.z.z.z.z.z.z.z.z.z.z.z.z.z.z.z.z.z.z.z.z.z.z.z.z.z.q.z.z.z.z.q.q.q.q.z.z.q.q.q.w.q.w.q.q.q.q.q.q.q.q.q.q.q.q.q.q.q.q.q.q.q.q.q.q.q.q.q.q.z.z.q.*XFXLXPXGX=Xa.z.q.z.4.q.0.q.q.0.0.0.0.q.q.0.0.0.0.0.0.q.q.0.0.0.0.0.0.0.0.0.0.0.0.0.0.0.0.2.2.2.2.2.2.2.2.0.0.0.0.2.2.2.2.2.2.2.",
"2.2.2.2.2.2.2.2.2.2.2.2.2.2.2.2.2.2.2.2.0.2.2.2.2.2.2.2.2.2.2.2.2.2.0.0.0.0.0.0.0.0.0.0.0.0.0.0.4.q.w.U.nXHXHXSXiXp.b.0.q.q.0.0.0.0.q.q.q.0.0.0.q.q.q.q.q.q.q.q.q.q.q.q.q.q.q.q.q.q.q.q.q.q.q.q.q.z.q.z.q.z.q.q.q.q.q.z.z.z.z.z.z.z.z.z.z.z.z.z.z.z.z.z.z.z.z.z.q.q.z.z.z.q.q.q.z.z.z.z.z.z.z.z.z.z.z.z.z.z.x.x.x.x.x.x.x.x.x.x.x.x.x.c.c.c.x.v.v.v.v.f.@XvXY.x.v.v.v.v.x.x.x.x.c.c.x.x.x.x.c.x.x.x.x.x.c.x.x.x.c.c.c.c.v.v.v.V.f.;XT.n.c.v.c.x.x.c.c.c.c.x.x.x.M.a.|.}.x.x.c.s.a.n.U.7.z d h x V x z M V M M M M M N N N M M M M M b M b M V V M M V M V M V V V V V V V V V V b V V V V V V M V V V V V V V M M M M M M M M M M x x x M M M z h A d r h h G +XX.K P K P K 7.=Xn.c.c.c.c.c.c.c.c.c.x.x.x.m.m.A.8XA.s.V.c.v.v.v.x.x.x.x.x.x.x.x.x.x.x.x.x.x.x.x.x.v.x.x.c.v.v.v.m.x.v.f.yXMXF.x.x.x.x.x.x.x.x.x.x.x.x.x.x.x.x.x.x.x.x.z.z.z.z.z.z.z.z.z.q.q.z.z.q.q.q.q.z.z.q.q.q.q.q.q.z.z.z.z.z.z.z.z.z.z.z.z.z.z.z.z.z.z.z.z.z.z.z.z.z.q.q.z.z.z.q.q.q.q.q.z.q.q.q.w.w.w.q.q.q.q.q.q.q.q.q.q.q.q.q.q.q.q.q.q.q.q.q.q.q.q.q.q.z.z.q.*XFXLXPXGX=Xa.z.e.z.4.q.0.q.q.0.0.0.0.0.0.0.0.0.0.0.q.q.q.0.0.0.0.0.0.0.0.0.0.0.0.0.0.0.0.2.2.2.2.2.2.2.2.2.2.0.2.2.2.2.2.2.2.2.",
"2.2.2.2.2.2.2.2.2.2.2.2.2.2.2.2.2.2.2.2.2.2.2.2.2.2.2.2.0.0.0.0.0.0.2.2.2.0.0.0.0.0.0.0.0.0.0.0.a.q.w.U.nXGXHXSXsXp.e.0.w.0.0.0.q.q.q.q.0.0.q.q.q.q.q.q.q.q.q.q.q.q.q.q.q.q.q.q.q.q.q.q.q.q.q.q.q.q.q.q.q.q.q.q.q.q.z.z.z.z.z.z.z.z.z.z.z.z.z.z.q.q.q.q.z.z.z.z.q.z.z.z.z.z.z.q.q.q.z.z.z.z.z.z.z.z.z.z.z.z.z.z.z.x.x.x.x.x.x.x.x.x.c.c.c.x.x.x.v.N.x.f.@XcXY.x.x.x.x.x.x.x.x.x.x.x.x.x.x.x.x.x.x.x.x.x.x.c.c.x.x.x.x.x.x.x.v.m.f.;X}.s.S.c.v.x.x.c.x.x.x.x.M.M.b.4.|.%X4.c.C.a.d.U.8.V g l c h l l l z z z z z x x x x x x x M x M M M V V V V V M V M V M V M V M V M V M M M M M M M V M V M V M M M M M M M M x x x x x x z z z c c c z z j h g d k y r h A y.X.P P 8.K y.tXU.n.c.c.c.c.m.n.c.c.x.x.x.m.m.A.8XA.s.V.c.x.x.x.x.x.x.x.x.x.x.x.x.x.x.x.x.x.x.x.x.x.x.c.c.c.v.v.x.x.N.f.yXMXY.v.x.x.x.x.x.x.x.x.x.x.x.x.x.x.z.x.x.x.x.z.z.z.z.z.z.z.z.z.z.z.z.z.q.q.q.q.q.q.q.q.q.q.q.q.z.z.z.z.z.z.z.z.z.z.z.z.z.z.z.z.z.z.z.z.q.q.q.q.z.z.q.z.q.q.q.q.q.q.q.q.q.q.q.q.q.q.q.q.q.q.q.q.q.q.q.q.q.q.q.q.q.q.q.q.q.q.q.q.q.q.q.q.q.z.q.*XFXLXPXGX*Xa.z.0.q.q.w.q.q.q.q.0.0.0.q.q.0.0.0.0.0.0.0.0.0.0.0.0.0.0.0.0.0.0.0.2.2.2.0.0.0.0.0.0.2.2.2.2.2.2.2.2.0.0.0.0.2.2.2.",
"2.2.2.2.2.2.2.2.2.2.2.2.2.2.2.2.2.2.2.2.2.2.2.2.2.2.2.2.2.2.0.0.0.0.2.2.2.0.0.0.0.0.0.0.0.0.0.0.a.q.w.U.jXGXHXSXsXp.e.r.w.0.0.q.q.q.q.q.0.0.q.q.q.q.q.q.q.q.q.q.q.q.q.q.q.q.q.q.q.q.q.q.q.q.q.q.w.w.q.q.q.q.q.q.q.q.z.z.z.z.z.z.z.z.z.z.z.z.z.z.q.q.q.q.z.z.z.z.q.z.z.z.z.z.z.q.q.q.z.z.z.z.z.z.z.z.z.z.z.z.z.z.z.z.x.x.x.x.x.x.x.x.c.c.x.x.c.c.v.N.c.f.@XcXY.c.x.x.x.x.x.x.x.x.x.x.x.x.x.x.x.x.x.x.x.x.x.x.c.c.x.x.x.x.x.x.v.m.f.;X{.s.S.c.v.x.x.x.x.x.x.x.b.b.b.m.T.L.z.c.3.d.OX8.V h g g h l h h h l l z z z z z x x x x x x x x x x x M M M M M M M M M M M M M M M M M x x x x x x x M x M M M M M x x z z z z z z z z z z z z z z j h h g y e e y e 6 6 y N j g g j h I tXU.n.c.c.c.c.m.n.c.c.x.x.x.m.m.A.8XA.s.V.c.x.x.x.x.c.x.x.x.x.x.x.x.x.x.x.x.x.x.x.x.x.x.c.c.c.v.v.x.x.N.f.yXMXY.x.x.x.x.x.x.x.x.x.x.x.x.x.x.z.z.z.x.x.z.z.z.z.z.z.z.z.z.z.z.z.z.z.q.q.q.q.z.q.q.q.z.q.q.q.z.z.z.z.z.z.z.z.z.z.z.z.z.z.z.z.z.z.z.z.q.q.z.q.z.z.q.z.q.q.q.q.q.q.q.q.q.q.q.q.q.q.q.q.q.q.q.q.q.q.q.q.q.q.q.q.q.q.q.q.q.q.q.q.q.q.q.q.q.z.z.*XFXLXPXDX*Xa.z.0.q.q.w.0.q.0.q.0.0.0.0.0.0.0.0.0.0.0.0.0.0.0.0.0.0.0.0.0.0.0.0.2.2.2.0.0.0.0.0.0.2.2.2.2.2.2.2.2.0.0.0.0.2.2.2.",
"2.2.2.2.2.2.2.2.2.2.2.2.2.2.2.2.2.2.2.2.2.2.2.2.2.2.2.2.2.2.2.2.0.2.2.2.0.0.0.0.0.0.0.0.0.0.0.0.4.4.w.U.jXGXHXSXsXp.e.r.w.0.0.q.q.q.q.q.0.0.0.q.q.0.q.q.q.q.q.q.q.q.q.q.q.q.q.q.q.q.q.q.q.q.q.q.w.w.q.q.q.q.q.q.q.q.z.z.q.q.z.z.z.z.z.z.z.z.z.z.z.z.z.z.z.z.q.q.z.z.z.z.z.z.z.z.q.z.z.z.z.z.z.z.z.z.z.z.z.z.z.z.z.z.x.x.x.x.x.x.x.x.c.c.x.x.c.x.v.N.x.f.@XcXY.c.v.v.x.x.x.x.x.x.x.x.x.c.x.x.x.x.x.x.x.x.x.x.c.c.x.x.x.x.x.x.v.V.f.;X{.s.A.c.c.c.x.x.x.x.x.z.c.b.n.z.m.|.V.s.3.OXX.M d h l h d k h h h h h l l z z z z z z x x x z z z x x x x x M M M M M M M M M x x x x x x x z z x x x x x x x z z z z z z z l l l l l l l l h h h h g g d y d y y y y e q 6 6 5 5 7 6 6 G rXj.c.V.V.c.c.c.c.c.c.x.x.x.m.m.A.8XA.s.V.x.v.x.x.x.c.c.x.x.x.x.x.x.x.x.x.x.x.x.x.x.x.x.c.c.c.v.v.x.x.N.f.yXMXY.x.x.x.x.x.x.x.x.x.x.x.x.x.x.z.z.z.x.x.z.z.z.z.z.z.z.z.z.z.z.z.z.z.q.q.z.z.z.z.q.q.z.z.q.q.q.q.q.z.z.z.z.z.z.z.z.z.z.z.z.z.z.z.z.z.z.z.z.z.z.z.z.z.q.q.q.q.q.q.q.q.q.q.q.q.q.q.q.q.q.q.q.q.q.q.q.q.q.q.q.q.q.q.q.q.q.q.q.q.q.q.q.q.q.z.z.*XSXLXPXDX*Xa.z.0.q.0.w.0.0.0.0.0.0.0.0.0.0.0.0.0.0.0.0.0.0.0.0.0.0.0.0.0.0.0.0.2.2.2.2.0.2.2.2.2.2.2.2.2.2.2.2.2.2.2.0.0.2.2.2.",
"2.2.2.2.2.2.2.2.2.2.2.2.2.2.2.2.2.2.2.2.2.2.2.2.2.2.2.2.2.2.2.2.0.0.2.2.0.0.0.0.0.0.0.0.0.0.0.0.4.4.w.U.jXGXHXSXsXp.e.r.w.0.0.q.q.q.q.0.0.0.0.0.q.0.0.0.q.q.q.q.q.q.q.q.q.q.q.q.q.q.q.q.q.q.q.q.w.w.q.q.q.q.q.q.q.q.z.z.q.q.z.z.z.z.z.z.z.z.z.z.z.z.z.z.z.q.q.q.z.z.z.z.z.z.z.z.q.z.z.z.z.z.z.z.z.z.z.z.z.z.z.z.z.z.x.x.x.x.x.x.x.x.c.c.x.x.c.x.v.N.x.f.@XcXY.c.v.v.x.x.x.x.x.x.x.x.x.c.x.x.x.x.x.x.x.x.x.x.c.c.x.x.x.x.x.x.v.V.s.;X}.s.S.c.c.x.x.x.x.x.x.x.c.c.n.3.T.%Xp.f.U.j.h g h h j h h h h h h h h h h h l z z z z x x x x z x x x x x x x x x x x x x x x x x x x x x x z z z x x x x x z z z z z z z z l l l l l l l h h g g g g d y y y y t e e t e q q w a 6 q 6 G rXs.V.V.V.c.x.x.x.x.c.x.x.x.m.m.A.8XA.s.V.x.v.x.x.x.c.c.x.x.x.x.x.x.x.x.x.x.x.x.x.x.c.x.c.c.c.v.v.x.x.N.f.yXMXY.x.x.x.x.x.x.x.x.x.x.x.x.x.x.z.z.z.x.x.z.z.z.z.z.z.z.z.z.z.z.z.z.q.q.q.z.z.z.z.q.q.z.z.q.q.q.q.q.q.z.z.z.z.z.z.z.z.z.z.z.z.z.z.z.z.q.q.q.q.z.z.q.q.q.q.q.q.q.q.q.q.q.q.q.q.q.q.q.q.q.q.q.q.q.q.q.q.q.q.q.q.q.q.q.q.q.q.q.q.q.q.q.q.q.z.z.*XFXLXPXDX*Xa.z.0.q.0.w.q.0.0.0.0.0.0.0.0.0.0.0.0.0.0.0.0.0.0.0.0.0.0.0.0.0.0.0.2.2.2.2.2.2.2.2.2.2.2.2.2.2.2.2.2.2.0.0.0.2.2.2.",
"2.2.2.2.2.2.2.2.2.2.2.2.2.2.2.2.2.2.2.2.2.2.2.2.2.2.2.2.0.0.2.2.2.2.2.2.2.0.0.0.0.0.0.0.0.0.0.0.4.4.w.U.jXGXHXSXsXp.b.r.w.0.0.q.0.0.0.0.0.0.0.0.q.0.0.0.0.q.q.q.q.q.q.q.q.q.q.q.q.q.q.q.q.q.q.q.w.w.q.q.q.q.q.q.q.q.q.q.q.z.z.z.z.z.z.z.z.z.z.z.z.z.z.z.z.z.q.q.z.q.z.z.z.z.q.z.q.q.q.z.z.z.z.z.z.z.z.z.z.z.z.z.z.z.x.x.x.x.x.x.x.x.c.c.x.x.c.c.x.N.c.f.@XcXY.c.v.v.x.x.x.x.x.x.c.c.x.x.x.x.x.x.x.x.x.x.x.x.c.c.x.x.x.x.x.x.v.V.s.;X}.s.A.c.x.x.x.x.x.x.z.x.z.s.a.f.%X%X<.OX7.z y h h d r y g g h h h h h h h h l l l l z z x x x x x x x x x x x x x x x x x x x x x x x x x x z z x x x x x x z z z z z z z z l l h h h h h h h g g g g d y y y y t e q q e q a a a a u 6 G ;Xh.V.V.v.x.x.x.v.v.c.x.x.x.m.c.c.8XA.s.V.v.v.x.v.x.x.x.x.x.x.x.x.x.x.x.x.x.x.x.x.x.x.x.c.c.c.v.v.x.x.N.f.yXMXY.x.x.x.x.x.x.x.x.x.x.x.x.x.x.z.z.z.x.x.z.z.z.z.z.z.z.z.z.z.z.q.q.q.q.z.z.z.z.z.q.q.z.z.q.q.q.q.q.q.z.z.z.z.z.z.z.z.z.z.z.z.z.z.z.z.z.z.q.q.q.q.z.z.q.q.q.q.q.q.q.q.q.q.q.q.q.q.q.q.q.q.q.q.q.q.q.q.q.q.q.q.q.q.q.q.q.q.q.q.q.q.q.q.q.z.z.*XSXLXPXDX*Xa.z.0.q.0.w.0.0.0.0.0.0.0.0.0.0.0.0.0.0.0.0.0.0.0.0.0.0.0.0.0.0.0.0.2.0.0.0.0.2.2.0.0.2.2.2.2.2.2.2.2.2.2.2.2.2.2.2.",
"2.2.2.2.2.2.2.2.2.2.2.2.2.2.2.2.2.2.2.2.2.2.2.2.2.2.2.2.0.0.2.0.0.2.2.2.2.0.0.0.0.0.0.0.0.0.0.0.4.4.w.U.jXGXHXSXsXp.b.r.w.q.0.q.0.0.0.0.0.0.0.0.0.0.0.0.q.q.q.q.q.q.q.q.q.q.q.q.q.q.q.q.q.q.q.q.w.w.q.q.q.q.q.q.q.q.q.q.q.q.z.z.z.z.z.z.z.z.z.z.z.z.q.q.z.z.q.z.q.q.z.z.z.z.q.q.z.q.q.z.z.z.z.z.z.z.z.z.z.z.z.z.z.z.z.x.x.x.x.x.x.x.c.c.x.x.c.c.x.N.c.f.@XcXY.c.v.v.x.x.x.x.x.x.c.c.x.x.x.x.x.x.x.x.x.x.x.x.c.c.x.x.x.x.x.x.v.m.s.;X}.s.A.c.c.x.x.x.x.x.z.z.c.s.s.f.Y.%XOX7.M r g d d d d y d g h h h h h h l l l l l l l z z z z z z x x x x x x x x x x x x x x x x x x x x x x x x x x x x x z z z z z z z l l l l h h h l h h h g g g g d y y y y y t e e q w 5 w 7 6 5 G ;Xh.V.V.c.x.x.x.v.c.c.x.x.x.m.c.c.8XA.s.V.v.v.x.v.x.x.x.x.x.x.x.x.x.x.x.x.x.x.x.x.x.x.x.c.c.c.v.v.x.x.N.f.yXMXY.x.x.x.x.x.x.x.x.x.x.x.x.x.x.z.z.z.z.z.z.z.z.z.z.z.z.z.z.z.z.q.q.q.q.q.z.z.z.z.q.q.z.z.q.q.q.q.q.q.z.z.z.z.z.z.z.z.z.z.z.z.z.z.z.z.q.z.q.q.z.z.z.z.q.q.q.q.q.q.q.q.q.q.q.q.q.q.q.q.q.q.q.q.q.q.q.q.q.q.q.q.q.q.q.q.q.q.q.q.q.q.q.q.q.z.z.*XSXLXPXDX*Xa.z.0.q.0.w.0.q.q.0.0.0.0.0.0.0.0.0.0.0.0.0.0.0.0.0.0.0.0.0.0.0.0.0.0.0.0.0.0.2.2.0.0.2.2.2.2.2.2.2.2.2.2.2.2.2.2.2.",
"2.2.2.2.2.2.2.2.2.2.2.2.2.2.2.2.2.2.2.2.2.2.2.2.2.2.2.2.0.0.0.0.0.0.2.2.2.0.0.0.0.0.0.0.0.0.0.0.4.4.w.U.jXGXHXSXsXp.b.r.w.0.0.q.0.0.q.q.q.q.0.0.0.0.0.0.q.0.q.q.q.q.q.q.q.q.q.q.q.q.q.q.q.q.q.q.w.w.q.q.q.q.q.q.q.q.q.q.z.z.z.z.z.z.z.z.z.z.z.z.z.q.q.q.z.z.z.z.q.q.q.z.z.z.q.q.z.z.q.z.z.z.z.z.z.z.z.z.z.z.z.z.z.z.z.x.x.x.x.x.x.x.c.c.x.x.c.c.v.N.c.f.@XcXY.c.v.v.x.x.x.x.x.x.c.c.x.x.x.x.x.x.x.x.x.x.x.x.c.c.x.x.x.x.x.x.v.C.s.&X}.s.S.z.c.x.x.x.x.x.z.z.c.c.n.g.I.=Xj.Z r d d y y g h h h h h h h l z z z z z z z z z l z z z z z x x x x x x x x x x x x x x x x x x x x x x x x x x x x x z z z z z z z z z z z l l l l l z j j h h g g g y y y d y e e e t q q q e 6 G ;Xh.V.c.c.c.M.x.x.c.c.x.x.x.x.c.c.8XA.s.V.c.v.x.v.x.x.x.x.x.x.x.x.x.x.x.x.x.x.x.x.x.x.x.c.c.c.v.v.x.x.N.f.yXMXD.x.x.x.x.x.x.x.x.x.x.x.x.x.x.z.z.z.z.z.z.z.z.z.z.z.z.z.z.z.z.z.z.z.q.q.z.z.z.z.q.q.q.q.q.q.q.q.z.z.z.z.z.z.z.z.z.z.z.z.z.z.z.z.z.z.q.q.q.q.q.q.q.q.q.q.q.q.q.q.q.q.q.q.q.q.q.q.q.q.q.q.q.q.q.q.q.q.q.q.q.q.q.q.q.q.q.q.q.q.q.q.q.q.q.z.q.*XSXLXPXDX*Xa.z.0.q.0.w.0.q.q.q.0.0.0.q.0.0.0.0.0.0.0.0.0.0.0.0.0.0.0.0.0.0.0.0.2.0.2.0.0.2.0.0.0.2.2.2.2.2.2.2.2.0.0.2.2.2.2.2.",
"2.2.2.2.2.2.2.2.2.2.2.2.2.2.2.2.2.2.2.2.2.2.2.2.2.2.2.2.0.0.0.0.0.0.2.2.2.0.0.0.0.0.0.0.0.0.0.0.4.4.w.U.jXGXHXSXsXp.b.r.w.0.0.q.0.0.0.0.0.0.0.0.0.0.0.0.0.0.q.q.q.q.q.q.q.q.q.q.q.q.q.q.q.q.q.q.w.w.q.q.q.q.q.q.q.q.q.q.z.z.z.z.z.z.z.z.z.z.z.z.z.z.q.q.z.z.z.z.q.q.z.z.z.z.q.q.z.z.q.z.z.z.z.z.z.z.z.z.z.z.z.z.z.z.z.x.x.x.x.x.z.x.c.c.c.x.c.c.x.N.c.f.@XcXY.c.v.v.x.x.x.x.x.x.c.c.x.x.x.x.x.x.x.x.x.x.x.x.c.c.x.x.x.x.x.x.v.C.s.&XT.s.S.z.c.x.x.x.x.z.z.c.c.s.a.g.=X*Xz r f d g h d d d z z z z z z z z z z z x x x x x z x x z x z x x x x x M M M M M M M M x x x x x M M M x x x x x x x x x M M x x x z z z z z z z z z z c c z z z z z z z h h z z j h j j g g g g 6 G rXf.n.c.m.c.M.x.x.c.c.x.x.x.x.c.c.8XA.s.V.c.v.x.v.x.x.x.x.x.x.x.x.x.x.x.x.x.x.x.x.x.x.x.c.c.c.x.v.x.x.N.f.yXMXD.v.x.x.x.x.x.x.x.x.x.x.x.x.x.z.z.z.z.z.z.z.z.z.z.z.z.z.z.z.z.z.z.z.q.q.z.z.z.z.z.q.q.q.q.q.q.q.z.z.z.z.z.z.z.z.z.z.z.z.z.z.z.z.z.z.q.q.q.q.q.q.q.q.q.q.q.q.q.q.q.q.q.q.q.q.q.q.q.q.q.q.q.q.q.q.q.q.q.q.q.q.q.q.q.q.q.q.q.q.q.q.q.q.q.z.q.*XSXLXPXDX*Xa.z.0.q.0.w.0.q.q.q.0.0.0.q.q.0.0.0.0.0.0.0.0.0.0.0.0.0.0.0.0.0.0.0.2.2.2.0.0.0.0.0.0.2.2.2.2.2.2.2.2.0.0.0.0.2.2.2.",
"2.2.2.2.2.2.2.2.2.2.2.2.2.2.2.2.2.2.2.2.2.2.2.2.2.2.2.2.2.2.2.2.2.2.2.2.0.0.0.0.0.0.0.0.0.0.0.0.4.4.w.b.jXGXHXSXsXp.e.r.q.0.0.q.0.0.0.0.0.0.0.0.q.0.0.0.0.q.q.q.q.q.q.q.q.q.q.0.0.0.0.q.q.q.q.q.q.q.q.q.q.q.q.q.q.q.q.q.q.z.z.z.q.q.q.z.z.z.q.q.z.z.z.z.z.z.z.z.q.z.z.z.q.q.q.q.z.z.q.z.z.z.z.z.z.z.z.z.z.z.z.z.z.z.x.x.x.x.x.x.z.x.z.c.x.x.c.c.v.v.c.f.@XcXY.c.v.x.x.x.x.x.x.x.x.x.x.x.x.x.x.x.x.x.x.x.x.x.x.x.c.c.x.x.x.x.v.v.s.&XT.c.S.c.c.x.x.z.x.x.z.a.c.c.d.I.+Xu.G V L B L B c c z x M M M N M M M M z z M M M M M M M M M M x M x x x x M M M M M M M M M M M M M M M M M M V M M M M M x M x x x x x x M M M M N N N N x M M M M V M M M M M V A A L L L L I y.y.y.8.X.+Xj.d.m.a.c.m.x.c.c.x.x.x.m.c.c.;XA.n.V.c.v.x.x.x.x.x.x.x.x.x.x.x.x.x.x.x.x.x.x.x.x.x.c.c.c.x.x.x.x.B.d.yXMXY.x.x.x.x.x.x.x.x.x.x.x.z.z.z.z.z.z.z.z.z.z.z.z.z.z.z.z.z.z.z.q.z.z.q.q.q.q.q.q.q.q.z.z.q.q.q.q.z.z.q.q.z.z.z.z.z.z.q.q.q.z.z.z.q.q.q.q.q.q.q.q.q.q.q.q.q.q.q.q.q.q.q.q.q.q.q.q.q.q.q.q.q.q.q.q.q.q.q.q.q.q.q.q.q.0.0.0.0.q.q.q.q.q.z.z.q.*XSXHXPXGX$X4.z.0.q.0.q.0.0.0.0.0.0.0.0.0.0.0.0.0.0.0.4.4.0.0.0.0.0.0.0.0.2.2.2.2.2.2.2.2.2.2.2.2.2.2.2.2.2.2.2.2.0.0.0.0.4.4.4.",
"2.2.2.2.2.2.2.2.2.2.2.2.2.2.2.2.2.2.2.2.2.2.2.2.2.2.2.2.2.2.2.2.2.2.2.2.2.2.0.0.0.0.0.0.0.0.0.0.4.4.w.b.jXGXHXSXsXp.e.r.q.0.0.q.0.0.0.0.0.0.0.0.q.0.0.0.0.q.0.q.q.q.q.q.q.q.0.0.0.0.q.q.q.q.q.q.q.q.q.q.q.q.q.q.q.q.q.q.q.z.z.z.q.q.z.z.z.z.q.q.z.z.z.z.z.z.z.z.q.z.z.z.q.q.q.q.z.z.q.q.z.z.z.z.z.z.z.z.z.z.z.z.z.z.z.x.x.x.x.x.z.x.z.c.x.x.c.c.v.v.c.f.@XcXY.c.v.x.x.x.x.x.x.x.x.x.x.x.x.x.x.x.x.x.x.x.x.x.x.x.c.c.x.x.x.x.v.v.s.&XT.c.m.c.c.x.z.v.x.z.c.c.a.d.U.j.P G I L L U L A V c x M Z A M M M M M M M M M M M x x x M M M x M M M x x x x x M M M M M x M M M M M M M M M M M M M M M M M M M M M M M M M x x x x x x x x x x x M M V M V V V V A A A A L K K K G Z z g G oXOXp.c.V.a.c.c.c.x.x.x.m.c.c.;XA.n.V.c.v.x.x.x.x.x.x.x.x.x.x.x.x.x.x.x.x.x.x.x.x.x.c.c.c.x.x.x.x.B.d.yXMXY.x.x.x.x.x.x.x.x.x.x.x.z.z.z.z.z.z.z.z.z.z.z.z.z.z.z.z.z.z.z.q.z.z.q.q.q.q.q.q.q.q.z.z.q.q.q.q.z.z.q.q.z.z.z.z.q.z.q.q.z.z.z.z.q.q.q.q.q.q.q.q.q.q.q.q.q.q.q.q.q.q.q.q.q.q.q.q.q.q.q.q.q.q.q.q.q.q.q.q.q.q.q.q.0.0.0.0.q.q.q.0.q.q.z.z.q.*XSXHXPXGX$X4.z.0.q.0.q.0.0.0.0.0.0.0.0.0.0.0.0.0.0.0.4.4.0.0.0.0.0.0.0.0.2.2.2.2.2.2.2.2.2.2.2.2.2.2.2.2.2.2.2.2.0.0.0.0.4.4.4.",
"2.2.2.2.2.2.2.2.2.2.2.2.2.2.2.2.2.2.2.2.2.2.2.2.2.2.2.2.2.2.2.2.2.2.2.2.2.2.2.2.2.2.0.0.0.0.0.0.4.4.w.b.jXGXHXSXsXa.e.r.q.0.0.q.0.0.q.q.0.q.q.q.q.q.0.0.0.0.q.q.q.q.q.q.q.q.q.q.q.q.q.q.q.q.0.0.q.q.q.q.q.q.q.q.q.q.q.q.q.q.z.z.q.q.z.z.z.z.z.z.z.z.q.z.z.z.z.z.q.q.z.z.q.q.q.q.z.z.z.q.z.z.z.z.z.z.z.z.z.z.z.z.z.z.x.x.x.x.x.x.x.x.z.c.x.x.c.x.v.N.c.f.@XcXY.c.v.v.x.x.x.x.x.x.x.x.x.x.x.x.x.x.x.x.x.x.x.x.x.x.c.c.x.x.x.x.v.v.s.;XT.c.S.c.x.x.z.m.x.4.m.m.a.I.+XK h g z x c c c c x x x x V V M M M M M M M M M M x x x x M x x x x x x x x x x x x x x x M M M M x x M M M M x x x x x x x M M M M M M M M M M M x x x x x x x x x x x x M M V M M M M V V V x b x x x l f f 8 G j.A.s.V.V.a.c.c.x.x.x.m.c.c.;XS.n.c.c.x.x.x.x.x.x.x.x.x.x.x.x.x.x.x.x.x.x.x.x.x.x.c.c.c.v.v.x.x.B.d.yXMXY.x.x.x.x.x.x.x.x.x.x.x.z.z.z.z.z.z.z.z.z.z.z.z.z.z.z.z.z.z.q.q.z.z.q.q.q.q.q.q.q.q.z.z.z.z.q.q.q.z.q.q.z.z.z.q.q.q.q.q.z.z.z.z.z.z.q.q.q.q.q.q.q.q.q.q.q.q.q.q.q.q.q.q.q.q.q.q.q.q.q.q.q.q.q.q.q.q.q.q.q.q.q.q.q.q.q.q.q.q.0.0.0.q.z.z.q.*XSXHXPXDX$X4.z.0.q.0.q.0.0.0.0.0.0.0.0.0.0.0.0.0.0.0.4.4.0.0.0.0.0.0.0.0.0.2.2.2.2.2.2.2.2.2.2.2.2.2.2.2.2.2.2.2.2.2.0.0.2.2.2.",
"2.2.2.2.2.2.2.2.2.2.2.2.2.2.2.2.2.2.2.2.2.2.2.2.2.2.2.2.2.2.2.2.2.2.2.2.2.2.2.2.2.2.0.0.0.0.0.0.4.4.w.b.jXGXHXSXsXp.e.r.q.0.0.q.0.q.q.q.q.q.q.q.0.q.0.0.0.0.q.q.0.q.q.q.q.q.q.q.q.q.q.q.q.q.q.0.q.q.q.q.q.q.q.q.q.q.q.q.q.q.z.z.q.z.z.z.z.z.z.z.q.q.q.q.q.q.q.q.q.q.z.q.q.q.z.z.q.q.q.q.q.q.q.q.z.z.z.z.z.z.z.z.z.z.x.x.x.x.x.x.x.x.z.c.x.x.c.x.v.N.c.f.@XvXY.z.v.v.x.x.x.x.x.x.x.x.x.x.x.x.x.x.x.x.x.x.x.x.x.x.c.c.x.c.x.x.v.v.s.;XT.c.S.c.x.x.v.x.z.M.b.d.d.OXK h r h g h c h l l l l z x x x z z z z z z x x x x x x x x x x x x x x x x x x x x x x x x x M M M M M M M x M x x x x x x x M M M M M M M M M M M M M M x x x x x x x x x x x x x x x x z x x x x x z l h f r r 8 Z I.A.s.c.c.c.c.x.x.x.m.m.m.;XS.n.c.c.x.x.x.x.x.x.x.x.x.x.x.x.x.x.x.x.x.x.x.x.x.x.c.c.c.v.v.x.x.v.d.yXMXY.x.x.x.x.x.x.x.x.x.x.x.z.z.z.z.z.z.z.z.z.z.z.z.z.z.z.z.z.z.q.q.z.q.q.q.q.q.q.q.q.q.q.q.q.q.q.q.q.q.q.q.z.z.z.q.q.q.q.z.z.z.z.z.z.z.q.q.q.q.q.q.q.q.q.q.q.q.q.q.q.q.q.q.q.q.q.q.q.q.q.q.q.q.q.q.q.q.0.q.q.q.q.q.q.q.q.q.q.q.0.0.0.q.z.z.q.*XSXHXPXDX$X4.z.0.q.0.q.0.0.0.0.0.0.0.0.0.0.0.0.0.0.0.2.2.0.0.0.0.0.0.0.0.0.2.2.2.2.2.2.2.2.2.2.2.2.2.2.2.2.2.2.2.2.2.0.0.2.2.2.",
"2.2.2.2.2.2.2.2.2.2.2.2.2.2.2.2.2.2.2.2.2.2.2.2.2.2.2.2.2.2.2.2.2.2.2.2.0.0.2.2.2.2.0.0.0.0.0.0.4.4.w.b.jXGXHXSXsXp.e.r.q.0.0.q.0.0.0.0.0.0.0.0.0.0.0.0.0.q.q.0.0.0.q.q.q.q.q.q.q.q.q.q.q.q.0.0.q.w.q.q.q.q.q.q.q.q.q.q.q.q.z.z.z.z.z.z.z.z.z.z.q.q.q.q.q.q.q.q.q.q.q.q.z.z.z.z.q.z.z.z.q.q.q.q.z.z.z.z.z.z.z.z.z.z.x.x.x.x.x.x.x.x.z.c.c.c.c.c.v.N.c.f.@XvXY.c.x.x.x.x.c.c.c.c.x.x.x.x.x.x.x.x.x.x.x.x.x.x.c.c.c.c.x.x.x.x.v.m.s.;XT.c.S.c.x.x.v.4.x.U.d.U.U.X.r h d d c h d c h l l l z z l l l l l z z z z z z z x x x x x x x c c c x x x x x x x x x M M M x x x x x x x x x x x x x x M M M M M M M M M M M M M x x x x x x z z z z z z z c c x z z l l l c l l h h f f f d r r G Y.A.p.V.c.c.v.x.x.m.c.c.;XA.n.V.c.v.x.x.x.x.x.x.x.x.x.x.x.x.x.x.x.x.x.x.x.x.c.c.c.c.v.v.x.x.v.d.yXMXF.c.x.x.x.x.x.x.x.x.x.x.z.z.z.z.z.z.z.z.z.z.z.z.z.z.z.z.z.z.z.z.z.z.q.q.q.q.q.q.q.q.q.q.q.q.q.q.q.q.z.z.z.z.z.z.z.z.z.z.z.z.z.z.z.z.q.q.q.q.q.q.q.q.q.q.q.q.q.q.q.q.q.q.q.q.q.q.q.q.q.q.q.q.q.q.q.q.0.0.q.q.q.q.q.q.q.q.q.q.q.q.0.q.q.z.q.*XSXLXPXDX$X4.z.0.q.0.w.0.0.0.0.0.0.0.0.0.0.0.0.0.0.0.2.2.0.0.0.0.0.0.0.0.0.0.2.2.2.2.2.2.2.2.2.2.2.2.2.2.2.2.2.2.2.2.2.2.2.2.2.",
"2.2.2.2.2.2.2.2.2.2.2.2.2.2.2.2.2.2.2.2.2.2.2.2.2.2.2.2.2.2.2.2.2.2.2.2.0.0.2.0.2.2.0.0.0.0.0.0.4.4.w.b.jXGXHXSXsXp.e.r.q.0.0.q.0.0.0.0.0.0.0.0.0.0.0.0.0.q.q.q.0.0.q.q.q.q.0.0.q.q.q.q.q.q.0.0.q.q.q.q.q.q.q.q.q.q.q.q.q.q.z.z.z.z.z.z.z.z.z.z.q.q.q.q.q.q.q.q.q.q.q.q.z.q.z.z.q.z.z.z.q.q.q.q.z.z.z.z.z.z.z.q.z.z.x.x.x.x.x.x.x.x.z.c.c.c.c.c.v.N.c.f.@XvXY.c.x.x.x.x.c.c.c.c.x.x.x.x.x.x.x.x.x.x.x.x.x.x.c.c.c.c.x.x.x.x.v.m.f.;XT.c.V.c.x.c.x.4.x.I.b.+X7.l d g g y y y y g h h h l l h h h h h l l z z z z z z z z z x x x c x c c x x x x x x x x x x x x x x x x x x x x x x x x x x x x x x x x x x x x z z z z z z z z z z j h h h h h j j l l h h h g f d d d f f f f d r 8 d K U.R.c.c.c.x.x.x.m.m.m.;XS.n.V.c.v.x.x.x.x.x.x.x.x.x.x.x.x.x.x.x.x.x.x.x.x.c.c.c.c.v.v.x.x.v.d.yXMXD.x.x.x.x.x.x.x.x.x.x.x.z.z.z.z.z.z.z.z.z.z.z.z.z.z.z.z.z.z.q.z.z.z.q.q.q.q.q.q.q.q.q.q.q.q.q.q.q.q.z.z.z.q.z.z.z.z.z.z.z.z.z.z.z.z.q.q.q.q.q.q.q.q.q.q.q.q.q.q.q.q.q.q.q.q.q.q.q.q.q.q.q.q.q.q.q.0.0.0.q.q.q.q.0.0.q.q.q.q.q.q.0.q.4.a.q.*XSXLXPXDX$X4.z.0.q.0.w.0.0.0.0.0.0.0.0.0.0.0.0.0.0.0.2.2.0.0.0.0.0.0.0.0.0.0.2.2.2.2.2.2.2.2.2.2.2.2.2.2.2.2.2.2.2.2.2.2.2.2.2.",
"2.2.2.2.2.2.2.2.2.2.2.2.2.2.2.2.2.2.2.2.2.2.2.2.2.2.2.2.2.2.2.2.2.2.2.2.0.0.0.0.2.2.0.0.0.0.0.0.4.4.w.b.jXGXHXSXsXp.b.r.q.0.0.q.0.0.0.0.0.0.0.0.0.0.0.0.0.q.q.q.0.0.q.q.q.0.0.0.0.0.0.0.q.q.q.0.w.w.q.q.q.q.q.q.q.q.q.q.q.q.z.z.z.z.q.q.z.q.z.z.z.z.q.q.q.q.z.z.z.z.q.z.q.q.q.q.q.q.z.z.z.q.q.q.z.z.z.q.q.q.z.z.z.z.x.x.x.x.x.x.x.x.z.c.c.c.c.c.v.v.c.f.@XvXY.c.x.x.x.x.c.c.x.x.x.x.x.x.x.x.x.x.x.x.x.x.x.x.x.x.x.x.x.x.x.x.x.m.f.;XT.c.V.c.x.c.x.c.x.b.U.6.Z r g e p k e f N g g g h h h h k f h h h h l l l l l l l l l z z z z z z z x x x x z z x x x x x z x x x x x x x x z z z x x x x x z z z z z z z z l l l l l l l h j j h g g g g h g g h h g d d d g g p u u u w q t 8 r r f K +XU.m.v.x.x.x.m.c.c.;XA.n.V.c.x.x.x.x.x.x.x.x.x.x.x.x.x.x.x.x.x.x.x.x.c.x.c.c.c.v.v.x.x.v.d.yXMXY.x.x.x.x.x.x.x.x.x.x.x.z.z.z.z.z.z.z.z.z.z.z.z.z.z.z.z.q.q.q.q.z.z.q.q.q.q.q.q.q.q.q.q.q.q.q.q.q.q.z.z.q.q.q.q.z.z.z.z.q.q.z.z.z.z.q.q.q.q.q.q.q.q.q.q.q.q.q.q.q.q.q.q.q.q.q.q.q.q.q.q.q.q.q.q.q.q.0.0.q.q.q.0.0.0.0.0.0.0.q.q.q.q.4.a.q.*XSXLXPXDX$X4.z.0.q.0.w.0.0.0.0.0.0.0.0.0.0.0.0.0.0.0.4.4.0.0.0.0.0.0.0.0.0.0.0.2.2.2.2.2.2.2.2.2.2.2.2.2.2.2.2.2.2.2.2.2.2.2.2.",
"2.2.2.2.2.2.2.2.2.2.2.2.2.2.2.2.2.2.2.2.2.2.2.2.2.2.2.2.2.2.2.2.2.2.2.2.0.0.0.0.2.2.0.0.0.0.0.0.4.0.w.d.jXGXHXDXsXp.e.r.w.0.0.q.0.0.0.0.0.0.0.0.q.0.0.0.0.q.q.q.0.0.q.q.q.q.0.0.0.0.0.0.q.q.q.q.w.w.q.q.q.q.q.q.q.q.q.q.q.z.z.z.q.q.q.q.z.z.z.z.q.q.q.q.q.q.q.q.z.z.z.z.q.q.q.q.q.q.q.q.q.q.q.q.z.z.z.q.q.q.z.z.z.z.z.x.x.x.x.x.x.x.z.c.c.c.c.c.x.v.c.f.@XvXY.z.x.x.x.x.c.x.x.x.x.x.x.x.x.x.x.x.x.x.x.x.x.x.x.x.x.x.x.x.x.x.x.m.d.;XT.c.m.c.x.c.c.m.b.U.U.Z 8 d r y e e p r e g g g g g h h h k h h h h h h h h h h h l h l l z l l l l l z z z z z z z z z z z z z z z z z z z l l z z z x x z z z z z z z z z l l l l h h h h j h h g g g h h g g g g k g g g y t t u u u w e e p u r 8 8 A +Xn.v.x.x.x.v.v.c.;XS.n.m.c.x.x.x.x.x.x.x.x.x.x.x.x.x.x.x.x.x.x.x.x.x.x.c.c.c.v.x.x.x.v.d.yXMXA.c.x.x.x.x.x.x.x.x.x.x.z.z.z.z.z.z.z.z.z.z.z.z.z.z.z.z.q.q.q.q.z.q.q.q.q.q.q.q.q.q.q.q.q.q.q.q.q.q.z.z.q.q.q.z.z.z.q.q.q.q.z.z.z.z.q.q.q.q.q.q.q.q.q.q.q.q.q.q.q.q.q.q.q.q.q.q.q.q.q.q.q.q.q.q.q.q.0.0.q.q.q.q.0.0.0.0.0.0.q.q.q.q.4.a.z.*XDXLXLXDX*X4.z.0.q.0.q.0.0.0.0.0.0.0.0.0.0.0.0.0.0.0.2.4.0.0.0.0.0.0.0.0.0.0.0.0.2.2.2.2.2.2.2.2.2.2.2.2.2.2.2.2.2.2.2.2.2.2.2.",
"2.2.2.2.2.2.2.2.2.2.2.2.2.2.2.2.2.2.2.2.2.2.2.2.2.2.2.2.2.2.2.2.2.2.2.2.2.2.2.2.2.0.0.0.0.0.0.0.0.0.q.j.jXDXHXDXsXp.a.0.r.r.4.4.q.0.0.0.0.0.q.q.q.0.0.0.0.0.0.q.0.0.0.0.q.q.0.0.0.0.0.q.0.0.0.0.w.w.e.e.e.q.q.q.0.q.q.q.q.q.q.q.z.z.q.q.q.z.z.q.q.q.q.q.q.q.z.z.z.z.q.q.q.z.z.z.q.q.q.q.q.q.z.z.z.z.q.z.z.z.z.z.z.z.z.z.z.z.z.z.z.z.z.s.c.x.c.x.x.v.c.s.#XvXOXc.x.x.x.x.c.c.x.x.x.x.x.x.x.x.x.x.x.x.x.x.x.x.x.x.x.c.c.c.c.x.x.c.c.;XT.z.m.x.x.x.x.z.T.7.M f f f y y y y y y y g g g h h h h h h h h h h h h h h l l l l l l h h l l l l z z z z z z x x z z z z z z z z z z z z z z z z z z z z c c z z z z z z l z z z z z z z z j j j h h h g g g g g g g g g g i y y u e e e u e u f r 6 d G Y.a.U.U.m.K.x.v.;XS.I.I.M.m.v.v.x.x.x.x.x.x.x.x.x.x.x.x.x.x.x.x.x.x.x.c.c.c.x.x.x.x.m.d.yXMXY.c.x.c.x.x.x.x.z.x.z.z.z.z.z.z.z.z.z.z.z.z.z.q.z.z.z.z.z.q.q.q.q.q.q.q.q.q.q.q.q.q.q.q.q.q.q.q.q.q.q.q.q.q.q.q.z.z.z.q.q.q.q.q.q.q.q.q.q.q.q.q.q.q.q.q.q.q.q.q.q.q.q.q.q.q.0.0.0.0.q.q.q.q.q.q.q.q.0.0.0.0.0.0.0.0.0.0.0.0.0.q.q.q.4.z.4.=XDXHXPXFX*X4.q.q.4.0.0.0.0.0.0.0.0.0.0.0.0.0.0.0.0.0.0.0.2.2.0.0.0.2.2.2.2.2.2.2.2.2.2.2.2.2.2.2.2.2.2.2.2.2.2.2.2.2.2.2.2.2.2.",
"2.2.2.2.2.2.2.2.2.2.2.2.2.2.2.2.2.2.2.2.2.2.2.2.2.2.2.2.2.2.2.2.2.2.2.2.2.2.2.2.2.2.0.0.0.0.0.0.0.0.q.j.jXDXHXDXsXp.a.0.r.r.4.4.q.0.0.0.0.0.q.q.q.0.0.0.0.0.0.0.0.0.0.0.q.q.0.0.0.0.0.q.0.0.0.0.w.w.e.e.q.q.q.q.0.q.q.q.q.q.q.q.q.q.z.z.q.z.q.q.z.z.q.q.q.q.z.z.q.q.q.q.z.z.z.z.z.z.q.q.q.q.z.z.q.z.q.z.z.z.z.z.z.z.z.z.z.z.z.z.M.z.z.s.c.x.M.M.x.v.c.s.#XxXOXz.x.x.x.x.c.x.x.x.x.x.x.x.x.x.x.x.x.x.x.x.x.x.x.x.x.c.c.c.c.x.c.c.a.;X|.m.m.4.x.m.z.U.7.G d r v f y y y y y y d g g g h h h h h h h h h h h h h h h h j z z z z j z l l z z z z z z z x x z z z z z z z z z z z z z z z z z z z z c z z z z z z z l l z z z z z z j j h h h h h h g g g g g d d d g y y r e e e e u e e e e e 6 e P %Xb.M.K.z.x.v.;XS.n.I.M.m.x.v.x.x.x.x.x.x.x.x.x.x.x.x.x.x.x.x.x.x.x.c.c.c.x.x.x.x.m.j.yXcXY.c.c.c.c.c.x.x.z.z.z.z.z.z.z.z.z.z.z.z.z.z.z.q.z.z.z.z.z.q.q.q.q.q.q.q.q.q.q.q.q.q.q.q.q.q.q.q.q.q.z.z.q.q.q.q.z.z.z.q.q.q.q.q.q.q.q.q.q.q.q.q.q.q.q.q.q.q.q.q.q.q.q.q.q.q.0.0.q.q.q.q.q.q.q.q.q.q.0.0.0.0.0.0.0.0.0.0.0.0.0.q.q.q.4.a.4.=XDXLXLXFX*X4.q.z.4.0.0.0.0.0.0.0.0.0.0.0.0.0.0.0.0.0.0.0.2.2.2.0.0.2.2.2.2.2.2.2.2.2.2.2.2.2.2.2.2.2.2.2.2.2.2.2.2.2.2.2.2.2.2.",
"2.2.2.2.2.2.2.2.2.2.2.2.2.2.2.2.2.2.2.2.2.2.2.2.2.2.2.2.2.2.2.2.2.2.2.2.2.2.2.2.2.2.2.0.0.0.0.0.0.0.q.j.jXDXHXDXsXp.a.0.r.r.4.4.0.0.0.0.0.0.0.0.0.0.0.0.0.0.0.0.0.0.0.0.q.q.0.0.0.0.q.q.0.0.0.0.w.w.w.e.q.q.q.q.0.q.q.q.q.z.z.q.q.q.q.z.z.q.q.q.z.z.z.z.q.q.q.z.q.q.q.q.q.q.z.z.z.z.z.z.q.q.q.z.q.q.q.q.z.z.z.z.z.z.z.z.z.z.z.z.M.z.c.s.c.c.M.M.x.N.c.s.#XxXOXz.x.x.x.x.x.x.x.x.x.x.x.x.x.x.x.x.x.x.x.x.x.x.x.x.x.x.c.c.c.c.c.c.3.;X%Xa.c.c.m.a.U.U.K r e y y u y y d d d d d g g g h h h h h g h h h h h h h h h h j z z z z z z z z z l z z z z z z z x z x x z z z l z z z z z z z z z z z z z z z z z z z z h h z z z z l l h h h h h h h g h h g g d d d y y y e e q 6 6 q 6 e e e e u q 7 r 6.T.a.c.C.x.S.&XV.c.c.c.x.x.x.x.x.x.x.x.x.x.x.x.x.x.x.x.x.x.x.x.x.x.c.c.c.x.x.x.x.m.j.yXcXY.c.c.c.c.c.x.x.z.z.z.z.z.z.z.z.z.z.z.z.z.z.z.q.q.z.q.q.z.q.q.q.q.q.q.q.q.q.q.q.q.q.q.q.q.q.q.q.q.q.z.z.z.z.q.q.q.z.q.q.q.q.q.q.q.z.q.q.q.q.q.q.q.q.q.q.q.q.q.q.q.q.q.q.q.q.q.q.q.q.q.q.q.q.q.q.q.q.0.0.0.0.q.q.0.0.0.0.0.0.0.q.q.q.4.a.4.=XDXLXLXFX*X4.q.q.0.e.0.q.0.0.0.0.0.0.0.0.0.0.0.0.0.0.0.0.2.2.0.0.0.0.2.2.2.2.2.2.2.2.2.2.2.2.2.2.2.2.2.2.2.2.2.2.2.2.2.2.2.2.2.",
"2.2.2.2.2.2.2.2.2.2.2.2.2.2.2.2.2.2.2.2.2.2.2.2.2.2.2.2.2.2.2.2.2.2.2.2.2.2.2.2.2.2.2.2.0.0.0.0.0.0.q.j.jXDXHXDXsXp.a.0.r.r.4.4.0.0.0.0.0.0.0.0.0.0.0.0.0.0.0.0.0.0.0.q.q.q.0.0.0.0.q.q.q.0.0.0.0.0.0.0.0.0.q.q.q.q.q.q.q.z.z.z.q.q.q.z.z.q.q.q.z.z.z.z.q.q.z.z.q.q.q.q.q.q.q.q.z.z.z.q.q.q.z.z.q.q.q.q.z.z.z.z.z.z.z.z.z.z.z.z.M.z.c.s.c.c.M.m.x.N.c.h.#XxXOXz.x.x.x.x.x.x.x.x.x.x.x.x.x.x.x.x.x.x.x.x.x.x.x.x.x.x.x.c.c.c.c.c.d.;XT.p.n.n.I.d.+XK d 8 r y e e r y d g g d d d g g h h h h d d h h h h h h h h h h h j z z z z z z z l l z z z z z z z z z z x x z z l l l z z z z z z z z z z z z z z z z z l h z z z z z l l h h h h h h h g h g g g d d d y y t e q 6 6 q q 6 u u e e u u e ; g j.A.a.C.m.m.;XV.c.V.c.v.x.x.x.x.x.x.x.x.x.x.x.x.x.x.x.x.x.x.x.x.x.c.c.c.x.x.x.x.m.d.yXcXY.c.c.c.c.c.x.x.z.x.z.z.z.z.z.z.z.z.z.z.z.z.z.q.q.q.z.q.q.q.q.q.q.q.q.q.q.q.q.q.q.q.q.q.q.q.q.q.q.q.z.z.z.q.q.q.z.z.q.q.q.q.q.q.q.z.q.q.q.q.q.q.q.q.q.q.q.q.q.q.q.q.q.q.q.q.q.q.q.q.q.q.q.q.q.q.q.q.0.0.q.q.q.q.0.0.q.0.0.0.0.q.q.q.4.a.4.=XDXLXLXFX*X4.q.q.2.0.0.0.0.0.0.0.0.0.0.0.0.0.0.0.0.0.0.0.2.2.0.0.0.0.2.2.2.2.2.2.2.2.2.2.2.2.2.2.2.2.2.2.2.2.2.2.2.2.2.2.2.2.2.",
"2.2.2.2.2.2.2.2.2.2.2.2.2.2.2.2.2.2.2.2.2.2.2.2.2.2.2.2.2.2.2.2.2.2.2.2.2.2.2.2.2.2.2.2.0.0.0.0.0.0.w.j.jXDXHXDXsXp.a.0.r.w.4.4.0.0.0.0.0.0.0.0.0.0.0.0.0.0.q.0.0.0.0.0.0.0.0.0.0.0.0.0.q.q.q.0.q.q.q.0.0.q.q.q.q.q.q.q.q.z.z.z.z.q.q.q.q.q.z.z.q.q.q.q.q.q.q.q.q.q.q.q.q.q.q.q.q.q.q.q.z.z.q.q.q.q.q.q.z.z.z.z.z.z.z.z.z.z.z.z.M.z.z.c.c.x.M.M.x.N.c.s.XXxXOXz.x.x.x.x.x.c.x.x.x.x.x.x.x.x.x.x.x.x.x.x.x.x.x.x.z.c.x.c.c.c.c.c.f.;XT.A.A.3.j.+XI d 6 y y t t t r y d f g g d d f h h h h h h h h h h h h h h h h h h j j z z z z z l l l l z z z z z z z z z z z z z z z z z z z z z z z z z z z z z z z z z h z z z z z z l l l l h h h h h h g d g g g g g g i y t q q q q q e u u e q e t y 8 6 j k.Y.3.A.s.;XA.h.V.c.c.c.x.x.x.x.x.x.x.x.x.x.x.x.x.x.x.x.x.x.x.x.c.c.c.x.x.x.x.m.j.yXcXY.x.c.x.x.x.x.x.x.x.z.z.z.z.z.z.z.z.z.z.z.z.z.z.z.z.z.z.z.q.q.q.q.q.q.q.q.q.q.q.q.q.q.q.q.q.q.q.q.q.q.q.q.q.z.z.q.q.q.z.q.q.q.q.z.z.q.q.q.q.q.q.q.q.q.q.q.q.q.q.q.q.q.q.q.q.q.q.q.0.q.q.q.q.0.0.q.q.0.q.q.q.q.q.0.0.q.q.q.0.0.0.0.0.4.a.4.=XDXLXLXFX*X4.q.z.2.0.0.0.0.0.0.0.0.0.0.0.0.0.0.0.0.0.0.0.2.2.2.0.0.0.0.2.2.2.2.2.2.2.2.2.2.2.2.2.2.2.2.2.2.2.2.2.2.2.2.2.2.2.2.",
"2.2.2.2.;.;.;.;.2.2.2.2.2.2.2.2.2.2.2.2.2.2.2.2.2.2.2.2.2.2.2.2.2.2.2.2.2.2.2.2.2.2.2.0.2.2.0.0.0.0.w.j.jXDXHXDXsXp.a.0.r.r.2.4.4.0.0.0.0.0.0.0.q.q.0.0.0.0.q.q.0.0.0.0.0.0.0.0.0.0.q.q.0.0.q.q.q.q.q.0.0.0.q.q.q.q.q.q.q.z.z.z.z.q.q.q.q.q.z.z.q.q.q.q.q.q.q.q.q.q.q.q.q.q.q.q.q.q.q.q.z.q.q.q.q.q.q.q.z.z.q.z.z.z.z.z.z.z.z.z.M.z.z.c.c.c.M.M.x.N.x.s.XXxXOXz.x.x.x.x.x.c.x.x.x.x.x.x.x.x.x.x.x.x.x.x.x.x.x.x.x.x.c.c.c.c.c.c.p.;X%Xp.n.I.j.8.h 8 r k e e i e y d f k g g f d f h h h j j j h h h h h h h h h h h h j j z z z l z l l l z z z z z z z z z z z x x z z z z z z x x z z z z z z z z z z z z z z z z z z z z z z z l l l l h h h h g h h h h h g k g i y t e e e y e e e y y t y p e 8 M j.Y.n.s.;XY.s.V.c.c.c.x.x.x.x.x.x.x.x.x.x.x.x.x.x.x.x.x.x.x.x.c.c.c.x.x.x.x.m.j.yXcXY.x.c.x.x.x.x.x.x.x.z.z.z.z.z.z.z.z.z.z.z.z.z.z.z.z.z.z.z.q.q.q.q.q.q.q.q.q.q.q.q.q.q.q.q.q.q.q.q.q.q.q.q.q.z.q.q.q.z.z.q.q.q.q.z.z.q.q.q.q.q.q.q.q.0.q.0.0.q.0.0.0.q.q.q.q.q.q.0.0.q.q.q.q.q.0.q.q.0.q.q.q.q.q.0.0.q.q.0.0.0.q.0.0.4.a.4.=XDXLXLXFX*X4.q.q.4.0.0.0.0.0.0.0.0.0.0.0.0.0.0.0.0.0.0.0.2.2.0.0.0.0.2.2.2.2.2.2.2.2.2.2.2.2.2.2.2.2.2.2.2.2.2.2.2.2.2.2.2.2.2.",
";.;.2.2.2.;.;.;.2.2.2.2.2.2.2.2.2.2.2.2.2.2.2.2.2.2.2.2.2.2.2.2.2.2.2.2.2.2.2.2.2.2.2.2.2.2.2.2.0.0.q.j.jXDXHXDXsXp.a.0.r.r.2.4.4.0.0.0.0.0.0.0.q.q.0.0.0.0.q.q.0.0.0.0.0.0.0.0.0.0.q.q.0.0.0.0.q.0.0.0.0.0.q.q.0.q.0.0.q.q.z.z.z.z.q.q.q.q.z.z.q.q.q.q.q.q.q.q.q.q.q.q.z.z.q.z.q.q.q.z.z.z.q.q.q.q.q.q.q.q.q.q.z.z.z.z.z.z.z.z.z.z.z.c.c.c.M.M.x.N.x.s.XXxXOXz.x.x.x.x.x.c.c.x.x.x.x.x.x.x.x.x.x.x.x.x.x.x.x.x.x.z.z.c.c.c.c.c.s.iX%X<.I.OX8.d r r f p e t i t d d h h h h h h g h h h h j j h h h h l l l l l z z z z z z z z z z z z z z z z x z z z z z z x x x x x x x x x x x z z z z z z z z z z z z z z z z z z z z z z z z z z z z l h h h h h h h h g j k k g g i y y y t e y y g i y y r f 9 M oXj.A.;XY.f.A.c.v.x.x.x.x.x.x.x.x.x.x.x.x.x.x.x.x.x.x.x.x.x.c.c.c.x.x.x.x.m.j.yXcXY.c.c.x.x.x.x.x.x.x.z.z.z.z.z.z.z.z.z.z.z.z.z.z.z.z.z.z.z.q.q.q.q.q.q.q.q.q.q.q.q.q.q.q.q.q.q.q.q.q.q.q.q.z.z.z.q.q.z.z.z.q.q.q.q.z.q.q.q.q.q.q.q.q.q.q.q.q.q.q.0.0.0.0.q.q.q.q.0.0.0.0.0.0.0.0.0.0.0.0.q.0.q.q.0.0.0.0.0.0.0.q.q.q.4.a.4.=XDXLXLXFX*X4.q.q.2.0.0.0.0.0.0.0.0.0.0.0.0.0.0.0.0.0.0.0.0.0.0.0.0.0.0.0.2.2.2.2.2.2.2.2.2.2.2.2.2.2.2.2.2.2.2.2.2.2.2.2.2.2.2.",
";.;.2.2.2.;.;.;.2.2.2.2.2.2.2.2.2.2.2.2.2.2.2.2.2.2.2.2.2.2.2.2.2.2.2.2.2.2.2.2.2.2.2.2.2.2.2.2.0.0.w.j.jXDXHXDXsXp.a.0.r.r.2.4.4.0.0.0.0.0.0.0.q.q.0.0.0.0.q.q.0.0.0.0.0.0.0.0.0.0.q.q.0.0.0.0.0.0.0.0.0.0.q.q.0.q.0.q.q.q.z.q.z.z.q.q.q.q.q.z.q.q.q.q.q.q.q.q.q.q.z.z.z.z.z.z.q.q.q.z.z.z.q.q.q.q.q.q.q.q.q.q.z.z.z.z.z.z.z.z.z.z.z.c.c.c.M.M.x.N.x.s.XXxXOXz.x.x.x.x.x.c.x.x.x.x.x.x.x.x.x.x.x.x.x.x.c.x.x.x.x.z.z.c.c.c.c.c.A.&XT.I.OXP z 8 f f e e k k i g g h j j j h h h g h h h h j j j h l l z z z z l z z z z z z z z z z z z z z x x N x z z z z x M x x x N N N N N x x x z z z z z z z z z z x N N z z z z z z z z z z z z z z z z l h h h h h h h g g h j j j h g y g g y r y d d g d f f 8 M +Xn.;XA.n.m.c.m.M.M.x.x.x.x.x.x.x.x.x.x.x.x.x.x.x.x.x.x.x.c.c.c.x.x.x.c.m.j.yXcXY.c.x.x.x.x.x.x.x.x.z.z.z.z.z.z.z.z.z.z.z.z.z.z.z.z.z.z.z.q.q.q.q.q.q.q.q.q.q.q.q.q.q.q.q.q.q.q.q.q.q.q.q.z.z.z.q.q.z.z.z.q.q.q.z.z.q.q.q.q.q.q.q.q.q.q.q.q.q.q.0.0.0.0.q.q.q.0.0.0.0.0.0.0.0.0.0.0.0.0.0.0.q.0.0.0.0.0.0.0.0.q.q.q.4.a.4.=XDXLXLXFX*X4.q.q.2.0.0.0.0.0.0.0.0.0.0.0.0.0.0.0.0.0.0.0.0.0.0.0.0.0.0.0.2.2.2.2.2.2.2.2.2.2.2.2.2.2.2.2.2.2.2.2.2.2.2.2.2.2.2.",
";.;.;.;.;.;.;.2.2.2.2.2.2.2.2.2.2.2.2.2.2.2.2.2.2.2.2.2.2.2.2.2.2.2.2.2.2.2.2.2.2.2.2.2.0.0.2.2.2.0.q.j.jXDXHXDXsXp.a.5.r.r.4.4.0.0.0.0.0.0.0.0.0.0.0.0.0.0.0.0.0.0.0.0.0.0.0.0.0.0.0.0.0.q.0.0.0.q.q.q.0.q.q.q.q.q.q.q.4.q.z.q.z.z.q.q.q.q.q.q.q.q.q.q.q.q.q.q.q.q.q.q.q.q.q.q.z.z.z.z.q.q.q.q.q.q.q.q.q.z.z.z.z.z.z.z.z.z.z.z.z.z.z.s.x.x.M.M.x.x.c.s.XXxX$Xz.x.x.x.x.x.x.x.x.x.x.x.x.x.z.x.z.z.x.x.x.x.x.c.x.c.c.x.x.z.z.c.c.s.&X%X+X8.g f 8 f d f g g h j j h h h h h h z z z z z z z z z z l z z z z z z z z z z z z z z z z z z z z x M M x z z z z z x M N M M x x z z z z z z z z z z z z x x x z z z z M M M M M x x z x x z z z z x c z z z z z z z z h j z z z z z z z z z h h g g d h h f h f 8 M j.&XV.V.S.b.M.R.w.x.x.x.x.x.x.x.x.x.x.x.x.x.x.x.x.x.x.x.z.c.c.x.x.x.x.m.j.yXcXY.c.z.z.z.z.x.x.x.z.z.z.z.z.z.z.z.z.z.z.z.z.z.q.q.q.q.z.z.z.q.q.q.q.q.q.q.q.q.q.q.q.q.q.q.q.q.q.q.q.q.q.q.q.z.z.q.q.q.q.q.q.z.q.q.q.q.q.q.q.q.q.q.0.0.0.0.q.q.q.q.q.0.0.0.0.q.0.0.0.0.0.0.0.q.q.q.0.0.0.q.0.0.0.0.0.q.q.q.0.q.q.q.q.4.a.4.=XDXLXLXFXOXz.q.q.4.e.2.0.0.0.0.0.0.0.2.2.0.0.0.0.2.2.2.2.0.0.2.0.0.0.0.0.2.2.2.2.2.2.2.2.2.2.2.2.2.2.2.2.2.2.2.2.2.2.2.2.2.2.2.",
";.;.;.;.;.;.;.2.2.2.2.2.2.2.2.2.2.2.2.2.2.2.2.2.2.2.2.2.2.2.2.2.2.2.2.2.2.2.2.2.2.2.2.2.0.0.2.0.2.0.q.j.jXDXHXDXsXp.a.5.r.r.4.4.0.0.0.0.0.0.0.0.0.0.0.0.0.0.0.0.0.0.0.0.0.0.0.0.0.0.0.0.q.q.0.0.0.0.0.0.0.0.q.q.q.q.q.q.4.q.q.q.z.z.q.q.q.q.q.q.q.q.q.q.q.q.q.q.q.q.q.q.q.q.q.q.z.z.z.z.z.z.q.q.q.q.q.q.q.z.z.z.z.z.z.z.z.z.z.z.z.z.z.s.x.x.b.M.x.x.c.s.XXxX$Xz.x.x.x.x.c.x.x.x.x.x.x.x.x.x.z.x.z.x.x.x.x.x.c.x.c.c.c.c.c.x.c.c.c.;XOXP f 8 l f g g h h h z z z z z z z z z M M z z z z z z z z z c c c c c c c z z z z z z z z z z z z x x M M M M z z z x M M N M M M M M x x z x z z z z z z x M M M x z x x z z x x x x z z x x x z z z x x z z z z z z z z z x x x x M M M M x M x x z z z z M x x l f g Z iX|.s.c.T.M.0.R.M.x.x.x.x.x.x.x.x.x.x.x.x.x.x.x.x.x.x.z.c.c.x.x.x.x.m.j.yXcXY.x.z.z.z.z.x.x.x.z.z.z.z.z.z.z.z.z.z.z.z.z.q.q.q.q.q.z.z.z.q.q.q.q.q.q.q.q.q.q.q.q.q.q.q.q.q.q.q.q.q.q.q.q.z.z.q.q.q.q.q.z.z.q.q.4.q.q.q.q.q.q.0.0.0.0.q.q.q.q.q.q.0.0.0.0.q.q.0.0.0.0.0.0.q.q.q.q.0.0.q.q.0.0.0.0.q.0.q.q.0.q.q.q.4.a.4.=XDXLXLXFXOXz.z.q.4.e.2.0.0.0.0.0.0.0.2.2.0.0.0.0.2.2.2.2.2.2.2.2.0.0.0.0.2.2.2.2.2.2.2.2.2.2.2.2.2.2.2.2.2.2.2.2.2.2.2.2.2.2.2.",
"2.2.2.2.;.;.;.;.;.;.2.2.2.2.2.2.2.2.2.2.2.2.2.2.2.2.2.2.2.2.2.2.2.2.2.2.2.2.2.2.2.2.2.2.0.0.0.0.2.0.q.j.jXDXHXDXsXp.a.5.r.0.4.4.0.0.0.0.0.0.0.0.0.0.0.0.0.0.0.0.0.0.0.0.0.0.0.0.0.0.q.0.q.q.q.0.0.q.0.q.q.0.q.q.q.q.q.q.q.q.q.z.q.q.q.q.q.q.z.z.q.q.q.q.q.q.q.q.q.q.q.q.q.q.q.q.q.q.z.z.z.z.z.z.q.q.q.q.q.z.q.q.z.z.z.z.z.z.z.z.z.z.z.s.x.c.b.M.x.x.x.s.XXxX$Xz.x.x.x.x.c.c.x.x.x.x.x.x.x.x.x.z.z.x.x.x.x.x.x.x.c.c.c.c.c.m.m.m.3.rXj.z f f l l x M M M M M N N M M M M M M M M M M M z z z z z z z z z z z z z z z z z x z z z z z z z z x M x M M z z z x M M N N M M M M M M x x x x x x x x x M M M x x x M x x x M M M M M x x x x x x x x x x x M x M N M V V V V V V Z A Z A A A A A A G G P X.8.y.y.y.7.OXT.V.c.v.M.w.R.M.x.x.x.x.x.x.x.x.x.x.x.x.x.x.x.x.x.x.z.c.c.x.x.x.x.m.d.yXcXY.x.z.x.x.z.x.x.z.z.z.z.z.z.q.q.z.z.z.z.z.z.q.z.q.q.q.q.z.z.q.q.q.q.q.q.q.q.q.q.q.q.q.q.q.q.q.q.q.q.q.q.q.q.z.z.z.q.q.q.z.z.z.q.q.4.q.q.q.q.q.q.q.q.q.q.q.q.q.q.q.q.q.q.0.0.q.q.0.0.q.q.0.0.0.0.0.0.0.0.0.q.0.0.0.0.0.0.0.0.0.0.0.0.4.a.4.=XDXLXLXFXOXq.q.0.2.0.2.0.0.0.0.0.0.0.2.2.0.2.0.0.2.2.2.2.2.2.2.2.2.2.0.0.2.2.2.2.2.2.2.2.2.2.2.2.2.2.2.2.2.2.2.2.2.2.2.2.2.2.2.",
"2.2.2.2.;.;.;.2.;.;.2.2.2.2.2.2.2.2.2.2.2.2.2.2.2.2.2.2.2.2.2.2.2.2.2.2.2.2.2.2.2.2.2.2.0.0.0.0.2.0.q.j.jXDXHXDXsXp.a.5.r.0.4.4.4.0.0.0.0.0.0.0.0.0.0.0.0.0.0.0.0.0.0.0.0.0.0.0.0.0.0.q.q.q.q.0.0.0.0.0.q.q.q.q.q.q.q.q.q.q.q.z.q.q.q.q.q.q.z.z.q.q.q.q.q.q.q.q.q.q.q.q.q.q.q.q.q.q.q.q.z.z.z.q.q.q.q.q.q.q.q.q.z.z.z.z.z.z.z.z.z.z.z.s.x.x.M.M.x.x.x.s.XXxX$Xz.x.x.x.c.c.c.x.x.x.x.x.x.x.x.z.x.z.x.x.x.x.x.x.x.z.c.z.z.z.m.m.U.j.rXy.I y.i.L U L L G A A A A A A A V V V M M M M M M M M M M z z z z z z z z z z z x x x x x x x x z z z x x x M M x z z x M M N N M M M x x x M M M M M M M M x x x x x x x x x x M M M M M M x x M x M M M M M M M M M M M M Z V V V C A A S S S S G G K L K K P ( X.7.u.y.8.M G a.D.z.x.R.w.x.x.x.x.x.x.x.x.x.x.x.x.x.x.x.x.x.x.x.z.c.c.x.x.x.x.m.d.yXcXY.c.c.c.x.z.x.x.x.z.z.z.z.z.q.q.z.z.z.z.z.q.q.z.q.q.q.q.z.z.q.q.q.q.q.q.q.q.q.q.q.q.q.q.q.q.q.q.q.q.q.q.q.q.z.z.z.q.q.q.z.z.z.q.q.q.0.q.q.q.q.q.q.q.0.0.0.0.q.q.q.0.0.q.0.0.0.0.0.0.q.q.q.0.0.0.0.0.0.0.q.q.q.0.0.0.0.0.0.0.0.0.0.0.4.a.4.=XDXLXLXFXOXq.q.0.2.0.2.0.0.0.0.0.0.0.2.2.2.2.0.0.2.2.2.2.2.2.2.2.2.2.0.0.2.2.2.2.2.2.2.2.2.2.2.2.2.2.2.2.2.2.2.2.2.2.2.2.2.2.2.",
"2.2.;.;.;.;.2.2.;.;.2.2.2.2.2.2.2.2.2.2.2.2.2.2.2.2.2.2.2.2.2.2.2.2.2.2.2.2.2.2.2.2.2.2.2.2.2.2.2.0.q.j.jXDXHXDXsXp.a.2.r.0.2.4.4.0.0.0.0.0.0.0.0.0.0.0.0.0.0.0.0.0.0.0.0.0.0.0.0.0.0.0.0.0.0.0.0.0.q.q.0.0.q.q.q.0.q.q.4.q.q.q.q.q.q.q.q.q.z.z.q.q.q.q.q.q.q.q.q.q.q.q.q.q.q.q.q.q.z.z.z.z.q.q.q.q.q.q.z.z.z.z.z.z.z.z.z.z.z.z.z.x.z.s.c.c.z.x.x.x.c.s.XXxX$Xz.x.x.x.x.c.c.x.x.x.x.x.x.x.x.x.x.z.x.x.x.x.x.x.x.z.x.z.z.z.m.R.U.8.M M L L L U A L L A A A Z A A V V V V V V V M M M M M M M M M N x x z z z z x z z x x M M x x x x z z z z z x M x z z z x M M M M M M M z z z x x M x M M M M x x x x x x x x x x x x x x x x M M M M V M M M M M M M M M M V V V Z Z A Z Z Z Z Z Z A A A A G G Z V V V V M z r 6 M j.V.c.K.M.x.x.x.x.x.x.x.x.x.x.x.x.x.x.x.x.x.x.x.z.c.c.x.x.x.x.m.d.yXcXY.c.c.c.c.z.x.x.x.z.z.z.z.z.q.q.q.z.z.z.q.q.q.q.q.q.q.q.q.q.q.q.q.q.q.q.q.q.q.q.q.q.q.q.q.q.q.q.q.q.q.q.q.q.q.q.q.q.q.q.z.z.q.q.q.q.0.0.q.q.q.q.q.q.0.0.0.q.q.q.0.0.0.0.q.q.q.q.0.0.q.q.0.0.0.0.0.0.0.0.0.0.0.0.0.0.0.0.0.0.0.0.0.0.4.a.4.=XDXLXLXFXOXz.q.q.2.0.2.0.0.0.0.0.0.0.0.0.2.2.2.2.2.2.2.2.2.2.0.0.2.2.2.2.2.2.2.2.2.2.2.2.2.2.2.2.2.2.2.2.2.2.2.2.2.2.2.2.2.2.2.",
"2.2.;.;.2.;.2.2.;.;.2.2.2.2.2.2.2.2.2.2.2.2.2.2.2.2.2.2.2.2.2.2.2.2.2.2.2.2.2.2.2.2.2.2.0.2.2.2.2.0.w.j.jXDXHXDXhXp.a.2.r.0.2.4.4.0.0.0.0.0.0.0.0.0.0.0.0.0.0.0.0.0.0.0.0.0.0.0.0.0.0.0.0.0.0.0.0.0.0.0.0.0.q.q.0.0.q.q.4.q.q.q.z.q.q.q.q.q.z.z.q.q.q.q.q.q.q.q.q.q.q.q.q.q.q.q.q.q.z.z.q.q.q.q.q.q.q.q.z.z.z.z.z.z.z.z.z.z.z.z.z.x.z.s.c.c.z.x.x.x.c.s.XXxX$Xz.x.x.x.x.c.c.x.x.x.x.x.x.x.x.x.x.z.x.x.x.x.x.x.x.z.x.x.z.m.U.U.7.z r d N h h M l z z z x x x x x z x x x M M M M z z z z z z z x N x x x x z z z z z x x x z z z z z z z z z x x x x z z z z M M M M M x x z z z z z z z x z z z M x x x M M M x x x x x x x x x M M V V V V M M M M M M M M M M x M V V V V V V Z Z V V V V V V Z M M M x z z h d 8 8 M 7.Y.x.v.x.x.x.x.x.x.x.x.x.x.x.x.x.x.x.x.x.x.x.z.c.c.x.x.c.x.m.d.yXcXY.c.c.c.c.z.x.x.x.z.z.z.z.z.q.q.z.z.z.z.q.q.z.z.q.q.q.q.q.q.q.q.q.q.q.q.q.q.q.q.q.q.q.q.q.q.q.q.q.q.q.q.q.q.q.q.q.q.q.q.z.z.q.q.q.q.0.0.q.q.q.q.0.0.0.0.0.0.0.q.0.0.0.0.0.0.q.q.0.0.0.0.0.0.q.q.0.0.0.0.0.0.0.0.0.0.0.0.0.0.0.0.0.0.4.a.4.=XDXLXLXFXOX4.q.0.2.0.2.0.0.0.0.0.0.0.2.0.2.2.2.2.2.2.2.2.2.2.2.0.2.2.2.2.2.2.2.2.2.2.2.2.2.2.2.2.2.2.2.2.2.2.2.2.2.2.2.2.2.2.2.",
"2.;.;.;.2.2.2.2.;.;.2.2.2.2.2.2.2.2.2.2.2.2.2.2.2.2.2.2.2.2.2.2.2.2.2.2.2.2.2.2.2.2.2.2.0.0.2.2.4.q.w.j.jXDXHXDXhXp.a.0.r.0.2.4.4.4.2.4.4.4.4.4.0.0.0.0.0.0.0.0.0.0.0.0.0.0.0.0.0.0.0.0.0.0.0.0.0.0.0.0.0.0.q.q.0.0.0.0.4.4.q.q.z.z.z.z.q.q.q.z.q.q.q.q.q.q.q.q.q.q.q.q.q.q.q.q.q.q.q.z.q.q.q.q.q.q.q.q.z.z.z.z.z.z.z.z.z.z.z.z.z.z.z.s.x.x.b.M.x.x.c.s.XXxX$Xz.x.x.x.x.c.c.x.x.x.x.x.x.x.z.z.x.z.x.x.x.c.x.x.x.c.x.x.M.R.U.( V 8 y d y g g y h g h h h l z z z l l z x x x x x z z z z z z z z z z z z z z z z z z z z z z z z z z z z z z z x x x x M M M M M M M M M M M M x z z x x x x z z x x x x M M M x x x M M M M M M x M M V M M M x M M x x M M M M x c x x x x x M V V V M M M x x c l z z g f d r a v 8 7 M 7.c.c.c.x.x.x.x.x.x.x.x.x.x.x.x.x.x.x.x.x.x.z.c.c.x.x.x.x.m.d.yXcXY.c.x.x.c.z.x.x.x.z.z.z.z.z.z.z.z.z.z.z.z.z.z.z.q.q.z.z.q.z.q.q.q.q.q.q.q.q.q.q.q.q.q.q.q.q.q.q.q.q.q.q.q.q.q.z.q.q.q.z.z.z.q.q.q.q.0.0.q.q.q.0.0.0.0.0.0.0.0.0.0.0.0.0.0.0.q.0.0.0.0.0.0.0.q.q.0.0.0.0.0.0.0.0.0.0.0.0.0.0.0.0.0.0.4.a.4.=XDXLXLXFXOX4.q.0.2.0.2.0.0.0.0.0.0.0.0.0.0.0.2.2.2.2.2.2.2.2.0.0.0.0.2.2.2.2.2.2.2.2.2.2.2.2.2.2.2.2.2.2.2.2.2.2.2.2.2.2.2.2.2.",
"2.;.;.;.2.2.2.2.;.;.2.2.2.2.2.2.2.2.2.2.2.2.2.2.2.2.2.2.2.2.2.2.2.2.2.2.2.2.2.2.2.2.2.2.0.0.2.2.4.0.q.j.jXDXHXDXhXp.a.0.r.0.2.4.4.4.2.2.2.2.2.4.0.0.0.0.0.0.0.0.0.0.0.0.0.0.0.0.0.0.0.0.0.0.0.0.0.0.0.0.0.0.q.q.0.0.0.0.4.4.q.q.z.z.z.z.q.q.q.q.q.q.q.q.q.q.q.q.q.q.q.q.q.q.q.q.q.q.z.z.q.q.q.q.q.q.q.q.z.z.z.z.z.z.z.z.z.z.z.z.z.x.z.z.x.x.c.z.x.x.x.s.k.xX$Xz.c.x.x.x.c.c.x.x.x.x.x.x.x.z.z.z.z.z.c.c.c.x.x.x.x.x.z.b.U.7.Z 7 d u y y y g y g g h h l z z z z z z z z z l l l z z z z z z z z z z z z z z z z z z z z z z z z z z z z z z z x x M M M M M M M x x x x M M M M M M M M M M M M z z z z x x x z z z x x x M M M x x M M M M x x M M x z z z z z c x z z z z x z x z z z z l h h f d h g r y k u a a v 8 9 M j.V.c.x.x.x.x.x.x.x.x.x.x.x.x.x.x.x.x.x.x.z.c.c.x.x.x.x.m.d.yXcXA.x.x.x.x.x.x.x.x.z.z.z.z.z.z.z.z.z.z.z.z.z.z.z.z.z.z.z.z.z.q.q.q.q.q.q.q.q.q.q.q.q.q.q.q.q.q.q.q.q.q.q.q.q.z.z.q.q.q.z.z.z.q.q.q.q.0.0.q.q.q.q.0.0.0.0.0.0.0.0.0.0.0.0.0.0.q.0.0.0.0.0.0.0.q.q.0.0.0.0.0.0.0.0.0.0.0.0.0.0.0.0.0.0.4.a.4.=XDXHXLXFXOX4.q.0.2.0.2.0.0.0.0.0.0.0.0.0.0.0.0.0.2.2.2.2.2.2.0.0.0.0.0.0.2.2.2.2.2.2.2.2.2.2.2.2.2.2.2.2.2.2.2.2.2.2.2.2.2.2.2.",
";.;.;.;.;.;.;.;.;.;.;.2.2.2.2.2.;.;.;.2.2.2.2.2.2.2.2.2.2.2.2.2.2.2.2.2.2.2.2.2.2.2.2.2.2.2.2.2.0.0.q.g.hXSXHXDXhXp.4.0.r.2.1.4.2.2.2.2.2.2.0.0.2.2.2.2.2.2.2.2.0.0.0.0.0.0.0.0.0.0.0.0.0.0.0.0.0.0.0.0.0.0.0.0.0.0.0.q.q.q.q.q.q.q.q.q.q.q.q.q.q.q.q.q.q.q.q.q.q.q.q.q.4.4.q.q.q.q.q.q.q.q.q.q.q.q.q.q.q.q.q.q.z.q.q.z.z.z.z.z.x.z.z.x.x.x.s.s.x.z.x.s.l.lX$Xd.c.x.x.x.c.c.c.c.x.x.x.x.x.x.x.z.d.f.c.c.x.x.x.x.N.x.z.U.7.z 6 u u t t t t t y r d g h h j z z z h j z j h h h l z z z z z z z z j j j j z j z l z z z z z z z z z z z z z z z z x M z M z M z z z z z z z z M M M M M M z x x x z z z z z z z z z z z z x z z z z z z z z z z z z z x z z z z z z z z z z z z z l l z z l h g d e e e e e e e e e u q e t 6 j oXb.K.x.4.x.x.x.x.c.x.x.b.b.z.x.x.x.x.x.z.c.c.x.x.x.x.m.d.yXcXA.x.x.x.x.x.x.x.z.z.z.z.z.z.z.z.z.z.q.q.q.q.q.q.q.q.q.q.q.q.q.4.4.4.4.4.4.4.4.4.q.q.q.4.4.4.4.4.4.q.q.q.q.q.q.q.q.q.q.q.q.q.q.q.q.q.0.0.q.q.0.0.0.0.0.0.0.0.0.0.0.0.0.0.0.0.0.0.0.0.0.0.0.0.0.0.0.0.q.0.0.0.0.0.0.0.0.0.0.0.0.0.0.0.4.a.4.;XFXHXHXFXOX4.q.q.4.e.2.0.2.0.0.0.2.2.2.2.0.0.0.0.0.0.0.0.0.2.2.0.0.0.0.0.2.2.2.2.2.2.2.2.2.2.2.2.2.2.2.2.2.2.2.2.2.2.2.2.2.2.2.",
";.;.;.;.;.;.;.;.;.;.;.2.2.2.2.2.;.;.;.2.2.2.2.2.2.2.2.2.2.2.2.2.2.2.2.2.2.2.2.2.2.2.2.2.2.2.2.0.0.0.0.g.hXSXHXDXhXp.q.0.0.2.1.1.2.2.2.2.0.2.0.0.2.2.2.2.2.2.2.2.0.0.0.0.0.0.0.0.0.0.0.0.0.0.0.0.0.0.0.0.0.0.0.0.0.0.0.q.q.e.q.q.q.q.q.q.q.q.q.q.q.q.q.4.4.q.q.q.q.q.q.q.4.q.q.q.q.q.q.q.q.q.q.q.q.q.q.q.q.q.q.q.z.q.q.z.z.z.z.z.z.z.x.x.x.x.s.s.c.z.M.c.h.lX$Xd.c.x.x.x.c.x.c.c.x.x.x.x.x.x.x.z.d.d.a.z.x.x.x.v.x.4.U.j.N e u a e t t t t t y y g g h h h h l h h h j h h h h h l l z z z z l z h h h j j z z z z z z x z z x z z z z z z z z z z z z z z z z z z z z z z z z z M z z z z z z z z z z z z l z z z z z z z z z z z z z z z z z z z z z z z z z z z z z z l l l l h l j j h h g d y t e q q q q e e u q q e 6 0 j oXn.b.x.x.x.z.x.x.x.M.b.b.x.x.x.x.x.x.z.c.c.x.x.x.x.m.d.yXcXA.x.x.x.x.x.x.x.z.z.z.z.z.z.z.z.z.z.q.q.z.q.q.q.q.q.q.q.q.q.q.4.4.4.4.4.4.4.q.q.q.q.4.4.4.4.4.4.q.q.q.q.q.q.q.q.q.q.q.q.q.q.q.q.q.q.0.q.q.q.0.0.0.0.0.0.0.q.0.0.0.0.0.0.0.0.0.0.0.0.0.0.0.0.0.0.0.0.0.0.0.0.0.0.0.0.0.0.0.0.0.0.0.0.4.a.4.;XFXHXHXZXOX4.q.0.4.e.2.0.2.2.0.0.2.2.2.2.0.0.0.0.0.0.0.0.2.2.2.2.0.0.0.0.2.2.2.2.2.2.2.2.2.2.2.2.2.2.2.2.2.2.2.2.2.2.2.2.2.2.2.",
";.;.;.;.;.;.;.;.2.2.;.;.2.2.2.2.;.;.;.2.2.2.2.2.2.2.2.2.2.2.2.2.2.2.2.2.2.2.2.2.2.2.2.2.2.2.2.0.0.0.0.p.hXSXHXDXhXp.q.0.0.2.1.1.2.2.0.0.0.0.0.0.0.2.2.2.2.2.0.0.0.0.0.0.0.0.0.0.0.0.0.0.0.0.0.0.0.0.0.0.0.0.0.0.0.0.0.0.q.e.q.q.q.q.q.q.q.q.q.q.q.q.4.4.4.4.q.q.q.q.4.q.4.4.q.q.q.q.q.q.q.q.q.q.q.q.q.q.q.q.z.z.z.z.q.z.z.z.z.z.z.z.x.x.x.x.s.s.c.z.M.n.h.lX$Xd.c.x.x.x.x.x.x.c.x.x.x.x.z.x.x.z.c.a.a.c.x.x.x.v.q.T.7.M 8 e t t e e e e t t y y g g h h h h h h h h h h h h h h h l l z l l l l h h j j j z z z z z z z z z z z z z z z z z z z z z z z z z z z M M M M z z z z z z z z z z z z z z z z z z z z z z z z z z z z c z z z z z z z z z z z z z l z l l z l l l h h h h h h h h h g y t e q 6 6 q q q u q 6 t q 7 5 M 7.U.a.m.v.4.v.x.M.x.z.z.x.x.x.x.x.x.z.c.c.x.x.x.x.m.d.yXcXF.c.x.x.x.x.x.x.z.z.z.z.z.z.z.z.z.z.z.z.z.q.q.q.q.z.q.q.q.q.q.q.4.4.q.q.q.q.q.q.q.q.q.q.4.4.4.4.q.q.q.q.q.q.q.q.q.q.q.q.q.q.q.q.q.q.0.0.q.q.0.0.0.0.0.0.q.q.0.0.0.0.0.0.0.0.0.0.0.0.0.0.0.0.0.0.0.0.0.0.0.0.0.0.0.0.0.0.0.0.0.0.0.0.4.a.4.;XSXHXHXZXXX4.0.0.2.0.2.0.2.2.2.2.2.2.2.2.2.2.0.0.0.0.2.2.2.2.2.2.2.2.2.2.2.2.2.2.2.2.2.2.2.2.2.2.2.2.2.2.2.2.2.2.2.2.2.2.2.2.2.",
";.;.;.;.;.;.;.;.;.2.;.;.;.2.2.2.;.;.;.2.2.2.2.2.2.2.2.2.2.2.2.2.2.2.2.2.2.2.2.2.2.2.2.2.2.2.2.0.0.0.4.p.hXSXHXDXhXp.q.0.0.2.1.1.2.0.0.0.0.0.0.0.0.2.2.2.2.0.0.0.0.0.0.0.0.0.0.0.0.0.0.0.0.0.0.0.0.0.0.0.0.0.0.0.0.0.0.0.4.4.q.q.q.q.q.q.q.q.q.q.q.q.4.4.4.4.q.q.q.q.4.4.4.4.q.q.q.q.q.q.q.q.q.q.q.q.q.q.q.q.z.z.z.z.q.z.z.z.z.z.z.z.x.x.x.x.s.s.c.z.M.n.h.lX$Xd.c.x.x.x.x.x.x.x.x.x.x.x.z.x.x.z.c.z.z.m.x.x.x.x.R.j.V 7 8 y t t e e e t t y y y d g h h h h h h h h h h h h h h h h h h h h h h z z j j h h h h h l z z z z z z z z z z z z z z z z z z z z z z z z z M z z z z z z z z z z z z z z z z z z z z z z z z l z z z z z z z z z z z z z z z l l l l l l h h h h h h g h d d d d d d i y t e q 6 6 6 7 e q 6 q q q q ; V 7.I.c.c.c.m.b.b.x.z.x.x.x.x.x.x.x.z.c.c.x.x.x.x.m.d.yXcXA.c.x.x.x.x.x.x.z.z.z.z.z.z.z.z.z.z.z.z.z.q.q.q.q.z.q.q.q.q.q.q.q.4.q.q.q.q.q.q.q.q.q.q.q.4.4.4.4.q.q.q.q.q.q.q.q.q.q.q.q.q.q.q.q.q.0.0.0.0.0.0.q.q.0.0.q.q.0.0.0.0.0.0.0.0.0.0.0.0.0.0.0.0.0.0.0.0.0.0.0.0.0.0.0.0.0.0.0.0.0.0.0.0.4.a.4.;XSXHXHXZXXX4.0.0.2.0.2.0.2.2.2.2.2.2.2.2.2.2.0.0.0.0.2.2.2.2.2.2.2.2.2.2.2.2.2.2.2.2.2.2.2.2.2.2.2.2.2.2.2.2.2.2.2.2.2.2.2.2.2.",
";.;.;.;.;.;.;.;.;.;.;.2.2.2.2.2.2.2.2.2.2.2.2.2.2.2.2.2.2.2.2.2.2.2.2.2.2.2.2.2.2.2.2.2.2.2.2.0.0.0.4.g.hXSXHXDXhXp.q.0.0.2.1.2.4.0.0.0.0.0.0.0.0.0.2.2.2.2.0.0.0.0.0.0.0.0.0.0.0.0.0.0.0.0.0.0.0.0.0.0.0.0.0.0.0.0.0.0.4.4.4.q.q.q.q.q.q.q.q.q.q.q.4.4.4.4.q.q.q.4.4.4.q.q.q.q.q.q.q.q.q.q.q.q.q.q.q.q.z.z.z.z.z.z.z.z.z.z.z.z.z.z.z.x.x.z.c.s.c.z.x.n.h.lX$Xd.c.x.x.x.x.x.x.x.x.x.x.x.z.z.z.z.x.x.z.x.x.x.c.I.U.z 8 r r e t e e e e e e e r y y y d h h h h h h h h h h h h h h h h h h h h h j j h h h h h h h h h z l l l l z z z z z z z z z z z z z z z z z z z z z z z z z z h h h h l l z z z z z l z z z l h h h z z z z l l h l z l z h h l l h h h l h h h h h g g g h g d d f d d d y y y t e q 6 6 5 q q 6 6 6 6 q 6 ; M +XI.a.m.e.M.M.M.z.x.x.x.x.x.x.x.z.c.c.x.x.x.x.m.d.yXcXA.c.x.x.x.x.x.x.z.z.z.z.z.z.z.z.z.z.z.z.q.q.q.q.z.z.q.q.q.q.q.q.q.q.q.q.q.q.q.q.q.q.q.q.4.4.4.4.q.q.q.q.q.q.q.q.q.q.q.q.q.q.q.q.q.q.0.0.0.0.0.0.q.q.0.0.0.q.0.0.0.0.0.0.0.0.0.0.0.0.0.0.0.0.0.0.0.0.0.0.0.0.0.0.0.0.0.0.0.0.0.0.0.0.4.a.4.;XSXHXHXAXXX4.q.0.2.0.2.0.0.0.0.2.2.2.2.2.2.2.0.0.0.0.2.2.2.2.2.2.2.2.2.2.2.2.2.2.2.2.2.2.2.2.2.2.2.2.2.2.2.2.2.2.2.2.2.2.2.2.2.",
";.;.;.;.;.;.;.;.;.;.;.;.2.2.2.;.2.2.2.2.2.2.2.2.2.2.2.2.2.2.2.2.2.2.2.2.2.2.2.2.2.2.2.2.2.2.2.0.0.0.0.g.hXSXHXDXhXp.q.0.0.2.2.2.4.2.0.0.0.0.0.0.0.0.2.2.2.2.0.0.0.0.0.0.0.0.0.0.0.0.0.0.0.0.0.0.0.0.0.0.0.0.0.0.4.0.0.0.4.4.4.q.4.4.q.q.q.q.4.4.q.q.4.4.4.4.q.q.q.4.4.4.4.4.q.q.q.q.q.q.q.q.q.q.q.q.q.q.q.q.z.z.z.z.z.z.z.z.z.z.z.z.z.x.x.z.c.s.c.z.M.n.h.lX$Xd.c.x.x.x.x.x.x.x.x.x.x.x.z.z.z.z.x.x.z.z.x.m.I.j.z y 8 u y e t t e e e e e e e e r y d d h h h g g g g g h h h h h h h h h h h h g g d d d h h h h j l z l l l l z z z z z z z z l z z z z z z z h l z z z z z z z z l h h h l l l z z z l l z z h h h h l z z z h h h h h h h h h h h h h h h h h h h h g g g g h g d d d d f y y y y y t e q q q 5 5 6 q 6 5 5 u 7 6 N oXOXb.e.M.M.z.z.z.z.x.x.x.x.x.z.c.c.x.x.x.x.m.d.yXcXA.c.x.x.x.x.x.x.z.z.z.z.z.z.z.z.z.z.z.z.q.q.q.q.z.z.q.q.q.q.q.q.q.q.q.4.q.q.q.q.q.q.q.q.4.4.4.4.q.q.q.q.q.q.q.q.q.q.q.q.q.q.q.q.q.q.0.0.0.0.0.0.q.q.0.0.q.q.0.0.0.0.0.0.0.0.0.0.0.0.0.0.0.0.0.0.0.0.0.0.0.0.0.0.0.0.0.0.0.0.0.0.0.0.4.a.4.;XSXHXHXAXXX4.0.4.2.0.2.0.0.0.2.2.2.2.2.2.2.2.0.0.0.0.2.2.2.2.2.2.2.2.2.2.2.2.2.2.2.2.2.2.2.2.2.2.2.2.2.2.2.2.2.2.2.2.2.2.2.2.2.",
";.;.;.;.;.;.;.;.;.;.;.;.;.2.2.2.;.2.2.2.2.2.2.2.2.2.2.2.2.2.2.2.2.2.2.2.2.2.2.2.2.2.2.2.2.2.2.0.0.0.4.p.hXSXHXGXhXp.q.0.0.2.2.2.4.2.2.2.0.2.0.0.0.0.0.2.2.2.0.0.0.0.0.0.0.0.0.0.0.0.0.0.0.0.0.0.0.0.0.0.0.0.0.0.4.4.0.0.4.4.q.q.q.4.q.4.q.q.q.q.q.4.4.4.4.4.4.q.q.q.4.4.4.4.4.4.q.q.q.q.q.q.q.q.q.q.q.q.q.q.q.q.q.q.z.z.z.z.z.z.x.z.x.x.x.z.c.s.c.z.M.n.h.lX$Xd.c.c.c.x.x.x.x.x.x.x.x.x.x.x.x.z.x.v.x.x.m.U.8.G 9 g y 6 t y q e e e e e e e e e r y y d g g g d d d d d h j j h h h h h h h h h d d d d d g h h h h j j l l l l j j j h h h h h j j j j j j z z h h h h j j z z j j j j h h h z h h j j h h j z h h h h j j h h h h h h h h h h h h h h d d g h h h h h g g d d d f d d d y y y y y y t t e e e q 6 6 q q q q 5 2 u 2 ; G oXU.b.x.x.z.z.z.z.x.x.x.x.x.z.c.c.x.x.x.x.m.d.yXcXA.c.x.x.x.x.x.x.z.z.z.z.z.z.z.z.z.z.z.z.z.q.q.q.q.z.q.q.q.q.q.4.q.q.4.4.4.4.q.q.q.q.q.q.q.4.q.q.q.q.q.q.q.q.q.q.q.q.q.q.q.q.q.q.q.0.q.q.0.q.0.0.0.0.0.0.q.q.0.0.0.0.0.0.0.0.0.0.0.0.0.0.0.0.0.0.0.0.0.0.0.0.0.0.0.0.0.0.0.0.0.0.0.0.4.a.4.;XSXHXHXAXXX4.0.4.2.0.2.0.0.0.0.0.2.2.2.2.2.2.2.0.0.2.2.2.2.2.2.2.2.2.2.2.2.2.2.2.2.2.2.2.2.2.2.2.2.2.2.2.2.2.2.2.2.2.2.2.2.2.2.",
";.;.;.;.;.;.;.;.;.;.;.;.;.2.2.2.;.2.2.2.2.2.2.2.2.2.2.2.2.2.2.2.2.2.2.2.2.2.2.2.2.2.2.2.2.2.2.2.0.0.4.g.hXSXHXGXhXp.q.0.0.2.1.2.2.2.2.2.2.2.0.0.0.0.0.0.2.2.0.0.0.0.0.0.0.0.0.0.0.0.0.0.0.0.0.0.0.0.0.0.0.0.0.0.4.4.0.0.4.4.q.q.q.4.4.4.q.q.q.q.q.4.4.4.4.4.4.q.q.q.4.4.4.4.4.4.q.q.q.q.q.q.q.q.q.q.q.q.q.q.q.q.q.q.q.z.z.z.z.z.z.z.z.x.x.z.c.s.c.x.M.n.h.lX$Xd.c.c.x.x.x.x.x.x.x.x.x.x.x.x.x.z.q.x.x.z.I.j.G 7 y 6 q y e e y e e e e e e e r r r y y d d d d d d y y d h h h h h j h h h h h h h g g g d g h h h h h h l l l l h h h h h h h h j j j j j j j j h h h h h h j j z z j j h j z z h h j j h h j z h h j z z j h h z l h h h h j h h h h h d d d g g g h h g g d d f d d d f y y y e t e e e e t t e e u 6 7 5 q 6 0 2 u 5 ; A +X4.x.x.x.z.z.z.x.x.x.x.x.z.c.c.x.x.x.x.m.d.yXcXA.c.x.x.x.x.x.x.z.z.z.z.z.z.z.z.z.z.z.z.z.q.q.q.z.z.q.q.q.q.q.4.4.4.4.4.4.4.4.q.q.q.q.q.q.4.q.q.q.q.q.q.q.q.q.q.q.q.q.q.q.q.q.q.q.0.0.q.q.q.0.0.0.0.0.0.q.q.0.0.0.0.0.0.0.0.0.0.0.0.0.0.0.0.0.0.0.0.0.0.0.0.0.0.0.0.0.0.0.0.0.0.0.0.4.a.4.rXSXHXHXAXXX4.0.4.2.0.2.0.0.0.0.0.2.2.2.2.2.2.0.0.0.2.2.2.2.2.2.2.2.2.2.2.2.2.2.2.2.2.2.2.2.2.2.2.2.2.2.2.2.2.2.2.2.2.2.2.2.2.2.",
";.;.;.;.;.;.;.;.;.;.;.;.;.;.;.;.;.;.2.2.2.2.2.2.2.2.2.2.2.2.2.2.2.2.2.2.2.2.2.2.2.2.2.2.2.2.2.2.0.0.4.p.kXSXHXGXlXp.4.0.0.2.4.1.2.2.2.2.2.2.2.2.2.2.0.0.0.2.2.2.2.2.2.2.2.0.0.0.0.0.0.0.0.0.0.0.0.0.0.0.0.0.4.4.4.4.0.0.4.4.q.q.q.q.4.4.4.q.4.4.4.4.4.4.4.4.q.q.q.q.4.4.4.4.4.q.q.4.4.q.q.q.q.q.q.q.q.q.z.q.z.q.q.q.q.z.z.z.z.z.z.z.x.x.x.x.c.s.x.x.x.m.l.fX=Xa.c.x.x.x.x.x.x.x.x.x.4.z.K.x.4.x.z.N.z.b.U.Z 6 e q q q q q q e e u e u y y y d d y y y y y y d d y d d d g g h h h h h h h h h g g d d d g g h h h h h h h h j h z z z h h h h h j j z j j z z z z z z z z j j h j h h h h h h h h h h h h h h h h h h h h h h h c c c j j h g d h h h h h h h h h h h g d d d d f d k f f y y y e e t t t t e e q q q q q 6 6 6 0 2 7 w 7 9 Z +Xa.x.z.x.z.z.m.z.x.x.x.z.c.c.x.x.x.c.B.d.eXcXF.c.x.x.x.x.x.x.z.z.z.z.z.z.z.z.z.z.z.z.z.z.z.z.q.q.q.q.q.q.q.4.4.4.4.4.4.4.4.4.4.4.q.0.4.4.4.4.q.q.q.q.q.q.q.q.q.q.q.q.q.q.q.q.q.0.0.0.0.q.q.q.q.q.0.0.0.0.0.0.0.0.0.0.0.0.0.0.0.0.0.0.0.0.0.0.0.0.0.0.0.0.0.0.0.0.0.0.0.0.0.0.0.0.4.4.4.;XFXHXHXAXk.4.0.0.2.0.2.0.2.2.2.2.2.2.2.2.2.2.2.2.2.2.2.2.2.2.2.2.2.2.2.2.2.2.2.2.2.2.2.2.2.2.2.2.2.2.2.2.2.2.2.2.2.2.2.2.2.2.2.",
";.;.;.;.;.;.;.;.;.;.;.;.;.;.;.;.;.;.2.2.2.2.2.2.2.2.2.2.2.2.2.2.2.2.2.2.2.2.2.2.2.2.2.2.2.2.2.2.0.0.4.p.kXSXHXGXlXp.4.0.0.2.4.1.2.2.2.2.2.2.2.2.2.2.2.0.0.2.2.2.2.2.2.2.2.0.0.0.0.0.0.0.0.0.0.0.0.0.0.0.0.0.4.4.4.4.0.0.4.4.q.q.4.q.4.q.4.q.4.4.4.q.4.4.q.4.q.q.q.q.4.4.4.4.q.q.q.q.4.q.q.q.q.q.q.q.q.q.q.q.q.q.z.z.q.z.z.z.z.z.z.z.x.x.x.x.c.s.x.x.x.n.l.fX=Xp.c.x.x.x.x.x.x.x.z.v.x.z.x.z.4.x.K.1.R.+XZ e y q q q q q q q 8 e e e y y y y d d d d y y d d d d d d d d g g h h h h j j h h h h g g g g g g h h h h h h h h j h z z z h h h h h h h h h h j j j z z z z j j h h h h h h h h h h h h h h h h h h h h h h h h h h h h h j j h h h h h h h h h h g g g g d d d d d f g k f y y r r e y t t t t e e e e e e e q q q 0 0 5 w 7 9 y Z +X4.K.x.z.v.1.x.x.x.x.z.c.c.x.x.x.c.m.d.eXcXF.c.x.x.x.x.x.x.z.z.z.z.z.z.z.z.z.z.z.z.z.z.z.z.q.q.q.q.q.q.q.4.4.4.4.4.4.4.4.4.4.4.4.0.0.4.4.4.4.q.q.q.q.q.q.q.q.q.q.q.q.q.q.q.q.q.0.0.0.0.q.q.0.0.0.0.0.0.0.0.0.0.0.0.0.0.0.0.0.0.0.0.0.0.0.0.0.0.0.0.0.0.0.0.0.0.0.0.0.0.0.0.0.0.4.4.4.;XFXHXHXAXk.4.0.0.2.0.2.0.2.2.2.2.2.2.2.2.2.2.2.2.2.2.2.2.2.2.2.2.2.2.2.2.2.2.2.2.2.2.2.2.2.2.2.2.2.2.2.2.2.2.2.2.2.2.2.2.2.2.2.",
";.;.;.;.;.;.;.;.;.;.;.;.;.;.;.;.;.;.;.2.;.;.2.2.2.2.2.2.2.2.2.2.2.2.2.2.2.2.2.2.2.2.2.2.2.2.2.0.0.0.4.p.kXSXHXGXlXp.4.0.0.2.2.1.2.2.2.2.2.2.2.2.2.2.0.0.0.0.2.2.0.2.2.2.2.0.0.0.0.0.0.0.0.0.0.0.0.0.0.0.0.0.4.4.4.4.0.0.4.4.q.q.4.q.q.q.q.q.q.q.q.q.q.q.q.q.q.q.q.q.q.4.q.q.q.q.q.q.q.q.q.q.q.q.q.q.q.q.q.z.q.z.z.z.z.z.z.z.z.z.z.z.x.x.x.x.c.s.x.x.x.n.l.fX=Xp.c.x.x.x.x.x.x.x.z.m.x.z.z.x.x.x.z.n.u.G 8 6 y e q q q q q e e e e r y y y y y d d d d d d d d d d d d g g g g g h h h h h h h h g g g g g g g g h h h h h h h h j j j j j j j j h h h j j j j j j j j j j j h h h j j j j h h h h h h h h h h h h h h h h h h h d d h h h h h h h h h h h h d d d d d d d d y y r y y y y y y y y y r e t e e e e e e e e e e w 0 0 q q 6 6 6 7 Z +Xs.a.v.z.U.w.x.x.x.x.c.c.x.x.x.c.B.d.eXcXA.c.x.x.x.x.x.x.z.z.z.z.z.z.z.z.z.z.z.z.z.z.z.z.q.q.q.q.q.q.q.q.4.4.4.4.q.4.4.0.q.4.4.4.4.4.4.4.4.4.q.q.q.q.q.q.q.q.q.q.q.q.q.q.q.q.0.0.0.0.0.0.0.0.0.0.0.0.0.0.0.0.0.0.0.0.0.0.0.0.0.0.0.0.0.0.0.0.0.0.0.0.0.0.0.0.0.0.0.0.0.0.0.0.4.4.4.rXFXHXHXAXk.4.0.0.2.0.2.0.2.2.2.2.2.2.2.2.2.2.2.2.2.2.2.2.2.2.2.2.2.2.2.2.2.2.2.2.2.2.2.2.2.2.2.2.2.2.2.2.2.2.2.2.2.2.2.2.2.2.2.",
";.;.;.;.;.;.;.;.;.;.;.;.;.;.;.;.;.;.;.;.;.;.2.2.2.2.2.2.2.2.2.2.2.2.2.2.2.2.2.2.2.2.2.2.2.2.2.0.0.0.4.p.kXSXHXGXlXp.4.0.0.2.2.1.2.2.2.2.2.2.2.2.2.2.0.0.0.0.2.2.0.2.2.2.2.0.0.0.0.0.0.0.0.0.0.0.0.0.0.0.0.0.4.4.4.4.0.0.4.4.q.q.q.q.q.q.q.q.q.q.q.q.q.q.q.q.q.q.q.q.q.q.q.q.q.q.q.q.q.q.q.q.q.q.q.q.q.q.q.q.q.q.z.z.z.z.z.z.z.z.z.z.x.x.x.x.c.s.x.x.x.n.l.fX=Xd.c.x.x.x.x.x.x.x.x.x.z.x.m.x.x.z.d.OXZ 9 e f 6 t e e e e e e e e e r y y y y y d d g d d d d d d d g g g g g g g h h h h h h h h g g g h h h g g h h h h h h h h j j j j j j j j h h j z z z z j j j j j j j h h h h j j j j h h h h h h h h h j j j h h h h h h h h h h h h g g h h h h h d d d d d d d d d y y r r r y y y y y r r r y t e e e e e e q q e e e w w q q e e 6 7 7 Z k.n.a.m.b.M.x.x.x.x.c.c.x.x.x.c.B.d.yXcXA.x.x.x.x.x.x.x.z.z.z.z.z.z.z.z.z.z.z.z.z.z.z.z.q.q.q.q.q.q.q.q.4.4.4.q.q.4.0.0.4.4.4.4.4.4.4.4.4.4.q.q.q.q.q.q.q.q.q.q.q.q.q.q.q.q.0.0.0.0.0.0.0.0.0.0.0.0.0.0.0.0.0.0.0.0.0.0.0.0.0.0.0.0.0.0.0.0.2.2.2.2.0.0.2.2.0.0.0.0.0.0.0.4.4.4.4.rXFXHXHXAXk.4.0.0.2.0.2.0.2.2.2.2.2.2.2.2.2.2.2.2.2.2.2.2.2.2.2.2.2.2.2.2.2.2.2.2.2.2.2.2.2.2.2.2.2.2.2.2.2.2.2.2.2.2.2.2.2.2.2.",
";.;.;.;.;.;.;.;.;.;.;.;.;.;.;.;.;.;.;.;.;.;.2.2.2.2.2.2.2.2.2.2.2.2.2.2.2.2.2.2.2.2.2.2.2.2.2.0.0.0.4.p.kXSXHXGXlXp.4.0.0.2.2.1.2.2.2.2.2.2.2.2.2.2.2.0.0.0.0.2.0.0.2.2.2.0.0.0.0.0.0.0.0.0.0.0.0.0.0.0.0.0.4.4.4.4.0.0.4.4.4.4.q.q.q.q.q.q.q.q.q.q.q.q.q.q.q.q.q.q.q.q.q.q.4.4.4.4.q.q.q.q.q.q.q.q.q.q.q.z.q.z.z.z.z.z.z.z.z.z.z.z.z.x.z.x.c.s.x.x.x.n.l.lX=Xd.c.x.x.x.x.x.x.x.m.z.z.x.x.z.x.b.+XG e 8 r e 6 6 e e e e e e e e y y y y y y y y d d d d d d d g g g g g g g g g g g h h h h h h g g g j h h g g g g h h h j j j z z j j j h h h h h h j z j j j j j j j j j j h h h j j j j h h h h j j j j j j j j j h h h h h h h h h h g d d g g h h h g g g d d g g g d y y y y y y t e e e e e u u y r e e e e e q q q q e u w q q q 0 5 5 6 ; Z +XU.b.M.z.x.x.x.x.c.c.x.x.x.x.B.d.yXcXA.x.x.x.x.x.x.x.z.z.z.z.z.z.z.z.z.z.z.z.q.q.z.z.q.q.q.q.q.q.q.q.q.q.4.4.4.4.4.4.4.4.4.4.4.4.4.4.4.4.q.q.q.q.q.q.q.q.q.q.q.q.q.q.0.0.0.0.0.0.0.0.0.0.0.0.0.0.0.0.0.0.0.0.0.0.0.0.0.0.0.0.0.0.0.0.0.0.2.2.0.0.0.0.2.2.0.0.0.0.0.0.0.4.4.4.4.rXSXHXHXVXk.4.q.0.2.0.2.0.2.2.2.2.2.2.2.2.2.2.2.2.2.2.2.2.2.2.2.2.2.2.2.2.2.2.2.2.2.2.2.2.2.2.2.2.2.2.2.2.2.2.2.2.2.2.2.2.2.2.2.",
";.;.;.;.;.;.;.;.;.;.;.;.;.;.;.;.;.;.;.;.;.;.2.2.2.2.2.2.2.2.2.2.2.2.2.2.2.2.2.2.2.2.2.2.2.2.2.0.0.0.4.p.kXSXHXGXlXp.4.0.0.2.2.1.2.2.2.2.2.2.2.2.2.2.0.0.0.0.2.2.0.0.2.2.2.0.0.0.0.0.0.0.0.0.0.0.0.0.0.0.0.0.4.4.4.4.0.0.4.4.4.4.q.q.q.q.q.q.4.q.4.4.q.q.q.q.q.q.q.q.q.q.q.q.4.4.4.4.q.q.q.q.q.q.q.q.q.q.z.z.z.z.q.q.z.z.z.z.z.z.z.z.z.x.x.x.c.s.x.x.x.n.l.lX=Xd.c.x.x.x.x.x.x.x.x.z.x.m.x.x.m.U.G e e y e q e 6 q e e e 8 e e r y y y y y y y y y y y y d d d g g g g g g g g g g g h h h h h g g g g h h g g g g g h h h j j j z j j h h h h h g h h h h h h h j j j j j j h h h h h h h h h h j j j h h h h h h h h h h h h h h h h d d d d d d g g h h h g g d g g g g g d y d d y y y e t y e e u u y r t e e e e e e e q q a 6 q q q 2 2 5 7 7 ; A +XU.m.z.x.x.x.c.c.c.x.x.x.x.B.d.yXcXA.c.x.x.x.x.x.x.z.z.z.z.z.z.z.z.z.z.z.z.q.q.z.z.q.q.q.q.q.q.q.q.q.q.4.4.4.4.4.4.4.4.4.4.4.4.4.4.4.4.q.q.q.q.q.q.q.q.q.q.q.q.q.q.0.0.0.0.0.0.0.0.q.q.0.0.0.0.0.0.0.0.0.0.0.0.0.0.0.0.0.0.0.0.0.0.0.0.2.2.0.0.0.0.2.2.0.0.0.0.0.0.0.4.4.4.4.rXSXHXHXVXk.4.q.0.2.0.2.0.2.2.2.2.2.2.2.2.2.2.2.2.2.2.2.2.2.2.2.2.2.2.2.2.2.2.2.2.2.2.2.2.2.2.2.2.2.2.2.2.2.2.2.2.2.2.2.2.2.2.2.",
";.;.;.;.;.;.;.;.;.;.;.;.;.;.;.;.;.;.;.;.2.2.2.2.2.2.2.2.2.2.2.2.2.2.2.2.2.2.2.2.2.2.2.2.2.2.2.0.0.0.4.p.kXSXHXGXlXp.4.0.0.2.2.1.2.2.2.2.2.2.2.2.0.0.0.0.0.0.0.0.0.0.0.2.2.0.0.0.2.2.2.2.0.0.0.2.0.0.0.0.0.0.4.4.4.4.0.0.4.4.4.4.q.q.q.q.4.4.4.4.4.4.4.4.q.q.q.q.q.4.q.q.q.4.4.4.4.4.4.q.q.q.q.q.q.q.q.q.q.q.q.q.q.q.q.z.z.z.z.z.z.z.z.x.x.x.c.s.x.x.x.n.l.lX=Xd.c.x.x.x.x.x.x.x.z.z.m.x.x.m.x. .6 t t q e t e e 6 8 8 e e e r y y y y y y y y y y y y y d d g g g g g g g g h h g g h h h h h h g g g g g g h g g g h h h j j j j j j h h h h h h h h h h h h h h h h h h h h h h h h h h h h h h h h h h h h h h h h h h h h h h h h g d d g h h h h h h h g d d d g g g g d y y y y y y y y p u u y y y y t e e e e e e e q q 6 6 6 q q 5 2 5 3 7 9 ; L +X1.N.x.x.x.c.c.c.v.M.x.x.B.d.yXcXA.c.x.x.x.x.x.x.z.z.z.z.z.z.z.z.z.z.z.z.q.q.z.z.q.q.q.q.q.q.q.4.q.q.4.4.4.q.4.4.4.4.4.q.4.4.4.4.0.0.q.q.q.q.q.q.q.q.q.q.q.q.q.q.0.0.q.q.0.0.0.0.q.q.0.0.0.0.0.0.0.0.0.0.0.0.0.0.0.0.0.0.0.0.0.0.0.0.2.2.2.0.0.0.2.2.2.2.2.2.0.0.0.4.4.4.4.rXSXHXHXVXk.4.q.0.2.0.2.0.2.2.2.2.2.2.2.2.2.2.2.2.2.2.2.2.2.2.2.2.2.2.2.2.2.2.2.2.2.2.2.2.2.2.2.2.2.2.2.2.2.2.2.2.2.2.2.2.2.2.2.",
";.;.;.;.;.;.;.;.;.;.;.;.;.;.;.;.;.;.2.2.2.2.2.2.2.2.2.2.2.2.2.2.2.2.2.2.2.2.2.2.2.2.2.2.2.2.2.0.0.0.4.p.aXZXHXGXvXl.4.0.0.2.2.2.2.2.2.2.2.2.2.2.0.0.0.0.0.0.0.0.0.0.0.0.2.0.0.0.2.2.2.2.0.0.2.2.0.0.0.0.0.0.4.4.4.4.0.0.4.4.4.q.q.q.4.4.4.4.4.4.4.4.4.4.q.q.q.4.4.4.q.q.q.4.4.4.4.4.4.q.q.q.q.q.q.q.q.q.q.q.q.z.q.q.q.z.z.z.z.z.z.z.z.z.z.x.c.c.x.x.x.n.l.lX=Xd.c.c.x.x.x.x.x.x.x.x.c.z.b.U.( r e u q q e e 6 6 8 8 e e e y y y y y y y y y y y y y y y d g g g g g g g g g g h g g h h h j h h h g g g g g g g g g h h h h j j h h h h h h h h h h h h h h h h h h h h h h h g h h h h h h h h h h h h h g g d h h h h h g g g j h h h g g g h h h h h h g d d d d g g g g y y y y y y e e e r u u y y y y t t e e e e e q q 6 6 6 6 7 7 5 2 < 3 ; 9 9 9 x I.a.x.x.x.c.c.c.M.v.x.x.v.d.eXcXY.c.x.x.x.x.x.x.z.z.z.z.z.z.z.z.z.z.z.z.z.q.z.z.q.q.q.q.q.q.q.4.4.q.4.4.4.0.0.0.4.4.4.q.q.4.4.4.q.0.q.q.q.q.q.q.q.q.q.q.q.q.q.q.0.0.q.q.0.0.0.0.q.q.0.0.0.0.0.0.0.0.0.0.0.0.0.0.0.0.0.0.0.0.0.0.0.0.2.2.2.2.2.2.2.2.2.2.2.2.0.0.2.4.3.4.3.rXSXHXHXVXXX4.q.0.2.0.2.0.2.2.2.2.2.2.2.2.2.2.2.2.2.2.2.2.2.2.2.2.2.2.2.2.2.2.2.2.2.2.2.2.2.2.2.2.2.2.2.2.;.2.;.2.2.2.2.2.2.2.2.",
";.;.;.;.;.;.;.;.;.;.;.;.;.;.;.;.;.;.;.;.;.2.2.2.2.2.;.;.;.;.;.;.2.2.2.2.;.2.2.2.2.2.2.2.2.5.2.2.2.5.4.<.aXZXGXDXvXl.3.2.2.2.2.2.2.2.2.2.2.2.2.2.2.2.2.2.2.2.2.2.2.2.2.2.2.2.2.2.2.2.2.2.0.2.2.2.2.2.2.2.2.2.2.2.4.4.0.0.4.4.q.q.4.4.4.4.4.4.4.4.4.4.4.4.4.4.4.4.4.4.4.4.q.q.q.q.q.q.4.q.q.q.q.q.q.q.q.q.q.q.q.z.z.z.z.z.z.z.z.z.x.x.x.x.x.x.x.x.c.x.m.n.f.sX;Xp.c.c.a.z.m.M.e.M.z.v.a.a.OXI r e e e e e e e e e e e e r y y y y y y y y y y y y y y y y d d d d d g g g g g g g h h h h h g g g h h h h h h g g g g g g g g g g h h h h h g g g j j h h h g g g j j j j g g g h g g g h h h h h g h h h h g g g g g h h h g g g h h g g g g h h h h h g g g h g g d y y y y y y r r r r r r r r y y y y y y y y y y e e q q q 6 5 7 7 2 2 2 2 2 7 ; ; 6 9 7 N oXx.q.z.m.c.z.M.B.x.c.v.f.eXcXY.c.x.x.x.x.x.x.x.x.z.z.z.z.z.z.z.z.z.z.z.z.z.z.z.q.q.q.q.q.q.4.4.4.4.4.4.4.4.4.4.4.4.4.4.4.4.4.4.4.q.q.0.4.4.0.q.q.q.q.q.q.q.q.q.q.0.0.0.0.0.0.0.0.0.0.0.0.0.0.0.0.2.2.2.0.0.0.2.2.2.2.2.2.2.2.2.0.0.0.2.2.0.0.0.0.2.2.0.0.2.2.2.2.4.4.3.rXFXHXHXVXXX4.4.q.0.0.0.1.2.2.2.2.2.2.2.2.2.2.2.2.2.2.2.2.2.2.2.2.2.2.2.2.2.2.2.2.2.2.2.2.2.2.2.2.2.2.2.;.;.;.2.2.2.2.2.2.2.2.2.",
";.;.;.;.;.;.-.;.;.;.;.;.;.;.;.;.;.;.;.;.;.2.2.2.;.;.;.;.;.;.;.;.2.2.2.2.;.2.2.2.2.2.2.2.2.2.2.2.2.0.4.<.aXZXGXDXvXl.5.2.2.2.0.2.2.2.2.2.2.2.2.2.2.2.2.2.2.2.2.2.2.2.2.2.2.2.2.2.2.2.2.2.0.2.2.2.2.2.2.2.2.2.2.2.4.4.0.0.4.4.q.q.4.4.4.4.4.4.4.4.4.4.4.4.4.4.4.4.4.4.q.4.q.4.q.q.q.q.4.q.q.q.q.q.q.q.q.q.q.q.z.q.z.z.q.z.z.z.z.z.x.x.z.x.x.x.x.x.x.z.m.n.f.pX;Xp.s.V.c.z.z.w.M.m.m.a.c.Y.P g 6 u e e e e e e e e e e r r y y y y y y y y d d d d g d y y y y d g d d g g g g g g h h h g g g g g g h h h j h g g g g g g g h g g h h h h g g g g h h h h h h g g g g h h g g g h h h h h h h j j j h h h h h h h g h h h h h h h h h h h h h h h h h h g g g g g g g d d d d y y d d y y y y y y y y y y r r e e t e e q q q q q 6 7 2 7 7 5 5 7 6 7 6 6 < ; q j 6.K.M.4.S.c.1.m.x.c.v.s.-XcXY.c.x.x.x.x.x.x.x.x.z.z.z.z.z.z.z.z.z.z.z.z.z.z.z.q.q.q.q.q.q.4.4.4.4.4.4.4.0.0.4.4.4.4.q.q.4.4.4.4.q.q.q.4.4.q.q.q.q.q.q.0.0.q.q.q.0.0.0.0.0.0.0.0.0.0.0.0.0.0.0.0.2.2.2.2.0.0.2.2.2.2.2.2.2.2.2.2.0.0.2.2.2.0.0.0.2.0.0.0.2.2.2.2.4.3.3.rXDXHXHXVXk.a.4.q.0.0.0.1.2.2.2.2.2.2.2.2.2.2.2.2.2.2.2.2.2.2.2.2.2.2.2.2.2.2.2.2.2.2.2.2.2.2.2.2.2.2.;.;.;.;.2.2.2.2.2.2.2.2.2.",
";.;.;.;.;.;.;.;.;.;.;.;.;.;.;.;.;.;.;.;.;.2.2.2.2.;.;.;.2.;.2.2.2.2.;.;.;.;.2.2.2.2.2.2.2.2.2.2.2.0.4.6.aXZXGXDXvXl.5.2.2.2.0.2.2.2.2.2.2.2.2.2.2.2.2.2.2.2.2.2.2.2.2.2.2.2.2.2.2.2.2.2.0.0.2.2.0.2.2.2.0.0.4.4.4.0.0.0.4.4.4.q.4.4.0.4.4.0.q.4.4.4.4.0.4.4.q.q.q.q.q.q.4.4.4.4.q.q.4.q.q.q.q.q.q.q.q.q.q.z.z.q.z.q.z.z.z.z.z.z.x.x.z.x.x.x.x.x.x.z.c.s.s.sX;Xp.s.c.m.x.x.x.x.v.z.m.U.I g 6 e e e q e e e e e e e e y y y y y y d d d d d d d d g g d y y y d g d d g g g g g g g g g g g g g g g g h h j j h g h h j j h h h h h h h g g g h h g g h h h h h h g h j h g g h j j j j j j j j j z j h h g h j j g h h j j j h h h h h h h h h h h h h h g h h g g g g g g g d d g g d d d y y y y y y y y r e e e e q q q q q q 0 6 7 7 7 7 5 5 7 6 w 6 7 7 7 7 V U.T.4.c.C.z.x.v.x.v.s.-XxXY.m.x.x.x.x.x.z.x.x.z.z.z.z.z.z.z.z.z.z.z.z.z.z.q.q.q.q.q.q.q.q.4.4.4.4.4.q.0.4.4.4.4.4.q.4.4.4.4.4.q.q.0.0.0.q.q.q.q.q.q.0.0.0.q.q.0.0.0.0.0.0.0.0.0.0.0.0.0.0.0.0.2.2.2.0.0.0.0.0.0.0.2.2.2.2.2.2.0.0.2.2.2.2.0.0.2.2.0.0.0.0.2.2.4.3.3.rXDXHXHXVXk.a.4.0.0.0.0.1.2.2.2.2.2.2.2.2.2.2.2.2.2.2.2.2.2.2.2.2.2.2.2.2.2.2.2.2.2.2.2.2.2.2.2.2.2.2.2.2.;.;.;.2.2.2.2.2.2.2.2.",
";.;.;.;.;.;.;.;.;.;.;.;.;.;.;.;.;.;.;.;.;.2.2.2.2.;.;.;.2.2.2.2.2.2.;.;.;.;.2.2.2.2.2.2.2.2.2.2.2.0.4.6.aXZXGXDXvXl.5.2.2.2.0.2.2.2.2.2.2.2.2.2.2.2.2.2.2.2.2.2.2.2.2.2.2.2.2.2.2.2.2.2.0.0.2.2.0.2.2.2.0.0.4.4.4.0.0.0.4.4.4.4.q.q.q.4.4.0.4.4.4.q.q.q.4.q.q.q.q.q.q.q.4.4.4.4.q.q.4.q.q.q.q.q.q.q.q.q.z.z.z.z.q.z.z.z.z.z.z.z.x.x.z.x.x.x.x.x.x.z.c.s.f.sX;Xp.c.z.x.m.x.v.c.a.s.+XI r 8 y e e e e e e e e e t e e y y y y y y d d d d d d d d g g d d d d d g g g g g g g g g g g g g g g g g g g h j j j h h j j j j j j j h h h h g g g h h g h h h h h h h h j j j h h j j j j j j j j j j j j h h g g h j g g h j j h h g h h h h h h h h h h h h h h h h h g g g g g g g d d d y y y y y y y y y y y y y e e e q q q q q q 6 7 7 7 7 7 7 7 6 6 6 6 w q 6 8 V j.Y.a.s.N.M.v.x.N.c.-XxXY.M.x.x.x.x.x.z.x.x.z.z.z.z.z.z.z.z.z.z.q.z.z.z.q.q.q.q.q.q.q.q.4.4.4.4.4.q.q.4.4.4.4.4.4.4.4.4.4.4.q.q.0.0.0.q.q.q.q.q.q.0.0.0.q.q.0.0.0.0.0.0.0.0.0.0.0.0.0.0.0.0.2.2.2.0.0.0.0.0.0.0.0.0.2.2.2.0.0.0.2.2.2.2.0.0.2.2.0.0.0.0.2.2.4.3.3.iXDXHXHXVXk.4.4.0.9.0.5.1.2.2.2.2.2.2.2.2.2.2.2.2.2.2.2.2.2.2.2.2.2.2.2.2.2.2.2.2.2.2.2.2.2.2.2.2.2.2.2.2.;.;.2.2.2.2.2.2.2.2.2.",
";.;.;.;.;.;.;.;.;.;.;.;.;.;.;.;.;.;.;.;.;.2.2.2.2.2.;.;.;.;.2.2.2.2.;.;.;.;.2.2.2.2.2.2.2.2.2.2.2.0.4.6.aXZXGXDXvXl.4.2.2.2.0.2.2.2.2.2.2.2.2.2.2.2.2.2.2.2.2.2.2.2.2.2.2.2.2.2.2.2.2.2.0.0.0.2.0.0.2.2.2.2.4.4.2.2.4.4.4.4.4.4.4.4.4.4.4.4.4.4.4.4.0.q.4.q.q.q.q.q.4.4.q.q.q.4.4.4.4.q.q.q.q.q.q.q.q.q.z.z.z.z.q.q.z.z.z.z.z.z.x.z.z.x.x.x.x.x.x.z.n.f.f.sX;Xp.R.q.z.v.c.z.c.s.Y.I d 7 u e 6 t e t e e e e e e e e t y y y y y y d d d d d d d d d d g g g g g g g g g g g h h g g g g g g g g g g h j j j h h j j j j j j j j j h h g g h h h j j j j h h h h h h h h g g g h j j j j j j j j j j h h h g g g g g g g g g g g g h h h h h g g h h h h h h h h h g g g g g g d y y y y y y y y y y y d y y y y y e e q q q q q q q 6 5 7 7 7 2 5 5 7 7 7 6 0 6 8 9 V U.F.a.z.B.v.x.B.c.-XxXY.x.x.x.x.x.x.x.x.x.z.z.z.z.z.z.z.z.z.z.q.q.z.z.q.q.q.q.q.q.q.q.q.q.4.4.4.4.0.4.4.4.4.4.4.4.4.4.q.q.q.q.0.0.0.0.0.q.q.q.q.0.0.0.q.0.0.0.0.0.0.0.0.0.0.0.0.0.0.0.0.0.0.0.0.0.2.2.0.0.0.0.2.2.2.2.0.0.2.2.2.2.2.2.2.2.2.2.2.2.0.0.0.2.4.3.p.rXDXHXHXVXk.a.4.q.9.0.0.1.2.2.2.2.2.2.2.2.2.2.2.2.2.2.2.2.2.2.2.2.2.2.2.2.2.2.2.2.2.2.2.2.2.2.2.2.2.;.;.2.;.;.;.2.2.2.2.2.2.2.2.",
";.;.;.;.;.;.;.-.;.;.;.;.;.;.;.;.;.;.;.;.;.2.2.2.2.2.;.;.;.;.2.2.2.2.;.;.;.;.2.2.2.2.2.2.2.2.2.2.2.0.4.<.aXZXGXDXvXl.4.2.2.2.0.2.2.2.2.2.2.2.2.2.2.2.2.2.2.2.2.2.2.2.2.2.2.2.2.2.2.2.2.2.0.0.2.2.0.0.2.2.2.2.4.4.2.2.2.4.4.4.4.4.4.4.4.4.4.4.4.4.4.4.0.4.4.q.q.q.q.q.4.4.q.q.q.q.4.4.4.q.q.q.q.q.q.q.q.q.z.z.z.z.q.q.z.z.z.z.z.z.x.x.z.x.x.x.x.x.x.z.n.f.f.sX;Xd.U.w.M.v.z.c.S.I.8.y 9 u u 6 e e e e e e e e q q e t y y y y y y y d d d d d d d y d g g g g g g g g g g g g g h h h h h h h h h g h h h h j j j j j j j j j j j j h h h h h h h j j j h h h h h j j h h h h h h h h h j j j j j h h h h h g g g g g g g g g g g h h h h h h h h h h h h h h h h g g g g g g g d d y d d d d d d y y y y y y y y y t e e e e e e e q q 6 6 5 7 2 5 5 7 5 7 2 7 6 a 8 8 M p.D.M.w.x.x.B.z.-XxXY.x.x.x.x.x.x.x.x.x.z.z.z.z.z.z.z.z.z.z.q.q.z.z.q.q.q.q.q.q.q.q.q.q.4.4.4.4.0.4.4.4.4.4.4.q.4.4.q.4.q.q.0.q.q.q.0.0.q.q.q.0.0.0.q.q.0.0.0.0.0.0.0.0.0.0.0.0.0.0.0.0.0.0.0.0.2.2.2.0.0.0.2.2.2.2.0.0.2.2.2.2.2.2.2.2.2.2.0.2.0.0.0.2.4.3.p.iXDXLXHXVXk.a.4.0.0.0.0.1.2.2.2.2.2.2.2.2.2.2.2.2.2.2.2.2.2.2.2.2.2.2.2.2.2.2.2.2.2.2.2.2.2.2.2.2.2.;.;.;.;.;.;.2.2.2.2.2.2.2.2.",
";.;.;.;.;.;.;.;.;.;.;.;.;.;.;.;.;.;.;.;.;.2.2.2.2.2.2.2.;.;.;.2.2.2.;.;.;.;.2.2.2.2.2.2.2.2.2.2.2.0.4.<.aXZXGXDXvXl.4.2.2.2.0.2.2.2.2.2.2.2.2.2.2.2.2.2.2.2.2.2.2.2.2.2.2.2.2.2.2.2.2.2.0.0.0.0.0.0.0.2.2.2.4.4.2.2.2.4.4.4.4.4.4.4.4.q.4.4.4.4.4.4.4.4.4.q.q.q.q.4.4.4.q.q.q.q.4.q.4.q.q.q.q.q.q.q.q.q.q.q.z.z.z.z.z.z.z.z.z.z.x.x.z.z.x.x.x.x.x.z.c.f.f.sX;Xd.U.e.v.v.c.F.I.8.j 7 6 u 6 e k q q q q q q q q q e t y y y y y y d d d d d d d d d d g g g g g g g g g g g g h h h h h h h h h h j h h h h h j j j j j j j j j j j j h h h h h h h h h h h h j j j j j j j j j j h h h j j j j j j j j j j h g g g g g g g g g h h h j j h h h h h h h h h h h h h g g g g g g g d d d d d d d g d d d d y y y y r t y y y t e e e e e q q q 6 7 5 5 5 5 5 5 5 5 7 a 6 7 N j.R.w.v.x.B.d.-XxXA.c.x.x.x.x.x.x.x.x.z.z.z.z.z.z.z.z.z.z.q.z.z.z.q.q.q.q.q.q.q.4.q.q.4.4.4.4.0.q.4.4.4.4.4.0.4.4.4.4.0.0.0.q.q.0.q.q.q.q.q.0.0.0.q.q.2.2.2.2.0.0.0.2.0.0.0.0.0.0.0.0.0.0.2.2.2.2.0.0.0.2.2.2.0.0.0.0.2.2.2.2.2.2.2.2.0.0.0.0.0.0.0.4.4.3.p.iXDXHXHXVXk.4.4.0.9.0.2.1.2.2.2.2.2.2.2.2.2.2.2.2.2.2.2.2.2.2.2.2.2.2.2.2.2.2.2.2.2.2.2.2.2.2.2.2.2.;.;.;.;.;.;.2.2.2.2.2.2.2.2.",
";.;.;.;.;.;.;.;.;.;.;.;.;.;.;.;.;.;.;.;.;.;.2.2.2.2.2.2.;.;.2.2.2.2.;.;.;.;.2.2.2.2.2.2.2.2.2.2.2.0.4.<.aXZXGXDXvXl.4.2.2.2.0.2.2.2.2.2.2.2.2.2.2.2.2.2.2.2.2.2.2.2.2.2.2.2.2.2.2.2.2.2.0.0.0.0.0.0.0.0.2.2.4.4.2.2.2.4.4.4.4.4.4.4.4.0.0.4.4.4.4.4.4.4.4.q.q.q.q.4.4.4.q.q.q.q.q.q.4.q.q.q.q.q.q.q.q.q.q.q.z.q.z.z.z.z.z.z.z.z.x.x.z.x.x.x.x.x.x.z.c.f.f.sX;Xd.R.M.v.z.a.Y.8.i 6 e u q e q e e q q q e e e e e t t y y i i i y d d d d d d d d g g g g g g g g h g g g g h h j j j j j j j j j j j h g h h j j h j j j j j j j j j j h h h g g g g h h j j j j h g g g h j j j h h h j j j j j j j j j j j h h g g g g g h j j h h j j j h h h h h h h h h h h h g g g g g g g g g g g g d d d g d d d y y r y e e r y y y y t t t e t t e q q 6 w 6 7 5 w 0 7 5 7 u 6 ; N oX+Xn.x.m.d.yXxXF.c.x.x.x.x.x.x.x.x.z.z.z.z.z.z.z.z.z.z.q.z.z.z.q.q.q.q.q.q.q.4.4.q.4.4.4.4.q.q.4.4.4.4.0.0.4.4.4.4.q.0.q.q.q.q.q.q.q.q.q.0.0.q.q.q.2.2.2.2.0.0.2.2.0.0.0.0.0.0.0.0.0.2.2.2.2.2.0.0.0.0.2.2.0.0.0.0.2.2.2.2.2.2.2.2.0.0.0.0.0.0.0.4.4.4.p.iXDXHXHXVXk.4.4.0.9.9.2.1.2.2.2.2.2.2.2.2.2.2.2.2.2.2.2.2.2.2.2.2.2.2.2.2.2.2.2.2.2.2.2.2.2.2.2.2.2.;.;.;.2.;.;.2.2.2.2.2.2.2.2.",
";.;.;.;.-.-.-.-.;.;.;.;.;.;.;.;.;.;.;.;.;.;.;.;.;.;.;.;.;.;.;.;.;.;.2.2.2.2.2.2.2.2.2.2.2.2.2.2.2.2.4.<.tXZXGXDXcXl.5.2.2.2.0.2.2.2.2.2.2.2.2.2.2.2.2.2.2.2.2.2.2.2.2.2.2.2.2.2.2.2.2.2.2.2.2.2.2.2.2.2.0.2.4.4.2.4.4.2.4.4.4.4.q.4.4.4.4.4.q.4.4.4.4.4.0.0.4.4.4.4.q.q.q.q.q.q.q.q.q.q.q.q.q.q.q.q.q.q.z.z.q.q.z.z.z.z.z.z.z.z.z.x.z.x.x.x.x.x.x.c.c.n.j.iX;Xf.m.B.q.c.Y.X.g 7 u a w q e t e e e e e e e e e y y y i i d d y y g d d d d g h h h h h h h h h h h h g g g h j j j j j j j j j h h g g g g h h h h h j j j j j j j j j j j j h h h j j j j j j j g g g h h h j j h h h h h h j j j j j j j j z z j j j h g g h h z z z j j h h h h h h j h h h h g h h h h h g d d d g g h h h h g d d d d d d d y y y y y y y y y y y t t e e e e e q 6 6 0 6 0 5 w 5 w q 7 l oX+Xd.R.j.yXxXh.c.x.x.x.x.x.x.x.z.z.z.z.z.z.z.z.z.z.z.z.z.z.z.q.q.z.z.q.q.q.q.q.q.q.q.q.4.4.4.4.4.4.4.4.4.4.4.4.4.q.q.0.0.0.0.0.0.q.q.q.q.q.0.0.4.0.0.0.0.2.2.2.2.2.2.0.0.0.0.0.0.0.0.0.2.2.2.0.0.2.2.2.2.2.2.2.2.2.2.2.2.2.2.2.2.2.2.2.2.2.2.2.2.5.3.3.iXSXHXLXVXk.4.4.0.9.;.2.1.2.2.2.2.2.2.2.2.2.2.2.2.2.2.2.2.2.2.2.2.2.2.2.2.2.2.2.2.2.;.;.2.;.;.2.2.2.;.;.;.;.;.2.2.2.2.2.2.2.2.2.",
";.;.;.;.-.-.-.;.;.;.;.;.;.;.;.;.;.;.;.;.;.;.;.;.;.;.;.;.;.;.;.;.;.;.2.;.2.2.2.2.2.2.2.2.2.2.2.2.2.2.4.6.tXZXGXDXcXl.5.2.2.2.0.2.2.2.2.2.2.2.2.2.2.2.2.2.2.2.2.2.2.2.2.2.2.2.2.2.2.2.2.2.2.2.2.2.2.2.2.2.0.2.4.4.2.2.4.4.4.4.4.4.0.0.4.4.4.4.q.q.4.4.4.4.0.4.4.4.4.4.q.q.q.q.q.q.q.q.q.q.q.q.q.q.q.q.q.q.q.q.q.q.z.z.z.z.z.z.z.z.z.x.z.x.x.x.x.x.x.c.c.d.f.sXrXf.S.4.m.%XX.d e u u a w q e e e e e e e e e e y y y y y y y y d d g g d d g h h h h h h h h h h h g g g g g g g h h h h h h h g g g g g h j j h h j j j j j j j j j j j j j h h h h h h h h h h h g g g g g g j j h h j j h h h h g g h j j j j j j j j h h h h h h h j j h h h h h j j j j j j h h h h h h h h h d d d g g g d d d d g d g g g g g g g g d g d g y y y y y y y t e e q q q q q q w w 5 6 q 7 7 z oX+XU.<.eXbXs.C.x.x.x.x.x.x.x.z.z.z.z.z.z.z.z.z.z.z.z.z.z.z.q.q.z.z.q.q.q.q.q.q.q.q.q.4.4.4.4.4.4.4.4.4.4.4.4.4.q.q.q.q.0.0.0.0.q.q.q.q.0.0.0.4.0.0.0.0.2.2.2.2.2.2.2.2.0.0.0.0.0.0.2.2.2.2.0.0.2.2.2.2.2.2.2.2.2.2.2.2.2.2.2.2.2.2.2.2.2.2.2.2.2.3.3.iXDXHXLXVXk.4.4.0.9.2.2.1.2.2.2.2.2.2.2.2.2.2.2.2.2.2.2.2.2.2.2.2.2.2.2.2.2.2.2.2.2.;.;.;.;.;.2.2.2.;.;.;.;.;.2.2.2.2.2.2.2.2.2.",
"-.-.-.-.-.-.;.;.;.;.;.;.;.;.;.;.;.;.;.;.;.;.;.;.;.;.;.;.;.;.;.;.;.;.2.2.;.;.2.2.2.2.2.2.2.2.2.2.2.2.4.<.tXZXGXDXcXl.5.2.2.2.0.2.2.2.2.2.2.2.2.2.2.2.2.2.2.2.2.2.2.2.2.2.2.2.2.2.2.2.2.2.2.2.2.2.2.2.2.2.0.0.2.2.2.4.4.4.4.4.4.4.4.4.4.4.4.4.4.0.4.4.4.4.0.q.4.4.4.4.q.q.4.4.q.q.q.q.q.q.q.q.q.q.q.q.q.q.q.q.q.q.z.z.z.z.z.z.z.z.z.x.z.x.x.x.x.x.x.m.c.s.d.sXrXg.a.c.U.8.g 9 e u e e u u e r r r t e e e e y y y y y y y d g g g j h h h h h h h h h h h h h h h g h h h h g g g g g g g g g g g d d g h j j j h j j j j j j g g j j j h h h h g h g g g g g g g g g g g g g h j j j j j h g g g g g g g h j j j j j j h g g g h h h h h h h h h h h j j j j h h j j h h h h h h h h h h h h h h g g g g g g g g d d d d d d d d g g d y y y y y y t e e e e e q t t 0 5 t q 9 9 z y.+Xg.-XzXs.x.x.x.x.x.x.x.x.x.z.z.z.z.z.z.z.z.z.z.z.z.z.z.q.q.z.z.z.q.q.q.q.q.4.4.4.4.4.4.4.4.4.4.4.4.4.4.4.q.q.q.q.q.q.q.0.q.q.q.0.0.0.4.4.4.0.0.0.0.2.2.2.2.2.2.2.2.2.2.0.0.0.0.0.0.2.2.2.0.2.2.2.2.2.2.2.2.2.2.2.2.2.2.2.2.2.2.2.2.2.2.2.2.2.3.3.iXDXHXLXVXk.4.1.0.9.0.2.1.2.2.2.2.2.2.2.2.2.2.2.2.2.2.2.2.2.2.2.2.2.2.2.2.2.2.2.2.2.;.;.;.;.;.2.2.2.2.;.;.;.;.2.2.;.;.2.2.2.2.2.",
"-.-.-.-.-.-.;.;.;.;.;.;.;.;.;.;.;.;.;.;.;.;.;.;.;.;.;.;.;.;.;.;.;.;.2.2.;.;.2.2.;.2.2.2.2.2.2.2.2.2.4.<.eXZXGXDXcXl.5.2.2.2.0.2.2.2.2.2.2.2.2.2.2.2.2.2.2.2.2.2.2.2.2.2.2.2.2.2.2.2.2.2.2.2.2.2.0.0.2.0.0.0.2.2.4.4.4.4.4.4.4.4.4.4.4.4.4.4.4.4.q.q.4.4.4.4.4.4.4.4.4.4.4.4.q.q.q.q.q.q.q.q.q.q.q.q.q.q.q.q.q.q.z.z.z.z.z.z.z.z.z.x.z.x.x.x.x.x.z.c.c.n.f.iXrXg.n.T. .f 8 f r 8 e r y u y r y y y y y y y y y y y y y d g g h h j h h h h h h h j j j h h h j j j j j j j j h h h h h h h g g g g g g g g h j j j j j j j j g g h h h h g g g g g g g g g g g g h h h g g h j j j j j j j h g g j j j j j j j j j j h g g g g g h h h h h h h h h h h j j h h g h h h h h h h h h h j j j h h h g g g g g g g g d g d d d d d d g g g g d y y y d d d d y y y y e y t q t e 6 8 9 z j.OX-XlXT.x.x.x.x.x.x.x.z.x.z.z.z.z.z.z.z.z.z.z.z.z.z.z.q.q.z.z.q.q.q.q.q.q.4.4.4.4.4.4.4.4.4.4.4.4.4.q.q.q.q.q.q.q.q.q.q.q.q.q.0.0.0.4.4.4.0.0.0.0.0.0.2.2.2.2.2.2.2.2.2.0.0.0.0.0.2.2.2.0.2.2.2.2.2.2.2.2.2.2.2.2.2.2.2.2.2.2.2.2.2.2.2.2.5.3.3.iXDXHXLXVXk.4.1.0.9.0.2.1.2.2.2.2.2.2.2.2.2.2.2.2.2.2.2.2.2.2.2.2.2.2.2.2.2.2.2.2.2.;.;.;.;.;.2.2.2.2.;.;.;.;.2.2.;.;.2.2.2.2.2.",
"-.-.-.-.-.-.-.-.;.;.;.;.;.;.;.;.;.;.;.;.;.;.;.;.;.;.;.;.;.;.;.;.;.;.;.;.;.;.2.2.2.2.2.2.2.2.2.2.2.2.4.<.eXZXGXDXcXl.4.2.2.2.0.2.2.2.2.2.2.2.2.2.2.2.2.2.2.2.2.2.2.2.2.2.2.2.2.2.2.2.2.2.2.2.2.2.0.0.0.0.0.2.2.2.2.2.2.2.4.4.4.4.4.4.4.4.4.4.4.4.q.4.4.4.4.4.4.4.4.4.q.q.4.4.q.q.q.q.q.q.q.q.q.q.q.q.q.q.q.q.q.q.z.z.z.z.z.z.z.z.z.x.z.x.x.x.x.x.x.c.a.Y.d.iXrXj.k.X.h 8 f f 8 r y y d d d d d g d y y y y y d d d g d g g h h h h h h h h h h h h h h h h h h h j j j j j j h h h h h h g g g g g g g g g g g j j j j j j h h h h h g g g g h h g g h h h h h g j j h h g g h j j j j j j h h j j j j j j j j j j j j h h h g g h h h h h h h h h h h h h h h g h h h j j j h h h h h h h h h h g h g h h h h h h h h h h h h g g g g g g g d d g g g g h h g g d g g i t q 8 r e 9 h <.eXlXY.x.v.x.x.x.x.x.x.z.z.z.z.z.z.z.z.z.z.z.q.q.z.z.q.q.q.z.q.z.q.q.q.q.q.q.q.4.4.4.4.4.4.4.4.4.4.q.q.q.q.q.q.q.q.q.q.q.0.0.0.0.q.0.0.4.0.0.0.2.0.0.0.0.2.2.2.0.2.2.2.2.2.2.2.2.2.2.2.2.2.2.2.2.2.2.2.2.2.2.2.2.2.2.2.2.2.2.2.2.2.2.2.2.2.3.3.iXDXHXLXVXk.4.4.0.9.0.2.1.2.2.2.2.2.2.2.2.2.2.2.2.2.2.2.2.2.2.2.2.2.2.2.2.2.2.2.2.2.;.;.;.;.;.;.2.2.2.2.;.;.;.;.;.;.;.2.2.2.2.2.",
"-.-.-.-.-.-.-.-.;.;.;.;.;.;.;.;.;.;.;.;.;.;.;.;.;.;.;.;.;.;.;.;.;.;.;.;.;.;.2.2.2.2.2.2.2.2.2.2.2.2.5.6.eXZXGXGXcXl.4.2.2.2.0.2.2.2.2.2.2.2.2.2.2.2.2.2.2.2.2.2.2.2.2.2.2.2.2.2.2.2.2.2.2.2.2.2.0.0.0.0.0.0.2.2.2.2.2.2.4.4.4.4.4.4.4.4.4.4.4.4.4.4.4.4.4.4.4.4.4.4.q.q.4.4.q.q.q.q.q.q.q.q.q.q.q.q.q.q.q.q.q.q.z.z.z.z.z.z.z.z.z.x.z.x.x.x.x.c.v.x.a.A.g.iXiXj.G e 6 r r r d d g g h h h h h h g g d d d d d d h g g g h h h h h h h h h h h h h h h h g g g g h h h h h h h h h g g g g g g h g g h h g g g g h h h h j j j j g g g g g g h h h h h j j j j j j h h g g g g h j j j j j h j j j j j j j j j j j j j j j j j h h h h h h h h h h h h h h j h h h j j z z z j h h h h j j j j j h h h h h j h h h h h h h j j j g g g g g g h h h h j j z z z z l l h j j i d d d d f Z @XvXA.q.v.x.x.x.x.x.x.x.z.z.z.z.z.z.z.z.z.z.q.q.z.z.q.q.q.q.q.z.q.q.q.q.q.q.q.4.4.4.4.4.4.4.4.4.4.4.4.q.q.q.q.q.q.q.q.q.0.q.q.0.q.0.0.4.0.0.0.2.0.0.0.0.2.2.2.0.2.2.2.2.2.2.2.2.2.2.2.2.2.2.2.2.2.2.2.2.2.2.2.2.2.2.2.2.2.2.2.2.2.2.2.2.1.3.p.iXDXHXLXVXk.4.4.0.9.0.2.1.2.2.2.2.2.2.2.2.2.2.2.2.2.2.2.2.2.2.2.2.2.2.2.2.2.2.2.2.2.;.;.;.;.;.2.2.2.2.;.;.;.;.;.;.;.;.2.2.2.2.2.",
";.;.-.-.-.-.-.-.;.-.;.;.;.;.;.;.;.;.;.;.;.;.;.;.;.;.;.;.;.;.;.;.;.;.;.;.2.2.2.2.;.;.;.;.2.2.2.2.2.2.5.<.eXZXGXGXcXl.4.2.2.2.0.2.2.2.2.2.2.2.2.2.2.2.2.2.2.2.2.2.2.2.2.2.2.2.2.2.2.2.2.2.2.2.2.2.2.2.0.0.0.0.4.4.2.4.2.2.4.4.4.4.q.q.4.4.4.4.0.q.4.4.4.4.4.4.4.4.4.4.q.q.4.4.q.q.q.q.q.q.q.q.q.q.q.q.q.q.q.q.q.q.z.z.z.z.z.z.z.z.z.x.z.x.x.x.x.c.x.m.a.A.g.iXrXG e 6 r g y h c h z z z z z z k v j h h h g g g h h h h h h h h h h h h h h h h h h h h h h h g g g g g g g g h h h g g g g g g g g g h j h g g g h h h h h h h h g g g g g g h h j j j j j j j j h h h h g g h j j j h h g h h j g g g h j j j j j j j j j j j j h h h h h h h h h h h h h h h j h j z z z z z z j j j z z z z j j j j j j h h h h h h h h j j j j j j j z z z z z z z z M M M V V b b Z Z Z Z Z N I K K @XjXK.B.v.x.x.x.x.x.x.x.z.z.z.z.z.z.z.z.z.z.q.q.z.z.q.q.q.q.q.z.q.q.q.q.q.q.q.0.4.4.4.4.4.4.4.4.4.4.4.4.q.q.q.q.0.0.0.0.q.q.q.q.q.0.0.4.0.0.0.2.0.0.2.2.2.2.0.0.0.0.2.0.2.2.2.2.2.2.2.2.2.2.2.2.2.2.2.2.2.2.2.2.2.2.2.2.2.2.2.2.0.0.2.2.1.3.p.iXDXHXLXVXk.4.4.0.9.0.2.1.2.2.2.2.2.2.2.2.2.2.2.2.2.2.2.2.2.2.2.2.2.2.2.2.2.2.2.2.2.;.2.;.2.2.2.2.2.2.2.2.;.;.;.;.2.2.2.2.2.2.2.",
";.;.;.-.-.-.-.-.;.;.;.;.;.-.;.;.;.;.;.;.;.;.;.;.;.;.;.;.;.;.;.;.;.;.2.2.2.2.2.2.;.;.;.;.;.;.2.2.2.2.5.<.eXZXGXGXvXl.3.2.2.2.2.2.2.2.2.2.2.2.2.2.2.2.2.2.2.2.2.2.2.2.2.2.2.2.2.2.2.2.2.2.2.2.2.2.2.2.2.0.0.0.4.4.4.4.2.2.4.4.4.4.q.0.4.4.4.4.0.4.4.4.4.4.4.4.4.4.4.4.q.q.4.4.q.q.q.q.q.q.q.q.q.q.q.q.q.q.z.q.q.q.z.z.z.z.z.z.z.z.z.x.x.x.x.x.x.x.4.S.c.A.d.aXrXg h B N z G Z M A A V M M x c c c j h h h h h h h h h l l l l h h z l l h l h h h h h h h h h h h g g g g g g h h h h h g g g h h h h h h g g h j h h h h h h h h g g g g g g h j j j j j j j h h g h h h j j j j j j h g g g h h h h h h j j j j j j j j j h h h j j j j j j z z h h h g h h h j j h h h j j z z h h j j j h h h j j j j j j h h h h j j j z z z z z z c N N N M M M M M V A A A S S K K K P 8.8.8.K ^ y.y.yXU.B.v.x.x.x.x.x.x.x.x.x.x.z.z.z.z.z.z.z.q.q.z.z.q.z.q.z.q.q.q.q.q.q.q.q.q.0.4.4.4.4.4.4.4.4.4.4.4.4.q.q.0.0.0.0.0.0.q.q.q.q.q.0.0.4.0.0.0.2.0.0.0.2.2.2.0.0.0.0.0.0.2.2.2.2.2.2.2.2.2.2.2.2.2.2.2.2.2.2.2.2.2.2.2.2.2.2.2.2.2.2.2.2.1.3.p.iXDXHXHXmXk.4.4.0.0.9.2.2.2.2.2.2.2.2.2.2.2.2.2.2.2.2.2.2.2.2.2.2.2.2.2.2.2.2.2.2.2.;.2.2.2.2.2.2.2.2.2.2.;.;.2.2.2.2.2.2.2.2.2.",
";.;.-.-.-.;.;.;.-.-.-.-.-.-.-.-.-.-.-.;.;.;.;.;.;.;.;.;.;.;.;.;.;.;.;.;.;.;.;.;.;.;.2.2.2.2.2.2.2.2.0.6.eXZXDXGXvXk.3.2.0.2.5.2.2.2.2.2.2.2.2.2.2.2.2.2.2.2.2.2.2.2.2.2.2.2.2.2.2.2.2.2.2.2.2.2.2.2.2.2.2.2.2.2.2.2.2.2.4.4.4.4.4.4.4.4.4.4.4.0.0.4.4.4.4.q.0.4.4.4.4.q.q.q.q.q.q.q.q.q.z.z.z.z.q.q.q.q.z.z.z.z.z.z.z.z.z.a.z.z.z.z.a.z.x.c.x.m.c.3.Y.n.d.=XtXoXy.7.8.X.K K K G S Z M M M x c c z z z z z z z z l z z z l l h h h h h h h h h l j j h h h h h h g g g g g g g g g g g h h j h h h h j j j j j j h h h h j j j j j h h h j j j j h h h h h j j j j j j j j j j h h j k k h g g g j j k j j j j j h j z c z z z z j z z z c c c c z z h h h h j h z j z z z z z j z z j j h h h h h h h h h h h h j j j z z z z z z z z z z x x x V V V V V V V V S K K K ( X.X.X.8.S h M y.I K +Xc.x.x.M.M.x.x.x.c.x.x.x.z.z.z.z.z.z.z.z.z.q.q.q.q.q.z.z.q.q.q.q.4.4.4.q.q.q.4.4.4.4.4.4.4.4.4.4.0.0.0.0.q.q.q.q.0.0.q.0.0.0.4.4.2.2.2.2.2.2.2.2.2.2.2.2.2.2.2.2.0.0.0.0.0.0.5.5.2.2.2.2.2.2.2.2.2.2.2.2.2.2.2.2.2.2.2.2.2.2.2.2.0.4.3.aXDXHXHXnXj.4.1.1.2.0.2.2.2.2.2.2.2.2.2.2.2.2.2.2.2.2.2.2.2.2.2.2.2.2.2.2.2.2.2.2.2.2.;.;.2.2.2.;.;.;.;.;.;.;.;.;.;.2.2.2.2.2.;.",
"-.-.-.-.;.;.;.;.-.-.-.-.-.-.;.;.-.-.-.;.;.;.;.;.;.;.;.;.;.;.;.;.;.;.;.;.;.;.;.;.;.;.2.2.2.2.2.;.2.0.5.6.eXZXDXDXvXk.3.2.2.2.5.2.2.2.2.2.2.2.2.2.2.2.2.2.2.2.2.2.2.2.2.2.2.2.2.2.2.2.2.2.2.2.2.2.2.2.2.2.2.2.2.2.2.2.2.2.4.4.4.4.4.4.4.4.4.4.4.0.4.4.4.4.q.q.4.4.4.4.4.q.q.q.q.q.q.q.q.q.z.q.z.z.q.q.q.q.z.z.z.z.z.z.z.z.a.z.z.z.z.c.c.a.z.z.z.c.n.n.I.Y.Z d I G X.X.( Q K J D G V M x z z z z z z z z z z z z z z z z z z z z z l l l l l l l l j j j z j j j j g g g g g g g g g g g j j j j j h h h h h h h h g g h h h h h h h h h h h h h h h h j j j j j j h h h j j j h g g h h h g g g g h j k k j j h j g h h j j j j j h h h h j z z z z z h h h j h h j j j j j j j h j j j h h h h h h h h h h h h h j j z z N M M M M x x x x x M M x V V C A A A Z G G K K ^ ^ ^ ^ S K Z z d 9 e K T.x.x.R.M.z.z.x.c.x.x.x.z.z.b.z.z.z.z.z.z.z.q.q.q.q.z.z.q.q.q.q.4.4.4.4.q.q.q.q.4.4.4.4.4.4.4.4.0.0.0.0.q.q.0.0.0.0.q.q.0.0.4.4.2.2.2.2.2.2.2.2.2.2.2.2.2.2.2.2.0.0.0.0.0.0.5.5.2.2.2.2.2.2.2.2.2.2.2.2.2.2.2.2.2.2.2.2.2.2.2.2.0.2.3.aXDXGXGXnXj.4.1.4.2.2.0.0.;.2.2.2.2.2.2.2.2.2.2.2.2.2.2.2.2.2.2.2.2.2.2.2.2.2.2.2.;.;.;.;.2.2.2.;.;.;.;.;.;.;.;.;.;.2.2.2.2.2.;.",
"-.-.-.-.-.-.-.-.;.-.;.;.-.;.;.;.;.-.-.;.;.;.;.;.;.;.;.;.;.;.;.;.;.;.;.;.;.;.;.;.;.;.2.2.2.2.2.;.;.0.5.6.eXZXDXDXvXk.3.2.4.2.5.2.2.2.2.2.2.2.2.2.2.2.2.2.2.2.2.2.2.2.2.2.2.2.2.2.2.2.2.2.2.2.2.2.2.2.2.2.2.2.2.2.2.2.2.4.4.4.4.4.4.4.4.4.4.4.4.4.4.4.4.4.4.4.4.4.4.4.q.q.q.q.q.q.q.q.q.q.q.q.q.q.q.q.q.q.q.z.z.z.z.z.z.z.a.z.z.z.z.M.x.x.z.v.v.c.n.d.+XZ 9 6 8 M Z Z Z Z Z V V V x x l l l l l l z z z z z c c c z z z z z z z z l l z z l l l l h h h z j j h h g g g g g g g g g g h j j j j j h h h h h h h h g h h h h h h g h h h h h h h h h h h h h h g g h h h h j h g g g g g g g d g g g g h h h h g g d d g g h h h h h h h h h j j z z j j h j j h h h h h j j j j h h h h h h h l l z j h h h h h h j j j z N M M M M M M M M M V V V M V V A A A S G G G K K K J D K L V l h r 6 8 K U.R.q.x.v.z.x.x.x.x.x.z.z.b.b.z.z.z.z.z.z.z.z.q.q.q.z.q.q.q.q.4.4.q.q.q.q.q.q.4.4.4.4.4.4.q.q.0.0.0.0.0.0.0.0.0.0.q.0.q.0.4.4.0.0.2.2.2.2.2.2.2.2.2.2.2.2.2.2.2.2.2.2.2.2.2.2.2.2.2.2.2.2.2.2.2.2.2.2.2.2.2.2.2.2.2.2.2.2.2.2.0.4.3.aXDXGXGXnXj.4.1.1.2.2.0.0.2.2.2.2.2.2.2.2.2.2.2.2.2.2.2.2.2.2.2.2.2.2.2.2.2.2.;.;.;.;.;.;.;.2.2.;.;.;.;.;.;.;.;.;.;.2.2.2.2.2.2.",
"-.-.-.-.-.-.-.-.;.;.;.-.-.;.;.;.;.-.-.;.;.;.;.;.;.;.;.;.;.;.;.;.;.;.;.;.;.;.;.;.;.;.2.2.2.2.2.;.;.2.5.6.eXCXDXDXvXk.3.1.4.2.5.2.2.2.2.2.2.2.2.2.2.2.2.2.2.2.2.2.2.2.2.2.2.2.2.2.2.2.2.2.2.2.2.2.2.2.2.2.2.2.2.2.2.2.2.4.4.4.4.4.4.4.4.4.4.4.4.4.4.4.4.4.4.4.4.4.4.4.q.q.q.q.q.q.q.q.q.q.q.q.q.q.q.q.q.q.q.z.z.z.z.z.z.z.z.z.z.z.M.z.z.x.v.C.C.a.d.+XG 7 8 r g h z x x V V V M x x z l l l z z l z z z z c z c c c c z l l h h h l l l z z l l l h h h h h h h g g g g g g g g g g g j j j j j j h h h g g h h h h j j j j h h h h h h h j j h h h h h h g g d d h g h h h h g g g g g d d d g g g g g g g g g g d g g g h h h h j h h h h h j z j j j h j j h h h h h j j z z j h h h h j z z z z z z z z z z h j j j z z N z M M M M M M M V V V V V V A A V V Z Z A A S A C A x x x z h d e 7 8 G U.U.z.z.x.M.M.z.x.x.x.z.z.b.z.z.z.z.z.z.z.z.q.q.q.z.q.q.q.q.4.q.q.q.q.q.q.q.4.4.4.4.4.4.q.q.0.0.0.0.0.0.0.0.0.0.q.0.0.0.4.4.0.0.0.2.2.2.2.2.2.2.2.2.2.2.2.2.2.2.2.2.2.2.2.2.2.2.2.2.2.2.2.2.2.2.2.2.2.2.2.2.2.2.2.2.2.2.2.2.0.4.3.aXDXGXGXnXj.4.1.1.2.2.0.0.2.2.2.2.2.2.2.2.2.2.2.2.2.2.2.2.2.2.2.2.2.2.2.2.2.2.;.;.;.;.;.;.;.2.2.;.;.;.;.;.;.;.;.;.;.2.2.2.2.2.2.",
"-.-.-.-.-.-.-.-.-.-.-.-.;.;.-.-.-.-.-.;.;.;.;.;.;.;.;.;.;.;.;.;.;.;.;.;.;.;.;.;.;.;.2.2.2.2.2.;.2.2.5.6.eXCXDXDXvXk.3.1.0.2.2.2.2.2.2.2.2.2.2.2.2.2.2.2.2.2.2.2.2.2.2.2.2.2.2.2.2.2.2.2.2.2.2.2.2.2.2.2.2.2.2.2.2.2.2.4.4.4.4.4.4.4.4.4.4.4.4.4.q.q.4.4.4.4.4.0.4.4.q.q.4.4.q.q.q.q.q.q.z.z.q.q.q.q.q.q.q.q.q.q.z.z.z.z.z.z.z.x.U.w.b.x.z.z.c.c.U.I 8 9 f r y g h h l z z z z z z l h h l z j l l l z z z z z z z z l l h h h h h l l l l j j j h h h h h g g g g g g g g g g g h h j j j j j j g g g g g g h h j j j j j j h h h h h h h h h h h h h g g g g g g g g g g g g g g g g g y y d g g g g g g g g g g g h h h h h h h h g g g h h h j j h h h j h h j j h j j j z z j j z z z z z z z z z z z z c z j j z z z z z z z x x M M M M M V V V V V V V M M M V V V V V V x h h h e 8 e e 7 9 G +Xn.4.m.z.M.M.z.z.x.z.z.z.z.z.z.z.z.q.z.z.z.z.q.z.q.q.q.q.q.q.q.q.q.q.q.q.4.4.0.0.4.4.4.4.0.0.0.0.0.0.0.0.q.0.q.0.0.0.4.4.0.0.2.2.2.2.2.2.2.2.2.2.2.2.2.2.2.2.2.2.2.2.2.2.2.2.2.2.2.2.2.2.2.2.2.2.2.2.2.2.2.2.2.2.2.2.2.2.0.4.3.aXDXGXGXnXj.4.1.1.2.2.9.;.9.2.2.2.2.2.2.2.2.2.2.2.2.2.2.2.2.2.2.2.2.2.2.2.2.2.;.;.2.2.;.;.;.;.2.;.;.;.;.;.;.;.;.;.;.;.;.;.1.1.2.",
"-.-.-.-.-.-.;.-.-.-.-.-.;.;.-.-.-.-.-.;.;.;.;.;.;.;.;.;.;.;.;.;.;.;.;.;.;.;.;.;.;.;.2.2.2.2.2.;.;.2.5.<.eXCXDXDXvXk.3.1.0.;.2.:.2.2.2.2.2.2.2.2.2.2.2.2.2.2.2.2.2.2.2.2.2.2.2.2.2.2.2.2.2.2.2.2.2.2.2.2.2.2.2.2.2.2.2.4.4.4.4.4.4.4.4.4.4.4.q.q.q.0.4.4.4.4.q.0.4.4.q.q.4.4.q.q.q.q.q.q.z.z.q.q.q.q.q.q.q.q.z.z.z.z.z.z.z.z.z.x.M.w.m.v.a.a.Y.OXI 9 8 u 6 u e y d f d h h h h h h g g g h h h h h h l l z l l l h h h h l l l l h h h h h h h h z h h h h h g g g g g g g g g g h h j j j j j j g g g g h h j j j j j j j g g h h h h h g g g g h h h g g g g g y y y y g g d d g g g d y y d g g h g h g g g g j j h h j j h h h h h g g h h j j h h h h h j h j g g g j j j j j j j z z z z z j h h h h z j j j z z z z z z z z z z x x x x x M M M M V M M x z c z z x x c z N h d d y y e 6 6 9 8 G OXT.z.M.M.M.M.z.z.z.z.z.z.z.z.z.z.q.z.z.z.z.z.q.q.q.q.q.q.q.q.q.q.q.q.q.4.4.0.0.4.4.4.4.0.0.0.0.0.0.q.q.q.q.q.0.0.0.4.4.0.0.2.2.2.2.2.2.2.2.2.2.2.2.2.2.2.2.2.2.2.2.2.2.2.2.2.2.2.2.2.2.2.2.2.2.2.2.2.2.2.2.2.2.2.2.2.2.0.2.3.aXDXGXGXnXj.4.1.1.2.2.;.;.9.2.2.2.2.2.2.2.2.2.2.2.2.2.2.2.2.2.2.2.2.2.2.2.2.2.;.;.2.2.;.;.;.;.2.;.;.;.;.;.;.;.;.;.;.;.;.;.1.-.2.",
"-.;.-.-.-.;.;.;.-.-.-.-.;.;.-.-.-.-.-.;.;.;.;.;.;.;.;.;.;.;.;.;.;.;.;.;.;.;.;.;.;.;.2.2.;.;.2.:.;.2.5.<.eXCXDXDXcXk.3.1.0.;.2.:.2.2.2.2.2.2.2.2.2.2.2.2.2.2.2.2.2.2.2.2.2.2.2.2.2.2.2.2.2.2.2.2.2.2.2.2.2.2.2.2.2.2.2.2.4.4.4.4.4.0.4.4.4.4.4.q.4.4.4.4.4.4.4.4.4.4.q.4.4.4.q.q.q.q.q.q.z.z.z.q.q.q.q.q.z.z.z.z.z.z.z.z.z.z.z.x.M.z.v.v.a.U.+XI e 7 9 p e 7 v e f k k k k k h h g d f d g h h g h h h h h h h h h h h h h h h h h h h h h h h h j h h g g g g h g g g g g g g g h h h j j j j h j j j j j j j j j j j j g g g j h h h g g g g g h h h g g g g g y y y y g g g g d d d d y y g g j j j j h g g g h j j j j j j h j j h h h h j j h h h h h h h h j g g g h h h h j j j j j z z z z h h h h h h h j h j j z j j j z z z z z z z z z z z x x x x z h h h h h h h h r d k f e q 6 6 < a ; ; I +Xb.m.x.x.M.M.z.z.x.x.z.z.z.z.z.q.q.z.z.z.q.q.q.q.q.q.q.q.4.4.4.4.q.q.4.4.4.4.4.4.4.4.0.q.0.0.0.0.q.q.0.0.0.0.0.0.4.4.0.0.2.2.2.2.2.2.2.2.2.2.2.2.2.2.2.2.2.2.2.2.2.2.2.2.2.2.2.2.2.2.2.2.2.2.2.2.2.2.2.2.2.2.2.2.2.2.0.1.p.aXDXGXGXnXj.4.1.1.2.2.;.;.9.2.2.2.2.2.2.2.2.2.2.2.2.2.2.2.2.2.2.2.2.2.2.2.2.2.2.2.2.2.;.;.2.;.2.;.;.;.;.;.;.;.;.;.;.2.;.;.-.-.;.",
";.;.-.-.-.;.;.;.-.-.-.;.;.;.-.-.-.-.-.;.;.;.;.;.;.;.;.;.;.;.;.;.;.;.;.;.;.;.;.;.;.;.2.2.;.;.2.:.;.2.5.<.eXCXDXDXcXk.3.1.0.;.2.:.2.2.2.2.2.2.2.2.2.2.2.2.2.2.2.2.2.2.2.2.2.2.2.2.2.2.2.2.2.2.2.2.2.2.2.2.2.2.2.2.2.2.2.2.4.4.4.4.0.0.0.4.4.4.4.q.4.4.4.4.4.4.4.4.4.4.q.4.4.4.q.q.q.q.q.q.z.z.z.q.q.q.q.q.z.z.z.z.z.z.z.z.z.z.z.x.x.x.x.z.d.+X8.8 7 e 8 5 p u 7 k u y y y y y y d g d d d h h h g h h h h h h h g d g h h h h g g j h h h h h h g h h d d d d g h g g g g g g g g h h h j j j h h j j j j j j j j j j j j g g j j j j j h g g g h j j j j h g g g g d d g g g g g y y y y y y g g j j j j j h g g g h j j j j j j h h h h h h h h h h h h h h h h j j g g h h h h h h h h h h h h c z h h h h h h h h h h h h h h z z z z z z z z z z z z z z l h h g h g d d d d d k y 8 e u w 0 w < 7 7 6 K +Xa.x.x.x.M.M.z.x.x.z.z.z.z.z.q.q.q.z.z.q.q.q.q.q.q.4.4.4.4.4.4.q.q.4.4.4.4.4.4.4.4.q.q.0.0.0.q.q.q.0.0.0.0.0.0.4.4.0.0.2.2.2.2.2.2.2.2.2.2.2.2.2.2.2.2.2.2.2.2.2.2.2.2.2.2.2.2.2.2.2.2.2.2.2.2.2.2.2.2.2.2.2.2.2.2.0.2.p.aXDXGXGXnXj.4.1.1.2.2.;.0.9.2.2.2.2.2.2.2.2.2.2.2.2.2.2.2.2.2.2.2.2.2.2.2.2.2.2.2.2.2.;.;.2.2.2.;.;.;.;.;.;.;.;.;.;.2.2.;.-.-.;.",
"-.-.-.-.-.-.-.-.-.-.-.-.-.-.-.-.-.-.-.-.-.-.;.;.;.;.;.;.;.;.;.;.;.;.;.;.2.2.2.2.;.;.;.;.;.2.2.;.2.2.0.6.eXCXGXDXcXk.,.2.2.2.2.2.2.2.2.2.;.;.2.2.2.2.2.2.2.2.2.2.2.2.2.2.2.2.2.2.2.2.2.2.2.2.2.2.2.2.2.2.2.2.2.2.1.2.2.2.4.4.4.4.4.4.4.4.4.4.4.4.4.4.q.4.4.q.q.q.q.4.4.q.q.q.q.q.q.q.q.q.q.q.z.z.q.q.q.q.q.z.z.z.x.z.4.4.m.c.a.v.x.x.z.a.+X8.8 8 8 8 e q e t u u e e e e e e r r y d d d g h h h h h h h h h h h h h h h g d g g h g h h h h h h g g d d g g d d g g g g g g g g h h j j j j h h j j j j g g j j j j j g g g g g g g g g g h j j g j j j g g g g g g g g g g g g g y y g g g y g g j j j j j g g h j j j j j j h h h h j j j h g h h h j h h h h j j j j j j j h h h h j j j j h h j j h g g g h j j z z z j j z c z z z z z z j z z z j l z c c j h g g d d y y d y t t e w w w w 2 2 5 < 6 G OXa.v.z.q.v.z.4.N.z.z.z.z.z.z.z.z.z.z.q.q.q.q.4.q.q.q.q.q.q.4.q.q.q.q.q.4.0.0.4.4.q.0.0.0.0.0.0.0.q.q.q.q.0.0.0.0.0.0.0.0.2.2.2.2.2.2.2.2.2.2.2.2.2.2.2.2.2.2.2.2.2.2.2.2.2.2.2.2.2.2.2.2.2.2.2.2.2.2.2.2.2.2.2.2.2.4.<.kXSXHXGXnXj.4.1.1.2.2.0.;.;.;.;.2.2.2.;.;.;.;.2.2.2.;.;.;.;.;.;.;.;.;.;.;.;.2.2.;.;.;.;.;.;.;.;.;.;.;.;.;.;.;.;.;.;.;.;.;.;.;.;.",
"-.-.-.-.-.-.-.-.-.-.-.-.-.-.-.-.-.-.-.-.-.-.;.;.;.;.;.;.;.;.;.;.;.;.;.;.;.2.2.2.;.;.;.;.;.2.;.;.2.;.0.<.eXCXGXDXcXk.,.2.2.2.2.2.2.2.2.2.;.;.;.2.2.2.2.2.2.2.2.2.2.2.2.2.2.2.2.2.2.2.2.2.2.2.2.2.2.2.2.2.2.2.2.2.1.2.2.2.4.4.4.4.4.4.4.4.4.4.4.4.4.4.0.0.4.q.q.q.q.q.4.q.q.q.q.q.q.q.q.q.q.q.q.z.q.q.q.q.q.z.z.z.4.x.x.x.m.z.4.z.c.c.a.+X8.8 8 9 8 e q e e t e e e e e e e e r y y d d g g g h h h h h h h h h h h h h h h h h g g g g g g g g g g g d g g g g d g g g g g g g g g g h h h h h g h j j j j j j j j j g g g g g g g g g g g g j j j j j j g g g g g g g g g g k k g y y g g g g g j j j j j g g g g g j j j j j h h h h h j j h g j j j j j j j j j j j j g g g g h h h h h h h h h h h h h h j j h j j j h h j j z z l z z z z z h h h g h h h h h g g g d d y y y y t e q q q 0 0 s 5 5 2 7 g G +Xa.z.x.z.x.v.q.z.z.z.z.z.z.z.z.z.z.q.q.q.q.4.q.q.q.q.q.q.4.q.4.q.q.q.4.0.4.4.4.q.q.0.0.0.0.0.0.q.q.0.q.0.0.0.0.0.0.0.0.2.2.2.2.2.2.2.2.2.2.2.2.2.2.2.2.2.2.2.2.2.2.2.2.2.2.2.2.2.2.2.2.2.2.2.2.2.2.2.2.2.2.2.2.2.4.3.kXSXHXGXnXj.4.1.1.2.2.0.2.;.2.2.2.2.2.;.;.;.2.2.2.2.;.;.;.;.;.;.;.;.;.;.;.;.;.2.;.;.;.;.;.;.;.;.;.;.;.;.;.;.;.;.;.;.;.;.;.;.2.;.",
"-.-.-.-.-.-.-.-.-.-.-.-.-.-.-.-.-.-.-.-.-.-.;.;.;.;.;.;.;.;.;.;.;.;.2.;.;.;.2.2.;.;.;.;.;.2.;.;.2.;.0.<.eXCXGXDXcXk.1.2.2.2.2.2.2.2.;.;.;.;.2.2.2.2.2.2.2.2.2.2.2.2.2.2.2.2.2.2.2.2.2.2.2.2.2.2.2.2.2.2.2.2.2.2.2.2.2.2.4.4.4.4.4.4.4.4.4.4.q.q.4.4.4.4.4.q.q.q.q.q.q.q.q.q.q.q.q.q.q.q.q.q.z.z.q.q.q.q.z.z.q.q.4.x.x.z.x.x.x.v.a.V.T.I f 9 7 6 q q q e t e e q e e e e e e y y y y d g g g g g g g g g g g g g g g h h h h h g g g g g d y y y g g g g g g g g g g g g g g g g g g g h h h h g g g g j j j j g g g g g g g g j g g g g g g g g g g g g j g g d g g k k k k k k g y y g g g g g k k k g g g g g g g h h j j h g h h h h j j j h j j h h h h h g g k h k g g g g g g g g h h g d g h h h j j j k h h h h h h h h j h h h j z z j j h h g g g g g g g g g g y y t t e q q q q q 0 0 0 0 0 7 < 7 e 8.U.m.z.c.x.z.z.z.z.z.z.z.z.z.z.z.q.q.q.q.q.q.4.q.q.q.q.q.4.4.4.q.q.q.4.0.q.4.4.0.0.0.0.0.0.0.0.0.0.0.0.0.0.0.0.0.2.0.0.2.2.2.2.2.2.2.2.2.2.2.2.2.2.2.2.2.2.2.2.2.2.2.2.2.2.2.2.2.2.2.2.2.2.2.2.2.2.2.2.2.2.2.2.2.4.3.kXSXHXGXnXj.4.1.1.2.2.0.2.;.;.;.;.2.2.;.;.;.;.2.2.2.;.;.;.2.2.;.;.;.;.2.2.2.2.2.;.;.;.;.;.;.;.;.;.;.;.;.;.;.;.;.;.;.;.;.;.2.2.2.",
"-.-.-.-.-.-.-.-.-.-.-.-.-.-.-.-.-.-.-.-.-.-.;.;.;.;.;.;.;.;.;.;.;.;.;.;.;.;.;.;.;.;.;.;.;.2.2.;.0.;.5.<.yXCXDXDXcXk.1.2.2.2.2.:.2.2.;.;.;.;.2.2.2.2.2.2.2.2.2.2.2.2.2.2.2.2.2.2.2.2.2.2.2.2.2.2.2.2.2.2.2.2.2.2.2.2.2.2.4.4.4.4.4.4.4.4.4.4.q.0.4.4.4.4.4.q.q.q.q.q.q.q.q.q.q.q.q.q.q.q.q.q.z.z.q.q.q.z.q.q.q.z.x.x.z.z.x.c.x.c.c.S.8.8 9 a 6 u q q q w q e q q e e e e e y y y y y d g g g d g d d d d g g g d g g g h h h g g y y y y y y y y g g g g g g g g g g g g g g g g h h h h h h h g g g g g j j g g g g g g g g g j g g g g g g g g g g g g j j g d g g g g g g i y y y y g g g g g g g g g g g g g g g h h h h g g h h h h j j j h g g g g g g g g g g g g g g g d g g g g h h h h h h h h h h g g h h h g g g h h j h h h h h h h j j h h g g g g k k g g y y e q e q q q q q 0 0 w 0 0 5 5 7 7 7 g 7.Y.a.c.x.0.R.z.z.z.z.z.z.z.z.q.q.q.q.q.q.q.q.q.q.q.q.q.4.4.4.q.q.q.4.4.4.4.4.0.0.0.0.0.0.0.0.0.0.0.0.0.0.0.0.2.2.0.0.2.2.2.2.2.2.2.2.2.2.2.2.2.2.2.2.2.2.2.2.2.2.2.2.2.2.2.2.2.2.2.2.2.2.2.2.2.2.2.2.2.2.2.2.2.4.3.kXDXHXGXnXj.4.1.1.2.2.0.2.;.;.;.;.2.2.2.2.;.;.2.2.2.;.;.;.2.;.;.;.2.2.2.2.2.2.2.;.;.;.;.;.;.;.;.;.;.;.;.;.;.;.;.;.;.;.;.;.2.2.2.",
"-.-.-.-.-.-.-.-.-.-.-.-.-.-.-.-.-.-.;.;.-.-.;.;.;.;.;.;.;.;.;.;.;.;.;.;.;.;.;.;.;.;.;.;.;.2.2.;.0.;.5.<.yXCXGXDXcXk.1.2.2.2.2.:.2.;.;.;.2.2.2.2.2.2.2.2.2.2.2.2.2.2.2.2.2.2.2.2.2.2.2.2.2.2.2.2.2.2.2.2.2.2.2.2.2.2.2.2.4.4.4.4.4.4.4.4.4.4.4.0.4.4.4.4.4.4.4.4.4.4.q.q.q.q.q.q.q.q.q.q.q.q.q.z.q.z.q.q.z.z.z.z.x.4.z.m.x.z.a.a.Y.8.y 6 e 7 q w q q q q q e e e e e e e y y y y y y y g g d d d y y y d g g g g g g g g g g d y y y y i i i g g g g g g g g g g g g j j j g g g h h h h h h h h g g g g g g g y g i y y i g k j k k g g g g g g g g g j k k k g g g g g y y y y y y g g k j g g y i i i g g g g g g g g g g g g g g g j j j j h g g g g g g g g i i g g g g g g g g g g h h j j h h h h h g d d g g g g g g g h j h h h h h g g h g g g d d y y g g g d y e e q q q 6 6 0 0 6 6 5 0 5 5 5 6 6 7 7 g 8.Y.b.x.m.z.z.z.z.z.z.z.z.z.z.z.z.z.q.q.q.q.q.q.q.q.q.q.q.q.q.q.q.4.4.4.4.4.0.0.0.0.0.0.q.q.0.0.0.0.0.0.0.0.2.2.2.2.2.2.2.2.2.2.2.2.2.2.2.2.2.2.2.2.2.2.2.2.2.2.2.2.2.2.2.2.2.2.2.2.2.2.2.2.2.2.2.2.2.2.2.2.0.4.3.kXDXHXGXnXj.4.1.1.2.2.9.;.;.2.2.2.;.;.;.;.;.;.;.;.2.;.;.;.2.2.;.;.;.;.2.2.2.2.;.;.;.;.;.;.;.;.;.;.;.;.;.;.;.;.;.;.;.;.;.;.1.1.1.",
"-.-.-.-.-.-.-.-.-.-.-.-.-.-.-.-.-.-.;.;.-.-.;.;.;.;.;.-.-.-.-.-.-.-.;.;.;.;.;.;.;.;.;.;.;.2.2.;.2.;.5.<.yXCXDXDXcXk.1.2.2.2.2.:.2.;.;.;.2.;.2.2.2.2.2.2.;.;.;.;.2.2.2.2.2.2.2.2.2.2.2.2.2.2.2.2.2.2.2.2.2.2.2.2.1.2.2.2.4.4.4.4.4.4.4.4.4.4.4.4.4.4.4.4.4.4.4.4.4.4.q.q.q.q.q.q.q.q.q.q.q.q.z.z.z.z.q.q.z.z.z.z.x.z.c.m.z.z.m.Y.8.y 7 e 6 5 w 0 q q q q q e e e e e e t y y y y y y y y y y y y r y y d g g g g g g d d g d y y y y y y i g g g g g k k g g g g g g j j j j g g h h h h h h h g j g g y y y y y g i y y i g k j k k g g g g g g g g g g g g g g g g g d y y y y y y g k k j g y y y y y i g g g g g g g g g g g g g g g j j j g g g g g g g g g y y g g g g g g g d d g g h k j h h h h h g g d g g g g g g g g h h g g h h g g d g g g d y y y y y y y y t e q 6 6 6 6 6 6 5 5 5 6 6 5 2 2 2 2 7 < y I OXR.q.z.z.z.z.z.z.z.z.z.z.z.z.z.q.q.q.q.q.q.q.q.q.q.q.q.q.q.4.4.4.4.4.4.q.0.0.0.0.0.q.q.0.0.0.q.0.0.0.0.2.2.2.2.2.2.2.2.2.2.2.2.2.2.2.2.2.2.2.2.2.2.2.2.2.2.2.2.2.2.2.2.2.2.2.2.2.2.2.2.2.2.2.2.2.2.2.2.2.4.3.kXDXHXGXnXj.4.1.1.2.2.9.;.;.2.2.2.;.;.;.;.;.;.2.2.2.;.;.;.2.2.;.;.;.;.2.2.;.2.;.;.;.;.;.;.;.;.;.;.;.;.;.;.;.;.;.;.;.;.;.;.1.2.1.",
"-.-.-.-.-.-.-.-.-.-.-.-.-.-.-.-.-.-.-.-.-.-.;.;.;.-.-.-.-.-.-.-.-.-.-.;.;.;.;.;.;.;.;.;.;.2.2.;.2.;.5.,.yXCXDXDXcXk.3.4.2.2.;.:.;.;.;.;.;.;.;.;.2.;.2.2.;.;.;.;.2.2.2.2.2.2.2.2.2.2.2.2.2.2.2.2.2.2.2.2.2.2.2.2.1.2.2.2.4.4.4.4.4.4.4.4.4.4.4.4.4.4.4.4.4.q.4.q.4.4.4.q.q.q.q.q.q.q.q.q.q.q.q.q.z.z.q.z.z.z.z.z.x.x.x.z.4.x.m.6.h ; e q < t q 0 w q q q q e e e e e r r y y y y y y y y y y y y r y y d g g g g g d y y d d y y t t y y y i g g d g g g g d g g g g j j j j g g h h g g h g g g k k g g y y y g g g y i g g g k k g g g g g g y y y i g g g g g i y y y y y y y y i i i g g g y y y y y y y y i y d g g g g g g g g g g g j g g g g g g g g g g g g g y g g g g g g d d g g g g g g g g g g d d d d g g g g g g d d d d d g d d d d g d g y y y r r r y y t e e 6 6 5 5 5 5 5 7 5 5 6 5 2 2 1 2 2 6 ; d y.U.4.v.x.x.z.z.z.z.z.z.z.z.z.z.z.q.q.q.q.q.q.q.q.q.q.q.4.4.4.4.4.4.4.4.q.q.q.0.0.0.0.q.0.q.q.q.0.0.0.0.0.0.2.2.2.2.2.2.2.2.2.2.2.2.2.2.2.2.2.2.2.2.2.2.2.2.2.2.2.2.2.2.2.2.2.2.2.2.2.2.2.2.2.2.2.2.2.2.2.4.3.hXDXHXGXnXj.4.1.1.2.2.9.;.;.2.2.2.;.;.2.2.2.2.2.2.2.;.;.;.2.2.2.;.;.;.2.2.;.;.;.;.;.;.;.;.;.;.;.;.;.;.;.;.;.;.;.;.;.;.;.;.;.2.;.",
"-.-.-.-.-.-.-.-.-.-.-.-.-.-.-.-.-.-.-.-.-.-.;.;.-.-.-.-.-.-.-.-.-.-.-.-.;.;.;.;.;.;.;.;.;.2.2.;.2.;.5.,.yXCXDXDXcXk.1.4.2.2.;.;.2.;.;.;.;.;.;.;.;.;.2.2.2.;.;.;.2.2.2.2.2.2.2.2.2.2.2.2.2.2.2.2.2.2.2.2.2.2.2.2.1.2.2.2.4.4.4.4.4.4.4.4.4.4.4.4.4.0.4.4.4.q.q.q.4.4.4.q.q.q.q.q.q.q.q.q.q.q.q.q.z.z.z.z.z.z.z.z.z.x.c.z.z.Y.,.h 9 a 6 q q 7 q 6 w q q q q e e u e e e t y y y y y y y y y y y r y y y y d d d y d y y y d d y y e e t y y y y d y y g d y y y d g g g j j j g g h h h g g g g g g k k g y y y d g g g g g g g g k k g g g i y y i g g g g g k j y y y y y y y y y i g y y g g y y y y y y y y y d d g g g g g g d d g g k g g g h h j j j j j j g g i y y g g g g d y y d d g d g d y y y y y y d d g g g g d d d d d y y y y r y y y y y y y e r r e e e e e q 6 6 5 7 7 5 5 7 6 5 5 5 2 2 2 0 0 6 7 9 h 8.T.z.x.x.x.z.z.z.z.z.z.z.z.z.z.q.q.z.q.q.q.q.q.q.q.4.4.4.4.4.4.4.4.4.q.q.q.0.0.0.0.q.0.0.q.q.0.0.0.0.0.0.0.0.2.2.2.2.2.2.2.2.2.2.2.2.2.2.2.2.2.2.2.2.2.2.2.2.2.2.2.2.2.2.2.2.2.2.2.2.2.2.2.2.2.2.2.2.2.4.3.hXDXGXDXjXj.4.1.1.2.0.2.;.2.2.2.;.;.;.2.2.2.2.2.2.2.;.;.;.2.2.2.2.;.;.2.2.2.;.;.;.;.;.;.;.;.;.;.;.;.;.;.;.;.;.;.;.;.;.;.;.;.;.;.",
"*.*.*.*.*.*.*.*.*.*.*.*.*.*.*.-.-.-.-.-.-.-.-.-.-.-.-.-.-.-.-.-.-.-.-.;.;.;.;.;.;.;.;.;.;.;.;.;.;.0.2.<.@XCXDXDXMXXX,.2.2.2.;.;.2.2.;.;.;.;.2.2.2.2.2.2.2.;.;.2.;.;.2.2.2.2.2.2.2.2.2.2.2.2.2.2.2.2.2.2.2.2.2.2.1.2.2.2.2.4.4.4.4.4.4.4.4.4.4.4.4.4.4.4.4.q.q.q.q.4.4.q.q.q.q.q.z.z.z.z.q.z.z.z.4.a.z.x.b.e.b.x.q.x.c.a.A.7.h 9 6 6 6 6 6 q q q 6 6 q q e e e e e e e e e e t y y y y y y y y y y y y y y y y y y t e e y y y e e y y y e e t y y y i y y y y y d g g g y y d g g g g g g g d d g g g g y y y y g y y y y y y y g g g g y y y y y g g g g g g g g y y r y y g g g g g k k g g d g d d y y y y y y y y y g g g k g g g g g g g g g g g g g g g g g g g g g g g g y y y y y i k g g g g g d y d g d y d g d g g d d g d d y y y y e e y y y y t t t t t e e e w w 6 6 6 5 6 6 6 5 2 2 2 2 2 5 2 2 6 7 5 6 7 e L uXz.v.z.q.M.z.4.x.z.z.z.e.e.e.q.q.q.q.q.q.4.4.q.q.q.q.4.4.q.q.4.4.4.4.q.0.4.4.4.4.4.4.4.4.4.4.4.4.2.2.2.2.2.2.2.2.2.2.2.2.2.2.2.2.2.2.2.2.2.2.2.2.2.2.2.2.2.2.2.2.2.2.2.2.2.2.2.2.2.2.2.2.2.2.2.2.2.4.g.hXDXGXDXjXd.0.1.5.2.0.2.2.;.;.;.;.;.;.;.;.;.;.;.;.;.;.;.;.;.;.;.;.;.;.;.;.;.;.;.;.;.;.;.;.;.;.;.;.;.;.;.;.;.;.;.;.;.;.;.;.2.2.1.",
"*.*.*.*.*.*.*.*.*.*.*.*.*.*.*.*.-.-.-.-.-.-.-.-.;.;.-.-.-.-.;.-.-.-.-.;.;.;.;.;.;.;.;.;.;.;.;.;.;.2.2.<.@XCXDXDXMXXX,.2.2.2.2.;.2.2.2.2.;.;.;.2.2.2.2.2.2.;.;.;.;.;.2.2.2.2.2.2.2.2.2.2.2.2.2.2.2.2.2.2.2.2.2.2.1.2.2.2.2.4.4.4.4.4.4.4.4.4.4.4.0.0.4.4.4.q.q.q.q.q.4.q.q.q.q.q.z.z.z.z.q.z.q.z.c.c.z.q.0.e.b.q.x.C.3.Y.j.d 7 6 6 6 6 6 6 q q q 6 6 q e e e e e e e e e e e t t y y y y y y y y y y y y y y y y y y y y y y y t y y y y y y y y y y i i i i i i y d g g d d g k g g g d d d d d g g g y y y y g g g g g g g g g y y y y y y y y y d g d y d g g g d y y y y d d g g g g g g d d y y y y y y e e y y y d g g g g g g g d d d g g g g g g g g h h g g g g g g i i y y y y t t y y y y g y y y y y y y y y i g g g d d d d y y y y t y y y y y t e e e e e e q q q q 6 6 5 6 6 6 7 2 2 2 2 2 2 5 5 7 7 6 q 5 7 k L Y.4.z.M.4.z.v.1.z.z.z.e.e.q.q.q.q.q.q.q.q.4.q.q.q.q.q.4.q.q.4.4.4.q.q.q.4.4.4.4.4.4.4.4.4.4.4.4.2.2.2.2.2.2.2.2.2.2.2.2.2.2.2.2.2.2.2.2.2.2.2.2.2.2.2.2.2.2.2.2.2.2.2.2.2.2.2.2.2.2.2.2.2.2.2.2.2.4.g.hXDXGXDXjXg.4.5.2.2.0.2.2.;.;.;.;.;.;.;.;.;.;.;.;.;.;.;.;.;.;.;.;.;.;.;.;.;.;.;.;.;.;.;.;.;.;.;.;.;.;.;.;.;.;.;.;.;.;.;.;.2.2.2.",
"*.*.*.*.*.*.*.*.*.*.*.*.*.*.*.*.-.-.-.-.-.-.-.;.;.;.-.-.;.;.;.;.-.-.-.;.;.;.;.;.;.;.;.;.;.;.;.;.;.2.2.<.@XCXDXDXMXXX,.2.2.2.;.;.2.2.2.2.2.2.2.2.2.2.2.2.;.;.;.;.;.;.2.2.;.;.2.2.2.2.2.2.2.2.2.2.2.2.2.2.2.2.2.2.2.2.2.2.2.4.4.4.4.4.4.4.4.4.4.0.0.q.4.4.4.q.q.q.q.q.q.q.q.q.q.q.q.q.z.q.q.z.z.z.x.x.z.q.q.M.M.z.c.z.S.7.j 7 6 q 6 6 q q q q q q 8 8 e e e e e e t t e e e t e t t t y y y y y y y y y y y y y y y y y y y y y y y y y y y y y y t y y y i i g g d g g g d g g g d d d d d d d y d d y y y y y g k g g g g g g g y y y y y y y y y y y y y y d g g g y y y y y y g g g g g g d y y y y y y y y r y y y y y d d d g g y y y y g g g g g h h h h h j j g g g g i i i y y t t e e e y y y y y y y y y y y y g g g g g d y y d y y y y y y y y e e e e e e e q q q q q 6 6 5 6 6 7 7 2 2 2 2 2 2 5 5 7 7 6 6 5 2 7 6 X.U.R.z.a.x.x.q.z.z.z.z.z.q.q.q.q.q.q.q.q.q.4.4.q.q.q.4.q.q.4.4.4.4.4.4.4.4.4.0.4.4.4.4.4.4.4.4.2.2.2.2.2.2.2.2.2.2.2.2.2.2.2.2.2.2.2.2.2.2.2.2.2.2.2.2.2.2.2.2.2.2.2.2.2.2.2.2.2.2.2.2.2.2.2.2.2.4.g.hXDXGXDXjX6.4.5.2.2.0.2.2.;.;.;.;.;.;.;.;.;.;.;.;.;.;.;.;.;.;.;.;.;.;.;.;.;.;.;.;.;.;.;.;.;.;.;.;.;.;.;.;.;.;.;.;.;.;.;.;.2.2.2.",
"*.*.*.*.*.*.*.*.*.*.*.*.*.*.*.*.-.-.-.-.-.-.-.;.-.;.-.-.-.;.;.;.-.-.-.;.;.;.;.;.;.;.;.;.;.;.;.;.;.2.2.<.@XCXDXDXMXXX,.2.2.2.;.;.;.;.;.;.;.;.;.;.;.;.;.;.;.;.;.;.;.;.2.2.;.;.2.2.2.2.2.2.2.2.2.2.2.2.2.2.2.2.2.2.1.2.2.2.2.4.4.4.4.4.4.4.4.4.4.0.q.q.4.4.4.q.q.q.q.q.q.q.q.q.q.q.q.q.q.q.q.z.z.z.q.z.z.x.x.x.x.x.a.n.U.h 9 a q q q q q q q q q q e e e e e e e e t t e e e e e e e e t y y y y y y y y y y t t t y y y y y y y y y y y y y y y y t y y y i i g g k g g g d d d d d d d d d d d y d d y y y y y y k k k k k g g g k k d y y y y y d y y y y y y g g g g g g d d y g g k k g g y y g g g k k g g d y y y y y y y y y y y y y g g g g g h h h h h h j g g g k g g i k k i y y y t t y y y y y y y y y y y y g g g g g d y y g d y y y y y y t e e q e e e e q q 6 6 q 6 6 5 6 6 7 2 2 2 2 2 2 2 7 5 7 7 7 7 7 5 7 < r 8.OXn.z.a.4.m.z.z.q.z.z.z.q.q.q.q.q.q.q.q.q.q.q.q.q.4.q.q.4.4.4.4.4.4.4.4.4.0.4.4.4.4.4.4.4.4.2.2.2.2.2.2.2.2.2.2.2.2.2.2.2.2.2.2.2.2.2.2.2.2.2.2.2.2.2.2.2.2.2.2.2.2.2.2.2.2.2.2.2.2.2.2.2.2.2.4.g.hXDXGXDXhX6.4.5.2.;.2.2.2.;.;.;.;.;.;.;.;.;.;.;.;.;.;.;.;.;.;.;.;.;.;.;.;.;.;.;.;.;.;.;.;.;.;.;.;.;.;.;.;.;.;.;.;.;.;.;.;.2.2.2.",
"*.*.*.*.*.*.*.*.*.*.*.*.*.*.*.*.-.-.-.-.-.-.;.;.-.-.-.-.-.-.-.-.-.-.-.;.;.;.;.;.;.;.;.;.;.;.;.;.;.;.2.<.@XCXDXDXMXXX6.2.2.2.;.;.;.;.;.;.;.;.;.;.;.;.;.;.;.;.;.;.;.;.;.;.;.;.2.2.2.2.2.2.2.2.2.2.2.2.2.2.2.2.2.2.1.2.2.2.2.4.4.4.4.4.4.4.4.4.4.4.4.4.4.4.4.4.4.4.4.4.q.q.q.q.q.q.q.q.z.z.z.z.z.z.b.e.z.M.z.4.a.c.n.+Xl 7 e 7 7 0 6 6 6 q q 6 6 6 q q e e e e e e t e e e e e e e e t y y y y y y y y y y y y y y y y d y y y y y y y y y y y y y y y y g g g g g k g g g g g y y i i g g g g i y g i y y t t y y i g g g g g i i k g y y y y d d g g y y y y y g g g g g g g g g k k k k g g y y y d g k k k k g g g g y y y y y y y y y y g g g g g k g g g g g g g g k g g g g g g i y y y t y y y y y y y y i y y y y y i i i d y y y y y y y t t t e t e e e q q q q q q q q 0 6 6 6 5 5 7 7 2 2 2 2 2 2 7 5 2 7 2 2 7 6 6 7 ; 8 K OXc.a.c.z.M.M.z.z.z.z.z.z.q.z.q.q.z.q.q.q.q.q.4.4.4.4.4.4.4.4.4.4.4.4.4.4.4.4.4.4.4.4.4.4.2.2.2.2.2.2.2.2.2.2.2.2.2.2.2.2.2.2.2.2.2.2.2.2.2.2.2.2.2.2.2.2.2.2.2.2.2.2.2.2.2.2.2.2.2.2.2.2.2.3.g.hXDXGXDXhX6.2.5.2.:.9.;.;.;.;.;.;.;.;.;.;.;.;.;.;.;.;.;.;.;.;.;.;.;.;.;.;.;.;.;.;.;.;.;.;.;.;.;.;.;.;.;.;.;.;.;.;.;.;.;.;.-.-.-.",
"*.*.*.*.*.*.*.*.*.*.*.*.*.*.*.*.-.-.-.-.-.-.;.;.-.-.-.;.-.-.-.-.-.-.-.;.;.;.;.;.;.;.;.;.;.;.;.;.;.;.2.<.@XCXDXDXMXXX1.2.2.2.;.;.;.;.;.;.;.;.;.;.;.;.;.;.;.;.;.;.;.;.;.;.;.;.2.2.2.2.2.2.2.2.2.2.2.2.2.2.2.2.2.2.1.2.2.2.2.4.4.4.4.4.4.4.4.4.4.4.4.4.4.4.4.4.4.4.4.4.q.q.q.q.q.q.q.q.z.z.q.z.z.q.M.e.q.z.z.z.c.A.U.z 9 8 6 2 5 5 6 6 6 q 6 6 q q q e e e e e e e e e e e e e e e t t y y y y y y y y y y y y d d y y d g g g g g g y y y d g g d d d g g g g g g g i y i g g g g i i g g g g g i i i i y y y t y y i i i i i y y y y y y y y d g g g g y y y y g g g g g g g g g g g k g g g y y y y g k k k k k g g g g g d d y g g i i y y y y y g g g g g g g g g g g g g g g y y y t t t t t t y y y y y y y y y y y y y i y y y y t y y y t e e e e e e e e q q q q q q q q 0 6 6 5 5 5 7 7 7 2 7 2 2 7 7 7 2 7 2 2 2 7 2 2 < % 6 I OXn.a.x.z.z.z.z.z.z.z.z.z.z.q.q.q.z.q.q.q.q.4.4.q.q.4.4.4.4.4.4.4.4.4.4.4.4.4.4.4.4.4.4.2.2.2.2.2.2.2.2.2.2.2.2.2.2.2.2.2.2.2.2.2.2.2.2.2.2.2.2.2.2.2.2.2.2.2.2.2.2.2.2.2.2.2.2.2.2.2.2.2.3.g.hXDXGXSXhX6.0.2.2.;.;.;.;.;.;.;.;.;.;.;.;.;.;.;.;.;.;.;.;.;.;.;.;.;.;.;.;.;.;.;.;.;.;.;.;.;.;.;.;.;.;.;.;.;.;.;.;.;.;.;.;.-.-.-.",
"*.*.*.*.*.*.*.*.*.*.*.*.*.*.*.*.-.-.-.-.-.-.-.;.-.-.;.;.;.-.-.-.-.-.-.;.;.;.;.;.;.;.;.;.;.;.;.;.;.;.2.<.@XCXDXDXMXXX1.2.2.2.;.-.;.;.;.;.;.;.;.;.;.;.;.;.;.;.;.;.;.;.;.;.2.2.2.2.2.2.2.2.2.2.2.2.2.2.2.2.2.2.1.2.2.2.2.2.2.4.4.4.4.4.4.4.4.4.4.4.4.4.4.4.4.q.q.q.4.4.4.q.q.q.q.q.q.q.z.z.q.z.q.q.e.e.b.q.c.v.n.7.L ; 8 e - w a < 5 q q q q q q q q q e e e e e e q q q q q q e e t t t t t t y e e e r y y y g g y y y y g g g g g g y d g g g g y y y y d d y y y y y y i g g i y y y y y i i i y i i i y y t y y y y i y y y y y y y y y y y y g g g i y y y y y g g g y y y y g g g g g y y y y y i g k k k k g g g g i i i y g i i i y y y t y y y d g d d y y y y i i y y y t t e e t t t t t t y t t t t y i i i y y y y y y y t e e e e t e e q q q q q q q q q q q q q q 6 6 6 5 7 7 7 7 7 7 5 7 7 7 7 2 2 2 5 2 2 < < < 3 < % e 8.j.a.x.x.z.z.w.q.z.z.z.z.z.z.q.q.q.q.q.q.q.q.4.q.q.4.4.4.4.4.q.4.4.4.4.4.4.4.4.4.4.4.4.2.2.2.2.2.2.2.2.2.2.2.2.2.2.2.2.2.2.2.2.2.2.2.2.2.2.2.2.2.2.2.2.2.2.2.2.2.2.2.2.2.2.2.2.2.2.2.2.2.4.g.hXDXGXSXhX6.2.2.2.;.;.;.;.;.;.;.;.;.;.;.;.;.;.;.;.;.;.;.;.;.;.;.;.;.;.;.;.;.;.;.;.;.;.;.;.;.-.;.;.;.;.;.;.;.;.;.;.;.;.;.;.-.-.1.",
"*.*.*.*.*.*.*.*.*.*.*.*.*.*.*.*.-.-.-.-.-.-.-.-.-.-.;.;.;.-.-.-.-.-.-.;.;.;.;.;.;.;.;.;.;.;.;.;.;.;.2.<.@XCXDXDXMXXX1.2.2.2.;.-.;.;.;.;.;.;.;.;.;.;.;.;.;.;.;.;.;.;.2.2.2.2.2.2.2.2.2.2.2.2.2.2.2.2.2.2.2.2.1.2.2.2.2.2.2.4.4.4.4.4.4.4.4.4.4.4.4.4.4.4.4.q.q.q.4.4.4.q.q.q.q.q.q.q.z.z.q.z.q.q.4.M.M.4.a.m.7.G ; u 6 5 w 5 5 5 0 q q q q e e e q q q q e e e q q q q q q q q e y y y y y y y y e e e r r y y y y y y y g g g y g d y y g g g y g g g g g g g g i y y y y i y y y y y y y y y y y y i i i y y y y y y y y y y t y y y y y y y y g g g g i y y i y g g g y y y y y y g g y y y y y y y y i g g g g g i i y y y y i i i i y y y t y y y y y y y y y y y y y y t t y t t t t t t t t t y y t t t y i i i y y y y y y y t e q q e t e e q q q q q q q q q q q q q 6 6 6 6 5 5 5 7 7 5 5 5 6 7 7 2 2 7 2 2 < 2 < 2 2 3 3 ; % 6 I +X4.x.x.z.M.w.q.z.z.z.z.z.z.q.q.z.z.q.q.q.4.q.q.4.4.4.4.4.q.4.4.4.4.4.4.4.4.4.4.4.4.2.2.2.2.2.2.2.2.2.2.2.2.2.2.2.2.2.2.2.2.2.2.2.2.2.2.2.2.2.2.2.2.2.2.2.2.2.2.2.2.2.2.2.2.2.2.2.2.2.4.g.jXDXGXSXhX6.2.2.2.;.;.;.;.;.;.;.;.;.;.;.;.;.;.;.;.;.;.;.;.;.;.;.;.;.;.;.;.;.;.;.;.;.;.;.;.;.;.;.;.;.-.;.;.;.;.;.;.;.;.;.;.;.-.1.",
"*.*.*.*.*.*.*.*.*.*.*.*.*.*.*.*.-.-.-.-.-.-.-.-.-.-.-.-.-.-.-.-.-.-.-.-.-.-.;.;.-.-.-.;.;.;.;.;.;.;.2.3.@XCXDXDXMXXX,.2.;.2.;.;.;.;.;.;.;.;.;.;.;.;.;.;.;.;.;.;.;.;.;.;.;.;.;.;.;.;.2.2.;.;.2.2.2.2.2.2.2.2.2.2.2.2.2.2.4.4.4.4.4.4.4.4.4.4.4.4.4.4.q.q.q.q.q.q.q.q.q.q.q.q.q.q.q.q.q.q.z.z.z.q.z.z.4.a.Y.oXM 9 8 6 6 5 5 5 0 0 0 0 q q q w q w q q q q q e e e e e q q q e e t e t t y y y t e e e u r y y y y i g g g g i g g i y y y y y y y y y y y i y y y g g g g i i y y t t t t y y y y y y y y p i y y t t y y y y y y y y y y i i y y y i g g g y y y g g g g g g g g y y y y y y y r y y y y y y y y i i y y y y y y i i i i i y y y e e y y y y y y y y y y y y t t e e e t t y y t e e e t y y y y t y y y y y y y t t t e e e e q q q q q q q q 6 q q q w w q 0 0 6 6 6 7 5 5 5 7 7 7 7 7 7 7 2 2 2 2 2 3 3 3 < 3 , 3 3 % ; y I +X3.K.x.z.z.q.M.q.q.z.z.q.q.q.z.q.q.q.q.q.q.4.4.4.q.q.q.q.4.4.4.4.q.q.4.4.4.4.4.4.2.2.2.2.2.2.2.2.1.1.1.2.2.2.2.2.2.2.2.2.2.2.2.2.2.2.2.2.2.2.2.2.;.;.;.;.;.;.;.;.;.;.;.2.2.2.;.2.2.1.g.jXDXGXSXkX6.2.5.2.:.;.;.;.;.;.;.;.;.;.;.;.;.;.;.;.;.;.;.;.;.;.;.;.;.;.;.;.;.;.;.;.;.;.;.;.-.-.-.-.-.;.;.;.;.-.-.-.-.-.;.;.-.;.;.",
"*.*.*.*.*.*.*.*.*.*.*.*.*.*.*.*.-.-.-.-.-.-.-.-.-.-.-.-.-.-.-.-.-.-.-.-.-.-.;.;.-.-.-.;.;.;.;.;.;.;.2.6.@XCXDXDXMXXX6.2.;.2.;.;.;.;.;.;.;.;.;.;.;.;.;.;.;.;.;.;.;.;.;.;.;.;.;.;.;.;.2.2.;.;.2.2.2.2.2.2.2.2.2.2.1.2.2.2.2.4.4.4.4.4.4.4.4.4.4.4.4.4.q.q.q.q.q.q.q.q.q.q.q.q.z.q.z.q.q.q.z.z.z.z.z.c.z.n.7.M 7 8 6 6 5 5 5 5 0 0 q 0 q q w w q q w w e e e e e e q q q q e e e t t t t t y y y t y y y y u y y y y y y y y t e e e e t y y i y i y y y y y y y y y y y i i i i i y y y y y y y y y y y y y y y y y y y y y y y y y y y g g g g i y i g g g g g g g g g g g g g g g g g g g d y y y y y y y y y y y y y y y y y y i i i i y y y t e e t y y y y y y y y y y y y y y y t t t t t t t y y y y y y y t y y y y y y y y y t t t e e e e e q q q q q q q q w w w w 0 0 0 0 6 7 7 5 5 5 7 5 5 5 7 7 5 5 2 2 2 2 3 3 3 3 3 : 3 a ; % y 8.+X1.c.z.q.m.2.M.q.q.z.q.q.q.q.q.q.q.q.q.q.4.4.4.q.q.q.q.4.4.4.4.q.q.4.4.4.4.4.4.2.2.2.2.2.2.2.2.1.1.1.2.2.2.2.2.2.2.2.2.2.2.2.2.2.2.2.2.2.2.2.2.;.;.;.;.;.;.;.;.;.;.;.;.2.2.;.2.2.1.g.jXDXGXSXkX6.2.5.2.:.;.;.;.;.;.;.;.;.;.;.;.;.;.;.;.;.;.;.;.;.;.;.;.;.;.;.;.;.;.;.;.;.;.;.;.-.-.-.-.-.-.;.;.;.-.-.-.-.-.;.;.-.-.2.",
"*.*.*.*.*.*.*.*.*.*.*.*.*.*.*.*.-.-.-.-.-.-.-.-.-.-.-.-.-.-.-.-.-.-.-.-.-.-.-.;.-.-.-.;.;.;.;.;.;.;.2.<.@XCXDXDXMXXX6.2.;.2.;.;.;.;.;.;.;.;.;.;.;.;.;.;.;.;.;.;.;.;.;.;.;.;.;.;.;.;.2.2.;.;.2.2.2.2.2.2.2.2.2.2.2.2.2.2.2.4.4.4.4.4.4.4.4.4.q.q.4.4.q.q.4.4.e.e.q.q.q.q.z.z.q.z.q.q.z.z.z.z.z.z.c.a.A.j.h 9 9 6 5 7 7 2 2 5 0 0 6 6 6 0 0 0 q q q q q q e e q q 6 q q q w e e t u t e e e e e e e q e e e e e t e t t t t t t t y t y y y t t t y t t t t t t e e e t y y y i i i y y y y y t t e t y t t e e t t t t t t t t t y y i p k i i i y y i i i i g g i i y i y i y i k g g g g i y y g i i y y y t t y y y y y y y y t t y y t t t t t t t t y y y y y y y y y y y y y t t t t t t t t t t t t t t t t t t t t t t t e e e e e e e q e q q q q q q q q q q q q q 0 q 0 0 5 2 2 2 7 5 7 7 7 7 7 7 5 2 2 2 2 2 3 3 3 3 3 3 3 3 ; % 9 e y.j.a.z.x.q.e.M.w.q.z.z.z.z.q.q.q.q.q.q.q.4.q.q.q.q.q.q.q.q.4.4.4.q.4.4.4.4.4.4.2.2.2.2.2.2.2.2.2.2.2.2.2.2.2.2.2.2.2.2.2.2.2.2.2.2.2.2.2.2.2.2.;.;.;.;.;.;.;.;.;.;.;.2.2.2.2.2.2.1.g.jXDXGXSXkX6.2.5.2.:.;.;.;.;.;.;.;.;.;.;.;.;.;.;.;.;.;.;.;.;.;.;.;.;.;.;.;.;.;.;.;.;.;.;.;.-.-.-.-.-.-.-.-.-.-.-.-.-.-.;.;.1.1.2.",
"*.*.*.*.*.*.*.*.*.*.*.*.*.*.*.*.-.-.-.-.-.-.-.-.-.-.-.-.-.-.-.-.-.-.-.-.-.-.-.-.-.-.-.;.;.;.;.;.;.;.2.<.@XCXDXDXMXXX6.2.;.2.;.;.;.;.;.;.;.;.;.;.;.;.;.;.;.;.;.;.;.;.;.;.;.;.;.;.;.;.2.2.2.2.2.2.2.2.2.2.2.2.2.2.2.2.2.2.2.4.4.4.4.4.4.4.4.4.q.0.4.4.q.q.4.4.e.e.q.q.q.q.z.z.q.q.q.q.z.z.z.z.z.z.c.a.j.A ; ; u < 2 2 2 2 2 2 5 5 7 7 5 6 6 6 6 6 6 6 q q 6 6 6 6 5 6 6 q q q q q e e q q q q q 6 6 6 6 6 6 q 6 q q q q q e e t t y y y t e q q 6 q q q q q q e q q e e e e e e t t t e e e e q q 6 q e e q q q e e e t t t t t e e t y y y y y y t t t t y y i i y y y y y y y y y y y y y y y y y y y y t t e e t t t t y y t t t t t t t t t e t t t t y y y y t y t t t t t t t t e t t t t t e e e t e e e q q q e e e q q q 6 6 q q q q q q q q q 6 6 6 6 6 6 6 6 6 6 6 6 6 6 6 7 2 2 2 2 2 2 2 7 2 2 2 2 2 2 2 2 2 < 3 3 3 , 3 , % ; w 7 $ y oXI.a.x.q.t.t.w.q.z.z.z.q.q.q.q.q.q.q.q.4.q.q.q.q.q.q.q.q.4.4.4.4.4.4.4.4.4.4.2.2.2.2.2.2.2.2.2.2.2.2.2.2.2.2.2.2.2.2.2.2.2.2.2.2.2.2.2.2.2.2.;.;.;.;.;.;.;.;.;.;.;.2.2.2.2.2.2.1.g.jXDXGXSXkX3.2.5.2.:.;.;.;.;.;.;.;.;.;.;.;.;.;.;.;.;.;.;.;.;.;.;.;.;.;.;.;.;.;.;.;.;.;.-.-.-.-.-.-.-.-.-.-.-.-.-.-.-.-.;.;.1.1.1.",
"*.*.*.*.*.*.*.*.*.*.*.*.*.*.*.*.-.-.-.-.-.-.-.-.-.-.-.-.-.-.-.-.-.-.-.-.-.-.-.-.-.-.-.;.;.;.;.;.;.;.2.<.@XNXDXDXMXXX6.2.;.;.;.-.;.;.;.;.;.;.;.;.;.;.;.;.;.;.;.;.;.;.;.;.;.;.;.;.;.;.2.2.2.2.2.2.2.2.2.2.2.2.2.2.1.2.2.2.2.4.4.4.4.4.4.4.4.4.4.4.4.4.4.4.4.4.q.q.q.q.q.q.q.q.q.q.q.z.z.z.z.z.z.z.s.j.N ; 7 6 2 6 < < 2 2 5 5 5 5 7 7 5 5 6 6 7 7 6 6 6 6 6 6 6 6 5 6 6 6 q q q q q q q q e q 6 6 6 6 6 6 6 q q q q q q 6 6 6 6 q q q q q q q 6 q 6 6 6 6 q q q q q q q q q q e e e e e e e q q 6 6 6 q q q q q q e e e e e e e e e e e t y t t t t t t t t t t y y y y y y y y y y t e e e t t e e e e e e e e e e e e e t t e e q q e e e e e e e e t t t t t t t e e e e e t t e e q q e t t e q q q q e e q q q q q q q q 6 6 6 6 6 6 6 6 q 6 q 6 6 5 7 5 5 6 6 6 7 7 7 7 7 7 5 5 7 2 2 2 < < < < 2 < 2 < < < 2 < < < < , , , , , < < 3 3 ; ; % j oXd.z.m.2.M.z.z.z.z.z.z.z.z.q.q.q.q.q.q.q.q.q.q.q.q.q.q.4.4.q.q.4.4.4.4.4.4.2.2.2.2.2.2.2.2.2.2.2.2.2.2.2.2.2.2.2.2.2.2.2.2.2.2.2.2.2.2.2.2.;.;.;.;.;.;.;.;.;.;.;.2.;.;.2.2.2.1.g.jXDXGXSXkX3.2.5.2.;.;.;.;.;.;.;.;.;.;.;.;.;.;.;.;.;.;.;.;.;.;.;.;.;.;.;.;.;.;.;.;.-.-.-.-.;.;.-.-.-.-.-.-.-.-.-.-.-.;.;.;.1.1.;.",
"*.*.*.*.*.*.*.*.*.*.*.*.*.*.*.*.-.-.-.-.-.-.-.-.-.-.-.-.-.-.-.-.-.-.-.-.-.-.-.-.-.-.;.;.;.;.;.;.;.;.2.<.@XNXDXDXMXXX6.2.-.;.-.-.;.;.;.;.;.;.;.;.;.;.;.;.;.;.;.;.;.;.;.;.;.;.;.;.;.;.2.2.2.2.2.2.2.2.2.2.2.2.2.2.2.2.2.2.2.4.4.4.4.4.4.4.4.4.4.4.4.4.4.4.4.4.q.q.q.q.q.q.q.q.q.q.z.z.z.z.z.z.z.b.U.G 9 ; q 7 - w < 2 2 5 5 5 7 7 7 7 5 6 6 6 6 6 q q q q q q q 6 q q q q q q q q q q q e e e 6 6 q q q q q q q w q q q 6 5 6 q q q q q q q q q q 6 6 q q w w w q q q q q q e e t t e e e e e e e q q q q e t t e t t t t t t t e e e e t y t t t y y y t t t t t y y y t e t t y y t e e y y y t t t t t t t t t e e e e e t e q q q q q e e e e q e t y y t t t y t t e e e t t t e q q q q q q q q q q e e e q q q q q q q q q q q q q q q q q q 6 6 6 6 6 6 6 6 6 5 5 5 5 5 7 5 5 5 5 5 2 2 < 2 2 2 2 2 2 2 2 2 2 2 < < < < < 2 < 2 2 3 * - 7 ; % N oXU.z.M.q.z.z.z.z.z.z.z.z.q.q.q.q.q.q.q.q.q.q.q.q.q.q.4.4.q.q.4.4.4.4.4.4.2.2.2.2.2.2.2.2.2.2.2.2.2.2.2.2.2.2.2.2.2.2.2.2.2.2.2.2.2.2.2.2.;.;.;.;.;.;.;.;.;.;.;.2.2.;.;.2.2.1.g.jXDXGXSXkX3.2.5.2.;.;.;.;.;.;.;.;.;.;.;.;.;.;.;.;.;.;.;.;.;.;.;.;.;.;.;.;.;.;.;.-.-.-.-.-.;.;.-.-.-.-.-.-.-.;.-.-.-.-.;.;.-.-.-.",
"*.*.*.*.*.*.*.*.*.*.*.*.*.*.*.*.-.-.-.-.-.-.-.-.-.-.-.-.-.-.-.-.-.-.-.-.-.;.-.-.-.-.;.;.;.;.;.;.;.;.2.,.@XNXDXSXMXXX6.2.-.2.-.-.;.;.;.;.;.;.;.;.;.;.;.;.;.;.;.;.;.;.;.;.;.;.;.;.;.;.2.2.;.;.2.2.2.2.2.2.2.2.2.2.2.2.2.2.2.4.4.4.4.4.4.4.4.4.4.4.4.4.q.4.q.q.q.q.q.q.q.q.q.q.q.q.z.z.z.z.z.z.z.b.L 8 ; 6 7 ; 3 3 2 2 5 0 6 5 5 7 5 5 6 5 6 6 6 6 q q q q q q q q w w q q q q q q q q q e e e q q q 0 0 q q q w w q q q q q q w t e t t t q q q q q w w w u w 0 q q q q q q e t t u t t t t t t t t e e e q e t t t t t t t t e e e e t y y y y t y y y y t e t t y y y e r e r r y y e e y y y r u u u u u u u u y e e e e t e q q q w q e e e e e t t t t t t t y y y t t t t t e e q q q q q q q q e e e q q q q q q q q q q q q q q q q q q q 0 0 0 0 6 6 5 5 5 6 0 6 0 6 6 5 7 5 5 5 2 2 2 2 2 2 2 2 2 2 2 2 2 2 2 < < < < < 6 7 2 , 3 4 3 - 2 % ; I oX4.K.z.z.z.z.z.z.z.z.z.q.q.q.q.q.4.4.4.q.q.q.q.q.4.4.4.q.q.4.4.4.4.4.4.4.2.2.2.2.2.2.2.2.2.2.2.2.2.2.2.2.2.2.2.2.2.2.2.2.2.2.2.2.2.2.2.;.;.;.;.;.;.;.;.;.;.;.;.;.2.2.2.2.3.g.vXDXGXSXkX6.2.5.2.;.;.;.;.;.;.;.;.;.;.;.;.;.;.;.;.;.;.;.;.;.;.;.;.;.;.;.;.;.;.;.-.-.-.-.-.;.-.-.-.;.;.;.;.-.-.-.-.-.-.;.;.-.-.-.",
"*.*.*.*.*.*.*.*.*.*.*.*.*.*.*.*.-.-.-.-.-.-.-.-.-.-.-.-.-.-.-.-.-.-.-.-.-.;.-.-.-.-.;.;.;.;.;.;.;.;.2.,.#XNXDXDXMXXX6.2.-.2.-.-.;.;.;.;.;.;.;.;.;.;.;.;.;.;.;.;.;.;.;.;.;.;.;.;.;.;.2.2.;.;.2.2.2.2.2.2.2.2.2.2.2.2.2.2.2.4.4.4.4.4.4.4.4.4.4.4.4.4.q.q.q.q.q.q.z.z.q.q.z.q.q.q.z.z.z.z.z.z.b.u.7 7 5 7 < < 3 3 2 2 0 0 6 6 5 7 5 7 7 7 5 5 6 6 6 q 6 6 q q q w w w q q 6 q q q q q q q q q q q q q q q q w w w q w w w q 6 6 0 0 q w q q q q w w w w u u w q 6 q q q q q q e e u t e e e e e e t t t e q q e t e e e e e e q q e e t t u t y t t t y t e t e t y y y y y y y y y e e e y y y e y y y y y y y y y y e e e t e e q q q t t t t t t t t t t t t y y y y t t e t t e q q q q t t t e e e e q q q q q q q q q q q e q q q q q q q q 6 6 0 0 6 6 5 5 5 6 0 0 0 6 5 7 7 7 2 2 2 2 2 2 2 2 2 2 2 2 2 2 2 < < < < < < < 7 2 < 3 3 3 * , , 2 ; 9 8.+X3.x.z.z.q.e.z.e.z.z.q.4.q.4.q.4.4.4.q.q.q.q.q.4.4.4.q.q.4.4.4.4.4.4.2.2.2.2.4.2.2.2.2.2.2.2.2.2.2.2.2.2.2.2.2.2.2.2.2.2.2.2.2.2.2.2.;.;.;.;.;.;.;.;.;.;.;.2.2.2.2.2.1.3.g.vXDXGXSXkX3.2.5.2.;.;.;.;.;.;.;.;.;.;.;.;.;.;.;.;.;.;.;.;.;.;.;.;.;.;.;.;.;.;.;.-.;.-.-.-.-.-.-.-.;.;.;.;.-.-.-.-.-.;.;.;.-.-.-.",
"*.*.*.*.*.*.*.*.*.*.*.*.*.*.*.*.*.*.*.*.*.*.*.*.*.*.*.*.*.*.*.*.*.*.*.*.-.-.-.-.-.-.-.-.-.-.-.-.-.2.0.1.XXNXDXSXMX@X,.2.2.;.2.1.2.;.;.;.;.;.;.;.;.;.;.;.;.;.;.;.;.;.;.;.;.;.;.;.;.;.;.;.;.2.2.2.;.1.2.1.2.1.1.1.1.1.1.2.4.4.4.4.4.4.4.4.4.4.4.4.4.q.q.q.q.q.q.4.a.a.a.q.q.q.e.e.e.M.x.a.a.d.8.8 7 5 5 7 2 < 2 2 0 0 5 5 5 7 5 5 5 5 7 7 5 6 6 6 6 6 q q q q q q q q q q 6 6 6 6 6 6 q q q q q q u w q q q q t t q q e t e q q 6 e w q q q q q q q e t t t t q q q q q q q e e e e e e t e e e e t t t t t t e q t t t t t e q q t t u u t t e e t t t t t t t t t t y y y y t t t y y t e e t y t t t t t y t t y y y y t t t t t t t t t t t t e e t t t t t t t t t t t e e e e e e e e e e t t t t e e q q q q q q q e e e e q q q q q q q q q q 6 5 5 5 5 6 6 6 6 5 5 6 5 5 7 7 2 2 2 2 < < 2 2 < < 2 2 2 < 2 2 2 2 < < 2 < < 3 < , , , : : * , < % e 8.OX3.x.1.q.R.4.0.m.4.z.a.q.a.4.a.z.z.q.q.q.q.q.q.4.4.4.4.4.4.4.4.4.4.4.4.4.2.2.2.2.1.2.2.2.2.2.2.2.2.;.;.;.;.2.2.2.2.;.;.2.2.2.;.;.;.2.2.;.;.;.;.;.;.2.2.2.2.2.2.2.2.1.1.g.vXDXHXSXkX6.2.2.2.:.:.;.;.;.;.;.;.;.;.;.;.;.;.;.;.;.;.;.;.;.;.;.;.;.;.;.;.-.-.-.-.-.-.-.-.-.-.-.-.-.-.-.-.-.-.-.-.-.-.;.;.-.-.-.",
"*.*.*.*.*.*.*.*.*.*.*.*.*.*.*.*.*.*.*.*.*.*.*.*.*.*.*.*.*.*.*.*.*.*.*.*.-.-.-.-.-.-.-.-.-.-.-.-.=.2.0.1.XXNXDXSXMX@X,.;.2.;.;.1.;.;.;.;.;.;.;.;.;.;.;.;.;.;.;.;.;.;.;.;.;.;.;.;.;.;.;.;.;.2.;.2.;.1.1.1.2.1.1.2.1.1.1.2.4.4.4.4.4.4.4.4.4.4.4.4.q.q.q.q.q.q.q.4.a.a.a.q.q.w.r.e.q.q.z.c.d.oXe 9 5 7 2 2 < 2 2 7 5 5 5 5 5 5 7 7 5 6 7 7 7 5 6 6 6 6 6 6 6 6 6 q q q q q q q 6 6 6 6 6 q q q q q e q q q q q e t q e e t t t e e q q q q q q q q q q q q q q q q q q q q q q q e t t y t t t y t t t t t t t t t q q t t e q q q t t t t t t e q t t t t t t t t t t y y y y t t t y y t e e e t e e e t t t t t y y y y t t t t t t e e t t t q q q e e e t t t t t t t t e e e e e e e e e e e e e e q q q q q q q q q e e e e q q q q q q q q 0 q 6 6 5 5 5 6 5 6 5 5 5 5 5 5 5 7 2 2 < < 2 2 2 2 2 < < 2 2 < 2 2 2 2 < < 2 3 3 3 , , , , : : * 3 3 ; % q I *X4.N.x.2.b.M.4.z.z.z.q.a.4.a.a.a.q.q.q.q.4.q.4.4.4.4.4.4.4.4.4.4.4.4.4.2.2.2.2.1.2.2.2.2.2.2.2.2.2.;.;.;.2.2.2.2.;.;.2.2.2.;.;.;.2.2.2.2.;.;.;.;.2.2.2.2.2.2.2.2.1.1.g.vXDXHXSXaX6.2.2.2.:.:.;.;.;.;.;.;.;.;.;.;.;.;.;.;.;.;.;.;.;.;.;.;.;.;.;.;.-.-.-.-.-.-.;.;.-.-.-.-.-.-.-.-.-.-.-.-.-.-.;.;.-.-.-.",
"*.*.*.*.*.*.*.*.*.*.*.*.*.*.*.*.*.*.*.*.*.*.*.*.*.*.*.*.*.*.*.*.*.*.*.*.-.-.-.-.-.-.-.-.-.;.-.-.=.1.0.1.XXNXDXSXMX@X,.2.2.;.;.1.-.;.;.;.;.;.;.;.;.;.;.;.;.;.;.;.;.;.;.;.;.;.;.;.;.;.;.;.;.;.;.2.;.1.1.1.2.1.1.1.1.2.2.2.4.4.4.4.4.4.4.4.4.4.q.q.q.q.q.q.q.q.q.4.a.a.a.z.w.w.e.w.x.z.m.j.oXh 7 7 6 7 2 < < 2 7 5 5 5 5 5 5 5 5 5 6 5 7 7 7 7 6 6 6 6 6 6 6 6 6 q q q q q q q q q q q q q q q q q q q q q q q q e q e e e t t t e q q q w t t q q t t t t t t t t e e q q q e e t t y y y y t y y t t t t t t t t q q q q q e e e e e t t e e e q e t t e e e t t y y y y y y t t t y y t e e e e e e e e t t t t y y y t t t t t t t e e t t q q q q q e e e e e e e t t e e e e e e e e e e e e q q q q q q q q q q q q q q q q q q q q q q q q q 6 6 6 6 6 5 6 6 6 6 6 6 6 5 6 5 5 2 < < < 2 2 2 2 2 2 2 2 2 2 2 2 2 < < < < 3 3 3 , , , , : : 3 - - < % % y y.U.b.z.z.z.q.q.z.q.q.q.q.q.q.a.4.q.q.4.4.4.4.4.4.4.4.4.4.4.4.4.4.4.4.2.2.2.2.2.1.2.2.2.2.2.2.2.2.2.2.;.;.2.2.2.2.;.;.2.2.2.2.;.;.2.2.2.2.2.2.;.;.2.2.2.2.2.2.2.2.1.1.g.vXDXGXSXaX6.2.2.2.:.:.;.;.;.;.;.;.;.;.;.;.;.;.;.;.;.;.;.;.;.;.;.;.;.;.;.;.;.-.;.;.-.;.;.;.-.-.-.-.-.-.-.-.-.-.-.-.-.-.;.;.-.-.-.",
"*.*.*.*.*.*.*.*.*.*.*.*.*.*.*.*.*.*.*.*.*.*.*.*.*.*.*.*.*.*.*.*.*.*.*.*.-.-.-.-.-.-.-.-.-.;.-.-.=.1.0.1.XXNXDXDXMX@X,.2.2.;.;.1.-.;.;.;.;.;.;.;.;.;.;.;.;.;.;.;.;.;.;.;.;.;.;.;.;.;.;.;.;.;.;.2.;.1.1.1.2.1.1.1.1.2.2.2.4.4.4.4.4.4.4.4.4.q.q.q.q.q.q.q.q.q.q.4.4.a.z.z.w.w.q.z.x.v.d.oXc 9 8 6 6 2 < < 2 7 5 5 5 5 7 7 7 7 7 5 5 5 7 7 7 7 5 6 6 6 q q q q q q q q q q w w q q q q q q q q q q q q q q q q q e e q q q q q q q q q q w t t t q t t t t t t t t t t e e e e t t t y y y t t t t t t t t t t t t t e t q e t t t e e e e e e e e e t t t t t t t y y y y y y y t y y t t e e e e e e e e t t t t t t t t t t t t t t t t t t q q q q q e e e e e e e t t e e e e e e e e q e e e q q q q q q q q q q q q q q q q q q q q e q q q 6 6 6 6 5 6 5 6 6 6 6 6 0 6 6 6 5 5 2 2 2 2 2 2 2 2 2 2 2 2 2 2 2 2 < < < < < < 3 , , , , , , , 3 4 % - 5 ; ; e y.7.b.m.a.z.z.q.q.q.q.q.q.q.4.4.q.q.4.4.4.4.4.4.4.4.4.4.4.4.4.4.4.4.2.2.2.2.2.2.2.2.2.2.2.2.2.2.2.2.;.;.;.;.2.2.;.;.2.2.2.2.;.;.2.2.2.2.2.2.2.2.2.2.2.2.;.;.;.2.1.1.g.vXDXGXZXaX6.2.2.2.:.:.;.;.;.;.;.;.;.;.;.;.;.;.;.;.;.;.;.;.;.;.;.;.;.;.;.;.;.;.;.-.-.;.;.;.-.-.-.-.-.-.-.-.-.-.-.-.-.-.;.;.-.-.-.",
"*.*.*.*.*.*.*.*.*.*.*.*.*.*.*.*.*.*.*.*.*.*.*.*.*.*.*.*.*.*.*.*.*.*.*.*.-.-.-.-.-.-.-.-.-.;.-.-.=.1.;.=.XXNXDXDXMX@X,.2.2.;.;.-.-.;.;.;.;.;.;.;.-.;.;.;.;.;.;.;.;.;.;.;.;.;.;.;.;.;.;.;.;.;.;.2.2.2.2.2.2.1.1.1.1.1.1.2.2.4.2.4.4.4.4.4.4.q.q.q.q.q.4.q.q.q.q.q.e.e.e.z.w.z.z.x.z.4.oXL 9 7 < 5 7 2 < 2 7 5 5 5 7 7 7 7 2 7 7 7 7 7 7 7 7 7 5 6 6 6 q q q q q q q q q q q q w w w w q q q q q q q q q q e e q e q q q q q q q q q q q q q t t t t t q q q q t e e e q q q q e e t t y y t e t t t t t t t e e e e e e q e t t t q q q q e e e e e e t t t t t t y y y y y y t t t t t t y y y t t t e e t t t t t t t t t t t t t t t t t t e q q q q q q q q q e e t t e e e e e e e e e q e e q q q q q q q q q q 6 6 q q q q 6 q q q w q 6 6 6 6 6 6 6 6 5 5 6 6 6 6 6 5 6 5 5 5 5 5 2 2 2 2 2 2 2 2 2 2 2 2 2 2 < < < < < < , 3 < 1 1 1 : : > 4 4 % ; ; % ; d oX+X3.z.v.q.0.q.q.q.z.q.e.6.6.e.q.4.4.q.q.4.4.q.q.4.4.4.4.4.4.4.2.2.2.2.2.2.2.2.2.2.2.2.2.2.2.2.2.2.2.;.;.;.;.;.;.;.2.2.2.2.;.2.2.2.2.2.2.2.2.2.2.2.2.2.2.2.2.1.1.g.vXDXGXSXaX6.2.2.2.:.:.;.;.;.;.;.;.;.;.;.;.;.;.;.;.;.;.;.;.;.;.;.;.;.;.;.;.-.-.-.-.;.;.-.-.-.-.-.-.-.-.-.-.-.-.;.;.-.-.;.;.-.-.-.",
"*.*.*.*.*.*.*.*.*.*.*.*.*.*.*.*.*.*.*.*.*.*.*.*.*.*.*.*.*.*.*.*.*.*.*.*.-.-.-.-.-.-.-.-.-.;.-.-.-.1.;.=.XXNXDXDXMX@X,.2.2.;.;.1.-.-.-.-.-.-.-.-.;.;.;.;.;.;.;.;.;.;.;.;.;.;.;.;.;.;.;.;.;.2.2.2.2.2.2.2.2.1.1.1.1.1.1.2.2.4.2.4.0.0.4.4.4.q.q.q.4.q.4.q.q.q.q.q.e.e.e.w.z.z.x.z.c.j.I 9 7 < 7 2 < 2 2 7 7 5 5 7 7 7 7 7 7 7 7 7 7 7 6 5 7 7 6 6 6 6 6 6 6 q q q q q q q q q q q w w q q q q q q q q q q q e q e q q q q q e e t q q q q q q q q t t q q q q q q e e e e e e e e t t y y t e t t t t t e e e q q q q q q q e e e q q q q q e t t e e e q q q t t t y y y y y t t t t t y y y y y t t e e e t t t t t e e t t t t t t e t t t e e q q q q q q q q e e t t e e e e e e e e e q q q 6 6 6 6 6 6 6 6 6 6 6 6 q q q q 6 q q q w q q q 6 6 6 6 6 6 5 5 6 6 6 6 5 5 5 5 5 5 5 5 5 5 2 2 2 2 2 2 2 2 2 2 2 2 2 < < < < 3 3 3 < 1 1 1 : : * 4 4 4 = * - ; % B oXd.a.c.x.z.w.w.w.z.q.e.t.t.e.q.4.4.q.q.4.4.q.q.4.4.4.4.4.4.4.2.2.2.2.2.2.2.2.2.2.2.2.2.2.2.2.2.2.2.;.;.;.;.;.;.2.2.2.2.2.;.2.2.2.;.2.2.2.2.;.;.2.2.2.2.2.2.1.1.g.vXGXGXZXaX6.2.2.2.:.:.;.;.;.;.;.;.;.;.;.;.;.;.;.;.;.;.;.;.;.;.;.-.-.-.-.-.-.-.-.-.;.;.-.-.-.-.-.-.-.-.-.-.-.-.;.;.-.-.;.;.-.-.-.",
"*.*.*.*.*.*.*.*.*.*.O.%.O.O.O.O.*.*.*.*.*.*.*.*.*.*.*.*.*.*.*.*.*.*.*.*.-.-.-.-.-.-.-.-.-.-.-.-.-.1.;.=.XXMXDXDXMX@X,.2.2.;.;.1.-.-.-.-.-.-.-.-.;.;.;.;.;.;.;.;.;.;.;.;.;.;.;.;.;.;.;.;.;.2.2.2.2.1.2.2.2.1.1.1.1.1.1.1.2.4.2.4.0.4.4.4.4.q.q.q.4.q.4.q.q.q.q.q.q.w.e.e.z.z.z.a.j.8.9 7 < 7 7 3 < 2 7 7 7 7 5 5 2 2 2 7 2 2 2 2 2 7 5 5 5 7 6 6 6 6 6 6 6 q q q q q 6 q q q q q q q q q q q q q q q q q q q q q q q q e e t t t q q q q q q q q t t t e e q q q q q q t t t t t t t t t e e e e t t e e e q e q q q e e e q q q q q q q e e t t e t t e t q t t t t t t t t t t t t t t y y t t t e e e e e e e e t t e e e e e e q q q e t t e t t t t t e e e t t t t t e e e e t e e e e q q q q 6 6 5 6 6 6 5 6 6 q q q q q 6 q q q w q q q q q q 6 6 6 6 6 5 5 5 6 5 5 5 5 5 5 5 2 2 2 2 2 2 2 2 2 2 2 2 2 2 2 2 2 2 2 2 3 3 3 2 1 1 1 : : : * 4 4 3 - - - % % N oXf.3.x.z.z.z.w.q.q.w.e.e.q.q.q.q.q.q.4.4.4.4.4.4.0.4.4.4.2.2.2.2.2.2.2.2.2.2.2.2.2.2.2.2.;.;.2.;.;.;.2.2.2.2.2.2.2.2.2.2.2.2.;.;.;.;.;.;.;.;.;.;.;.;.;.2.1.3.g.vXGXHXZXaX6.2.2.2.:.:.;.;.;.;.;.;.;.;.;.;.;.;.;.;.;.;.;.;.;.-.-.-.-.-.-.-.-.-.-.-.;.;.-.-.-.-.-.-.-.-.-.-.-.-.-.-.-.-.;.;.-.-.-.",
"*.*.*.*.*.*.*.*.*.*.O.O.O.O.O.O.*.*.*.*.*.*.*.*.*.*.*.*.*.*.*.*.*.*.*.*.-.-.-.-.-.-.-.-.-.-.-.-.-.1.;.=.XXMXDXDXMX@X,.2.2.;.;.-.-.-.-.-.-.-.-.-.;.;.;.;.;.;.;.;.;.;.;.;.;.;.;.;.;.;.;.;.;.2.2.2.1.1.2.2.2.1.1.1.1.1.1.1.2.4.2.4.0.4.4.4.4.q.q.q.q.q.4.q.q.q.q.q.q.q.w.e.z.z.a.d.8.6 ; 7 0 5 3 3 < 2 7 7 2 2 5 5 5 5 2 2 2 2 2 2 2 7 6 6 6 5 6 6 6 6 6 q q q q q 6 6 6 6 q q q q q q q q q q q q q q q q q q q q q e e e e e e e q q q t t t e q q q q q q q 6 6 6 q q q e q q q e e e e e e e e e e e e e e e e e e t t t e q q e e q q e t t t t t t t t t t t t t t t t t t t t t t t t t t e e e q q e e e e t t t e e q q q q q q q q e t t e e e e e e q q t t t t t e e e t t e e e e q q e q q 6 6 6 6 6 5 6 0 q w w q q q q q w w w w w q q 0 0 q 6 6 6 5 5 5 6 5 5 5 5 5 5 2 2 < 2 2 2 2 2 2 2 2 2 2 < 2 2 2 2 2 2 2 < 3 3 , , , , : > , * 3 3 & * 3 % 3 $ ; G OXn.4.x.z.z.w.q.q.w.z.z.q.q.q.q.q.q.4.4.4.4.4.4.0.4.4.4.2.2.2.2.2.2.2.2.2.2.2.2.2.2.2.2.;.;.;.;.;.;.;.2.2.2.2.2.2.2.2.2.2.2.;.;.;.;.;.;.;.;.;.;.;.;.;.1.1.1.g.vXGXGXZXaX6.2.2.2.:.:.;.;.;.;.;.;.;.;.;.;.;.;.;.;.;.;.;.;.-.-.-.-.-.-.-.-.-.-.-.;.;.;.-.-.-.-.-.-.-.-.-.-.-.-.-.-.-.-.;.;.-.-.-.",
"*.*.*.*.%.%.%.O.*.*.*.*.*.*.*.*.*.*.*.*.*.*.*.*.*.*.*.*.*.*.*.*.*.*.*.*.*.*.*.*.*.*.*.*.-.-.-.-.=.=.;.1.XXMXDXDXBX*X<.;.;.-.;.-.-.-.-.-.-.-.-.-.-.-.-.-.-.-.-.-.-.-.-.;.;.;.;.;.;.;.;.;.;.;.;.2.2.1.1.1.1.1.2.2.2.2.2.4.4.4.4.4.4.4.4.4.4.4.q.q.q.q.4.4.q.q.q.q.z.q.z.z.a.S.<.y.7 7 7 7 5 2 3 3 2 7 7 7 7 7 7 7 2 2 2 2 7 7 7 5 7 7 7 5 6 6 6 6 6 6 6 6 6 6 6 6 6 6 6 6 q q q q q q 6 6 6 q q q e e e q q q q q q q q q q q q q q q q q q q q q q q q 6 6 6 6 6 6 6 q q q q 6 6 q q q q q q q q e q q q q q q q q q q q q q e e q q q q q q q q t t t t t t q q e e t t t t t t q q q e e e q q q q q q q e e e t e e e e e e e t t e e t t t e t e e e e e e t e e t t t e q q t t q q q q q q w w 0 0 0 0 q q 0 0 0 w 0 0 0 q w w w q q q q q 6 q q w 0 q 6 6 0 6 6 6 0 6 6 6 5 7 2 2 2 2 2 2 2 2 2 2 2 2 2 2 , 2 2 2 2 < , 3 3 3 , , , , : 1 : : , : : * * * % - % < G j.n.x.x.z.q.w.M.0.4.x.q.q.q.q.q.4.q.q.q.q.4.4.4.4.4.4.0.0.4.4.2.2.2.2.2.2.2.2.2.2.2.2.;.;.2.2.2.2.;.;.;.;.;.;.;.;.;.;.;.;.;.;.;.;.;.;.;.;.;.;.;.;.;.1.2.1.g.vXGXHXZXaX6.2.2.2.:.:.;.;.;.;.;.;.;.;.-.;.-.-.;.;.-.-.-.-.-.-.-.-.;.;.;.-.-.-.-.-.-.-.-.-.-.-.-.-.-.-.-.-.-.-.-.-.-.-.;.;.-.-.-.",
"*.*.*.*.O.%.%.%.*.*.*.*.*.*.*.*.*.*.*.*.*.*.*.*.*.*.*.*.*.*.*.*.*.*.*.*.*.*.*.*.*.*.*.*.-.-.-.-.=.=.;.1.XXMXDXSXBX*X<.;.;.-.;.-.-.-.-.-.-.-.-.-.-.-.-.-.;.-.-.-.-.-.-.;.;.;.;.;.;.;.;.;.;.;.;.2.2.1.1.1.1.1.2.2.2.2.2.4.4.4.4.4.4.4.4.4.4.q.q.q.q.q.4.q.q.q.q.q.z.2.x.z.a.3.+Xe 7 7 7 7 2 2 < < 2 5 5 5 5 5 5 5 5 5 7 2 2 2 2 2 5 5 5 6 6 6 6 6 6 6 6 6 6 6 6 6 6 6 6 6 6 q q q q q 6 6 q q q q q q q q q q q q q q q q q q q q e e t e e q e q q q q 6 6 6 q q q 6 6 6 q q q q q q q q q q q e e q q q q q q q q q q q q q e e e e e q q q e e t t t t t t q q e e e e e e e e q q q e e e e q e e q q e e e e t e e e e e e e t t t e e e e e e e q q q q q q e e e t e e q q e q q q q q q q q 0 0 0 0 0 0 0 0 0 q 0 0 0 0 0 q q q q q q q q 6 6 6 q 6 6 6 6 6 6 6 6 6 6 6 5 7 7 2 2 2 2 2 2 2 2 2 2 2 2 2 2 , , 2 2 < , , , 3 3 3 , , , , , : , 1 , , : : , % 4 - % ; G +Xa.z.4.q.e.w.z.x.4.q.q.q.q.q.4.q.q.q.q.4.4.4.4.4.4.0.0.4.4.2.2.2.2.2.2.2.2.2.2.2.2.;.;.2.2.2.2.;.;.;.;.;.;.;.;.;.;.;.;.;.;.;.;.;.;.;.;.;.;.;.;.;.1.2.1.f.vXGXHXZXaX6.2.2.2.:.:.;.;.;.;.-.;.;.;.;.;.-.-.-.;.-.-.-.-.-.-.-.-.;.;.;.;.-.-.-.-.-.-.-.-.-.-.-.-.-.-.-.-.-.-.-.-.-.-.;.;.-.-.-.",
"%.O.*.*.O.O.%.%.*.*.*.*.*.*.*.*.*.*.*.*.*.*.*.*.*.*.*.*.*.*.*.*.*.*.*.*.*.*.*.*.*.*.*.*.-.-.-.-.=.=.;.=.XXMXDXSXBX*X<.;.;.-.;.-.-.;.;.-.;.;.-.;.-.-.;.;.;.;.;.-.-.-.-.;.;.;.;.;.;.;.;.;.;.;.;.2.2.1.1.1.1.1.1.1.1.1.2.4.4.4.4.4.4.4.4.4.4.4.q.q.q.q.q.q.q.q.z.z.q.x.4.c.g.oXj ; 7 2 2 2 2 2 2 2 5 5 5 5 5 5 5 5 7 7 2 2 2 2 2 2 6 6 6 6 6 6 6 6 6 6 6 6 6 6 6 6 6 6 6 6 6 6 q q 6 q 6 q q q q q q q q q q q q q q q q e e q e q t t t t e e e q q q q 6 6 q q q 0 0 6 6 6 q q q e q q q 6 6 q e e q q q q q q q e e e e e q e e e e e e e e t t e t t t t t e q e e q q q q q q e q q e e t t e e e e q e e t t t t e e e e t t e t t t q q q q e e q q q q q q e e t t t e q q q q w w w q q q 0 0 0 q 0 6 6 6 6 6 6 0 0 0 q q 6 6 6 6 6 q q q 6 6 6 6 6 7 6 6 6 6 5 5 5 5 5 5 2 2 2 2 2 < 2 2 2 2 2 2 2 2 2 2 < , , , , , , , 3 3 3 , , , , , , , 1 , , : : , 4 $ = % $ 6 I OXd.4.b.M.2.q.x.4.z.q.q.q.q.4.4.4.q.q.q.4.4.4.4.4.0.0.4.4.2.2.2.2.2.2.2.2.2.2.2.2.;.2.2.2.;.;.;.;.;.;.;.;.;.;.;.;.;.;.;.;.;.;.;.;.;.;.;.;.;.;.;.2.2.3.g.vXGXHXZXaX6.2.2.2.:.:.;.;.;.;.;.;.;.;.;.;.-.-.;.;.-.-.-.-.;.;.-.-.-.-.-.-.-.-.-.-.-.-.-.-.-.-.-.-.-.-.-.-.-.-.-.-.-.-.-.;.-.-.-.",
"O.O.*.*.%.%.%.%.O.O.O.O.O.O.O.O.*.*.*.*.*.*.*.*.*.*.*.*.*.*.*.*.*.*.*.*.*.*.*.*.*.*.*.*.-.-.-.-.=.=.;.=.XXMXDXSXBX*X<.;.;.-.;.=.-.;.;.-.;.;.;.;.-.-.-.;.;.;.;.-.-.-.-.;.;.;.;.;.;.;.;.;.;.;.;.2.2.1.2.1.1.1.1.1.1.1.1.4.4.4.4.4.4.4.4.4.4.4.q.q.q.q.q.q.q.z.z.z.z.z.c.3.+XG % 7 2 2 2 2 2 2 2 2 5 5 5 5 7 7 7 7 2 2 2 2 7 7 5 5 5 5 5 5 5 5 5 5 6 6 5 6 5 5 6 6 6 6 6 6 6 6 6 6 6 6 6 q q q q q q q q q q q q q q q e e e e e e t t t t q q q q q q q q q q q q q 0 6 6 6 q q q e q q 6 6 6 q e e q q q q e e q t t e e e q e e e e e t e t t t e e t t t t t e e e q q q q q e e e q e e t t t t e e e e e t t t t t e e e t t e t t t q q q q t e e q e q q e t t t t t t e e e e w q q q 6 q q q 0 q 0 6 6 5 5 6 6 6 6 6 6 6 6 6 6 6 6 6 q q 6 6 q 6 6 6 6 6 5 6 5 5 5 5 5 5 7 2 2 2 2 2 2 2 2 2 2 2 < < 2 2 2 , , , , , , , 3 3 , , , , , , : : , , , : : : > = $ - ; $ q y.k.d.b.b.q.4.q.x.q.q.q.q.q.4.4.4.q.q.q.4.4.4.4.4.0.0.4.4.2.2.2.2.2.2.2.2.2.2.2.2.;.2.2.2.;.;.;.;.;.;.;.;.;.;.;.;.;.;.;.;.;.;.;.;.;.;.;.;.;.;.;.2.1.1.g.vXGXHXZXaX6.2.2.2.:.:.;.;.;.;.;.;.;.;.;.;.-.-.;.-.-.-.-.;.;.;.-.-.-.-.-.-.;.-.-.-.-.-.-.-.-.-.-.-.-.-.-.-.-.-.-.-.-.-.-.-.-.-.-.",
"O.O.O.O.%.%.*.*.*.*.O.%.O.O.O.O.*.*.*.*.*.*.*.*.*.*.*.*.*.*.*.*.*.*.*.*.*.*.*.*.*.*.*.*.-.-.-.-.=.=.;.=.XXMXGXDXBX*X<.;.;.-.;.=.-.-.;.;.;.-.-.-.-.;.;.;.;.;.;.-.-.-.-.;.;.;.;.;.;.;.;.;.;.;.;.;.2.1.2.2.2.1.1.1.1.1.2.4.4.4.4.4.4.4.4.4.4.q.q.q.q.q.q.q.z.q.q.q.z.4.a.U.K ; 7 < 2 2 2 2 2 2 7 7 7 5 7 7 7 7 2 2 2 2 2 7 7 5 5 5 6 6 6 5 5 5 5 5 5 5 5 7 7 5 7 5 6 6 6 6 6 6 6 6 6 6 q q q q q q q q q q q q q q q e e e e q e e t e e e q q q q q q q q e w q q q q q q q q q q q q 6 6 6 q e t e q q q e e e e t t e e e e q q e q q e e t t t e t t t t t t t e e q q q q e e e e q e e t t t t e e e e t t t t t t t t t t t q t t t q 6 q q e e q q q q e e q q t t q q q q w q q q q q q q 0 w w w q q 0 0 6 0 0 0 6 5 5 5 6 6 6 6 6 6 6 6 q q q q 6 6 6 q 5 5 5 5 5 5 5 5 5 5 2 2 2 2 2 2 2 2 2 2 2 2 2 2 2 2 , , , < , , - : : : - , , , , : , , , , , : & 3 > = * % % e y.OXj.1.m.v.0.z.q.q.q.q.q.q.q.4.q.q.q.q.4.4.4.4.4.4.4.4.2.2.2.2.2.2.2.2.2.2.2.2.;.;.;.;.;.2.2.2.;.;.;.;.;.;.;.;.;.;.;.;.;.;.;.;.;.;.;.;.;.;.;.2.1.1.f.vXGXHXZXtX6.2.2.2.:.:.;.;.;.;.;.;.;.;.;.;.-.-.-.-.;.;.;.;.;.;.-.-.-.-.-.-.;.;.-.-.-.-.-.-.*.*.*.*.*.*.*.*.-.-.-.-.-.-.-.-.-.-.-.",
"O.O.O.O.O.%.*.*.*.%.O.*.O.O.*.%.*.*.*.*.*.*.*.*.*.*.*.*.*.*.*.*.*.*.*.*.*.*.*.*.*.*.*.*.-.-.-.-.=.=.;.=.XXMXDXDXBX*X<.;.;.-.;.=.-.-.-.;.-.-.-.-.-.-.;.;.;.;.;.-.-.-.-.;.;.;.;.;.;.;.;.;.;.;.;.;.2.1.2.2.1.1.1.1.1.1.2.4.4.4.4.4.4.4.0.4.4.4.q.q.q.q.q.q.q.q.z.z.a.n.j.8.7 7 w 3 2 2 2 2 2 5 7 6 2 5 7 7 7 2 2 2 2 2 2 2 7 7 5 5 6 6 6 6 6 6 5 6 5 7 7 7 7 7 5 6 6 6 6 6 6 6 6 6 6 q q q q q q q q q q q q q e e q e e e e e e e q q q q q q q q q q q q e w q q q q q q q q q q q q q q q e t t t e e e e t e q t e e e q e q q q q q q e e t t t t t t t t t t e q q e e e t t e e e e t t e e e e e e t t t t t t t t t t t t e t t e q q q q q q q q q q q q q q q q q q q q q q q 6 q q w w q w w w w q q 0 0 0 0 0 0 0 5 5 6 6 6 6 6 6 q 6 q q q q 6 6 6 6 5 5 5 5 5 5 5 5 5 5 5 2 2 2 2 2 2 2 2 2 2 2 2 2 2 2 < , < < < , : * * * - - - , , , , , , , , , > & : > $ * , $ g y.OX3.z.x.0.w.q.q.q.q.q.q.q.4.q.q.q.q.4.4.4.4.4.4.4.4.2.2.2.2.2.2.2.2.2.2.2.2.;.;.;.;.2.2.2.2.;.;.;.;.;.;.;.;.;.;.;.;.;.;.;.;.;.;.;.;.;.;.;.2.1.3.f.vXGXHXZXtX<.2.2.2.:.:.;.;.;.;.;.;.;.;.;.;.-.-.;.;.;.;.;.;.-.;.-.-.;.;.-.-.-.;.-.-.-.-.-.-.*.*.*.*.*.*.*.*.-.-.-.-.-.-.-.-.-.-.-.",
"*.*.%.%.*.%.O.%.%.%.*.*.*.*.*.*.*.*.*.*.*.*.*.*.*.*.*.*.*.*.*.*.*.*.*.*.*.*.*.*.*.*.*.*.-.-.-.-.=.=.;.=.XXMXDXSXBX@X<.;.;.-.;.-.-.-.;.;.-.-.-.-.-.-.-.-.-.-.-.-.-.-.-.;.;.;.;.;.;.;.;.;.;.;.;.;.2.1.2.2.1.1.1.1.1.1.2.4.4.4.4.4.4.4.0.0.4.4.4.4.q.q.q.q.q.z.z.z.c.6.y.8 7 7 < 0 2 2 2 2 2 2 5 7 2 2 2 2 2 2 < < 2 2 2 2 2 2 7 5 6 6 6 6 6 6 6 6 5 5 7 7 7 5 6 6 6 q q q q q q q q q q q q q q q q q q q q q q q q q e e q q q e q q q q q q q q q q q q q q q q q q q q q q q q q q q e t t t t t t e t t t e q e e e q q q q q q q q q e e t t t t t e t q q q q q q e t t t t e q e e t e q q e e e t t t t e t t t t t t t t t t t e q q q q q q q q q q q q q q q q q q q q q q q q q q q 0 q q w w w q q q 0 0 0 0 0 0 0 0 6 6 6 6 6 6 6 6 q q q q q 6 6 6 5 5 6 5 5 5 5 5 5 5 2 2 2 2 2 2 2 2 2 2 2 2 2 2 2 2 2 < < , , , , , , : - - - - 3 , , , 3 3 3 - , O & 3 = = 3 % % N j.n.4.4.w.e.q.q.q.q.q.q.4.4.q.q.q.4.q.4.4.4.4.4.4.4.2.2.2.2.2.2.2.2.2.2.2.2.2.2.;.;.2.2.2.2.;.;.;.;.;.;.;.;.;.;.;.;.;.;.;.;.;.;.;.;.;.;.;.2.1.3.j.vXGXHXZXeX<.2.2.2.:.:.;.;.;.;.;.;.;.;.;.;.-.;.;.;.-.-.-.-.-.-.-.-.;.;.;.-.-.-.-.-.-.-.-.-.*.*.*.*.*.*.*.*.-.-.-.-.-.-.-.-.-.-.-.",
"*.*.*.*.*.%.%.%.O.O.O.O.O.O.O.O.*.*.*.*.*.*.*.*.*.*.*.*.*.*.*.*.*.*.*.*.*.*.*.*.*.*.*.*.-.-.-.-.=.-.;.=.XXMXDXDXBX@X<.;.;.-.;.-.-.-.;.;.-.-.-.-.-.-.-.-.-.-.-.-.-.-.-.;.;.;.;.;.;.;.;.;.;.2.;.;.1.1.2.2.1.1.1.1.1.1.2.4.4.4.4.4.4.4.q.q.4.4.4.4.z.q.e.e.q.z.z.a.j.y.e ; 7 < * 2 , , , < < 2 2 < < < < < < , < , , , < < 2 2 5 5 5 5 7 7 5 7 5 5 5 5 5 5 5 6 0 0 q q q q q q q q q q q q q q q q q q q q q q q q q q q q q q q q q q q t e e q q q q q q q q q w q q q q q q q q q q e t t e e q u t t t t t e q q q q q q q q q q q q e t t t t t t t e e q q q q q q e t t t t e q e t t e q q q e e t t t e e e t t t t t t y t t e e e e q q q q q q q w e e q q q q q q q q q w w q q 6 6 6 0 q w w w w q q 0 0 0 q q 0 0 q 5 5 5 6 6 5 5 6 q q q w q 0 6 6 6 5 6 5 5 5 5 5 5 7 2 2 2 < < < 2 2 2 2 2 2 2 2 < 2 2 2 , , , < , , , , - - * * 3 - - , 3 3 - * * 1 : & > $ O 3 $ - G U.b.4.M.0.q.q.q.q.q.q.4.4.q.q.q.4.q.4.4.0.4.4.4.4.2.2.2.2.2.2.2.2.2.2.2.2.2.2.;.;.;.2.2.2.;.;.;.;.;.;.;.;.;.;.;.;.;.;.;.;.;.;.;.;.;.;.;.2.2.3.j.vXGXHXAXeX<.2.2.;.:.:.;.;.;.;.;.;.;.;.;.;.-.;.;.;.-.-.-.-.-.-.-.-.;.;.-.-.-.-.-.-.-.-.-.-.*.*.*.*.*.*.*.*.-.-.-.-.-.-.-.-.-.-.-.",
"*.*.O.O.O.O.O.O.O.O.O.O.O.O.*.*.*.*.*.*.*.*.*.*.*.*.*.*.*.*.*.*.*.*.*.*.*.*.*.*.*.*.*.*.*.*.*.-.-.;.9.=.k.cXDXDXNX-X,.:.-.;.*.2.-.-.-.-.-.-.-.-.-.-.-.-.-.-.-.-.-.-.;.-.-.-.-.;.-.-.-.-.;.1.;.1.2.2.1.1.1.1.1.2.1.1.2.4.4.4.4.4.4.4.4.4.4.q.q.q.q.2.R.e.M.z.4.I.oXi % < < ; < - ; , , , , < < < < < < , < < < < < , < 2 2 2 2 2 2 2 7 5 6 5 5 5 6 6 6 6 6 q 0 q q q q q q q q q q q q q q q q q 6 6 q q q q q q q q q q q q t t t t e q q q e q e q q q q q q q q q q q q e e e q q t t e q q q t t t e w w q q e q q q q e q q q q e t t t t t t t t e e e e t q e e e e e e e e t t t e e e e e q q q e t t e t t t t t t y y e e e e e q q q q q q q q 0 q q w w w w q q q q q q q q q q q q q q q q q w w w 0 0 q q q q q 6 6 5 5 5 6 5 6 5 7 5 q q q 0 6 5 5 5 5 0 0 0 0 0 5 5 5 5 5 2 2 2 2 2 < 2 2 2 2 2 < < < < < < , , , , , , - * * * * * , , , , , - , - * * > > & & : $ ; N oXU.4.z.z.z.x.z.4.z.x.4.z.4.q.4.0.4.r.r.0.2.2.2.4.2.2.2.2.2.2.2.1.2.2.2.2.2.2.2.2.2.;.;.;.;.;.;.;.;.;.;.;.;.;.;.;.;.;.;.;.-.-.-.-.;.;.;.2.,.k.MXGXHXZXtX<.1.;.;.:.>.;.-.;.;.;.-.-.-.;.;.-.-.-.-.-.-.-.-.*.*.*.*.*.*.*.*.*.*.*.*.*.*.*.*.*.*.*.*.*.*.*.*.*.*.*.*.*.*.*.*.-.-.-.",
"*.*.O.O.O.O.O.O.O.O.O.O.%.O.*.*.*.*.*.*.*.*.*.*.*.*.*.*.*.*.*.*.*.*.*.*.*.*.*.*.*.*.*.*.*.*.*.-.;.;.9.=.k.cXDXDXCX-X,.:.>.:.*.2.-.-.-.-.-.-.-.-.-.-.-.-.-.-.-.-.*.*.;.;.-.-.-.-.-.-.1.1.1.1.1.1.2.2.1.1.1.1.1.1.1.1.4.4.4.4.4.4.4.4.4.4.4.0.q.q.1.R.%.e.e.M.z.OXj < - 2 < < 2 < 3 3 < < < 2 2 2 < 3 < , < < < < < , < 2 2 2 2 2 2 2 7 7 5 5 5 5 6 6 6 6 6 q 0 q q q q q q q q q q q q q q q q q 6 6 6 0 q q q q q e e e e e t t t t t t e e e e e q q q q q q q q q q q e e t t q t t t q q q q t t e q w q q q q q q q q q q q q q q q e t t t t t e e e e e t e e e e e e e e e e e e e e e e e q 6 q e t e e e e e t t t t t t t t t t e e q w q q q q q 0 0 q q q q q q q q q q q q q q w w w q q q 0 0 0 q 0 0 0 q q q 6 5 5 5 5 5 5 5 5 5 5 5 0 0 q 0 0 6 5 5 5 5 5 5 5 5 5 5 2 2 2 2 5 5 2 2 < < 2 2 2 2 < < < < < , , - , , , , - - * * * * * : , , , , - - * * > > & & O * $ < L U.b.x.q.q.z.q.4.q.z.z.z.4.q.q.0.4.r.r.0.2.0.2.4.2.2.2.2.2.2.2.1.2.2.2.2.2.2.2.;.;.;.;.;.;.;.;.;.;.;.;.;.;.;.;.;.;.;.;.;.-.-.-.-.;.;.;.2.,.k.MXGXHXZXeX<.1.;.;.:.>.;.-.;.;.;.-.-.-.;.-.-.-.-.-.-.-.-.-.*.*.*.*.*.*.*.*.*.*.*.*.*.*.*.*.*.*.*.*.*.*.*.*.*.*.*.*.*.*.*.*.-.-.-.",
"*.O.O.O.O.O.O.O.*.%.*.*.%.*.*.*.*.*.*.*.*.*.*.*.*.*.*.*.*.*.*.*.*.*.*.*.*.*.*.*.*.*.*.*.*.*.*.-.-.;.9.=.k.cXDXDXNX-X .;.>.;.%.;.-.-.-.-.-.-.-.-.-.-.-.-.-.-.-.-.*.*.;.-.;.;.-.-.1.1.2.2.1.1.1.1.2.2.1.1.1.1.2.2.1.1.4.4.4.4.4.4.4.4.4.4.q.q.q.q.M.4.x.4.n.6.OXM ; * < 5 < < 3 , < 3 3 2 2 2 2 2 3 < < , , , , , , , < 2 2 2 2 2 2 2 2 7 5 5 5 5 6 6 6 0 q q q q q q q q q q q q q q q q q q q q 6 6 6 6 q q q q q e t t e e t t t t t t t t e e q q q q q q q q q q q t t t t t t t t t q q e t t t q q q q q q e q q q q e q q 6 q q q q q q q t t e e e e t t t t e e e e e e e e e t e e e q q q q q e e e q q q q e e q q q e e t e e e q q e w q q q 0 0 w 6 q q q q q t t q q q q q q q w w w q q 6 6 5 5 0 q q q q q 6 7 0 5 5 2 2 7 5 5 5 5 0 0 0 0 0 0 5 5 5 2 2 2 5 5 5 2 2 2 2 2 5 5 2 2 < < 2 2 2 2 2 < < < < , , - , , , , , , * * * * * : , , , , - - * : > > & & = $ % % 9 K +X4.z.z.q.z.q.q.q.q.q.q.q.q.q.0.4.0.0.0.0.0.4.2.2.2.2.2.2.2.2.2.2.2.2.2.;.;.;.;.;.;.;.;.;.;.;.;.;.;.;.;.;.;.;.;.;.;.;.-.-.-.-.;.;.;.2.,.k.MXGXHXZXeX<.1.;.;.:.>.;.-.-.-.-.-.-.-.-.-.-.-.-.-.-.-.-.-.*.*.*.*.*.*.*.*.*.*.*.*.*.*.*.*.*.*.*.*.*.*.*.*.*.*.*.*.*.*.*.*.-.-.-.",
"*.%.O.O.O.O.O.O.*.*.*.*.*.*.*.*.O.O.O.O.O.O.O.O.*.*.*.*.*.*.*.*.*.*.*.*.*.*.*.*.*.*.*.*.*.*.*.*.-.;.9.=.k.cXDXDXNX-X .;.>.:.%.;.-.-.-.-.-.-.-.-.-.-.-.-.-.-.-.-.*.*.;.-.;.;.-.-.1.1.2.2.1.1.1.1.2.2.1.1.1.1.2.2.1.1.4.4.4.4.4.4.4.4.4.q.q.q.q.q.M.1.x.m.3.+XG ; ; , 2 7 2 2 2 - , , , < 2 2 2 2 3 3 < , , , , , < < < < 2 2 2 2 2 2 2 2 5 5 5 2 6 6 6 0 q q 6 q q q q q q q q q q q q q q q q q q 0 0 0 q w q q q q e e e q e t e e t t t e e q q q q q q q e e q q t t t t t t t t t q q q q t t t e q e q q q t e q e t t t q 6 q q q q q q q e e e e e e t t t t e e q q q e q e e e e e q q q q q q e e q q q q q q q q q q q e e e e q q q w w q q 0 q 0 w q q q q q t t t q q q q q 6 6 6 0 0 6 6 6 6 6 6 0 q q w w w q 6 0 5 7 2 2 2 7 5 5 5 6 0 0 0 0 0 5 5 2 2 2 2 5 5 5 5 2 2 2 2 2 2 2 2 2 2 2 2 2 2 2 < < < < , , ; , , , , , , , * * : : , , , , , , - , : > > * = 4 $ - % $ 8 I j.z.z.q.e.M.e.4.4.q.q.z.q.q.q.0.4.0.0.0.0.4.2.2.2.2.2.2.2.2.2.2.2.2.2.;.;.;.;.;.;.;.;.;.;.;.;.;.;.;.;.;.;.;.;.;.;.;.-.-.-.-.;.;.;.2.,.k.MXGXHXZXeX<.1.;.;.:.>.;.-.-.-.-.-.-.-.-.-.-.-.-.-.-.-.-.-.*.*.*.*.*.*.*.*.*.*.*.*.*.*.*.*.*.*.*.*.*.*.*.*.*.*.*.*.*.*.*.*.-.-.-.",
"*.*.*.*.O.O.O.O.%.*.*.*.*.*.*.*.*.*.O.%.O.O.O.O.*.*.*.*.*.*.*.*.*.*.*.*.*.*.*.*.*.*.*.*.*.*.*.*.-.-.9.=.k.cXDXDXCXyX,.;.>.;.*.;.-.-.-.-.-.-.-.-.-.-.-.-.-.-.-.-.*.*.-.-.-.-.-.-.1.-.;.;.1.1.1.1.2.2.2.2.1.1.1.2.1.2.4.4.4.4.4.4.4.4.q.q.q.q.q.q.q.x.a.a.j.I 9 9 2 , < 2 2 2 2 2 , < < < < 2 2 2 3 < < , , , , , < < < < , , , , 2 2 2 7 7 5 5 5 5 6 6 0 0 6 6 6 q q q q q q q q q q q q q q q q w w w w w w w w q e e e q q e e e e e t t e e q e e e q w w w q q q t t t t e e q q q q q q q e e e e e e e e e q q q q q q q q q q q q q q q q e e e e q t t t e e q q q q q q q q e e q q q q q q q q q q q q q q q q q q q q q q q q q q q q w q q q 0 0 q q q w q w q w e t t q q q q q 6 6 6 6 6 6 6 6 0 0 6 6 0 q w w q 0 0 5 7 2 2 2 7 5 5 5 5 5 5 0 0 0 5 2 2 2 2 2 5 5 5 5 2 2 2 2 2 2 2 2 2 2 2 2 2 2 2 < < < < < , , , , , , , , , , , , , , , , , , 3 , - : : : : = $ 4 = $ ; % q y.d.x.4.1.b.b.e.e.w.q.q.q.q.q.4.4.0.0.4.4.4.2.2.2.2.2.2.1.2.2.2.2.2.2.;.;.2.2.;.;.;.;.;.;.;.;.;.;.;.-.;.;.;.;.;.;.;.;.-.-.-.;.;.;.2.,.k.MXGXGXAXeX<.1.;.;.:.>.-.-.-.-.-.-.-.-.-.-.-.-.-.-.-.-.-.-.*.*.*.*.*.*.*.*.*.*.*.*.*.*.*.*.*.*.*.*.*.*.*.*.*.*.*.*.*.*.*.*.*.*.*.",
"*.*.*.*.O.O.O.O.%.O.*.*.*.*.*.*.*.%.O.*.O.O.*.%.*.*.*.*.*.*.*.*.*.*.*.*.*.*.*.*.*.*.*.*.*.*.*.*.-.-.9.=.k.cXDXDXCXyX,.;.-.;.%.;.-.-.-.-.-.-.-.-.-.-.-.-.-.-.-.-.*.*.-.-.-.-.-.-.-.-.;.;.1.1.1.1.2.2.1.2.1.1.1.1.1.1.4.4.4.4.4.4.4.4.q.q.q.q.q.q.q.x.d.j.oX7 % < ; , 2 5 2 ; < 5 3 2 2 2 2 < < < < < , , , , , , < < < , , , , < 2 2 7 7 5 5 5 5 6 6 6 6 6 6 6 6 6 6 q q q q q q q q q q q q q q q w w w q q q q e e e e q q e e e e t t t t e e e e e e q w w e q q e t t t e q q q q q q q q q q q q q e e e e q q q q q q q q q q q q q q q e e q q q e t t t e q q q q q q q q q q q q q q q q q q q q q q q e e e e e e e e e e e e e e e e q q q q q 0 0 0 q q q q q q q q q q q q q w w w q 0 6 6 6 6 6 6 5 5 5 6 0 0 0 6 5 5 7 2 2 7 5 5 6 6 5 6 5 5 6 6 5 2 2 2 2 2 2 5 5 5 2 2 2 2 2 2 2 2 2 2 < 2 2 < 2 2 < < < < < < , , , , , , , , , , , , : : : , , , , , , , , > $ 4 = $ - $ % j 7.U.b.4.e.e.r.b.q.q.q.q.q.q.4.4.0.0.4.4.2.2.2.2.2.2.2.1.2.2.2.2.2.2.;.;.2.2.;.;.;.;.;.;.;.;.;.;.;.;.;.;.;.;.;.;.;.;.-.-.-.;.;.;.2.,.k.MXGXGXAXeX<.1.;.;.:.>.-.-.-.-.-.-.-.-.-.-.-.-.-.-.-.-.-.-.*.*.*.*.*.*.*.*.*.*.*.*.*.*.*.*.*.*.*.*.*.*.*.*.*.*.*.*.*.*.*.*.*.*.*.",
"*.%.*.*.O.O.O.O.O.O.O.O.*.%.*.*.%.%.*.*.*.*.*.*.O.O.%.*.*.*.O.O.*.*.*.*.*.*.*.*.O.O.*.*.*.*.*.*.-.-.9.=.k.cXDXDXCXyX,.2.>.;.O.-.-.-.-.-.-.-.-.-.-.-.-.-.-.-.-.-.-.-.-.;.;.;.-.-.-.-.-.-.1.1.1.1.1.1.1.1.1.1.1.1.2.2.4.4.4.4.4.4.4.4.q.w.w.q.q.q.4.m.6.oXt ; ; - < 2 2 7 7 < , 2 < < < < < , , , < < , , , , , , < < < < , , 2 2 2 2 7 7 5 5 5 5 6 6 6 6 6 6 6 6 6 6 6 q q q q q 6 q q w w w q q q q q q q q q q q e q q q q q e e e e e e e e e e e q q q q q q q q e t t e q q q q q q q q q q q q q q q q q q q q q q e e q q q q q q q q e t q q q q e t t t q q q q q q q e q q q q q q q q q q q q q q q q q e e e e e t t e e e t t t e e q q q q q q 0 0 q q q q q q q t t t e e w e e u w w q q 6 6 6 6 6 6 5 5 6 6 6 5 5 5 7 7 5 5 5 5 6 6 6 0 5 5 5 5 0 5 2 2 2 2 2 2 2 2 2 2 2 2 2 2 2 2 2 2 2 2 < < 2 2 < 2 2 2 2 < , , , , , , , , , , , : : : : , , * - - , - - - 4 = = 4 $ $ & $ M 7.+X7.b.e.4.z.q.q.q.q.q.q.4.4.0.4.4.4.2.2.2.2.2.2.1.1.2.2.2.2.2.2.2.2.2.2.;.;.;.;.;.;.;.;.;.;.;.;.;.;.;.;.;.;.;.-.-.-.-.;.;.;.2.,.k.MXGXGXAXeX<.1.;.9.:.>.-.-.;.;.;.;.-.-.-.-.-.-.-.-.-.-.-.-.*.*.*.*.*.*.*.*.*.*.*.*.*.*.*.*.*.*.*.*.*.*.*.*.*.*.*.*.*.*.*.*.*.*.*.",
"O.%.*.*.O.O.O.O.O.O.O.O.O.%.*.*.O.O.O.O.O.O.O.O.O.O.O.*.*.*.O.O.*.*.*.*.*.*.*.*.O.O.O.*.*.*.*.*.-.-.9.=.k.cXDXDXCXyX,.2.>.:.O.-.-.-.-.-.-.-.-.-.-.-.-.-.-.-.-.-.-.-.-.;.;.;.-.-.-.-.-.-.1.1.1.1.1.1.1.1.1.1.1.1.2.2.4.4.4.4.4.4.4.q.e.w.q.q.q.z.4.I.oXe $ , 3 3 < 7 < < 5 5 2 < , , , , , , , , < < < < , , , < < < < < < 2 2 5 5 5 7 7 5 5 5 5 6 6 6 6 6 6 6 6 6 6 6 6 q q q q 6 q q q w w q q q q w w q q q q q q q q q q q q q q q q q q q e q q q q 6 6 q q q q q e t e q q q q q q q q q q q q q q q q q q q q q q q q q q q q q q q q e e q q q q e t t t q q q q e e e e q q q q q q q q q q q q q q q q q q q q q q q q e e e e e e e e q q w w w q 0 0 w w w w e t t t t t e q w q w w w w q q 0 0 0 0 w 0 6 5 5 6 5 5 2 2 5 5 5 5 5 5 6 0 0 0 0 5 5 5 w w 5 2 2 2 2 < < < 2 2 2 2 2 2 5 2 2 2 2 2 2 2 2 2 2 2 2 2 2 2 < < , , , , , , , - * * * * * * * * * * - - - - = = = = = & O $ ; A y.7.b.z.4.z.q.q.q.q.q.q.q.4.0.4.4.4.2.2.2.2.2.2.1.1.2.2.2.2.2.2.2.2.2.2.;.;.;.;.;.;.;.;.;.;.;.;.;.;.;.;.;.;.;.-.-.-.-.;.;.;.2.,.k.MXGXGXAXeX<.1.;.9.:.>.;.-.;.;.;.;.;.-.-.;.-.-.-.-.-.-.-.-.*.*.*.*.*.*.*.*.*.*.*.*.*.*.*.*.*.*.*.*.*.*.*.*.*.*.*.*.*.*.*.*.*.*.*.",
"O.O.O.O.O.O.O.O.O.O.O.O.O.O.O.O.%.%.%.*.*.*.*.*.*.*.*.*.%.O.O.O.O.O.O.O.O.*.*.*.O.*.*.*.*.*.*.*.-.-.;.2.l.cXDXDXNXeX,.2.>.:.-.%.-.-.-.-.-.-.-.-.-.-.-.-.-.-.-.-.*.*.-.-.-.-.-.-.-.-.-.2.1.1.1.1.1.1.1.1.1.2.2.2.1.1.4.4.4.4.4.4.b.1.e.M.0.q.x.4.d.oXM % ; 3 3 3 < 2 2 2 2 2 2 2 , , , , , , , , < < , , , < < < < < < < 2 2 2 2 2 2 5 5 6 6 0 0 5 6 0 6 7 7 6 q q 0 0 q q q q q 6 0 q q q q q 0 5 6 q q q q q q e e e e e t t t q q q q q q q e w w w q 6 6 q w q q q q q q q q q q q q q q q q 6 q q q q q q q q q q q q q q q w q q q q q q q q q q q t t e q w w q q q q 6 6 q q q w e e e w u t w q q q 6 6 q 6 6 q q w w q t e e e e t e e q q 6 6 6 0 q w w w q q q q e t t t q q q q w w q 0 0 0 0 q q q q 0 0 6 6 5 7 7 5 6 6 5 5 7 5 6 0 0 0 0 6 5 5 5 5 5 5 5 5 2 2 2 < < 2 2 5 5 2 2 2 2 2 2 2 2 2 2 < < < < 2 2 2 2 2 < < < , , , - , , , , , : * * * * * * * - - - % * = & & + + & % 9 L +Xd.a.v.z.z.q.e.r.0.e.4.4.0.0.0.0.0.2.2.2.2.2.2.2.2.2.2.2.2.2.2.2.2.2.;.;.;.;.;.;.;.-.-.-.-.-.-.-.;.-.-.-.;.;.;.;.-.;.;.;.;.,.k.MXDXGXZXyX<.1.;.;.>.>.;.-.;.;.;.-.-.-.;.-.-.-.-.-.-.-.-.-.*.*.*.*.*.*.*.*.*.*.*.*.*.*.*.*.*.*.*.*.*.*.*.*.*.*.*.*.*.*.*.*.*.*.*.",
"O.O.O.O.O.O.O.O.O.O.O.O.O.O.O.O.%.O.%.*.%.%.*.*.*.*.O.%.*.*.O.O.O.O.O.O.O.*.*.*.O.%.*.*.*.*.*.*.-.-.;.2.l.cXDXDXNXeX,.2.>.-.-.%.-.-.-.-.-.-.-.-.-.-.-.-.-.-.-.-.*.*.-.-.;.-.-.-.-.-.-.2.1.1.1.1.1.1.1.1.1.2.2.2.1.1.4.4.4.4.4.4.1.R.b.1.q.4.4.b.oXM ; ; 5 3 : 3 < 2 2 2 2 2 < < < < , , < , , , < < < < < 2 2 2 < < < 2 2 5 5 5 5 5 5 5 6 0 0 0 5 6 6 6 7 7 6 0 q q 0 q q q q q q q q q q q 0 0 6 0 q q w w q q e e e e e e e t q q q q q q q q q q q q 6 6 q q q q q q q q q q q q q q q e t e q q q q q q q q q q q q q q q q q q q q q q q q q q q q q q q q q q q q q q 6 6 6 6 q q w w t t u e w q q q 6 q 6 6 6 q q q q q e e e e e e e q q q 6 6 6 0 0 q w q q 6 q q q e t e q q q q w w 0 0 0 0 q q q w q q 0 6 6 6 6 6 5 6 0 6 5 5 5 0 0 6 6 5 5 5 5 5 5 5 5 2 5 2 2 2 < < 2 2 2 2 2 2 2 2 2 2 2 2 2 2 2 2 < < 2 2 2 2 2 < 3 < < , , , , , , , , : : : * * - - - - - * * * * & & + + & % % e I j.a.a.x.z.q.w.e.r.0.q.4.0.0.0.0.0.2.2.2.2.2.2.2.2.2.2.2.2.2.2.2.;.;.;.;.;.;.;.;.;.-.-.-.-.-.-.-.;.;.-.-.;.-.;.;.-.;.;.;.2.,.k.MXGXGXZXyX<.1.;.;.>.>.;.-.;.;.-.-.-.-.-.-.-.-.-.-.-.-.-.-.*.*.*.*.*.*.*.*.*.*.*.*.*.*.*.*.*.*.*.*.*.*.*.*.*.*.*.*.*.*.*.*.*.*.*.",
"O.O.O.O.O.O.O.O.O.O.O.O.O.O.O.O.*.*.%.O.O.O.O.O.O.O.O.O.*.*.*.*.*.*.O.O.O.*.*.*.O.O.*.*.*.*.*.*.-.-.;.1.l.cXDXDXCXeX,.2.>.-.*.%.-.-.-.-.-.-.-.-.-.-.-.-.-.-.-.-.*.*.;.;.;.;.;.;.-.-.;.2.1.1.1.1.1.1.1.1.1.2.2.2.1.1.4.4.4.4.q.4.5.U.4.4.c.a.6.+XL 7 % 7 , , 3 , 3 2 2 2 2 2 < < 2 2 < < < < , , < 2 2 2 2 2 2 2 < < 2 2 7 7 7 7 2 2 2 2 7 7 7 7 7 5 6 6 6 6 6 0 q q q 0 q q q q q q q q q 0 6 6 0 0 q q q e t t e e q q q q e e q q q q q q q q q q q q q 6 6 q q q q q q q e e e q q q e e q q q q q q q q q q q q q q q q q q q q q q q q q q q q q q q q q q q q q q q 6 6 6 7 5 6 q q w e t w w q q q 6 q q 6 6 q q q w q q e e q q e e e q q q q 6 6 6 0 0 q q q 6 q q q q q q q q w q q q 0 0 6 6 q q w w q q 0 0 0 0 q w 5 0 0 0 5 5 0 0 0 0 5 5 7 5 5 5 5 5 5 2 2 2 5 5 2 2 2 2 2 2 2 2 2 2 2 2 2 2 2 2 2 2 2 2 < < < < 2 2 2 < < < , , , - - - - - , , * - - 3 3 - - * * * * & & & + & = $ % y 8.I.a.z.z.q.w.e.r.0.q.4.0.0.0.0.0.4.2.2.2.2.2.2.2.2.2.2.2.2.;.;.;.;.;.;.;.;.;.;.;.;.-.-.-.-.-.-.-.-.-.-.;.-.-.-.-.;.;.;.2.,.k.MXGXGXZXyX<.1.;.;.:.>.;.-.;.;.-.-.-.-.-.-.-.-.-.-.-.-.-.-.*.*.*.*.*.*.*.*.*.*.*.*.*.*.*.*.*.*.*.*.*.*.*.*.*.*.*.*.*.*.*.*.*.*.-.",
"O.O.O.O.O.O.O.O.O.O.O.O.O.O.O.O.*.*.%.%.O.O.O.O.O.O.O.O.*.*.*.*.*.%.O.O.O.*.*.*.%.O.*.*.*.*.*.*.-.-.;.1.l.cXDXDXCXeX,.2.>.-.*.*.-.-.-.-.-.-.-.-.-.-.-.-.-.-.-.-.*.*.;.;.;.;.;.;.-.-.;.2.1.1.1.2.1.1.1.1.1.2.2.2.1.2.4.4.0.q.0.0.t.2.4.a.4.n.oXI 6 ; 7 5 * , s , < 2 2 2 2 2 < < 2 2 2 < < < 3 , 2 2 2 2 2 2 2 2 2 2 7 7 7 7 7 2 2 2 2 2 2 2 2 2 7 5 6 6 6 6 6 0 q q 0 q q q q q 6 6 0 0 0 6 6 6 0 0 0 0 q q q q q q q q q q q q q q q q q q q 6 q q w w q q q q q q q q q q e e e q q q q q q q e q q q q q q q q q q q q q q q q q q q q w q q q q q q q q q q q q q q q q q 6 6 6 6 q q q w w q q q 6 6 6 6 6 q q q w e e w q q q q q e e e q q q q q 0 0 0 0 q q 6 6 6 q q q q q q q q q q q 6 6 6 6 q q w w w q 0 0 0 0 q w 6 0 0 0 0 0 0 0 0 0 6 5 7 5 5 5 5 5 5 5 5 5 5 5 2 2 2 2 2 2 5 5 2 2 2 2 2 2 2 2 2 2 2 < < < < < < < < < < < , , , - - - * - , , , 3 3 3 3 - - - * * * & & & & & = 4 % % h 7.I.4.z.q.w.w.e.e.e.4.0.0.0.0.0.4.2.2.2.2.2.2.2.2.2.2.2.2.;.;.;.;.;.;.;.;.;.;.;.;.;.-.-.-.-.-.-.-.-.-.;.-.-.-.-.;.;.;.2.,.k.MXGXGXZXeX<.1.;.;.:.>.;.-.;.-.;.-.-.-.-.-.-.-.-.-.-.-.-.-.*.*.*.*.*.*.*.*.*.*.*.*.*.*.*.*.*.*.*.*.*.*.*.*.*.*.*.*.*.*.*.*.*.*.-.",
"O.O.O.O.O.O.O.O.O.O.O.O.O.O.O.O.%.%.%.%.*.*.O.O.O.O.*.*.%.O.*.*.*.*.O.O.O.*.*.*.*.%.*.*.*.*.*.*.-.-.;.2.l.cXDXDXCXeX,.;.-.-.*.*.-.-.-.-.-.-.-.-.-.-.-.-.-.-.-.-.*.*.-.;.-.-.-.-.-.-.-.2.2.2.1.2.1.1.1.1.1.1.2.2.2.2.4.4.4.4.e.4.r.e.z.4.3.oXI 7 < ; ; 2 2 2 , < < 2 2 2 2 < < < 2 2 2 < < , , , 2 2 5 5 5 5 7 7 7 5 5 0 0 5 5 5 5 5 5 5 5 5 5 5 7 5 6 6 6 6 q q q q 0 0 q q 0 0 5 5 5 0 0 0 0 0 q 0 0 0 6 q q q q q e e q q q 6 q q q q q q 0 6 q q q w w q 0 0 q q q q q q q q e q q q q q q q q q q q q q q q q q q e e q q q q q q q q w w w q q q q q q q q w q q q q q q q 0 0 0 q q w w w q q 0 0 0 0 0 0 0 q q w w w w q q q q q q e e q e q q q q q q q q q q 6 6 q q q q q q q q q q 6 6 6 6 0 q q w w w w q 6 6 6 0 q 0 0 0 0 0 0 0 0 0 0 5 5 5 5 5 0 2 2 5 5 0 5 5 2 5 2 2 2 2 2 5 5 5 5 2 2 2 2 2 2 2 < < < < , , , < < < < < , , , , , , - * * - - 3 3 , , - - , , * * * * & & & = O 4 * O % N 7.U.e.q.q.q.q.q.e.4.0.0.0.4.0.4.4.2.2.2.2.2.2.2.2.2.2.2.;.;.2.2.;.;.;.;.;.;.;.-.-.-.-.-.-.-.-.;.;.;.;.-.-.-.-.-.2.2.2.,.k.BXGXGXAXyX<.1.;.;.:.>.-.-.-.-.-.-.-.-.*.*.-.-.-.-.-.-.-.-.*.*.*.*.*.*.*.*.*.*.*.*.*.*.*.*.*.*.*.*.*.*.*.*.*.*.*.*.*.*.*.*.-.-.-.",
"O.O.O.O.O.O.O.O.O.O.O.O.O.O.O.O.%.%.O.O.*.*.O.%.%.%.*.*.O.O.%.%.*.*.O.O.O.*.*.*.O.O.*.*.*.*.*.*.-.*.;.1.l.cXDXDXCXeX,.;.-.-.*.%.-.-.-.-.-.-.-.-.-.-.-.-.-.-.-.-.*.*.-.-.;.-.-.-.-.-.2.2.2.2.1.2.1.1.1.1.1.1.2.2.2.2.4.4.4.4.4.4.q.z.4.d.+XI e % < 3 * - 2 < ; 7 2 2 2 2 2 < < < < < < < < < , , 2 2 2 2 7 7 7 7 2 2 7 7 5 5 5 5 5 5 5 5 5 5 5 5 7 5 6 6 q 6 6 0 q 0 0 0 0 0 0 0 5 0 0 0 0 w w q q q q q q q q q q q q e q q q 6 q q q q q 0 0 6 q 6 0 q q q 6 6 6 q q q q q q q e e q q e t e e q q q q q q q q q e e t t e q q q q q q q q q q q q q q q q q q w q q q w q q q 0 0 0 q q w u u w w q q q q q q 6 0 q q q q q q q q 6 q q e e q e q q q q q q q q q q q q q q q q q q q q q q 6 0 0 0 0 q q w w w q q 6 6 6 0 0 0 0 0 q 0 0 0 5 0 0 5 5 5 5 5 5 2 2 2 5 5 5 5 2 5 2 2 2 2 2 5 5 5 5 5 2 2 2 2 2 < < < < < , , , < < < < < , , , < , , , - - - - , , , - - , - , * * * * * * * = = O & - % 7 A +Xt.w.z.q.z.q.q.e.0.0.0.4.4.4.2.2.2.2.2.1.2.2.2.2.2.2.;.;.2.2.;.;.;.;.;.;.;.-.-.-.;.-.-.-.-.;.;.;.;.-.-.-.-.-.2.2.2.,.k.BXGXGXAXyX<.1.;.;.:.>.-.-.-.-.-.-.-.*.*.*.-.-.-.-.-.-.-.-.*.*.*.*.*.*.*.*.*.*.*.*.*.*.*.*.*.*.*.*.*.*.*.*.*.*.*.*.*.*.*.*.-.-.-.",
"O.O.O.O.O.O.O.O.O.O.O.O.O.O.O.O.%.%.%.O.*.*.*.*.*.*.*.*.O.O.O.O.*.*.*.O.O.*.*.*.O.%.*.*.*.*.*.*.*.*.;.1.l.cXDXDXCXeX,.;.%.-.*.*.-.-.-.-.-.-.-.-.-.-.-.-.-.-.-.-.*.*.-.-.;.;.-.-.1.1.2.2.2.2.2.1.1.1.1.1.2.2.2.2.2.4.4.4.4.4.4.q.x.4.1.U.y.g % 7 - 3 3 - - < 2 7 < < < < 2 2 < < < < < < < < < < 2 2 < < 2 2 2 2 2 2 2 2 2 7 7 7 2 2 2 2 2 2 5 5 6 6 6 0 q q 6 6 6 6 5 6 0 0 0 0 0 0 0 0 0 w w w q q q q q q q q q q e e w q q 6 q q q 0 0 0 0 0 0 6 6 6 q q 0 6 6 6 6 q w e w q q q q q w w w w q q q q q q q q q q e t t w q q q q q q q q q q e q q q q q q q q q 0 q q q q q q 0 q q q w w u w w q q q q q q 6 0 q q 0 0 q q 6 6 6 q q w q q q q q q q q q q w q q q q q q q q q q q q q q q 0 0 0 q 0 q q w q q 0 0 0 q q q q 0 0 q w 0 6 5 6 5 5 5 5 7 7 7 2 2 2 2 2 2 5 5 2 2 2 2 2 2 2 5 5 5 5 5 2 2 2 2 2 2 < < < < < < < < < < < < , , , , , , , , , , , , , , , - * * * * * * * = = = > + O 3 ; % 8 8.u.w.z.z.z.q.q.e.0.0.0.4.4.4.2.2.2.2.1.1.2.2.2.2.2.2.2.2.2.2.;.;.;.;.;.;.;.-.-.-.;.;.-.-.-.-.;.;.;.-.-.-.-.;.2.2.;.,.k.BXGXGXAXyX<.1.;.;.:.>.-.-.-.-.-.-.*.*.*.*.-.-.-.-.-.-.-.-.*.*.*.*.*.*.*.*.*.*.*.*.*.*.*.*.*.*.*.*.*.*.*.*.*.*.*.*.*.*.*.*.-.-.-.",
"O.O.O.O.O.O.O.O.O.O.O.O.O.O.O.O.O.%.%.%.*.*.*.*.*.*.*.*.O.O.O.O.*.*.*.%.O.*.*.*.O.O.*.*.*.*.*.*.-.*.;.1.l.vXDXDXCXeX..;.%.-.*.*.-.-.-.-.-.-.-.-.-.-.-.-.-.-.-.-.*.*.-.-.;.;.-.-.1.1.1.2.2.2.2.1.2.2.5.2.1.2.4.4.4.4.4.4.4.4.4.q.z.a.U.8.g ; < < , , 3 3 3 2 7 < < < < < 2 2 < 2 < < < < < < < < 2 2 2 2 2 2 7 7 5 5 5 5 5 5 5 5 2 2 5 5 5 5 5 5 6 6 6 0 q q 6 6 6 5 5 5 0 0 0 0 0 0 0 0 0 0 0 q 0 0 q q q q q q q q e e e q q q q q 0 0 0 0 0 0 q q 6 0 q w q 0 6 6 q q w e w q q q 6 q q q q q q q q q q q q q q q e e e q q q q w w w w w w e e q q q q q q q 0 6 6 6 0 0 0 0 q q q q q q q q w q q q q 0 q 0 q q q q q q q w 6 6 6 q q w q q q q q q q q q q w w q q q q q q q q q q q q q q q q q q 0 q q q 0 0 0 0 q q q w q 0 0 q 0 0 5 2 5 5 7 2 7 2 2 2 5 2 < < < 2 5 w 2 2 2 2 2 2 2 2 5 5 5 5 2 2 2 2 2 2 2 2 2 2 2 < < < < < < < < < , , , , , , , , - , , , , - * * * * * * * * = = + > O $ 4 % % d y.d.a.z.z.q.q.q.0.0.0.4.4.4.4.4.2.1.1.1.2.2.2.2.2.2.2.2.2.2.;.;.;.;.;.;.;.-.-.;.;.;.-.-.-.-.-.;.;.-.-.-.-.;.2.2.;.1.k.BXGXGXAX*X<.-.;.;.-.;.;.;.-.-.-.-.*.*.*.*.-.-.-.-.-.-.-.-.*.*.*.*.*.*.*.*.*.*.*.*.*.*.*.*.*.*.*.*.*.*.*.*.*.*.*.*.*.*.*.*.-.-.-.",
"O.O.O.O.O.O.O.O.O.O.O.O.O.O.O.O.O.O.O.O.O.O.O.O.%.%.%.%.%.%.%.%.*.*.%.%.*.*.*.*.O.*.*.*.*.*.*.*.*.*.-.1.g.xXSXDXNXrX,.-.>.>.-.-.*.*.*.*.*.*.*.*.*.*.*.*.*.*.*.*.-.*.*.*.-.-.1.1.2.2.2.2.2.2.2.2.2.2.:.5.5.1.4.4.a.4.4.4.4.b.z.4.a.6.oXN % - < < , , , < < 2 2 2 < < < < < < < < < < < < < < 2 2 2 2 2 2 2 2 5 5 5 5 2 2 2 5 5 5 5 5 5 5 5 5 5 6 6 6 6 6 6 6 6 6 0 6 5 7 5 5 0 0 2 0 0 0 w w w 0 0 q w q w w w w q q e e e q q q q q q 0 0 0 0 0 q q q q q q 0 0 0 0 0 0 0 q q q q q q q q q q q q q q q q q e e e e t t t e e q t w w q q q q w q q 6 6 6 6 6 6 w q 6 6 q q q e q q q q q q e e e w q q q q q q q q q q e t e q q q q q q q q q q q q e t t e e e e e e e q e e q q q q q q 0 0 q q q q q q q q q q q q q q w w q q 0 0 0 5 2 2 5 5 2 2 2 2 2 2 5 2 2 2 2 2 2 2 5 2 2 2 2 2 2 2 2 2 2 5 2 2 2 2 2 2 2 2 < < < < < < < < , , , , < < , , , , , , - - , - - : , , * * * * * * * * & > = = = = * % j 7.d.z.z.2.w.w.q.0.4.4.4.4.4.4.4.4.4.2.2.2.2.2.2.2.2.2.2.-.1.2.-.-.-.-.-.-.-.-.-.-.-.-.-.-.-.;.-.-.;.;.;.;.-.;.;...@XMXDXGXCX*X,.:.;.-.-.=.*.*.*.*.*.*.*.*.*.*.*.*.*.*.*.*.*.*.*.*.*.*.*.*.*.*.*.*.*.%.O.O.*.*.*.*.*.*.*.*.*.*.O.O.*.*.*.*.*.*.%.%.%.",
"O.O.O.O.O.O.O.O.O.O.O.O.O.O.O.O.O.O.O.O.O.O.O.O.%.%.%.%.%.%.%.%.*.*.*.%.O.*.*.*.O.O.*.*.*.*.*.*.*.*.-.1.p.xXSXDXNXdX,.-.>.>.%.-.*.*.*.*.*.*.*.*.*.*.*.*.*.*.*.*.-.*.*.*.-.-.-.-.2.2.2.2.2.2.2.2.2.2.5.5.5.2.4.4.1.z.b.4.4.4.4.a.6.*XN % 7 ; - - , , , , < < < 3 < < < < < < < < < < < < < < 2 2 2 2 2 2 2 2 2 5 2 2 2 2 5 5 5 5 5 5 5 5 5 5 5 6 6 6 6 6 6 6 6 6 6 6 6 6 5 5 2 2 2 0 0 0 0 w w 0 0 w q q 0 0 q q q q e e e e q q q q q q q q q q 0 0 0 0 0 0 0 0 q q q q q q q q q q q q e e q q q q q q q q e e e t t t t t e e w w w w w q q q q q q q 6 6 q q w 0 6 6 q q q q q q e e e e e e e e q q q q q q q q q e e e e q q 0 0 0 q q q q q q q q e t e e e e e e e e e e q q q q q q q q q q q q q q q q q q q q q q q q q q 0 0 5 5 2 2 2 2 2 2 2 2 2 2 5 0 5 5 5 5 5 5 2 2 2 2 2 2 2 2 2 2 2 2 2 2 2 2 2 2 2 2 2 < < < < < < < , , , , < < , , , , , , , , - - , , , , * * * * * * * * * : = = 4 4 = * < j OXI.1.R.w.0.q.q.0.4.4.4.4.4.4.4.4.2.2.2.0.2.2.2.2.2.2.-.1.1.-.-.2.2.-.-.-.-.;.;.-.-.-.-.;.;.-.-.;.;.-.;.-.;.;...@XMXDXDXNX*X1.;.-.-.=.=.*.>.*.*.*.*.*.*.*.*.*.*.*.*.*.*.*.*.*.*.*.*.*.*.*.*.*.*.*.O.O.O.*.*.*.*.*.*.*.*.*.*.O.O.*.*.*.*.*.*.%.%.%.",
"O.O.O.O.O.O.O.O.O.O.O.O.O.O.O.O.O.O.O.O.O.O.O.O.%.%.%.%.%.%.%.%.O.O.O.O.O.O.*.*.O.%.O.*.*.*.*.*.*.*.;.1.p.xXSXSXNXdX,.-.>.>.%.-.*.*.*.*.*.*.*.*.*.*.*.*.*.*.*.*.-.*.*.*.-.-.-.-.-.2.2.2.2.2.2.2.2.2.2.2.5.2.1.4.1.e.1.1.z.4.1.I.oXG < % 7 ; 3 3 , , , , < < < < < < < < < < < < < < < < < 2 2 2 2 2 < < 2 2 2 2 2 2 2 2 2 2 2 2 5 5 5 5 5 5 6 6 6 6 6 6 6 6 6 6 6 0 q q 6 7 2 < 2 5 5 2 2 0 5 2 w w w w q 0 q q q w e e e q q q w w q w w w w w q q q q q q q q q q q e q q q q e q q q e e q q q q q q q q e e t t t t t t e e q w e e t e w q w w q q q q q q q 0 0 0 q q q q e e e e e e e e t e e q q q q q q q q e e e e q q 0 0 0 0 q 0 0 q q q q q e e e e e e q q e e e e q w q q q q q q q q q q q q q q q q q q q q q q 0 0 0 5 5 2 2 2 2 2 2 2 2 2 2 0 0 0 0 5 5 5 0 2 2 2 2 5 5 5 5 2 2 2 2 2 2 2 2 2 2 2 2 < < < < < < < < < , , , < < < , , , , , , , , , , , , , , , * * * * * : > : > = = 4 = * $ < N oXU.0.x.w.q.q.0.4.4.4.4.4.4.4.4.2.2.2.0.0.2.2.2.2.2.-.-.1.-.-.;.;.-.-.-.-.;.-.-.-.-.;.;.;.-.-.-.-.-.-.-.;.;...@XNXDXDXNX$X1.;.-.-.=.=.-.*.*.*.*.*.*.*.*.*.*.*.*.*.*.*.*.*.*.*.*.*.*.*.*.*.*.*.*.O.O.O.O.*.*.*.*.*.*.*.*.*.O.O.*.*.*.*.*.*.%.%.%.",
"O.O.O.O.O.O.O.O.O.O.O.O.O.O.O.O.O.O.O.O.O.O.O.O.%.%.%.%.%.%.%.%.O.O.O.O.O.O.*.*.*.*.O.O.*.*.*.*.*.*.;.1.p.xXSXDXNXdX,.-.>.>.%.-.*.*.*.*.*.*.*.*.*.*.*.*.*.*.*.*.-.*.*.*.-.-.-.-.-.2.2.2.2.2.2.2.2.2.2.2.2.5.5.5.t.1.1.4.a.4.6.oX8.; ; 6 % 3 3 3 , , , , , , < < < < < < < < < < < < 2 2 2 2 2 2 2 < < < < 2 2 2 2 2 2 2 2 2 2 2 5 5 5 5 5 6 6 6 6 6 6 6 6 6 6 6 0 q 0 0 0 5 2 < 2 2 2 2 2 2 2 2 0 0 0 q q q q w q q q q q q q q w w w w w w w w q q w w w w w q q e w w q q q q q q q q q e q q q q q q q q e t e e e e e e e q w w e e e e w w e w w q q q q q q q q q w w q q q e e e e e e e t e e q q q q q q q q e e e q q q 0 0 0 q q 0 0 q q 6 6 q q w q e q q q q q q e q q q q q q q 0 6 6 6 6 6 q q q q q q q q q q q q 0 0 0 5 5 2 2 2 2 2 2 5 5 5 5 5 5 5 5 5 5 5 5 2 2 2 5 5 5 2 2 2 2 2 < < < < < < < < < < < < < 2 < < < < < , , , , < , , , , , , , , , , , , , , , : * * * * : & * * * * = & * * ; % A +X1.4.z.q.q.0.0.0.4.4.4.4.4.1.1.2.2.2.2.2.2.2.2.2.-.-.-.1.-.-.-.-.-.-.-.;.-.-.-.-.;.;.;.-.-.-.-.-.-.-.;.;...@XNXDXDXMX$X1.;.-.-.=.=.*.*.*.*.*.*.*.*.*.*.*.*.*.*.*.*.*.*.*.*.*.*.*.*.*.*.*.*.*.O.O.O.%.%.O.O.O.O.*.*.*.O.O.O.*.*.*.*.*.*.%.%.%.",
"O.O.O.O.O.O.O.O.O.O.O.O.O.O.O.O.O.O.O.O.O.O.O.O.%.%.%.%.%.%.%.%.O.O.O.O.O.*.*.*.O.O.O.%.%.*.*.*.*.*.-.1.p.vXSXSXNXdX,.-.>.>.%.-.*.*.*.*.*.*.*.*.*.*.*.*.*.*.*.*.-.*.*.*.-.-.;.;.-.-.2.2.2.2.2.2.2.2.2.2.2.2.5.5.5.2.M.x.1.d.oX8.6 - < - % 3 3 3 , , , , , , < < < < < < < < < < < < 2 2 2 2 2 2 2 < < < < < 2 2 2 2 2 2 2 2 2 2 5 5 2 5 5 5 6 0 6 6 6 6 6 0 6 6 q q 0 q 0 6 5 5 7 2 2 2 2 2 2 5 5 5 0 0 6 0 q w q q q q q q q q q q q q q w w w q q q q q q q 0 q q q q q q q 0 q 6 6 6 q q q q q q q q q q t e q q q q q q q q w q q q q q q q w w w q q q 6 6 q q q q w e w w q q q q e t t e e e q q q q q q q q q w e w w w q q 0 0 q q q q q 6 6 6 q q q q q q q q q q q q q q q q q q q q 5 5 5 6 0 0 0 0 q q q q q q q q 0 0 0 6 5 5 2 2 2 2 2 2 5 2 5 5 2 2 2 5 2 2 5 5 2 2 2 2 2 2 2 2 2 2 2 < < < < < , , , , , , , , 2 2 < < < < < , < < , 3 , , , , , , , , , , , , , , , , * * * * * * & & & & & = = % ; 9 L +X4.4.q.q.q.0.0.0.4.4.4.4.2.2.2.2.5.2.2.2.2.2.2.2.1.-.1.1.;.;.;.-.-.-.-.-.-.-.-.-.-.-.;.;.;.-.-.-.-.;.;...@XNXDXDXMX$X1.;.;.-.=.=.*.*.*.*.*.*.*.*.*.*.*.*.*.*.*.*.*.*.*.*.*.*.*.*.*.*.*.*.*.%.*.*.*.*.O.O.*.*.*.*.O.O.O.O.*.*.*.*.*.*.%.%.%.",
"O.O.O.O.O.O.O.O.O.O.O.O.O.O.O.O.O.O.O.O.O.O.O.O.%.%.%.%.%.%.%.%.O.O.O.O.O.O.*.*.O.O.O.*.%.O.*.*.*.*.-.1.3.vXSXSXNXdX,.-.>.>.%.-.*.*.*.*.*.*.*.*.*.*.*.*.*.*.*.*.-.*.*.*.-.-.;.;.-.-.2.2.2.2.2.2.1.1.2.2.2.2.r.r.2.2.x.a.3.OXy.y % 7 % - 3 - 3 3 , , , , , , < < , < < < < < < 2 < 2 2 2 2 2 2 2 2 2 < < < < < 2 2 2 2 2 2 2 2 2 5 5 5 5 5 5 0 0 6 6 6 6 6 0 6 6 q q q 0 0 0 0 0 6 5 2 5 5 2 5 0 0 0 q q 0 0 q q q q q q q q q q q q q q q q q q q q q q q q 0 0 0 0 0 q q 0 q 0 6 6 6 6 6 q q q q q q q q q e e q q q q q q q q q q q 6 6 6 6 q q q q q q q 6 6 q q q q w e w w q q q q e t t e q q q q q q q 6 q q q q w w w q q q 0 q q q q q q 6 6 6 6 q 6 6 6 6 6 q q q q q q q q q q q q q 0 0 0 q q q q q q q q q q q q q 0 0 0 0 6 6 5 5 5 5 5 2 5 2 2 2 5 5 5 5 5 5 5 5 5 5 2 2 2 2 < < 2 < 2 < < < < < , , , , , , , , 2 2 2 < < < < < < < 3 3 , , , , , , , , , , , , , , , , : * * * * * * > > & & = 4 4 ; ; 6 I U.4.q.q.q.q.0.0.4.4.5.4.5.5.5.5.5.2.2.2.2.2.2.2.2.-.1.1.;.;.-.-.-.-.-.-.-.-.-.-.-.-.;.;.-.-.-.-.-.;.;...@XNXDXDXMX$X1.;.;.;.=.=.>.*.*.*.*.*.*.*.*.*.*.*.*.*.*.*.*.*.*.*.*.*.*.*.*.*.*.*.*.*.*.*.*.*.O.O.*.*.*.*.O.O.O.O.*.*.*.*.*.*.%.%.%.",
"O.O.O.O.O.O.O.O.O.O.O.O.O.O.O.O.O.O.O.O.O.O.O.O.%.%.%.%.%.%.%.%.O.O.O.O.O.O.O.O.O.O.O.O.O.O.O.O.*.*.-.1.3.vXSXDXNXdX,.-.>.>.%.-.*.*.*.*.*.*.*.*.*.*.*.*.*.*.*.*.-.*.*.*.-.-.;.;.1.1.1.2.2.2.2.1.1.4.4.2.0.0.r.r.0.0.4.3.j.8.j ; < ; % 3 3 = 4 3 , , , , < , < 3 , , < < < < 2 2 < < 2 2 2 2 2 2 2 2 < < < < < 2 2 2 2 2 2 2 2 2 5 5 5 5 5 0 0 0 0 0 6 6 6 0 0 0 0 0 0 0 0 0 0 0 0 5 5 0 0 6 0 0 w w w w q 0 0 q q q q q q q q q 0 0 0 6 6 6 6 6 0 0 q q q q 0 0 0 0 0 0 0 0 0 q q 0 6 6 6 q q q q q q q q q q q q q q q q q q q q w q q q 6 6 6 q q q w q q q 6 q q q q q w w q q q 6 q w t e q q q q q q q 6 6 6 6 q q w w w 0 w q q q q q q 0 0 q 0 0 0 0 6 5 6 6 6 q q q q 6 q q q q q q q q q q q q q q q q q q q q q 0 q q 0 0 0 0 0 0 0 0 5 5 0 2 2 2 2 2 5 0 5 5 0 0 0 0 5 5 2 2 2 2 2 2 < < 2 < 2 2 < < , , , < , < < < 2 2 2 2 < < < < < < < , < , , , , , - , , , , , , , , , : * * * * * * > > & & = 4 4 % ; ; 6 8.j.e.q.q.q.0.0.0.4.5.5.5.5.2.2.2.2.1.2.2.2.2.2.-.-.-.-.1.;.-.-.-.-.-.-.;.;.;.-.-.-.;.;.-.-.-.-.;.;.;...@XNXDXDXMX$X,.;.;.-.=.=.>.>.*.*.*.*.*.*.*.*.*.*.*.*.*.*.*.*.*.*.*.*.*.*.*.*.*.*.*.O.*.*.*.*.O.*.*.*.*.O.O.O.O.O.*.*.*.*.*.*.%.%.%.",
"O.O.O.O.O.O.O.O.O.O.O.O.O.O.O.O.O.O.O.O.O.O.O.O.%.%.%.%.%.%.%.O.O.O.O.O.O.O.O.O.O.O.O.O.O.O.O.O.*.*.-.1.3.vXSXSXNXdX,.-.>.>.%.-.*.*.*.*.*.*.*.*.*.*.*.*.*.*.*.*.-.*.*.*.-.-.;.;.1.1.2.2.2.2.2.1.4.1.1.4.0.0.0.0.2.z.4.j.y.g % ; ; ; 3 * * 3 * 3 , , , , < < 3 3 , , < < < < 2 2 < < 2 2 2 2 2 2 2 2 < < < < 2 2 2 2 2 2 2 2 2 2 5 5 5 5 5 0 0 0 0 0 6 6 6 0 0 0 6 6 0 0 0 0 0 6 6 7 5 0 0 5 5 0 6 0 6 6 5 7 7 5 6 6 6 6 6 6 6 0 0 6 6 6 6 6 6 5 5 5 6 6 6 6 6 5 0 0 0 0 0 0 q q w q q 6 6 q q q q q q q q q q q q q q q q q q q e e e e w q q 6 q q w w w q q q 0 0 0 0 q q q q q q 6 q w w w q q q q q q q 6 6 6 6 q q q q q 0 q 0 0 0 q q 0 6 0 0 0 0 0 q 6 5 7 6 6 6 6 6 6 6 6 6 q q q q q q q q q q q q q q q q q 0 0 0 q q 0 0 0 0 0 0 0 0 0 5 0 0 2 2 2 2 5 5 5 5 5 0 0 0 5 5 5 2 2 2 2 2 , , < 2 2 2 2 2 < < < < 2 2 2 2 2 2 2 2 < < < < < < < , < , , , - - - - - - , , , : , : : * * * * * * > & & & = = = 4 ; ; ; e y.7.q.q.q.q.0.0.0.4.5.5.2.2.2.1.1.1.2.2.2.2.2.-.-.-.-.2.2.-.-.-.-.-.-.;.;.;.-.-.-.;.-.-.-.-.-.-.;.;.,.@XNXDXDXMX$X1.;.;.-.=.=.*.*.*.*.*.*.*.*.*.*.*.*.*.*.*.*.*.*.*.*.*.*.*.*.*.*.*.*.*.O.O.%.%.%.O.O.O.O.O.O.O.O.O.O.*.*.*.*.*.*.%.%.%.",
"O.O.O.O.O.O.O.O.O.O.O.O.O.O.O.O.O.O.O.O.O.O.O.O.O.O.O.O.O.O.O.O.O.O.O.O.O.O.O.O.O.O.O.O.*.*.%.O.*.;.*.1.p.hXSXSXNXaX..*.>.>.-.-.%.*.*.*.*.*.*.*.*.*.*.*.*.*.*.*.-.-.-.-.-.-.1.1.-.-.2.2.2.2.2.1.4.4.1.5.0.2.2.z.q.z.d.oXN % ; < , , , , , , * * : : , , , < 3 3 , , < < < < < < 2 2 2 2 2 2 2 2 2 < < < < < 2 2 5 5 5 5 5 5 2 5 0 0 2 2 5 0 0 0 5 0 0 0 6 6 6 0 0 0 q 0 6 6 6 6 5 7 7 6 q 6 5 5 6 6 6 5 5 5 6 6 5 5 5 5 5 5 5 5 6 6 5 5 7 5 5 6 6 6 6 w w 6 6 6 5 5 0 0 0 0 0 0 q q q q q q q q 0 0 0 q q q w w w w w w w q w w t e w q q q w w q q q q q q q q 6 q q q q q q 0 q q q q q w w w q q q q q q q q 7 7 6 q 0 0 0 0 w q 6 6 0 0 0 5 0 6 5 2 2 2 7 7 7 7 7 6 6 q 0 6 q 0 0 6 6 6 q q q q 0 0 q q q q w w w q q 0 0 0 0 0 0 0 0 0 0 0 5 0 2 2 2 2 2 2 2 2 2 2 0 0 0 5 0 5 5 2 2 2 2 2 , < 2 2 2 2 2 2 2 2 < < < < 2 2 < < < 2 2 2 2 2 2 < , , , , , , , , , , , , , , : : , , : : * * * * = * & & & & * * 3 3 - - 7 e 7.6.e.4.4.z.z.2.0.4.4.5.4.1.3.1.1.2.2.2.2.2.2.-.;.1.2.1.-.-.-.-.-.-.-.-.-.-.-.-.-.-.-.*.-.-.-.;.;.,.@XNXDXDXMXOX1.:.*.-.=.=.*.*.%.*.*.*.*.*.*.*.*.*.*.*.*.*.*.*.*.*.*.*.*.*.*.*.*.*.*.O.O.O.O.O.%.%.O.O.*.*.*.*.O.*.*.*.*.*.*.*.%.%.%.",
"O.O.O.O.O.O.O.O.O.O.O.O.O.O.O.O.O.O.O.O.O.O.O.O.O.O.O.O.O.O.O.O.O.O.O.O.O.O.O.O.O.O.O.O.*.*.%.*.*.;.*.1.<.hXSXSXNXaX..*.>.>.-.-.%.*.*.*.*.*.*.*.*.*.*.*.*.*.*.*.-.-.-.-.-.-.1.1.-.-.1.2.2.2.2.1.4.4.2.2.5.0.4.4.z.,.+XG ; ; - 3 , , , , , , , : , , , , , 3 ; ; , , < < < < < < 2 2 2 2 2 2 2 2 2 2 2 < 2 2 2 2 2 5 5 5 5 5 5 5 5 5 2 2 5 0 0 0 0 0 0 0 6 6 0 q 0 0 q 0 0 0 0 w 6 6 0 w w q 0 q q q 0 0 0 0 0 0 0 0 0 5 6 6 6 0 6 6 0 q q 0 0 6 6 6 6 0 q 6 5 5 5 0 0 0 0 0 0 q q q q q q q q q 0 0 0 q q q q q q q q q q 0 0 q w q q q q q w w q q w q q q q q 6 q q q q q q q 0 0 6 0 q w w w q q q q q 0 0 0 6 0 q q w w w w w q 6 6 0 0 0 5 5 7 2 2 2 2 7 7 5 5 6 6 0 q q q q 0 0 0 6 6 q q 0 0 0 0 0 q q q q q q q q 0 0 0 0 0 0 0 5 5 5 2 0 0 0 2 2 2 2 2 2 2 2 5 0 0 0 5 0 5 5 5 2 2 2 2 < < 2 2 2 2 2 2 2 2 2 < < 2 2 2 2 2 < < 2 < 2 2 2 < , , , , , , , , , , , , , , : * , , : * * * * > = * * & & & * * * * * % - ; z 7.U.1.z.z.2.q.0.0.4.4.1.1.1.1.1.2.2.2.2.2.2.-.-.2.1.2.-.-.-.-.-.-.-.-.-.-.-.-.-.-.-.*.-.-.;.;.;.,.@XNXDXDXMXOX1.;.*.-.=.=.*.*.%.*.*.*.*.*.*.*.*.*.*.*.*.*.*.*.*.*.*.*.*.*.*.*.*.*.*.O.O.O.O.O.*.O.O.O.*.*.*.*.%.O.*.*.*.*.*.*.%.%.%.",
"O.O.O.O.O.O.O.O.O.O.O.O.O.O.O.O.O.O.O.O.O.O.O.O.O.O.O.O.O.O.O.O.O.O.O.O.O.O.O.O.O.O.O.O.*.*.*.*.*.;.-.1.<.hXSXSXNXaX,.*.>.>.-.-.%.*.*.*.*.*.*.*.*.*.*.*.*.*.*.*.-.-.-.-.-.1.1.1.-.-.2.2.2.2.2.2.1.5.5.5.5.z.z.3.p.U.G 7 % ; 3 3 , , , , , , , , , , < 3 3 3 3 ; , , < < < < < < 2 2 2 2 2 2 2 2 2 2 2 2 2 2 2 2 2 2 5 5 5 5 5 5 2 2 2 2 2 5 5 5 0 0 0 0 0 0 0 q 0 0 0 0 0 w w w q q w u w q q w w q q q q q q q 0 0 0 0 5 5 5 5 5 6 0 w w w q 6 6 6 6 0 0 6 5 5 0 0 0 0 0 0 0 0 q q q w w w q q q q 0 0 q q q q q q q q q q q q q q q q q q q w w e e w q q q q q q q q q q q 0 6 6 5 5 0 0 w w q q q q q 0 0 0 0 6 6 5 6 0 w w w q 0 6 6 6 6 6 2 2 2 < 2 2 5 5 5 5 5 0 0 w w w q q 0 0 6 6 q q 6 5 5 6 0 0 q 0 0 0 0 0 0 0 0 0 0 0 0 5 5 5 5 5 0 0 0 0 0 0 2 2 2 2 2 5 0 0 0 0 0 0 5 5 2 2 2 2 2 2 2 2 2 2 2 2 2 2 2 2 < < 2 2 2 2 2 < < 2 2 2 2 < , , , , , , , , , , - - , , * * : * : * * * * > = = * * & & : > * : - * % % ; G y.7.b.4.1.z.0.0.0.4.2.4.3.1.1.2.2.2.2.2.2.1.-.-.2.1.-.-.-.-.-.-.-.-.-.-.-.-.-.-.-.*.-.-.-.;.;.,.@XNXDXDXMXXX1.>.*.-.=.=.*.*.%.*.*.*.*.*.*.*.*.*.*.*.*.*.*.*.*.*.*.*.*.*.*.*.*.*.*.O.O.O.*.*.*.*.O.O.*.%.*.*.*.*.*.*.*.*.*.*.-.-.*.",
"+.+.+.+.+.+.+.+.O.O.O.O.O.O.O.O.O.O.O.O.O.O.O.O.O.O.O.O.O.O.O.O.O.O.O.O.O.O.O.O.O.O.O.O.*.*.*.*.*.;.%.1.p.hXSXSXNXaX,.-.>.>.%.%.%.*.*.*.*.*.*.*.*.*.*.*.*.*.*.*.-.-.-.-.-.1.1.1.-.1.2.2.2.2.2.2.2.5.5.e.4.4.a.3.j.8.6 % < - - - , , , , < , , , , , , , 3 , 3 3 , , < < < < < < 2 2 2 2 2 2 2 2 2 2 2 2 2 2 2 2 2 2 5 5 2 2 2 5 2 2 2 2 2 2 5 5 0 0 0 0 0 0 q q 0 0 0 0 0 q q q q q e u w q q w q q 0 0 0 0 0 0 5 5 0 5 5 5 5 2 5 6 0 0 0 0 6 6 6 6 q q 0 6 5 5 0 0 0 0 0 0 5 5 q 0 q w w w w w q q q 0 0 0 0 q q q w q q q q q q q q q q q q q q w e w q q q q q q q q q q 0 0 6 6 5 5 5 0 0 w q q q q q q q q 6 5 7 7 5 6 0 0 w q 0 6 6 6 6 6 2 2 2 2 2 2 5 0 7 5 5 5 0 0 w q q q 0 0 q q q q 0 5 5 6 0 0 0 0 0 0 0 0 6 5 0 0 w 0 0 5 5 5 5 0 0 0 0 0 0 0 0 0 2 5 5 5 0 0 0 5 0 5 5 5 2 2 2 2 2 2 2 2 2 2 2 2 2 2 2 < 2 < < < 2 2 2 2 < 2 2 < < < , , , , , , , , , - - - , , * * * * * * * * * * = = = * * > : > : : , 4 = % % 7 G oXj.3.4.4.0.0.0.2.4.1.1.1.1.2.2.2.2.2.2.2.-.-.1.1.-.-.-.-.-.-.-.-.-.-.-.-.-.-.-.*.-.-.-.;.;.,.@XNXDXDXMXXX1.>.*.-.=.=.*.*.%.*.*.*.*.*.*.*.*.*.*.*.*.*.*.*.O.O.O.O.*.*.*.O.*.*.*.O.O.%.*.*.*.*.O.O.O.O.*.*.*.*.*.*.*.*.*.*.-.-.-.",
"O.O.+.+.+.+.+.+.O.O.O.O.O.O.O.O.O.O.O.O.O.O.O.O.O.O.O.O.O.O.O.O.O.O.O.O.O.O.O.O.O.O.O.O.%.%.%.%.%.;.%.1.p.hXSXSXNXaX,.*.>.>.%.%.%.*.*.*.*.*.*.*.*.*.*.*.*.*.*.*.-.-.-.-.-.-.-.-.-.2.2.2.2.2.2.2.r.2.r.e.1.1.p.j.y.6 < < % 3 3 * , , , < < < < , , , , , , , , , < < < < < < < < 2 2 2 2 2 2 < < < < < 2 2 2 2 2 5 5 5 2 2 2 2 2 2 2 2 2 2 2 2 2 5 5 5 5 0 0 0 0 0 0 0 0 0 0 0 0 q q e e q 6 6 q q 0 0 0 0 0 0 0 0 0 5 5 2 2 2 5 0 0 0 0 6 6 5 5 0 0 0 0 q q 0 6 0 0 0 0 0 0 0 5 0 0 q q w w w w q q 0 0 0 0 0 0 0 0 0 0 0 0 0 0 q q q q q q 6 6 q q w q q q q q q q q q 0 q q q q 0 6 5 5 5 0 0 0 0 q q q w w w 0 0 0 0 5 5 5 6 0 0 0 6 6 6 6 0 2 2 2 2 2 2 2 0 5 2 2 5 0 0 w q q q q q q q q q q 0 0 0 0 0 0 0 0 0 6 5 5 5 6 6 0 0 5 5 5 6 0 0 0 0 0 0 0 0 0 0 5 5 5 5 0 0 0 5 5 5 5 5 2 2 2 2 2 2 2 2 2 2 2 2 2 2 2 2 2 2 2 2 2 2 2 2 2 < < < 2 < , , < < , , , , , - - - * : : , : : * * * * * * = = > * * * * * : * * = = = ; $ 6 I 7.j.b.4.0.0.0.0.2.2.4.1.2.2.2.2.2.2.2.2.-.-.-.-.-.-.-.-.-.-.-.-.-.-.-.-.-.-.-.*.-.-.-.;.;.,.@XNXDXDXMXXX1.-.-.-.=.=.%.%.%.*.*.*.*.*.*.*.*.*.*.*.*.*.*.*.O.O.*.*.*.*.O.O.*.*.*.O.O.O.*.*.O.O.O.O.O.O.O.O.O.O.*.*.O.O.*.*.%.%.%.",
"O.O.+.+.+.+.O.O.O.O.O.O.O.O.O.O.O.O.O.O.O.O.O.O.O.O.O.O.O.O.O.O.O.O.O.O.O.O.O.O.O.O.O.O.%.%.%.%.%.;.%.1.<.hXSXSXNXsX,.-.>.O.%.%.%.*.*.*.*.*.*.*.*.*.*.*.*.*.*.*.-.-.-.-.-.-.-.-.-.1.2.2.1.1.2.2.r.2.0.q.3.3.j.y.j % % 3 * - 3 - , , , < < < < < , 3 3 , , , , , < < < < < < 2 2 2 2 2 2 2 < < < < < < < 2 2 2 2 5 5 5 2 2 2 2 2 2 2 < < 2 2 2 2 2 2 2 5 0 0 0 0 6 6 0 0 0 0 q 0 q q w e e q q q q q q q q q 0 0 0 0 5 5 2 0 0 0 w 0 0 6 6 6 6 6 0 0 0 q q 0 0 0 0 0 0 0 0 0 0 5 0 0 0 q q w w w q q q 0 0 0 0 0 5 0 0 0 0 0 0 0 q q q q q 6 6 6 6 q q q q q q q q q 6 6 0 q q q w q 0 0 5 5 5 5 0 0 0 q q q w w w w 0 0 5 5 7 7 5 6 0 0 6 6 0 0 5 2 2 2 2 2 5 0 5 5 5 5 0 0 w w q q q q q q q q w q 0 0 0 0 0 0 5 0 6 6 5 5 5 5 5 5 7 7 5 5 5 0 0 0 0 0 0 0 0 0 0 5 5 5 0 0 5 5 5 5 5 2 2 2 2 2 2 2 2 < < 2 2 2 2 2 2 2 < 2 2 2 2 2 2 2 2 2 2 2 2 < , , < < , , , , , , - - * * , , : : * * * * * * * * = * * * * : : * & & = = 4 % % e I j.b.q.0.0.0.0.0.2.2.4.2.2.2.2.2.2.2.2.-.-.-.-.-.-.-.-.-.-.-.-.-.-.-.-.-.-.-.*.-.-.-.;.;.,.@XNXDXDXMXXX,.;.-.-.=.=.%.%.%.*.*.*.*.*.*.*.*.*.*.*.*.*.*.*.O.O.*.*.*.*.O.O.*.*.*.O.O.O.*.*.O.O.O.O.O.O.O.O.O.O.O.*.O.O.O.O.%.%.%.",
"O.+.O.O.O.O.O.O.O.O.O.O.O.O.O.O.O.O.O.O.O.O.O.O.O.O.O.O.O.O.O.O.O.O.O.O.O.O.O.O.O.O.O.O.%.%.%.%.%.-.*.1.<.hXSXSXNXsX,.-.>.O.%.%.%.*.*.*.*.*.*.*.*.*.*.*.*.*.*.*.-.-.-.-.-.-.-.-.2.2.2.2.1.2.2.5.r.2.4.a.3.f.y.N % 7 % - 3 & 1 , ; ; < < < < < 3 ; 3 3 3 < , , , < < < < < 2 2 2 2 2 2 < 2 < < < , < < < 2 2 2 2 2 2 2 2 2 2 2 2 2 2 , < 2 2 2 2 2 2 2 0 q q 0 0 5 5 6 0 6 0 q q q 6 q w e q q e w q w q q q w w 0 0 0 2 2 0 0 0 w 0 0 6 6 6 6 6 6 0 0 6 0 0 w 0 0 0 0 0 0 0 0 0 6 0 0 0 0 q q q q q q q 0 0 0 0 0 0 q q q q q w q q q q q q q q q q q q q q 6 6 q q q q 0 q w w w w 0 0 0 0 0 0 0 0 0 q q q q q 0 0 0 6 5 7 2 2 7 6 6 0 0 0 5 0 2 2 2 2 2 2 2 0 0 5 2 2 5 0 0 0 q q q 0 q q q q q 0 0 0 0 0 0 0 5 0 0 0 0 5 2 2 5 5 5 5 5 5 2 2 5 5 0 0 0 0 0 0 5 5 5 5 5 5 5 2 2 2 2 2 2 2 2 2 2 2 < < < < 2 2 2 2 2 2 2 2 2 2 2 2 2 2 2 2 2 2 2 < , , < < , , , , , , , , * * , , : : * * * * & & * * * = * * * , , : * > > = = 4 % ; g P 6.d.0.0.0.r.r.5.2.2.2.2.2.2.2.2.2.2.2.2.-.2.-.-.-.-.-.-.-.-.-.-.-.-.-.-.-.*.-.-.-.;.;.,.-XCXDXDXMXXX,.;.-.-.=.=.%.*.%.*.*.*.*.*.*.*.*.*.*.*.*.*.*.*.O.*.*.*.*.O.O.O.*.*.*.O.O.*.*.*.O.O.O.O.O.O.O.O.O.O.O.O.*.*.O.O.%.%.%.",
"' ' ' ' ' ' ' ' O.O.O.O.O.O.O.O.O.O.O.O.O.O.O.O.O.O.O.O.O.O.O.O.O.O.O.O.O.O.O.O.O.O.O.O.*.%.%.%.O.;.%.1.<.hXSXSXNXsX,.-.>.O.%.%.%.*.*.*.*.*.*.*.*.*.*.*.*.*.*.*.-.-.-.-.=.=.=.-.2.2.2.1.1.2.2.5.0.2.4.3.3.j.L % ; % 3 3 , 1 * , ; ; ; 3 3 < ; ; ; - 3 3 2 2 2 2 2 2 < 2 < 2 2 2 2 2 2 < 2 < < < , < < 2 2 2 2 2 2 2 2 2 2 2 5 5 2 2 < < 2 2 2 2 2 2 5 0 w w q 0 6 6 6 5 5 7 7 7 6 7 6 q e e e e w q q q q q w w 0 5 2 2 2 5 0 0 0 6 6 6 6 6 6 6 5 0 0 6 6 0 w 0 0 0 s 0 0 0 0 5 5 6 0 0 0 0 q q q q q q q 0 q q q q q q q q w w q q q 6 6 q q q q q q q q 6 6 6 q q q q q q w w 0 w w 0 w 0 0 0 q q q w w w q w 0 0 0 5 5 7 7 5 2 5 0 0 0 0 5 0 2 2 2 2 2 2 2 5 0 2 2 2 2 5 5 6 q q 0 0 q q q w q 0 0 0 0 0 0 0 0 0 0 0 0 0 2 2 5 5 6 6 5 5 2 2 5 5 2 0 0 0 0 0 5 2 5 5 5 5 2 2 2 2 2 2 2 2 2 2 2 < < , < < 2 2 2 2 2 2 2 2 2 2 2 2 2 2 2 2 2 2 2 < , , < < , , , , , , , , - * , , : * * * * & & & & * * * * * * * * * * : : & 4 = 3 ; % j 7.7.4.0.0.0.0.0.0.5.2.1.2.1.2.1.2.2.1.2.2.1.-.-.-.-.-.-.-.-.-.-.-.-.-.-.-.*.-.-.-.;.;.,.@XCXDXDXMXXX1.;.-.-.=.=.*.*.%.*.*.*.*.*.*.*.*.*.*.*.*.*.*.*.O.O.O.O.O.O.O.O.*.*.*.O.O.%.*.*.O.O.O.O.O.O.O.O.O.O.O.O.*.%.O.O.%.%.%.",
"O.+.+.+.+.O.O.O.O.O.+.+.+.O.O.O.+.+.+.+.+.+.+.+.O.O.O.O.O.O.O.O.O.O.O.O.O.O.O.O.O.O.O.O.%.%.%.%.-.*.=.,.<.hXSXSXNXsX<.*.>.O.*.%.O.O.*.*.*.*.*.*.*.*.*.*.*.*.*.*.-.-.-.>.>.:.:.:.1.1.1.1.2.2.5.5.2.z.4.,.oXU ; % - - , , , , , , , , 3 3 3 3 < , < < 3 < < 2 2 2 2 2 2 2 < 2 2 2 2 2 2 2 2 < < 2 , < < 2 2 2 < , < 2 2 2 5 5 5 5 2 2 2 2 2 2 2 7 5 6 0 0 0 0 0 0 5 5 5 5 5 5 6 6 6 6 q q q w w w q q q w w w 0 0 2 5 6 0 0 0 0 0 6 6 q q q 6 6 5 6 6 6 6 q q q q 5 0 0 0 5 5 5 0 0 0 0 0 q q q 0 q q q q q q q q q q w w w w q q w q q q q q q q q q q q q q 6 6 6 0 0 q q q q q w q q q w w w 0 w 0 0 0 0 w w w w 0 0 5 5 5 5 5 5 5 6 0 0 0 0 0 0 5 2 2 5 5 5 5 2 5 5 5 5 5 0 0 w q q q q q q q q q q q q 0 q q 0 0 w w 0 2 2 2 0 0 0 5 5 5 5 5 2 2 5 5 5 0 0 0 2 2 2 2 5 5 5 5 2 2 2 2 2 2 2 < , < < < , , < 2 2 2 2 2 2 2 2 2 2 2 2 2 2 2 2 2 2 2 < , , , , , , , , , , , , * * * * * * * * * & * * * * * * * * * * * * * * * = = $ % ; ; g y.U.3.4.z.2.q.t.-.2.4.1.1.1.1.2.1.1.1.2.-.-.=.:.>.-.-.-.-.-.-.-.-.*.*.*.*.*.-.-.;.;.,.eXNXDXDXcXk.1.;.-.*.%.%.%.*.%.O.O.O.O.O.*.*.*.O.O.O.O.O.O.O.%.%.%.%.%.%.%.%.%.%.%.%.O.O.O.O.O.O.O.O.O.O.O.O.O.O.O.O.%.%.%.%.%.%.%.",
"+.+.+.+.+.+.O.O.+.O.+.+.+.O.O.O.+.+.+.+.+.+.O.O.O.O.O.O.O.O.O.O.O.O.O.O.O.O.O.O.O.O.O.O.%.%.%.%.-.%.=.,.<.hXSXSXNXsX<.*.>.>.*...O.O.*.*.*.*.*.*.*.*.*.*.*.*.*.*.-.-.-.>.>.:.:.:.1.1.1.1.2.2.r.2.2.x...oXy.6 ; ; - , : , , , , , , , 3 3 3 3 , , , < < < 2 2 2 2 < 2 < 2 2 2 2 2 2 2 2 2 < < < < < < 2 2 2 2 < < 2 2 2 5 5 5 5 5 2 2 2 2 2 2 5 5 0 0 0 0 q q q 0 5 5 5 5 5 5 5 6 6 6 0 q q w w q q q q q 0 0 0 0 7 5 0 0 0 0 0 0 6 6 q q q 6 6 5 q q 6 6 q q q q 0 0 0 0 2 2 7 5 7 5 5 0 q q q q 0 q q q 0 0 6 0 q q q q q q q q q q q q q q q q q q q q q 6 6 6 5 5 6 6 6 6 6 6 0 0 0 q q q 0 0 0 0 5 5 0 0 w w 0 0 5 5 5 5 2 2 5 5 5 5 0 0 0 0 0 5 5 5 5 0 5 5 5 5 0 5 5 5 0 0 0 0 0 0 0 0 q q q q e q q q 0 0 0 0 0 0 0 0 2 2 5 5 5 5 5 5 5 5 5 5 5 5 5 0 0 0 2 2 2 2 2 2 5 5 2 2 2 2 2 2 2 , < 2 2 2 2 < 2 2 2 2 2 2 2 2 2 2 5 5 2 2 2 2 2 2 2 2 2 < , , , , < , , , , , , - , - * * * & & & * * * * * * * * * * * : : * * * * = $ = % % ; h 7.6.4.4.q.q.0.0.4.4.1.1.1.1.1.1.1.1.2.-.-.*.>.>.;.-.-.-.-.-.-.-.*.*.*.*.*.-.-.-.:.,.eXNXDXDXcXk.1.;.-.*.%.%.*.*.%.O.O.O.%.O.*.*.O.O.O.O.O.O.O.O.%.%.%.%.%.%.%.%.%.%.%.%.O.O.O.O.O.O.O.O.O.O.O.O.O.O.O.O.%.%.%.%.%.%.%.",
"O.O.+.+.+.+.+.+.+.+.+.+.+.+.O.O.O.+.O.O.+.O.O.O.O.O.O.O.O.O.O.O.O.O.O.O.O.O.O.O.O.O.O.O.O.%.%.%.-.%.1.,.<.hXSXSXNXsX<.*.>.>.*...O.O.O.*.O.*.*.*.*.*.*.*.*.*.*.*.-.-.-.-.:.:.:.:.2.2.2.2.2.2.2.4.z...U.y.y % ; ; , , : , , , , , , , 3 < 3 3 , , , , , < 2 2 2 2 < < 2 2 2 2 2 2 2 2 2 2 2 < < 2 < 2 5 5 2 2 2 2 2 2 2 2 5 5 5 5 2 2 5 5 5 5 5 5 0 0 0 q q q q q 0 0 5 5 5 5 6 0 6 6 0 q q q q q q 0 0 0 0 5 5 5 7 5 0 0 0 0 0 q 6 6 6 6 6 6 6 6 q q q q q q q q 0 0 0 0 5 2 7 7 7 5 5 0 q q q q q q 0 q 0 0 0 0 6 0 q q q q 0 0 q q q q q q q q q q q q 6 6 6 6 5 5 5 5 5 5 5 5 5 6 q 0 6 6 0 q 0 5 2 2 5 0 0 0 5 5 5 5 5 2 2 2 2 2 5 5 5 5 5 5 0 0 5 5 0 0 5 5 0 0 0 0 5 5 0 0 0 0 0 0 0 q q q q q q q q q 0 0 0 0 0 0 0 0 0 5 5 5 5 5 5 0 0 0 5 5 5 5 5 5 5 5 2 2 2 2 2 2 5 5 5 0 0 5 2 2 < < 2 2 2 2 2 2 2 2 2 2 2 2 2 2 5 5 5 5 2 2 2 2 2 2 2 2 < < , , , , < < , , , , , , , , : * * * & & * * * * * * * * * * : : : * * * & * * > - % % ; M 7.d.1.q.0.;.0.2.1.1.1.1.2.2.1.2.2.2.-.-.-.-.*.;.;.-.-.-.-.-.-.*.*.*.*.*.-.-.-.;.,.eXNXDXDXcXk.1.;.-.*.%.%.*.*.%.*.*.*.*.*.*.*.*.%.O.O.O.O.*.*.%.%.%.%.%.%.%.%.%.%.%.%.O.O.O.O.O.O.O.O.O.O.O.O.O.O.O.O.%.%.%.%.%.%.%.",
"O.O.O.+.+.+.+.+.+.+.+.+.+.+.+.+.O.O.O.O.+.O.O.O.O.O.O.O.O.O.O.O.O.O.O.O.O.O.O.O.O.O.O.O.O.O.%.%.-.%.-.,.<.kXSXSXNXsX<.-.>.>.*...O.O.%.*.O.*.*.*.*.*.*.*.*.*.*.*.*.-.-.-.-.2.2.2.2.2.2.1.2.2.2.1.4.7.y.h ; ; - - , , , , , , , 3 3 , , , , , , < , , < < < < 2 2 < 2 2 2 5 5 2 2 5 2 5 2 2 2 2 2 2 2 0 0 2 2 2 2 2 2 2 5 5 5 2 2 5 5 5 5 5 5 6 6 0 0 0 0 q q q q 0 0 6 5 5 5 6 0 6 0 0 q q q q q 0 0 0 0 5 5 2 2 7 5 0 0 0 0 0 0 0 q q q q q q q w q q q q q q q 5 0 0 5 2 2 5 5 5 5 0 0 0 q q q q q q q q 0 q 0 0 0 q q q q q q q q q q q q q q q q q q q q q q 6 6 6 6 6 6 6 6 5 6 0 0 6 6 q 0 0 0 5 5 5 5 5 2 0 5 5 5 2 2 5 5 5 5 5 5 5 5 5 5 0 0 0 0 0 5 5 5 0 0 0 5 5 2 5 0 0 0 q q w w w q q q q q q q 0 0 0 0 0 0 0 0 0 2 5 5 5 5 5 0 0 0 5 5 5 5 2 2 2 2 2 2 2 2 2 2 5 5 0 w w 0 2 < , < 2 2 2 2 2 2 2 2 2 2 2 2 2 5 5 0 5 2 2 2 2 2 < , , , , , , , , , < , , , - , , , , , : * * * & * * * * * * * : : : : : * * * * * * * * * - - ; ; 9 A y.7.1.0.0.0.2.1.5.5.2.2.2.2.2.2.2.-.-.-.-.-.;.;.-.-.-.-.-.-.*.*.*.*.*.-.-.;.;.,.eXNXDXDXcXk.1.;.-.*.%.%.*.*.%.*.*.*.*.*.*.*.*.O.O.O.%.*.*.*.%.%.%.%.%.%.%.%.%.%.%.%.O.O.O.O.O.O.O.O.O.O.O.O.O.O.O.O.%.%.%.%.%.%.%.",
"+.O.+.+.+.+.+.+.+.+.+.+.+.+.+.+.+.+.+.O.O.O.+.+.O.O.O.O.O.O.O.O.O.O.O.O.O.O.O.O.O.O.O.O.O.O.O.%.-.*.1.,.<.kXSXSXNXsX6.-.>.O.*...O.O.O.O.O.*.*.*.*.*.*.*.*.*.*.*.>.>.-.-.-.2.2.2.;.;.2.2.1.4.4.3.6.+Xj % 7 ; - - , , , , , , ; 3 3 < , , , 3 < < < < < < < < < , < 2 2 2 2 2 2 2 2 5 2 2 2 2 2 2 2 5 0 0 2 2 2 2 2 2 5 5 5 2 2 2 2 2 5 5 5 5 5 5 0 0 0 0 0 q q q w 0 6 5 5 5 0 0 6 0 0 q q q q q 6 0 0 5 5 2 2 2 2 7 5 5 6 6 0 0 q q q 0 q q q 0 w q q q q q q 0 0 0 5 5 2 2 5 5 5 5 0 0 0 q q q q q q q 0 0 0 0 0 6 0 0 0 q q q q q q q q q q q q q q q q q q q 0 0 0 0 0 0 0 6 6 6 5 6 0 q q 6 0 0 5 5 5 5 5 5 0 5 2 2 2 2 5 0 5 5 5 5 5 5 5 5 5 5 0 5 5 2 2 2 5 5 5 5 2 2 5 5 0 0 q q w w q q 0 0 0 q w q 0 6 0 5 2 2 5 5 5 2 2 2 2 2 2 2 2 5 5 5 5 2 2 2 2 2 2 2 2 2 2 2 2 5 5 0 0 2 2 , , , 2 2 2 2 2 2 2 2 2 2 2 2 2 2 5 5 5 2 2 2 2 2 < , , , , , , , , , , , , , ; , , , , , : * * * * * * * * * * * * : * * * * * * * * : > * & $ % * % $ 6 L y.7.4.q.2.2.5.5.5.5.2.:.:.:.;.2.-.-.-.1.-.;.-.-.-.-.-.-.-.*.*.*.*.*.-.-.;.;.,.eXCXDXDXcXk.1.;.-.*.%.%.%.%.%.*.*.*.*.*.*.*.*.*.O.O.O.O.*.*.%.%.%.%.%.%.%.%.%.%.%.%.O.O.O.O.O.O.O.O.O.O.O.O.O.O.O.O.%.%.%.%.O.O.O.",
"O.O.+.+.+.+.+.+.+.+.+.+.+.+.+.+.+.+.+.+.O.O.+.+.O.O.O.O.O.O.O.O.O.O.O.O.O.O.O.O.O.O.O.O.O.O.O.%.*.*.1.,.<.kXSXSXCXsX6.-.>.>.%...%.O.O.O.O.*.*.*.*.*.*.*.*.*.*.*.>.>.-.-.2.2.2.2.2.2.5.5.4.4.4.6.oXB < ; ; - - - , , , , , , ; ; < < , , , , < < < < < < < , , , < < < 2 2 2 2 2 2 2 2 2 < < < 2 2 5 0 5 5 2 2 5 2 5 5 5 5 2 2 2 2 2 2 2 2 5 5 5 0 5 5 5 6 6 q q 0 0 0 6 5 5 0 0 0 0 q q q q q 0 0 0 5 5 5 2 2 2 2 2 5 6 5 5 6 0 q q q q q q q 0 w q q q q q q 0 w 0 0 5 2 2 2 7 7 7 5 0 0 q q q q 0 0 0 6 6 6 5 6 6 6 6 6 6 0 q q q q q q q q q q q q q q q q q 0 6 6 6 0 0 0 0 6 5 7 7 6 6 6 7 5 2 2 5 0 0 0 0 5 5 2 2 < < 2 5 5 5 0 0 5 0 0 0 5 0 0 5 2 2 2 5 5 5 5 2 2 2 2 5 5 6 0 0 q q 0 6 0 6 5 0 q q 0 6 5 5 2 2 2 2 2 2 2 2 2 2 2 2 2 2 5 5 5 5 2 2 2 2 2 2 2 2 2 2 2 2 2 2 2 2 < , , , 2 2 2 2 2 2 2 2 2 2 2 2 2 2 2 2 5 5 2 2 2 2 2 2 < < , , , , , , , < < , , , , , , , : : > > = = * * * * * * * : * * * * * * * * : * > * $ $ = % - $ r y.u.4.q.2.2.2.5.5.2.2.;.:.:.:.;.-.-.-.1.-.;.-.-.-.-.-.-.-.*.*.*.*.*.-.-.;.;.,.eXCXDXDXcXk.1.;.-.*.%.%.*.>.%.O.*.*.*.*.*.*.*.*.O.O.O.O.*.*.%.%.%.%.%.%.%.%.%.%.%.%.O.O.O.O.O.O.O.O.O.O.O.O.O.O.O.O.%.%.%.%.O.O.O.",
"O.+.+.+.O.O.O.O.+.+.+.+.O.O.+.O.+.+.+.+.O.O.+.+.O.O.O.O.O.O.O.O.O.O.O.O.O.O.O.O.+.+.O.O.O.O.O.%.%.%.=...<.kXSXSXCXsX6.=.>.>.%...*.*.O.O.*.*.*.*.*.*.*.*.*.*.*.*.>.=.-.-.2.2.2.2.2.2.5.5.5.6.6.6.U $ ; 7 % , 3 , , , , , , ; ; 3 < , , , , , < < , , , < < < < < < < < < < < 2 2 < < 2 < < < < < 7 7 5 5 5 5 5 5 5 5 5 5 5 5 7 7 2 2 2 2 2 2 5 5 0 5 5 5 6 6 q q 0 0 0 0 0 0 0 0 6 q q q q q q 0 5 5 5 5 5 2 2 2 2 2 5 5 5 5 0 0 6 6 0 0 0 0 q 0 0 q 6 q 0 0 0 0 w 0 0 2 2 2 2 7 7 5 5 0 q q q q q 0 q 0 6 6 5 5 6 5 7 5 5 6 0 q w q q q q q q q q q q q q q q 6 0 0 0 0 0 0 0 0 6 6 5 5 6 5 7 5 5 2 2 5 5 0 0 5 2 5 5 2 < < < 2 2 5 5 5 5 5 0 0 0 0 0 0 2 2 5 5 5 5 5 2 2 2 5 5 5 5 0 0 0 6 6 5 0 0 5 5 0 q 0 5 2 7 2 2 2 2 2 2 5 5 5 2 2 2 2 2 0 0 0 5 5 5 2 2 2 2 2 5 5 5 2 2 2 2 2 2 2 2 2 2 2 2 2 2 2 2 2 2 2 2 2 2 2 2 2 2 5 2 2 2 2 2 2 2 2 2 , , , , , , , < 3 3 , , , , , , : : : : : : * * * * * * * : * * * * * * * : * % * : & = 4 = 4 $ ; h I 7.4.4.0.0.2.2.2.2.;.2.:.:.;.;.-.-.1.-.-.-.-.-.-.-.-.-.*.*.*.*.*.-.-.-.;.,.eXCXDXDXvXk.1.;.-.*.=.=.*.*.%.O.O.O.%.%.*.*.*.*.*.%.O.%.%.*.%.%.%.%.%.%.%.%.%.%.%.%.O.O.O.O.O.O.O.O.O.O.O.O.O.O.O.O.%.%.%.%.O.O.O.",
"+.+.+.+.O.O.O.O.+.+.+.O.O.O.O.O.+.+.+.+.O.O.+.+.O.O.O.O.O.O.O.O.O.O.O.O.O.O.O.O.+.+.O.O.O.O.O.%.%.%.=...<.kXSXSXCXsX6.:.>.>.%...*.*.O.O.*.*.*.*.*.*.*.*.*.*.*.*.-.-.=.-.2.2.2.2.2.2.4.2.6.6.6.y.; , $ - 3 * 3 , , , , , , ; ; ; < , , , , , < < , , , , < < 2 2 2 2 < < < < 2 2 < 2 2 2 < < < 2 7 7 7 7 5 5 5 7 5 5 5 5 5 5 7 2 < < < 2 2 2 2 5 0 0 5 5 5 6 q q 0 0 0 0 0 0 0 0 6 q q q q q 6 6 5 5 5 5 0 5 2 2 2 2 5 0 0 0 0 0 5 6 6 q q 0 6 6 q 0 6 0 0 0 0 0 0 0 5 2 2 2 7 5 0 w 0 0 0 q q 0 q q q 0 0 6 6 6 6 6 6 5 6 0 q w w q q q q q q q q q q q q q q 6 0 0 0 q q q q q 6 0 q 0 5 7 5 6 0 5 5 5 5 5 2 2 2 5 0 5 2 < < 2 2 2 2 2 5 5 5 0 0 0 0 0 2 2 5 0 5 5 5 2 2 2 5 6 5 6 0 0 q 6 6 5 0 0 5 5 0 0 5 7 2 5 5 5 2 5 5 0 0 0 0 0 0 0 0 0 0 0 0 0 0 5 0 5 2 2 5 5 0 5 2 2 0 5 2 2 5 0 0 5 2 < , < 2 2 2 < 2 2 2 2 2 2 2 2 2 2 2 2 2 2 2 2 2 < , , , , , , , , 3 3 , , , , , , : : : : : : : : * * * * : : * * * * * * : , 3 % * : & O = = $ 4 $ % z y.j.4.4.0.2.2.2.2.2.2.;.;.2.;.-.1.1.=.-.-.-.-.-.-.-.-.*.*.*.*.*.-.-.-.;.,.eXCXDXDXvXk.1.;.-.*.%.=.*.*.%.O.O.O.O.O.*.*.*.*.*.*.O.O.*.*.%.%.%.%.%.%.%.%.%.%.%.%.O.O.O.O.O.O.O.O.O.O.O.O.O.O.O.O.%.%.%.%.O.O.O.",
"+.+.+.+.+.+.+.+.O.O.+.+.+.+.+.+.+.+.+.+.+.O.+.+.+.+.+.+.O.O.O.O.O.O.O.+.+.O.O.O.O.O.O.O.O.O.O.O.-.%.=...<.sXSXSXNXhX6.*.>.>.%.%.*.*.*.*.*.*.*.O.O.O.*.*.-.*.-.-.=.1.1.;.;.;.2.2.2.q.1.6.6.oXI 9 * * * - - * - , , , , , , ; 3 3 3 3 , , < , , , , , , , < < 2 2 2 2 2 2 < 2 2 2 2 2 2 2 2 2 2 2 7 5 5 5 5 5 5 5 5 5 5 5 5 5 2 2 2 2 2 2 2 2 2 2 5 5 5 6 6 6 0 0 5 5 5 5 6 6 0 0 0 q q q q q q 0 0 0 0 5 5 5 0 0 5 5 5 5 5 5 5 5 7 5 0 0 w 0 0 0 w 0 0 0 0 0 0 0 5 0 5 < < 2 5 5 0 0 0 0 0 q q w 0 0 0 0 0 0 0 q q q q q q 0 6 6 q q q q 6 q q q q q q q e e t t q q q 0 0 q q w q 0 0 0 0 0 0 0 6 0 0 0 0 5 5 2 2 5 5 5 2 2 2 2 2 2 2 2 5 5 5 5 5 5 5 5 5 2 2 2 2 5 5 5 5 5 5 5 5 5 5 5 6 6 6 6 0 0 0 0 0 0 0 0 7 7 7 5 5 5 6 6 2 2 2 5 0 0 0 0 0 0 0 0 0 0 5 5 2 2 2 2 2 2 5 5 0 0 0 0 0 5 5 5 2 2 2 2 2 < < 2 2 2 2 2 2 2 2 2 2 2 2 < < 2 2 2 , , , , , , , , , , , , , , , , , , , : : : : * * * : * * * * * * * * * * * : * - - * * & & & & = $ - % % j y.7.4.2.q.q.2.2.q.;.;.;.:.:.-.1.-.-.-.-.-.-.-.*.-.-.*.*.*.*.*.-.-.-.:.<.eXCXDXDXcXk.=.;.-.*.%...%.%.%.%.*.*.O.O.O.O.O.O.O.O.O.O.O.O.O.O.O.O.O.O.O.O.O.O.O.O.O.O.O.O.O.O.O.O.O.O.O.O.+.O.O.O.O.%.%.%.O.O.O.",
"+.+.+.+.+.+.+.+.O.O.+.+.+.+.O.+.+.+.+.+.O.O.+.+.+.+.+.+.O.O.O.+.O.O.O.+.+.O.O.O.O.O.O.O.O.O.O.O.-.%.=...<.sXSXSXNXhX6.*.>.>.%.%.*.*.*.*.*.*.*.%.O.*.*.*.*.-.-.-.1.1.1.1.:.:.2.2.4.1.4.,.7.8.8 ; * * * * * - , 3 , , , , ; ; 3 3 , 3 , < < , , , , , , , < < 2 2 2 2 2 2 < 2 2 2 2 2 2 2 2 2 2 2 7 5 5 5 5 5 5 5 6 5 5 5 5 5 7 2 < < 2 2 2 2 2 2 6 6 0 0 0 0 0 0 0 0 0 0 6 6 5 5 0 q q q q q q 0 0 0 5 2 5 5 5 5 5 5 5 5 5 5 5 5 2 2 5 0 0 0 6 5 0 0 5 5 5 5 7 7 5 0 2 < < 2 5 5 7 5 5 6 6 0 q 0 6 6 6 6 6 6 6 0 0 0 q q q 0 0 0 q q q q q q q q q q q e t t t t w e w q q 0 0 q q q q 0 0 q 0 0 5 5 0 0 0 0 5 5 2 2 5 5 5 5 2 2 2 2 2 2 5 5 5 5 5 5 5 5 5 2 2 2 2 2 5 5 5 5 5 5 5 5 5 0 6 6 6 0 0 0 0 0 0 0 0 0 5 5 5 5 5 0 0 0 5 2 2 5 0 0 0 0 0 0 0 0 0 0 0 5 2 2 2 5 2 5 5 5 5 5 5 5 5 5 5 5 2 < < 2 2 2 2 2 2 2 2 5 2 2 2 2 2 2 2 2 < < < < , , : : : , , , , , , , , , , , , , , : : : : : : , , , : * * : * * * * * * : * 4 4 * * > & & & & & * - % 7 N y.7.4.4.4.2.2.2.2.;.;.:.:.-.-.1.-.2.;.-.-.-.*.-.-.*.*.*.*.*.-.-.-.:.<.eXCXDXDXcXk.=.;.-.*.%...%.%.%.*.*.*.O.O.O.O.O.O.O.O.O.O.O.O.O.O.O.O.O.O.O.O.O.O.O.O.O.O.O.O.O.O.O.O.O.O.O.O.+.O.O.O.O.%.%.%.O.O.O.",
"+.+.O.O.O.O.+.+.O.O.+.+.O.O.O.O.+.+.+.O.O.O.O.+.O.O.+.+.O.+.+.+.O.+.+.+.+.O.O.O.O.O.O.O.O.O.O.O.-.%.=.,.<.sXSXSXNXhX6.*.>.%.%.%.O.O.*.%.*.*.*.%.*.*.*.*.-.-.-.-.1.1.1.1.:.:.2.2.1.4.,.7.8.g % % * > > - - - 3 3 , , , , , , , , , , < < < , , , , , , < < 2 2 2 2 2 2 2 2 2 2 2 2 2 2 2 2 2 2 2 2 2 5 5 5 5 5 5 0 6 6 6 6 5 5 7 , < < 2 2 2 2 2 6 0 0 0 0 q q 0 0 0 0 0 0 0 6 6 q q q q q q q 0 2 s 0 5 5 5 2 2 5 5 5 2 2 2 2 2 2 5 5 0 0 0 0 0 0 0 6 5 7 2 2 2 5 5 2 2 2 2 5 5 2 2 5 5 6 6 6 6 6 5 5 5 6 6 6 6 5 6 6 q q q q q q q q q q q q q q q q q e e e e w w q q q q 0 0 0 q q 0 0 5 6 5 5 5 5 0 0 0 5 5 2 2 2 5 5 5 2 2 2 5 5 5 5 5 5 5 5 5 5 5 5 5 2 2 2 2 5 5 5 0 0 5 5 0 0 0 6 6 6 6 5 0 0 0 0 0 0 0 5 6 0 0 0 0 0 0 5 5 5 5 0 0 0 5 0 0 0 0 0 0 0 0 5 5 5 5 5 5 5 5 6 6 0 0 5 5 5 2 < , , 2 2 2 2 2 5 5 2 2 2 2 2 2 2 2 2 2 , , , , , , , : : : : : : : , , , , , , , , , : , * , , : , , , : : : : * * * * * * : * = = * * > & & & O > $ * ; $ 7 U 7.7.4.1.4.4.2.2.2.;.:.:.-.-.-.-.;.-.-.-.-.*.-.-.*.*.*.*.*.-.-.;.;.<.eXCXDXDXvXl.=.-.-.*.%.%.%.%.%.O.O.O.O.O.O.O.O.O.O.O.O.O.O.O.O.O.O.O.O.O.O.O.O.O.O.O.O.O.O.O.O.O.O.O.O.O.O.O.+.O.O.O.O.%.%.%.O.O.O.",
"+.+.O.O.O.O.+.+.O.O.+.+.+.O.O.O.+.+.+.O.O.O.+.+.O.O.+.+.+.+.+.+.O.O.+.+.+.O.O.O.O.O.O.O.O.O.O.O.-.%.-.,.<.aXSXSXNXhX6.*.>.%.%...O.O.O.O.*.*.*.%.*.*.*.*.-.-.-.-.1.1.1.1.:.:.2.2.1.6.6.y.j % , % > > > - - - , , , , , , , , , , , , < < < , , , , , , < < 2 2 2 2 2 2 2 2 2 2 2 2 2 2 2 2 2 2 2 2 5 5 5 5 5 0 0 0 0 0 0 0 0 5 5 < 2 2 2 2 2 5 5 6 0 0 0 q q 0 0 5 5 6 0 0 0 0 0 q q q q q q q 0 5 0 0 0 0 0 5 2 5 2 2 2 2 2 2 2 7 5 5 0 0 0 w w 0 0 0 6 6 5 5 5 5 5 5 2 2 2 5 5 2 7 5 5 6 6 6 6 5 5 5 5 5 5 6 6 5 6 6 q q q q q 6 q q q q q q q q q q q q q q q q q q q q q q q q q 0 q 0 6 6 5 7 2 5 5 5 5 5 5 2 2 2 5 5 5 5 2 5 5 5 5 5 5 5 5 5 5 5 5 5 5 5 5 5 5 5 5 0 0 0 6 0 0 0 0 6 5 5 5 2 5 0 0 0 0 6 5 5 6 0 0 0 0 0 0 6 5 5 5 5 0 5 5 5 0 0 0 0 0 0 0 0 0 0 0 5 5 5 5 0 0 0 0 5 5 5 2 2 < < 2 2 2 2 5 2 2 2 2 2 2 5 5 2 2 2 2 2 2 , , , , , , : : : : , , , , , , , , , , , : , , , , : : : : * * * : * * * * * * : : 4 4 > * * > > > O > & $ ; % % 6 I 7.7.1.4.q.4.2.2.2.2.:.:.-.1.1.-.-.-.-.-.*.-.-.*.*.*.*.*.-.-.;.;.<.eXCXDXDXvXl.=.-.-.*.%.%.%.%.%.O.O.O.O.O.O.O.O.O.O.O.O.O.O.O.O.O.O.O.O.O.O.O.O.O.O.O.O.O.O.O.O.O.O.O.O.O.O.O.+.O.O.O.O.%.%.%.O.O.O.",
"+.O.O.O.O.O.O.+.+.+.+.O.+.+.+.+.O.O.O.O.O.O.O.O.O.O.+.+.+.+.+.+.+.+.+.+.+.O.O.O.O.O.O.O.O.O.O.O.%.%.=.,.<.aXSXSXNXhX6.*.>.>.%...O.O.*.*.*.*.O.O.*.*.*.*.-.-.;.-.1.1.1.1.2.2.2.2.6.X.y.N % * % 4 = * * - - - ; , , , , , , , , , , , < < , , , , , , , < 2 2 2 2 2 2 2 2 2 2 2 2 2 2 2 2 2 2 2 5 7 7 5 6 6 6 6 0 0 0 6 0 0 6 6 5 2 2 2 2 2 2 7 7 5 5 0 0 0 0 6 5 5 5 5 5 5 0 0 0 q q 0 q q 6 6 6 5 0 0 0 0 0 2 2 2 2 2 2 2 2 2 < 2 2 7 5 6 0 0 0 0 0 0 0 0 0 w w 0 5 5 5 0 5 5 w 5 5 5 5 6 5 5 5 6 6 5 6 6 6 6 0 6 6 0 0 q q 0 0 q q q q q q q q q q q q q q q q q q q q q 0 q 0 q q 0 0 0 6 5 7 2 2 2 2 2 5 5 5 2 5 5 5 5 5 5 5 2 2 5 5 5 2 2 2 5 0 5 5 5 5 5 5 5 5 5 5 0 0 0 0 0 0 0 6 6 5 7 7 2 2 2 2 5 5 5 5 5 5 0 0 0 0 6 6 0 5 5 5 5 0 5 5 5 5 0 0 0 0 0 0 0 0 0 0 0 6 5 5 0 0 0 0 0 0 5 5 5 2 2 2 2 2 2 2 2 2 2 2 2 2 2 5 2 2 2 2 < 2 1 1 , , , , , , , , , , , , , , , , , , , , , , , , : : : : * * * : : : : : : : : : > > * * * * * * & * * $ - - % % d I u.7.2.1.1.2.2.2.;.:.:.1.1.1.;.;.-.-.-.*.*.*.*.*.*.*.*.-.-.-.;.<.eXCXDXDXvXl.=.-.-.*.%.%.%.%.%.*.*.O.O.O.O.O.O.O.O.O.O.O.O.O.O.O.O.O.O.O.O.O.O.O.O.O.O.O.O.O.O.O.O.O.O.O.O.O.+.O.O.O.O.O.%.%.O.O.O.",
"+.+.O.O.O.O.+.+.+.+.+.O.+.+.+.+.+.+.O.O.+.O.O.O.O.O.+.+.+.+.+.+.+.+.+.+.+.O.O.O.O.O.O.O.O.O.O.O.%.%.-.,.<.sXSXSXCXhX6.*.>.>.O...O.O.*.*.*.*.O.O.*.*.*.*.-.-.-.-.1.1.1.1.2.2.2.2.7.y.A ; % - = 4 > - , , - - ; < < , , , , , , , , , , < , , , , , , < < 2 2 < < 2 2 2 5 5 2 2 2 2 2 2 2 2 2 2 2 5 5 5 6 6 6 0 0 0 0 0 0 0 6 6 5 7 2 2 2 2 2 2 2 5 5 0 0 0 6 6 5 6 0 6 6 5 5 5 5 0 0 0 0 6 6 6 6 5 s 0 0 5 2 2 2 2 2 2 2 2 2 2 < 2 2 5 6 0 0 0 0 5 5 5 6 0 0 0 0 0 5 5 0 w 0 5 w 5 5 5 7 7 7 5 5 0 0 6 6 6 6 6 0 0 0 0 q q q 0 0 q q q q q q q q q q q q q q q q q q q q 0 0 6 6 0 0 0 0 5 6 5 5 2 2 2 2 2 2 5 5 5 5 5 0 5 5 5 5 2 2 2 5 5 2 2 5 5 0 0 0 5 0 5 5 5 5 5 5 0 0 0 0 0 0 0 0 6 6 5 5 2 2 2 2 2 5 5 5 5 5 5 0 0 6 6 6 6 5 5 5 5 0 5 5 5 5 5 0 0 0 0 0 0 0 0 0 0 6 6 6 0 0 0 0 0 0 5 5 5 2 2 2 2 2 2 2 2 2 < < 2 2 2 5 2 2 2 2 2 < < 1 , , , , , , , , , , , , , , , , , , , , , , , , , , , : : : : : : : : : : : : : * = * * * * * * > $ * , $ % * % % c y.u.7.1.1.4.2.2.2.:.:.1.1.1.;.;.;.-.-.*.*.*.*.*.*.*.*.-.-.-.;.<.eXCXDXDXvXl.=.;.-.*.%.%.%.%.%.*.*.%.O.O.O.O.O.O.O.O.O.O.O.O.O.O.O.O.O.O.O.O.O.O.O.O.O.O.O.O.O.O.O.O.O.O.O.O.+.O.O.O.O.O.%.%.O.O.O.",
"+.+.O.O.O.O.+.+.+.+.O.O.O.+.+.+.+.+.+.+.+.+.+.O.+.+.+.+.+.+.O.O.+.+.+.+.+.O.O.O.O.O.O.O.O.O.O.O.%.%.-.,.<.sXSXSXCXlX6.*.>.>.O...O.*.*.*.%.O.O.O.*.*.*.*.-.-.-.;.1.1.1.1.2.2.1.2.6.I 7 % < & 4 = > , , , , ; ; < < 3 3 , , , 1 , , < , , , , , , , < < 2 2 2 < < 2 2 2 5 5 5 5 2 5 5 2 2 2 2 2 5 6 6 6 6 6 6 6 6 0 0 6 6 0 6 6 5 7 2 2 2 2 2 5 5 5 6 0 q q 0 6 5 6 0 6 5 5 5 5 5 q 0 0 0 6 6 6 6 0 0 0 0 2 2 2 < 2 2 2 2 2 2 2 2 2 2 5 0 0 0 0 0 2 2 2 2 5 5 0 0 0 2 5 0 w 0 5 w 5 7 2 2 7 5 0 0 0 0 0 6 6 6 6 6 0 0 q 0 q q 0 0 q q q q 6 6 q q q q q e e q q q q q q 0 0 0 q q w 0 0 0 5 5 5 5 5 5 5 2 5 5 5 5 5 5 0 0 0 5 5 2 2 2 5 5 5 5 5 5 5 5 5 0 5 5 5 5 2 5 5 0 0 0 0 0 0 0 0 0 0 0 6 0 5 0 2 2 2 5 5 0 0 0 6 6 6 6 6 6 6 5 2 5 0 0 0 5 5 5 0 0 0 0 0 0 0 0 0 0 0 6 6 6 0 0 0 0 0 6 5 5 5 2 2 5 5 2 2 5 2 2 2 2 2 2 2 2 2 2 2 2 2 2 < 1 , , , , , , , , , , , , , , , , , , , , , , , , , , , , : : : : * * : : : : : : > > * * * * * * * $ * * $ $ = - % 9 c y.7.1.1.4.2.2.2.:.2.1.1.1.;.;.-.-.-.*.*.*.*.*.*.*.*.-.-.-.:.<.eXCXDXDXvXl.=.-.-.*.=...%.%.%.*.*.*.O.O.O.O.O.O.O.O.O.O.O.O.O.O.O.O.O.O.O.O.O.O.O.O.O.O.O.O.O.O.O.O.O.O.O.O.+.O.O.O.O.%.%.%.{ { { ",
"+.+.+.O.O.+.+.+.+.+.O.O.O.+.+.+.+.+.+.+.+.+.+.+.+.+.+.+.O.O.O.O.O.+.+.+.+.O.O.O.O.O.O.O.O.O.O.O.%.O.=...<.aXSXSXCXhXg.*.>.O.O.O.%.%.%.%.O.O.%.%.*.*.-.-.-.-.;.-.-.-.2.1.1.1.1.6.8.6 % - - 4 = 4 - , , , , , < < < 3 , , , , 1 1 , 3 3 < , , , , < < < 2 2 < < < 2 2 7 5 5 5 7 2 5 5 7 2 7 2 5 5 6 6 6 6 6 6 6 6 0 0 6 6 0 6 6 7 5 2 2 2 5 5 0 0 6 0 0 q 0 q 6 5 5 5 5 0 0 0 q q q q 0 0 6 6 6 6 0 0 0 0 5 2 2 2 2 2 2 2 2 2 2 2 2 2 5 0 0 0 5 2 2 2 2 2 2 2 5 2 2 2 5 0 w 0 5 0 5 5 2 2 7 6 q w q 0 0 6 5 5 6 6 6 0 0 q q q q q q q q 6 6 6 6 q q q q q w q q q q q 0 0 q q q w 0 0 0 6 5 5 0 0 6 5 5 5 5 5 0 0 5 0 0 0 0 5 5 2 2 5 5 5 0 0 0 0 5 5 5 5 5 5 5 5 2 5 5 0 0 0 0 0 0 0 q q q 0 0 0 0 0 5 2 2 5 0 0 0 0 6 6 6 6 6 6 5 5 2 5 0 0 0 5 0 0 0 0 0 0 0 0 0 0 0 0 6 6 6 6 0 0 0 0 6 6 5 2 2 2 2 0 0 5 5 0 5 2 2 2 2 2 2 2 2 2 2 2 2 2 < 1 , , , , , , , , , , , , , , , , , , , , , , , , , , , , , : : : * * * : * : : : > > * * * * > > $ > * $ & = = % 9 $ 9 L y.7.5.1.2.2.2.2.2.-.1.1.;.-.-.-.-.*.*.*.*.*.*.*.*.-.-.-.:.<.eXNXDXDXvXl.=.-.-.*.=...%.%.%.*.*.*.O.O.O.O.O.O.O.O.O.O.O.O.O.O.O.O.O.O.O.O.O.O.O.O.O.O.O.O.O.O.O.O.O.O.O.O.+.O.O.O.O.O.%.%.{ { { ",
"' ' ' ' ' ' ' ' ' ' ' ' ' ' ' ' +.+.+.' ' ' ' ' ' ' +.+.' ' ' ' ' ' ' ' O.O.+.+.+.+.+.+.O.O.O.O.%.O.{ >.<.aXZXZXCXhXl.%.*.%.>.O.>.%.%.%.*.%.=.=.=.=.=.=.-.-.2.;.2.%.2.1.3.6.P y.< ; ; - * > > > - - , , , 3 3 < , , , , , , , , 1 , , , , , , , < 2 2 2 2 2 2 2 2 5 7 5 5 5 7 5 7 5 5 5 6 6 6 6 6 0 0 0 6 6 6 0 q 0 6 6 6 6 5 7 w 0 5 5 0 w w w 5 6 0 0 0 0 0 6 0 0 0 q q q w w q q q 0 0 0 q q w 0 0 0 0 5 2 2 2 2 5 5 2 2 2 2 2 2 2 2 0 0 0 0 0 0 0 0 0 0 0 0 0 0 q q q q q 0 q 0 6 6 6 0 q q w w q q 0 0 0 0 0 0 0 0 q q q q q q q q 0 0 0 0 0 q q q w w q q q 6 q q q q w e w w q q q q w w 0 6 5 0 0 0 0 5 5 0 0 0 0 0 6 6 5 5 5 5 5 5 5 0 0 0 5 0 0 0 0 0 0 0 0 0 0 0 0 0 0 0 0 0 0 0 w 0 0 0 0 0 6 0 0 0 0 0 0 0 0 0 0 0 5 5 2 2 5 2 2 2 2 5 0 0 0 5 5 5 2 2 0 0 0 0 0 0 5 5 0 0 0 0 5 5 2 5 0 0 0 2 0 0 2 2 2 2 2 2 2 2 2 2 2 2 2 2 2 2 2 2 , , , < < < , , , , 1 1 , , , , , , , , , , , , , , , , , , , , , * - * - * * * * * * * * * * * * & * & $ $ $ 4 $ ; L oX7.2.2.;.-.2.2.2.1.1.1.-.-.-.-.-.-.-.-.-.-.*.-.-.-.-.2.,.dXBXSXFXvXl.=.-.*.-.....%.%.%.%.%.%.O.O.O.O.O.O.O.O.O.O.O.O.O.O.O.O.O.O.O.O.O.O.O.O.O.O.+.+.{ { { { { { { { { { O.O.O.O.O.O.O.O.O.",
"' ' ' ' ' ' ' ' ' ' ' ' ' ' ' ' +.+.' ' ' ' ' ' ' ' +.+.' ' ' ' ' +.' ' O.O.O.O.+.+.+.+.O.O.O.O.%.O.O.>.<.iXZXZXCXhXl.=.%.%.O.O.>.-.%.%.%.%.=.=.=.=.=.=.-.;.2.;.9.;.2.b.( 8.oXq - * * * = = * * , - , - , , , , , , , , , , , , , , , , , , , , < 2 2 2 2 2 2 2 7 7 7 5 5 5 5 5 7 7 5 5 6 6 6 6 6 0 0 0 0 0 0 0 q q 0 0 0 0 0 6 5 5 5 6 0 0 0 5 5 5 5 6 6 5 5 5 0 0 6 6 0 0 0 q 0 q 0 0 6 6 6 0 0 0 0 0 0 5 2 2 2 2 2 2 5 2 2 2 2 2 2 5 0 0 0 0 0 0 0 0 0 0 0 0 0 0 0 q q q q 0 q 0 6 6 6 q q q q q 0 0 0 0 0 0 0 0 0 0 0 0 q q q q q q 0 0 0 0 q q q w w q q 0 6 6 6 6 q q q q w q q q q q q q q 0 6 6 0 0 0 6 5 6 0 0 0 0 0 6 5 5 5 2 2 5 5 5 0 0 5 5 5 5 0 5 0 0 5 0 0 0 0 0 0 0 0 0 0 0 0 0 0 5 5 5 5 5 6 0 0 0 0 0 6 5 5 7 2 2 2 2 5 5 5 5 2 5 0 0 0 0 5 5 2 2 2 5 0 0 5 5 5 5 5 5 5 5 5 2 2 5 0 0 0 0 0 0 0 0 2 2 2 2 2 2 2 2 2 2 2 2 2 2 2 2 < < , < < < , , , , , 1 , , , , 1 1 , , , , , , , , , , , , , , - - - - - - * * * * * * * * * * & & & & & $ = O % - 6 L oX5.2.0.0.2.-.1.1.1.1.-.-.-.-.-.-.-.-.-.-.*.-.-.-.-.2.,.dXBXSXSXxXf.=.-.-.=.....%.%.%.%.%.%.O.O.O.O.O.O.O.O.O.O.O.O.O.O.O.O.O.O.O.O.O.O.O.O.O.O.+.+.{ { { { { { { { { { O.O.O.O.O.O.O.O.O.",
"' ' ' ' ' ' ' ' ' ' ' ' ' ' ' ' ' ' ' ' +.' +.+.' +.+.+.' ' ' ' +.+.+.+.O.O.O.O.O.+.+.+.O.O.O.O.%.O.[ >.<.iXZXZXCXhXl.%.%.%.>.O.%.-.%.O.%.%.%.%.%.=.=.-.-.;.;.;.;.0.2...7.y.N % * * * * * * * * , - - - - - - , , , , , , , , , , , , , , , < < 2 2 2 2 2 2 2 2 7 7 7 7 5 5 5 5 5 5 7 5 5 5 5 5 5 6 0 0 0 0 q q q q q 0 q q 0 0 2 5 6 0 0 0 5 2 5 5 5 5 5 5 5 5 0 0 6 5 5 5 5 5 6 0 0 6 5 5 5 0 0 0 0 5 2 2 2 2 5 2 2 2 5 5 2 2 2 2 2 0 0 0 0 0 5 5 0 0 0 0 0 0 q q 0 q q q w q q 0 6 6 q q q 0 0 0 0 6 5 5 5 5 6 6 5 5 0 0 0 0 q q q q 0 0 0 6 q q q q 0 0 0 0 6 6 6 6 q q q q w q q q q q q q 0 0 0 6 0 0 0 5 5 5 6 0 0 0 0 0 5 5 5 2 2 2 2 2 0 5 5 5 5 5 5 5 0 0 0 5 0 5 5 0 0 0 0 5 5 0 0 0 0 0 5 5 5 5 5 5 5 6 5 5 5 5 5 7 2 2 2 2 5 5 5 5 5 0 0 0 0 0 5 5 2 2 2 5 5 5 5 2 5 5 2 2 2 2 5 2 2 5 0 0 2 2 0 0 0 0 0 2 2 2 2 2 2 2 0 0 s 2 2 2 2 2 2 2 2 2 < , , 1 , , 1 1 , , , , 1 1 , , , , , , , , , , , , , , , , - - - - * * * * * * * * * * * * & & & & > o = % O r y.7.1.2.2.2.;.-.1.2.2.-.-.-.-.-.-.-.-.-.-.*.-.-.-.-.2.,.dXBXSXSXxXf.=.-.-.=.....%.%.%.%.%.%.O.O.O.O.O.O.O.O.O.O.O.O.O.O.O.O.O.O.O.O.O.O.O.O.O.O.O.O.{ { { { { { { { { { O.O.O.O.O.O.O.O.O.",
"' ' ' ' ' ' ' ' ' ' ' ' ' ' ' ' ' ' ' ' +.+.+.+.' +.+.+.+.' ' ' +.+.+.+.O.O.O.O.O.+.+.+.+.O.O.O.%.%.[ >.,.iXZXZXCXhXl...%.%.>.O.%.%.O.%.%.%.%.%.>.>.>.*.-.;.;.;.2.1.1.X.oXL $ ; * * * * * * : : , - - - - - - - , , , , , , , , , , , , , , < < 2 2 2 2 2 2 2 2 7 7 7 5 5 5 5 5 7 7 7 5 5 5 5 5 5 6 0 0 0 0 q q q q q 0 q q 0 0 5 0 q w q 0 5 5 5 5 6 6 5 5 5 5 6 0 5 5 5 2 5 0 5 0 6 5 5 2 5 0 0 0 2 2 2 2 2 2 5 2 2 2 5 5 2 2 2 2 2 0 0 0 5 2 2 2 2 2 5 5 0 0 0 0 0 0 q q w w q 0 6 0 q q 0 0 0 0 5 5 5 5 5 5 0 6 6 5 0 0 0 0 q q q q 0 0 6 6 6 6 0 q 0 0 q 0 q q q q q q q q w q q q q q q q 0 0 0 6 6 5 5 5 5 5 5 6 0 0 0 0 5 5 5 2 5 5 2 5 5 5 5 5 5 5 5 0 0 0 0 0 0 0 0 0 0 0 0 0 0 0 0 0 0 0 0 0 6 6 5 5 5 5 5 5 0 0 0 0 5 2 2 2 2 2 2 2 5 0 0 0 0 5 5 5 2 5 5 0 0 0 0 5 5 5 5 5 5 2 5 0 2 2 5 5 2 2 0 0 0 0 0 5 2 2 5 0 2 2 0 0 2 2 2 2 2 2 2 2 2 2 < , < 1 1 1 1 1 , , , 1 1 1 , , , , , , , , , , , , , , , , , - , , * * * * * * * * * * * & & & & & & & $ = % ; d 8.U.1.%.2.5.2.;.2.2.2.-.-.-.-.-.-.-.-.-.*.-.-.-.-.1.,.dXBXSXSXxXf.=.-.-.=.....%.%.%.%.%.%.O.O.O.O.O.O.O.O.O.O.O.O.O.O.O.O.O.O.O.O.O.O.O.O.O.O.O.O.{ { { { { { { { { { O.O.O.O.O.O.O.O.O.",
"' ' ' ' ' ' ' ' ' ' ' ' ' ' ' ' ' ' ' ' ' ' +.+.+.+.' ' +.+.+.+.' ' ' +.+.+.+.+.O.O.+.+.+.O.O.O.%.*.>.>.,.iXAXZXCXlXl.%.%.%.>.O.*.*.*.%.%.%.%.%.>.>.>.>.:.:.;.;.1.1.,.oXA ; ; - % = > , , , , , - - - , , , , , , , , , , , , , , , , , < 2 2 2 2 2 2 2 2 5 5 5 7 7 7 5 5 5 6 5 5 5 7 5 5 5 5 6 6 6 0 0 0 q q q q q 0 0 q q q 0 0 q w q 0 0 6 6 0 0 0 0 0 0 0 6 5 5 5 2 5 0 0 0 5 0 5 5 5 2 5 0 5 5 2 2 2 2 2 2 5 2 2 2 5 5 2 < < 2 2 5 5 0 5 2 2 2 2 5 5 5 5 6 6 6 5 6 0 0 q 0 0 0 6 6 0 q 0 6 0 0 0 6 6 6 0 0 0 0 0 0 0 0 0 0 0 0 0 0 0 6 6 5 5 5 6 0 0 0 0 0 0 0 0 q q q q q w w q q q q q q 0 0 0 0 6 6 6 6 5 5 5 6 0 0 0 0 5 5 5 5 5 0 0 0 5 5 0 0 0 0 0 0 0 0 0 0 0 0 0 0 0 0 0 0 0 0 0 0 0 0 0 0 6 6 5 5 5 5 5 0 0 0 0 0 2 2 2 2 < < 2 2 5 0 0 0 5 5 5 5 5 5 0 0 0 0 0 0 5 5 2 2 5 5 5 0 2 2 2 2 2 2 2 0 0 0 5 5 5 5 5 0 2 2 2 2 2 2 2 2 2 2 2 2 2 2 2 2 2 1 1 1 , , , , , , 1 1 , , , 1 , , , , , , , , , , , , , , , , , - , - * * * * * * * * $ $ & & & > $ % 4 % % z 8.6.1.1.2.0.0.;.2.2.2.1.1.-.-.-.-.-.-.*.-.-.-.1.1.,.aXBXSXSXxXl.-.-.-.=...%.%.%.%.%.%.%.O.O.O.O.O.O.O.O.O.O.O.O.O.O.O.O.O.O.O.O.O.O.O.O.O.O.+.O.{ { { { { { { { { { O.O.O.O.O.O.O.O.O.",
"' ' ' ' ' ' ' ' ' ' ' ' ' ' ' ' ' ' +.+.' ' +.' +.+.' ' +.+.+.+.' ' ' ' +.+.+.+.O.O.+.+.+.O.O.O.%.*.>...,.iXAXZXCXlXl.=.%.%.>.O.%.%.%.%.%.%.>.>.>.>.>.>.>.;.;.2.1.,.oXI 9 % 9 % = = = * * : , , - - , , , , , , , , , , , , , , , , , < 2 2 2 2 2 2 2 2 2 5 5 5 7 7 5 5 6 5 5 5 5 5 5 5 5 6 6 6 6 0 0 0 0 q q q w q q q q w q q w q q 0 0 0 0 6 0 0 0 0 0 0 0 5 5 2 2 2 2 0 0 0 2 5 5 2 2 2 2 0 2 2 2 2 2 2 2 2 5 2 2 2 5 5 2 2 2 2 2 2 5 2 5 2 2 2 2 2 5 5 5 5 0 0 0 q q q q q 0 6 6 6 6 6 6 6 0 0 0 0 0 0 0 0 0 0 0 0 0 0 0 0 0 0 0 0 0 6 6 6 5 5 5 5 0 0 0 0 6 0 0 0 0 6 6 6 q q q q q q q q 0 0 0 0 0 6 6 5 0 0 6 6 0 0 0 0 0 0 0 0 0 0 0 0 5 5 0 0 0 0 0 0 5 5 5 2 2 5 5 0 0 0 0 0 0 0 0 0 5 5 5 5 5 5 5 7 0 0 0 5 6 5 5 5 < 2 2 2 < < 2 5 5 5 0 5 2 2 2 2 5 5 0 0 0 0 5 5 5 5 2 2 2 2 5 5 2 2 2 2 2 2 2 2 2 2 2 2 2 2 2 5 2 2 2 5 2 2 2 2 5 5 2 2 2 2 2 2 2 2 1 1 1 , , , , 1 1 1 1 , 1 1 , , , , , , , , , , , , , , , , , , , , * * * * * * * * * * & & & & $ $ % % % ; M 8.U.1.%.0.q.-.2.2.2.2.1.-.-.-.-.-.-.*.-.-.-.1.1.<.aXBXSXSXxXl.=.-.-.=...%.%.%.%.%.%.%.O.O.O.O.O.O.O.O.O.O.O.O.O.O.O.O.O.O.O.O.O.O.O.O.O.O.+.O.{ { { { { { { { { { O.O.O.O.O.O.O.O.O.",
"' ' ' ' ' ' ' ' ' ' ' ' ' ' ' ' +.+.+.+.' ' ' ' +.+.' ' ' ' +.' ' ' ' ' +.+.+.+.O.+.+.+.+.O.O.O.%.*.>...,.iXAXZXCXlXl.=.%.%.>.O.%.%.%.%.%.>.>.*.>.*.*.-.:.:.:.:.,.8.I 5 % < $ 4 = = * * * - - - - , , , , , , , , < < < < < , , , , < < 2 2 2 < 2 2 2 2 7 7 5 5 7 5 6 6 6 6 5 5 6 6 5 6 6 6 6 0 0 0 0 0 0 0 q q q q q q q w q q w q 0 0 q q 0 5 0 0 0 0 6 5 5 2 0 2 2 2 2 2 2 2 2 2 2 2 2 2 2 2 2 2 2 2 2 2 2 2 5 5 5 5 2 2 2 2 2 2 2 2 2 2 2 2 7 5 7 5 7 7 5 6 q q q q w w w q 0 6 5 7 5 5 5 5 5 0 0 0 0 0 0 0 0 0 0 5 5 0 0 0 0 6 6 0 0 0 0 0 5 5 5 5 5 6 6 0 0 0 0 0 0 0 5 5 0 0 6 6 0 0 0 0 5 0 0 0 0 5 5 5 0 0 0 0 0 0 0 0 0 0 0 0 0 0 0 0 5 0 0 0 5 2 5 0 5 5 2 2 2 2 2 2 2 2 2 5 5 5 5 5 5 5 5 5 5 5 5 5 6 6 6 6 5 5 2 2 2 2 2 2 < 2 2 0 5 5 5 5 2 2 2 2 5 5 0 0 0 0 5 5 5 5 5 5 5 5 2 2 2 2 2 2 2 2 2 2 2 2 2 2 2 2 2 2 2 2 2 0 0 0 2 2 0 5 2 2 2 2 2 2 2 2 2 2 2 , , , , , 2 2 < < 2 2 < < < < < , , , < < < , < , , , , , , , - - * * * * * * * * * & = $ & $ O % - $ 7 A 7.3.1.2.r.-.;.2.2.2.1.1.-.-.-.-.-.*.-.-.-.-.1.<.sXNXSXSXxXl.=.-.-.=.....%.%.%.%.%.%.O.O.O.O.O.O.O.O.O.O.O.O.O.O.O.O.O.O.O.O.O.O.O.O.O.O.O.O.{ { { { { { { { { { O.O.O.O.O.O.O.O.O.",
"' ' ' ' ' ' ' ' ' ' ' ' ' ' ' ' +.+.+.+.' ' ' ' +.+.' ' ' ' ' ' ' ' ' ' O.O.+.+.O.+.+.+.O.O.O.O.%.*.>... .iXAXZXNXlXl.=.%.%.%.....%.%.%.>.>.>.*.*.*.-.-.-.2.2.6.8.y.t % ; % = 4 4 > * * * - - - , , , , 3 , , , , , , , , , , , , , < 2 2 2 < < 2 2 2 2 7 7 5 5 5 5 6 6 6 6 6 5 6 6 6 6 6 0 0 0 0 q q q 0 0 q q q q 0 q q q q 0 w q 0 q w w 0 5 5 5 5 5 5 7 2 2 0 0 2 2 2 2 2 2 2 2 2 2 2 2 2 2 2 2 2 2 2 2 2 2 2 5 5 5 2 2 2 2 2 2 2 2 2 2 2 2 5 5 5 5 6 6 6 6 6 6 6 0 0 0 6 5 0 6 7 7 7 5 5 5 5 5 5 5 0 0 0 0 0 5 5 5 5 5 2 5 5 5 6 6 6 0 0 0 0 0 5 5 5 5 5 5 0 0 0 0 0 0 0 6 5 5 5 5 5 0 0 0 2 0 0 w 0 0 5 5 0 0 0 0 0 0 0 0 0 0 0 5 5 5 5 5 5 0 0 0 2 2 2 5 0 0 5 2 2 2 2 2 < 2 2 2 2 2 2 2 5 5 6 0 0 0 5 5 5 5 5 6 5 5 5 5 5 5 5 2 2 < 2 5 5 5 5 2 2 2 2 2 5 5 0 0 0 0 0 5 5 5 0 0 0 0 5 5 2 2 2 2 2 2 2 2 2 2 2 2 2 2 2 2 2 2 0 0 0 0 0 0 0 0 2 2 2 2 2 2 2 < 2 2 < , , , , , 2 2 2 < 2 2 2 2 < < < , , , < < < < < < , , , , , , * * * * * * * * * * * & = $ $ & & & $ = $ e K 6.4.2.-.9.2.2.2.2.-.1.-.-.-.-.-.-.-.-.-.-.1.<.sXNXSXSXxXl.=.-.-.=.....%.%.%.%.%.%.O.O.O.O.O.O.O.O.O.O.O.O.O.O.O.O.O.O.O.O.O.O.O.O.O.O.O.O.{ { { { { { { { { { O.O.O.O.O.O.O.O.O.",
"' ' ' ' ' ' ' ' ' ' ' ' ' ' ' ' ' ' ' +.' ' ' ' +.+.' ' ' +.+.+.' ' ' ' O.O.+.+.+.+.+.+.O.O.O.O.*.O.>.6. .rXCXZXNXlXl...-.-.O.......%.>.>.>.>.*.;.2.;.-.-.-.=.8.y.t - - % % 4 = * * * * - , 3 3 , , , , , , , , , , < < 2 < , , < < 2 2 2 2 2 2 2 2 7 7 5 5 5 5 5 0 0 0 6 5 6 6 5 6 6 6 0 0 0 0 q q q q q q 0 0 q 0 5 0 q q q 0 0 0 q q q 0 0 0 0 0 0 0 0 0 0 0 0 0 0 s 2 2 2 2 2 2 2 2 1 2 2 0 2 2 2 2 2 2 2 2 5 5 5 5 5 5 5 5 2 2 2 5 5 5 5 5 5 5 5 5 5 5 5 5 q q q 0 0 0 q q 6 5 5 5 6 6 6 6 5 5 5 5 2 2 < < 0 0 5 2 5 0 0 0 0 0 0 0 0 0 0 0 6 6 5 5 7 7 5 6 0 0 0 0 5 5 5 5 2 2 2 2 5 5 5 5 2 2 5 5 0 0 0 0 0 0 5 0 0 0 0 5 5 0 0 5 2 2 2 5 5 5 5 5 5 2 2 2 2 2 2 2 5 5 5 5 2 2 2 2 2 2 2 5 0 0 0 0 0 0 0 6 6 6 5 5 5 5 5 5 0 5 5 5 5 5 5 2 2 5 5 5 5 2 2 2 2 2 2 2 5 5 5 2 2 2 2 5 5 0 0 0 2 2 2 2 2 2 2 2 2 2 2 2 2 2 2 2 2 2 2 0 0 0 2 2 2 0 0 0 0 0 0 2 0 2 2 2 2 2 2 2 2 2 2 2 1 1 2 2 2 < < < < , , , < < , , , , , , , , , , , , - * * * * * * * * = = = & & & & = = % $ y 8.6.1.2.:.5.%.-.5.2.-.-.-.-.-.-.-.-.-.-.1.2.g.sXNXSXSXxXl.1.-.-.=.....%.%.%.O.O.O.O.O.O.O.O.O.O.O.O.O.O.O.O.O.O.O.O.O.O.O.O.O.O.+.+.+.+.O.{ { { { { { { { { { O.O.O.O.O.O.O.O.O.",
"' ' ' ' ' ' ' ' ' ' ' ' ' ' ' ' ' ' ' +.' ' ' ' ' ' ' ' +.+.+.+.' +.' ' O.O.O.O.+.+.+.+.O.O.O.O.*.O.>.6. .rXCXZXNXlXl...-.*.O.....%.>.>.>.>.*.*.' 2.-...4.5...y.j - $ - * * 3 * * * * * - - 4 4 3 , , , , , , , , , < < < < < , < 2 2 2 2 2 2 2 2 2 7 7 5 5 5 5 7 5 0 0 6 5 5 5 5 6 6 6 0 0 0 0 q q q q q q q 0 q 0 6 0 q q q 6 0 0 0 0 0 0 0 0 5 5 5 5 5 5 6 5 0 0 s 2 2 2 2 2 2 2 2 2 2 2 2 0 0 0 5 2 2 2 2 5 5 5 5 5 5 5 5 2 5 5 5 5 0 0 0 0 5 6 6 6 6 6 6 6 q q q 0 0 0 0 0 6 6 5 5 6 6 6 6 2 2 5 5 5 2 2 2 0 5 2 2 2 5 5 5 0 0 0 0 0 0 0 0 6 6 5 5 2 2 7 5 0 0 5 5 5 5 5 5 2 2 2 2 5 5 5 5 2 5 5 5 0 0 0 0 0 5 5 5 0 0 5 5 5 5 0 0 5 2 5 5 0 0 0 0 0 0 0 5 5 5 5 5 5 5 5 5 2 2 2 2 2 5 5 5 0 0 0 0 0 0 0 0 6 6 5 5 5 5 5 5 5 5 5 5 5 5 5 2 2 2 5 5 5 5 2 2 2 2 2 2 5 5 5 2 2 2 5 5 5 5 0 0 0 0 0 0 2 2 2 2 2 2 2 2 2 2 2 2 2 2 2 0 0 0 5 2 2 0 0 0 2 2 2 2 2 2 2 2 2 , , , 2 2 2 2 2 2 2 2 2 2 2 < < , , , < < < , , , , , , , , , , , , - * * * * * * * = = = & & & & + = O % ; y 8.7.5.5.2.-.-.-.*.-.-.-.-.-.-.-.-.-.2.1.2.g.sXNXSXSXxXl.1.-.-.=.....%.%.%.O.O.O.O.O.O.O.O.O.O.O.O.O.O.O.O.O.O.O.O.O.O.O.O.O.O.+.+.+.+.+.{ { { { { { { { { { O.O.O.O.O.O.O.O.O.",
"' ' ' ' ' ' ' ' ' ' ' ' ' ' ' ' ' ' +.+.+.+.' ' ' ' ' ' ' ' +.+.+.+.+.+.O.O.O.O.+.+.O.O.O.O.O.O.%.O.>.6. .iXCXZXNXlXl.=.-.*.O.%.%.%.>.>.>.>.*.-.1...1.4...7.8.M ; O $ , * * : & * * * * - 3 4 4 - , , , < , , , < < < < < < < < 2 2 < 2 2 2 2 2 7 7 7 7 7 7 5 5 2 7 6 6 6 5 7 7 5 6 0 q q q 0 0 0 q q q q q q 0 q q 0 0 q q 0 6 6 6 0 0 0 6 5 5 7 7 7 5 5 5 5 5 2 2 2 2 2 2 2 2 2 2 2 2 2 2 2 2 w 0 5 2 2 2 5 5 0 0 5 5 5 2 2 2 2 2 2 5 5 0 0 0 6 6 6 0 q 0 0 0 q q 0 0 6 6 6 6 6 6 5 6 0 0 0 0 5 0 2 2 2 2 2 2 5 2 2 2 2 5 0 0 0 0 0 0 0 0 0 0 5 5 5 2 2 2 2 5 5 5 2 2 2 2 2 2 2 2 2 2 2 2 2 2 5 5 0 0 0 0 0 0 0 2 2 2 2 2 2 2 2 5 0 0 0 5 5 5 5 0 0 0 0 0 0 0 0 0 0 0 0 0 0 0 5 5 5 5 2 5 5 5 0 0 0 0 0 0 0 0 5 5 5 5 5 5 7 7 5 2 2 5 5 5 5 2 2 2 2 5 5 5 5 5 2 2 2 5 5 0 5 5 5 5 5 5 0 0 0 0 0 0 0 0 0 0 2 2 5 5 0 2 2 2 2 2 2 2 2 2 2 0 0 0 0 0 0 2 2 2 2 2 2 2 2 2 2 2 < < 2 2 2 2 2 2 2 2 2 2 2 2 < < < , < < < < < < < < < , , , < < , , - - : * * * * * = = * & & + & & $ = $ % z 8.7.6.1.2.2.-.-.2.2.-.1.1.-.-.-.-.;.1.2.g.sXNXSXFXvXl.1.-.-.=.....%.%.%.O.O.O.O.O.O.O.O.O.O.O.O.O.O.O.O.O.O.O.O.O.O.O.O.O.O.+.+.+.+.+.{ { { { { { { { { { O.O.O.O.O.O.O.O.O.",
"' ' ' ' ' ' ' ' ' ' ' ' ' ' ' ' ' ' +.+.+.+.' ' ' ' ' ' ' ' ' +.+.+.+.+.O.O.O.O.+.+.O.O.O.O.O.O.%.O.>.6. .iXCXCXNXlXl...-.*.O.%.%.%.>.>.>.>.*.-.2...3.6.X.8.G ; % $ * , $ & > * * * * : , 3 3 3 3 , , , < < < < < < < < < < < < 2 2 2 2 2 2 2 2 7 7 5 5 7 5 5 5 7 5 5 5 5 5 5 6 6 6 0 q q q q 0 0 q q q q q q 0 q q q q q q 0 6 6 6 0 0 0 6 5 5 2 7 5 5 5 5 6 6 2 2 2 2 2 2 2 2 2 2 2 2 2 2 2 2 0 0 5 5 2 2 5 5 5 5 5 5 2 2 2 2 2 2 2 2 6 0 0 6 6 6 0 q 0 q q w q q q 0 6 6 6 6 6 6 6 6 0 0 0 0 0 0 2 2 2 2 2 2 2 2 2 2 2 0 0 0 0 0 0 0 0 0 0 0 5 5 5 2 2 2 2 2 2 2 2 2 2 2 2 2 2 2 2 2 2 2 2 2 2 5 5 0 0 0 0 0 2 2 2 2 2 2 2 2 2 5 0 0 0 5 5 5 2 5 5 0 0 0 0 0 0 0 0 0 0 5 5 5 5 5 5 2 2 2 2 2 5 6 0 0 0 0 0 0 0 6 6 6 5 5 5 7 2 2 2 2 5 5 5 2 2 2 2 2 2 2 2 2 2 2 2 5 5 w 0 5 0 0 0 0 0 0 0 0 0 0 2 2 5 0 0 0 0 0 0 0 2 2 2 2 2 2 2 2 2 2 2 0 2 5 2 2 2 2 0 0 2 2 2 2 2 2 2 2 2 2 5 5 5 2 2 2 5 2 2 2 2 < < < < < < < < < < < < , , < < < , , - , , : * * * * * * = & & & & & & $ % % ; j 8.6.1.2.;.;.5.2.-.-.1.1.1.1.-.-.2.1.2.d.sXNXSXFXlXl.1.-.-.=.....%.%.%.O.O.O.O.O.O.O.O.O.O.O.O.O.O.O.O.O.O.O.O.O.O.O.O.O.O.+.+.+.+.+.{ { { { { { { { { { O.O.O.O.O.O.O.O.O.",
"' ' ' ' ' ' ' ' ' ' ' ' ' ' ' ' ' ' ' +.+.+.+.' ' ' ' ' ' ' ' ' ' ' ' +.O.+.+.+.+.O.O.O.O.O.O.O.%.O.>.=. .rXCXCXNXxXj.=.-.*.O.>.*.*.>.>.>.-.;.;._ 4.,. .y.L 7 % % = * * & * , , : : * : , , , , < < < < < < < < < < < < < < < 2 2 2 2 2 2 2 7 7 5 5 7 7 5 5 5 5 0 6 7 7 7 5 0 0 6 0 0 q q q q q 0 0 q q q q q 0 q q q q q q 0 0 0 0 0 0 0 6 5 5 2 2 5 5 5 5 6 5 5 2 5 2 5 2 5 2 2 2 2 2 6 0 5 2 5 5 5 5 5 5 5 5 2 2 2 2 2 2 2 2 5 5 5 0 0 w 0 q 6 6 6 0 q q q q q q 0 0 6 6 6 6 6 6 6 0 0 0 0 6 0 5 2 < , , , < 2 2 2 2 2 2 5 0 5 5 0 0 0 0 0 0 2 5 2 2 < < 2 2 2 2 2 2 2 2 2 2 2 2 2 2 2 2 2 2 2 2 2 2 2 2 2 2 2 2 2 2 2 2 2 2 2 2 5 0 0 5 5 5 2 5 5 5 0 0 0 0 0 0 0 0 5 5 5 5 5 5 2 2 2 2 2 2 5 5 5 6 0 0 0 0 0 0 0 0 0 6 5 5 2 2 2 2 5 5 5 5 2 2 2 2 2 2 2 < 2 2 2 2 5 5 5 2 0 0 0 0 0 0 0 0 0 2 2 2 2 0 0 0 0 0 0 2 2 2 2 2 2 2 2 2 2 2 2 2 2 2 2 s 0 s 0 0 2 2 2 2 2 2 2 2 2 2 2 2 2 2 2 2 5 5 2 2 2 2 < < 2 2 < < < < < < < < , < < < < , , , , , , , * : * * * = = & & & O O = = $ ; B 8.7.5.%.-.5.-.{ -.2.1.-.-.-.2.2.1.5.d.sXNXSXFXvXl.1.-.-.=...%.%.%.%.O.O.O.O.O.O.O.O.O.O.O.O.O.O.O.O.O.O.O.O.O.O.O.O.O.O.+.+.+.O.O.{ { { { { { { { { { O.O.O.O.O.O.O.O.O.",
"' ' ' ' ' ' ' ' ' ' ' ' ' ' ' ' ' ' +.+.+.+.' ' ' ' ' ' ' ' ' ' ' ' ' ' O.+.+.+.+.+.O.O.O.O.O.O.%.O.>.1. .rXCXCXNXxXj.=.=.*.%.>.*.*.>.>.>.-.;.;.=.1.<.8.U 6 $ - % = * * * : : , : : , , , , , < < < < < < < < < < < < < < 2 2 2 2 2 2 2 2 2 7 5 5 5 5 5 5 6 6 6 0 6 5 7 5 6 q q 0 0 q q q q q q q q q q q 0 0 0 q q q q q q 0 0 0 0 0 0 0 0 5 5 2 2 5 5 5 5 5 5 5 5 5 5 5 5 5 5 5 5 5 6 0 0 5 5 2 2 5 5 5 5 5 2 2 2 2 2 2 2 2 2 5 5 5 6 0 0 0 0 6 6 6 0 q q q q q 0 0 6 6 6 6 6 6 6 6 0 0 0 6 5 5 2 2 , , , < 2 < < 2 2 2 2 2 2 5 5 5 5 5 5 5 5 2 2 2 2 < < 2 2 2 2 2 2 2 2 2 2 2 2 2 2 2 2 2 2 2 2 2 2 2 2 2 2 2 2 2 2 2 2 2 < 2 2 5 5 5 5 5 5 5 5 0 0 0 0 0 5 0 0 5 5 5 5 5 5 5 5 2 2 2 2 2 2 5 5 5 5 5 5 5 5 0 0 0 0 0 0 0 6 2 2 2 2 5 5 5 5 2 2 2 2 2 2 < < < < < < 2 2 2 2 5 5 0 0 0 0 0 0 2 2 2 2 2 0 0 2 2 2 2 2 2 2 2 2 5 2 2 2 2 2 2 2 0 s 0 0 0 2 2 0 2 2 2 2 < < , < 2 2 2 2 2 2 2 2 5 5 5 2 2 2 2 2 2 2 < 2 2 2 2 2 2 < < < 2 < < , , , , , , , , , , , - = = & & & O = $ $ % $ 2 G 7.e.:.*.2.-.O.5.2.2.-.-.-.1.2.1.5.d.sXNXSXFXvXl.1.-.-.=...%.%.%.%.O.O.O.O.O.O.O.O.O.O.O.O.O.O.O.O.O.O.O.O.O.O.O.O.O.O.+.+.+.+.O.{ { { { { { { { { { O.O.O.O.O.O.O.O.O.",
"' ' ' ' ' ' ' ' ' ' ' ' ' ' ' ' +.+.+.+.+.+.' ' ' ' +.+.+.+.' ' ' ' ' ' O.O.+.+.+.+.O.O.O.O.O.O.O.O.>.1. .rXCXCXNXxXj.=.=.%...=.*.*.*.*.>.-.;.;.4...8.I e % % = = = * * : : * : , 3 3 3 , , < < < < < < < < < < < < 2 2 2 2 2 < 2 2 2 2 2 5 5 5 5 5 5 6 6 6 6 6 0 6 5 6 6 q q 0 0 q q q q q q q w w q 0 0 0 0 0 q q q q q q q q 0 0 0 0 0 6 5 5 7 5 5 0 0 5 5 5 6 6 6 6 6 6 6 6 5 6 0 0 6 6 6 0 0 5 5 2 2 2 2 2 5 5 5 5 2 2 2 2 5 7 5 5 5 0 6 6 0 0 q q q q q q 0 0 6 6 6 6 6 6 5 5 5 6 0 0 6 5 5 5 2 2 2 2 2 2 , < 2 2 < , < < 2 2 2 2 2 2 2 2 2 2 2 < < < 2 2 2 2 2 2 2 2 2 2 2 2 2 2 2 2 2 2 2 2 2 2 2 2 2 2 2 2 2 2 2 2 2 < < 2 2 2 2 2 2 5 5 5 0 0 0 0 0 0 5 5 5 5 5 2 5 5 5 5 2 2 2 5 5 5 5 5 5 5 6 5 5 5 5 6 0 0 0 0 0 6 5 2 2 2 5 0 5 5 5 5 2 2 2 2 2 < 2 2 < < < < 2 2 2 2 2 5 0 0 0 0 0 2 2 2 2 2 2 2 2 2 2 2 2 2 2 2 2 2 2 2 2 2 2 2 s 2 0 0 0 2 2 0 2 2 2 2 < < < < 2 2 2 2 2 2 2 5 5 5 5 5 2 2 2 2 2 2 2 2 2 2 2 2 2 2 2 2 2 2 < , , , , , , , , , , , , * = = & & = = $ $ * $ $ 6 G 2.r.*.2.2.-.5.2.2.2.-.2.2.2.2.2.g.sXNXSXFXxXl.1.-.-.=.....%.%.%.O.O.O.O.O.O.O.O.O.O.O.O.O.O.O.O.O.O.O.O.O.O.O.O.O.O.+.+.O.O.O.{ { { { { { { { { { O.O.O.O.O.O.O.O.O.",
"' ' ' ' ' ' ' ' ' ' ' ' ' ' ' ' ' +.+.+.+.+.+.' ' ' +.+.+.+.+.+.' ' ' ' O.O.+.+.+.+.+.O.O.O.O.O.O.O.>.=. .rXCXCXNXxXf.=.-.%.O.=.*.*.-.-.;.-.;.-...7.I d % % = = = = * * , , : 1 , 3 3 3 , < < < < < < < < < < < < < 2 2 2 2 2 2 2 2 7 2 7 5 5 5 5 5 6 6 6 6 6 6 6 5 5 6 q q 0 6 q q q q q q q q w w q 0 6 6 0 0 0 q q q q q q w 0 0 0 0 0 5 5 5 6 0 0 0 0 0 0 6 q q q 0 0 6 6 6 6 0 0 q 6 6 0 0 0 0 5 2 2 2 2 2 0 0 0 5 5 5 2 5 6 6 6 0 0 q q 0 q q q q q q q q 0 0 6 0 6 0 6 0 5 5 5 0 0 0 6 5 w w 0 2 2 2 2 2 < 2 2 2 , , < < < 2 2 2 2 2 2 2 < 2 < < < < 2 2 2 2 2 2 2 2 2 2 2 2 2 2 2 2 2 2 2 2 2 2 0 0 0 0 2 2 2 2 2 2 2 < < 2 2 2 2 2 2 5 2 2 5 5 0 0 0 0 5 5 5 5 5 5 5 5 5 5 5 5 5 0 5 0 5 6 6 6 5 5 5 5 5 5 5 0 0 0 0 6 0 5 2 5 0 0 5 5 5 5 5 2 2 2 2 2 5 2 < < < 2 2 2 , < 2 2 5 0 0 0 0 0 0 0 0 2 2 2 2 2 2 2 2 2 2 2 2 2 2 2 2 2 2 2 2 2 2 0 0 0 0 0 0 5 5 2 2 2 2 2 2 2 2 2 2 2 5 0 5 5 5 5 5 2 2 2 2 2 2 2 2 2 2 2 5 2 2 2 2 2 2 < , , , , , , , , , , , * = = & & = O $ & O * * $ r ( 7.=.2.r.-.-.;.;.-.-.1.2.2.1.2.g.sXNXSXSXvXl.1.;.-.=.=.%.%.%.O.O.O.O.O.O.O.O.O.O.O.O.O.O.O.O.O.O.O.O.O.O.O.O.O.O.O.+.+.O.O.O.{ { { { { { { { { { O.O.O.O.O.O.O.O.O.",
"' ' ' ' ' ' ' ' ' ' ' ' ' ' ' ' ' ' ' ' ' ' ' ' ' ' ' ' ' ' ' ' { { { { { { { { { { { { { O.O.O.>.%.>...,.;XCXCXCXxXf.1.-.*.>.:.>.=.-.;.;.-.;.1.7.y.p $ % = $ * * * - , , , , , < 3 3 < < 2 2 2 < 2 2 2 2 2 2 2 < 2 2 2 7 5 5 5 5 5 7 5 7 5 6 5 6 6 6 6 6 6 5 5 6 6 6 6 6 6 0 q q q q q q q q q w w q q 5 5 0 q 0 0 q w w q 0 0 w q 0 0 0 0 0 0 0 0 5 5 5 0 w w 6 6 0 0 0 6 5 5 5 5 5 6 6 5 5 5 5 5 5 2 2 2 2 2 0 w 0 0 5 5 0 0 0 q 6 5 5 5 0 q 6 0 q q w w q q 0 0 0 0 5 5 5 5 6 0 6 5 6 0 0 0 0 5 2 2 2 2 2 2 2 2 2 2 2 2 2 , 2 2 2 2 2 2 2 2 < 2 2 2 2 2 2 2 2 2 2 2 2 2 2 2 2 2 2 2 2 2 2 2 2 2 2 2 2 2 5 5 2 2 2 2 2 2 2 2 , , < 2 2 2 2 2 2 2 2 2 5 0 0 5 0 0 0 0 0 0 5 5 2 2 2 2 2 5 5 5 5 5 5 5 5 5 5 5 5 6 5 6 5 6 5 0 5 2 2 2 5 5 2 2 5 2 2 2 2 2 2 2 0 0 0 5 5 5 2 2 2 2 2 < < 2 5 0 0 0 0 0 0 0 5 2 2 2 2 2 2 2 2 2 2 2 2 2 2 5 5 5 5 0 0 5 5 5 0 0 0 0 0 5 5 5 5 5 2 2 2 2 2 0 0 0 0 0 0 5 5 5 5 5 2 5 5 5 5 5 2 2 2 2 2 2 2 2 2 < 2 2 < < < < < , , , - - * * * * * & & & $ $ $ $ % y 8.7.-.;.t.>.:.:.1.1.1.2.2.2.5.d.sXNXSXFXhXg.1.-.=.%.%.%.O.O.O.O.O.O.O.O.O.O.O.O.O.O.O.O.O.O.{ { { { { { { { O.O.O.{ { { { { { { { { { { { { { { { { { O.O.O.{ { { ",
"' ' ' ' ' ' ' ' ' ' ' ' ' ' ' ' ' ' ' ' ' ' ' ' ' ' ' ' ' ' ' ' { { { { { { { { { { { { { O.O.O.>.+.%...,.;XCXCXCXxXf.1.-.-.>.:...:.2.O.-.0.2...y.N ; $ = $ & * * - - , , , , , < < < 2 < 2 2 2 2 2 7 7 7 7 2 2 2 2 2 2 7 7 7 7 7 7 7 7 6 5 0 0 6 5 5 5 5 5 5 6 6 6 5 6 6 0 0 q q q q q q q q q w w q q 0 0 0 q q w w w w w 0 0 q 0 0 0 0 0 0 0 6 5 5 7 7 5 5 0 0 0 q 0 0 0 6 5 0 0 0 0 0 6 5 2 6 5 5 2 2 2 2 2 2 2 0 0 5 5 0 0 0 0 6 5 5 6 0 0 6 0 q 0 0 0 0 0 0 0 0 0 5 2 2 2 0 0 0 0 0 0 0 0 5 5 2 2 2 2 2 2 2 2 2 2 2 2 2 1 2 2 2 2 2 2 2 2 2 2 2 2 2 2 < < 2 2 2 2 2 < < < 2 2 7 5 5 7 7 2 2 2 2 2 2 2 2 5 2 2 2 2 2 2 2 2 < < < 2 2 2 2 2 2 2 2 2 2 5 5 2 5 0 0 0 0 0 5 5 5 5 2 2 2 2 2 2 7 7 5 5 5 5 5 5 5 5 5 5 5 5 5 5 0 5 5 5 0 0 5 2 5 2 5 2 2 2 2 2 0 0 0 5 5 5 2 2 0 5 2 2 2 2 5 0 0 0 0 0 0 0 5 2 2 2 2 2 2 2 2 2 2 2 2 2 2 2 5 5 5 0 5 5 5 5 6 0 0 6 5 5 5 5 5 5 2 2 2 2 2 2 0 0 0 0 0 5 5 5 5 5 2 2 5 5 5 5 2 2 2 2 2 2 2 2 2 < 2 < , , < < , , , , , - - - * * * * * & & $ $ $ O < j 8.t.-.@.r.;.2.1.1.1.1.2.2.2.g.sXNXSXSXhXg.1.=.=.%.O.*.O.O.O.O.O.O.O.O.O.O.O.O.O.O.O.O.O.O.{ { { { { { { { O.O.O.{ { { { { { { { { { { { { { { { { { O.O.O.{ { { ",
"' ' ' ' ' ' ' ' ' ' ' ' ' ' ' ' ' ' ' ' ' ' ' ' ' ' ' ' ' ' ' ' { { { { { { { { { { { { { O.O.O.>.+.%...,.-XCXCXCXvXf.1.-.;.>.:.:.-.-.;.;.2.:.8.L < $ * $ $ : * * - , , , , , < < < < 2 2 2 2 2 5 5 5 5 7 7 2 2 2 7 5 5 7 7 2 2 5 7 5 6 6 0 0 0 0 0 0 0 0 0 0 q 0 6 5 5 6 0 0 0 q q q q q q q q q q q q q q 0 0 w w w q q q 0 0 0 0 6 0 0 0 0 0 0 0 0 6 5 6 5 0 0 0 0 0 0 0 0 6 0 0 0 0 0 6 5 2 5 5 5 2 2 2 2 2 , 2 2 5 5 0 q 0 q 0 6 6 6 6 6 6 6 0 q q q 0 6 6 0 0 0 0 5 5 5 2 2 2 5 5 5 5 5 2 5 5 2 2 2 2 2 2 2 2 2 2 2 2 2 2 2 2 2 2 2 2 2 2 2 2 2 2 < < < < 2 2 2 2 2 < < < 2 2 5 5 5 5 5 5 2 2 2 2 2 2 2 2 5 5 2 2 2 2 2 2 2 2 2 2 2 2 2 2 2 2 2 2 2 2 2 2 5 5 5 5 5 5 5 5 0 5 5 5 2 2 2 2 2 2 7 5 5 5 5 7 5 5 5 5 5 5 5 5 0 5 5 5 0 0 0 0 5 5 5 5 5 5 5 5 5 5 5 5 5 5 5 2 0 0 0 5 5 2 2 2 5 5 0 0 0 5 2 2 2 < , , 2 2 2 2 2 2 2 2 2 2 2 5 0 0 0 5 5 5 5 6 6 6 6 5 5 5 5 5 2 2 2 2 2 5 2 2 0 0 0 0 6 5 5 5 5 5 5 5 5 5 7 2 2 2 2 2 2 2 2 2 2 2 < < < < < , < , , , , , : : : > * & & & $ $ $ $ ; c y.5.O.0.;.:.2.1.2.2.2.2.2.d.sXNXSXSXhXg.1.=.=.%.%.*.O.O.O.O.O.O.O.O.O.O.O.O.O.O.O.O.O.O.{ { { { { { { { O.O.O.{ { { { { { { { { { { { { { { { { { O.O.O.{ { { ",
"' ' ' ' ' ' ' ' ' ' ' ' ' ' ' ' ' ' ' ' ' ' ' ' ' ' ' ' ' ' ' ' { { { { { { { { { { { { { O.O.O.>.O.%.1.,.-XCXZXZXcXf.1.2.;.*.:.1.=.-.2.2.:.8.U 6 % % : $ $ 3 * - , , , , < < < < 2 2 2 2 7 7 7 5 5 7 7 2 2 2 2 7 7 5 5 5 5 2 7 6 6 0 0 0 0 6 6 0 0 0 0 0 0 0 0 0 5 7 5 0 q 0 5 0 q q q q q q q q q q q q q q 0 w w q q q q 0 0 0 6 5 6 0 0 0 0 w 0 0 0 0 0 5 0 0 0 0 0 0 0 0 6 5 6 0 0 0 5 5 5 5 5 5 2 2 2 , , , , 2 2 5 0 0 q 0 0 0 0 6 6 6 6 6 0 0 0 0 6 5 5 0 0 0 5 5 5 2 2 2 2 2 2 2 2 2 2 5 5 5 2 2 2 2 2 2 2 2 2 2 2 2 2 2 2 2 2 2 2 2 2 2 2 2 2 2 2 2 2 < 2 2 2 2 < < < 2 2 7 5 5 5 5 5 5 2 2 2 2 2 2 2 2 2 2 2 2 2 2 2 5 2 2 2 2 2 2 2 2 2 2 2 2 2 2 2 2 2 2 5 5 5 5 5 0 0 5 5 5 2 2 2 2 7 7 5 5 5 7 7 5 5 5 5 7 7 7 5 5 2 2 2 5 5 0 0 0 5 5 5 5 5 5 5 5 5 5 5 5 5 2 2 0 0 0 0 5 2 2 2 2 2 5 0 0 5 2 2 2 2 , , , 2 2 2 2 2 2 2 2 2 5 0 0 0 0 0 5 5 5 6 0 6 6 6 5 5 5 5 2 2 2 2 2 2 2 5 0 0 0 0 0 6 6 6 5 5 5 5 5 5 5 5 2 2 2 2 2 2 2 2 2 2 2 2 2 2 2 < < < < , , , , , : : * * & & & & & % $ 9 A 7.4.-.2.;.;.2.2.2.2.2.2.g.sXBXSXSXhXg.1.=.=.%.%.*.O.O.O.O.O.O.O.O.O.O.O.O.O.O.O.O.O.O.{ { { { { { { { O.O.O.{ { { { { { { { { { { { { { { { { { O.O.O.{ { { ",
"' ' ' ' ' ' ' ' ' ' ' ' ' ' ' ' ' ' ' ' ' ' ' ' ' ' ' ' ' ' ' ' { { { { { { { { { { { { { O.O.O.%.O.%.1.,.*XCXZXZXcXf.1.2.2.-.-.) 1.1.{ =.u.L r % % : * & * * - , , , < < 2 2 2 2 2 7 7 7 7 5 5 5 5 7 7 7 2 2 7 7 7 5 6 6 6 6 6 0 0 0 0 0 0 0 0 0 0 0 0 0 0 0 q 0 6 5 6 q q 0 5 0 0 0 q q q q q q q q q e e q 0 w w w q q q 0 0 0 0 5 0 0 0 0 0 0 0 5 5 5 5 5 5 5 5 5 5 5 5 5 5 5 5 6 0 0 0 6 6 6 6 5 2 2 2 1 , , , 2 2 5 6 6 6 0 0 0 0 0 0 6 6 0 0 0 0 0 5 5 7 5 5 5 5 5 2 2 2 0 5 2 < < 2 2 5 5 2 2 2 2 2 2 2 2 2 2 2 2 2 , , 2 2 2 2 2 2 2 2 2 2 2 2 2 2 2 2 , < 2 2 2 2 2 2 2 2 2 2 5 5 5 5 5 2 2 2 2 2 2 2 2 2 2 2 2 2 2 2 0 0 2 2 2 2 2 2 2 2 2 2 2 < < 2 2 2 2 2 5 5 5 5 0 0 5 5 2 5 2 2 5 5 5 5 5 5 5 5 5 5 5 5 5 5 2 2 2 2 2 2 2 5 0 0 0 0 5 5 5 5 5 5 5 2 2 2 2 2 2 2 5 5 0 0 0 5 2 2 5 5 0 0 5 5 2 2 2 2 2 1 1 2 2 2 5 2 2 2 2 2 0 0 0 0 0 0 0 0 0 0 q q 0 0 6 6 5 6 6 5 5 2 5 5 5 0 0 0 0 0 0 0 0 0 0 0 0 6 5 5 5 5 2 2 2 2 5 5 2 2 5 2 2 2 2 2 2 2 2 < < < < , , , , : * * * & & & $ % $ $ ; G 7.1.1.2.;.;.2.2.1.2.5.d.sXBXSXSXhXg.1.=.=.%.%.*.O.O.O.O.O.O.O.O.O.O.O.O.O.O.O.O.O.O.{ { { { { { { { O.O.O.{ { { { { { { { { { { { { { { { { { O.O.O.{ { { ",
"' ' ' ' ' ' ' ' ' ' ' ' ' ' ' ' ' ' ' ' ' ' ' ' ' ' ' ' ' ' ' ' { { { { { { { { { { { { { O.O.O.%.+.%.1.,.*XCXZXZXcXh.4.1.2.-.-.=.1.=.=.7.8.k % % - & & 1 , * 3 3 < 2 2 2 2 7 7 7 7 7 7 6 6 6 6 6 6 5 7 7 7 5 5 7 5 6 6 6 6 6 6 5 5 6 6 0 0 0 w 0 0 0 0 0 0 0 0 0 0 6 0 q q 0 6 0 0 q q q q q q q q q q e e q q q q q 0 0 0 0 2 0 0 0 0 0 0 0 0 0 0 0 0 6 5 5 5 5 5 5 5 2 2 7 2 5 5 0 0 0 0 0 0 6 6 6 5 2 2 2 1 2 2 2 2 5 0 6 6 0 0 0 0 0 0 6 6 0 0 0 0 0 5 5 2 5 5 5 5 5 2 2 2 2 2 < , , , < 2 2 2 2 2 2 2 2 2 2 2 2 2 2 , , , < < < < < < < < 2 2 2 2 2 < < , , < 2 2 2 2 2 2 2 2 2 5 5 5 5 2 5 5 2 2 2 2 2 2 2 2 2 2 2 2 2 2 0 0 2 2 2 2 2 2 2 2 2 2 2 2 < 2 2 2 2 2 5 5 5 5 5 5 5 5 5 5 2 2 5 5 5 5 5 5 5 5 5 5 5 5 5 5 2 2 2 5 5 5 5 5 0 0 0 0 0 0 5 0 0 0 5 5 2 2 2 2 2 2 5 5 0 0 0 0 0 5 0 0 0 0 5 5 2 2 2 2 2 2 2 2 2 2 0 0 2 2 2 0 0 0 0 0 w w 0 0 0 0 q q q q 0 0 0 6 6 6 5 5 5 5 0 0 0 0 0 0 0 0 0 0 0 0 0 0 5 5 6 6 2 2 5 5 5 5 5 2 5 2 2 2 2 2 2 2 2 2 2 2 < < < , , , , : * * * * $ $ = $ O q I d.1.2.9.9.;.2.1.1.5.g.sXBXSXSXhXg.1.=.=.%.*.*.%.O.O.O.O.O.O.O.O.O.O.O.O.O.O.O.O.O.{ { { { { { { { O.O.O.{ { { { { { { { { { { { { { { { { { O.O.O.{ { { ",
"' ' ' ' ' ' ' ' ' ' ' ' ' ' ' ' ' ' ' ' ' ' ' ' ' ' ' ' ' ' ' ' { { { { { { { { { { { { { O.O.O.%.+.%.1.,.*XAXSXZXcXh.4.1.1.1.1.q.....7.8.f ; % - * & & 1 , , 3 2 2 2 7 7 7 7 6 6 6 6 6 6 6 6 6 0 6 6 5 5 5 6 6 6 6 6 6 6 6 6 6 5 5 5 6 6 0 0 w 0 0 0 0 q 6 6 6 q q q q q q 0 0 q q q q q q q q q q q q q q q w 0 0 0 0 0 0 0 0 0 0 0 0 0 0 0 0 0 0 0 0 0 0 0 5 0 0 5 2 2 2 2 2 5 5 0 0 0 0 0 0 6 0 0 0 5 2 2 2 2 2 2 2 5 0 0 6 0 0 0 0 0 0 0 0 0 0 0 0 0 5 5 2 2 5 5 5 5 2 2 2 < < , , , , < 2 2 2 2 2 2 2 2 2 2 2 2 2 2 2 , , , , 2 2 2 2 2 2 2 2 2 < 2 , , , , < 2 2 2 2 2 2 2 2 5 5 5 5 5 5 5 5 5 2 2 2 2 2 2 2 2 2 2 2 2 5 0 0 5 2 2 2 2 2 2 2 2 2 3 3 3 2 2 2 2 2 5 5 5 5 5 5 5 5 5 5 5 5 6 6 5 6 6 5 5 5 6 5 5 5 5 5 7 7 2 5 0 0 5 5 0 0 0 0 0 0 0 0 0 0 0 5 5 2 2 2 2 2 5 5 0 0 0 0 5 5 5 5 2 2 2 2 2 2 2 2 2 < 2 2 2 s 2 2 2 2 5 0 5 5 0 0 0 w q 0 0 0 q q q q q q q 6 6 5 5 5 5 5 5 5 0 0 0 0 0 0 0 0 q 0 0 6 5 5 5 5 5 5 5 5 0 0 6 5 5 5 7 7 7 5 7 2 2 2 2 7 2 2 2 2 < < , , , : - * = $ = = O $ i I 1.2.9.9.9.2.1.4.0.g.sXNXSXSXhXg.1.=.=.%.*.%.%.O.O.O.O.O.O.O.O.O.O.O.O.O.O.O.O.O.{ { { { { { { { O.O.O.{ { { { { { { { { { { { { { { { { { O.O.O.{ { { ",
"' ' ' ' ' ' ' ' ' ' ' ' ' ' ' ' ' ' ' ' ' ' ' ' ' ' ' ' ' ' ' ' { { { { { { { { { { { { { O.O.O.*.+.%.1.,.*XAXSXZXmXh.4.1.1.1.1.1.1.6.8.c ; $ = $ * , , : 2 3 < 7 7 7 7 5 5 6 6 6 6 6 6 6 6 6 6 6 6 5 7 7 5 6 0 0 0 0 0 6 6 6 5 0 0 6 5 6 6 0 q 0 0 0 q 6 6 6 6 q q w w q q 0 q q q q q q q q q q q e q q q e u 0 0 0 q q e q t 0 0 0 0 0 0 0 0 0 0 0 0 0 5 5 5 0 0 5 2 2 2 2 2 5 5 0 0 0 0 6 5 0 q 0 0 0 5 2 2 2 2 2 2 6 0 0 0 0 0 0 0 0 0 0 0 0 0 0 0 0 6 5 5 2 2 5 5 5 2 2 < 2 2 2 2 2 2 2 2 2 5 5 5 5 5 2 2 2 2 2 2 2 2 , , 2 2 2 2 2 2 2 2 2 2 2 2 2 2 2 2 , 2 2 2 2 2 2 2 5 5 5 5 5 5 5 5 5 5 5 5 2 2 2 2 2 2 2 2 2 5 5 0 5 5 5 2 2 2 2 2 2 2 2 2 3 3 3 3 2 2 2 2 5 5 5 5 2 5 2 5 5 5 0 0 0 0 0 0 0 6 5 5 6 6 5 5 5 5 5 7 2 5 0 0 5 5 5 0 0 0 0 0 0 0 0 0 0 0 0 5 2 2 5 5 5 5 5 0 5 5 2 2 2 2 < < , , , , , < 2 < 2 2 5 5 2 2 2 2 5 5 5 5 5 0 0 q 0 0 0 0 q q q q q q 0 6 5 5 5 5 5 5 5 5 0 0 0 0 0 0 0 0 q 0 0 5 5 5 5 5 5 5 5 6 0 0 0 6 0 0 5 5 5 5 5 5 2 2 7 7 5 7 2 2 2 2 < , , , , - 4 = O & > o $ g 8.1.;.9.9.2.4.4.0.g.sXBXSXSXhXp.1.=.=.%.*.%.*.O.O.O.O.O.O.O.O.O.O.O.O.O.O.O.O.O.{ { { { { { { { O.O.O.{ { { { { { { { { { { { { { { { { { O.O.O.{ { { ",
"' ' ' ' ' ' ' ' ' ' ' ' ' ' ' ' ' ' ' ' ' ' ' ' ' ' ' ' ' ' ' ' { { { { { { { { { { { { { { O.O.O.*...1.,.*XCXZXZXMXh.1.4.1...1...1.8.N ; % - % - * , , , < 2 7 6 6 6 6 6 6 6 q q 6 6 6 6 6 6 6 q q 6 6 6 6 6 q q q 6 6 6 6 q q 0 6 6 6 5 5 7 7 0 q 6 7 7 7 5 6 6 6 q w w w q q 0 q q q q q q q q q q q e 0 0 w 6 0 0 q q q 0 0 0 0 5 0 w w 0 0 0 0 2 2 2 2 2 2 0 0 2 2 2 < 2 2 2 2 2 5 0 0 0 5 5 5 5 2 2 2 2 2 2 2 2 2 5 5 0 0 0 0 5 5 5 5 5 5 6 0 0 6 5 7 2 2 2 5 5 0 0 5 2 2 2 2 2 2 2 2 5 5 5 5 5 5 0 5 2 2 2 2 2 2 2 , , , 2 2 2 2 2 2 2 2 < < 2 2 < < < < 2 2 2 2 2 2 2 2 5 0 0 5 2 2 5 5 2 2 2 5 0 5 2 2 < 2 2 2 2 2 2 2 5 2 2 2 2 2 2 2 2 2 < < 3 3 3 < 2 2 2 2 2 2 2 2 5 5 2 2 2 2 5 5 6 5 5 5 5 5 5 5 5 5 5 5 5 5 5 5 2 2 2 5 5 5 5 5 0 0 0 0 0 5 5 2 0 0 5 5 2 2 2 2 2 2 5 0 0 0 0 5 0 5 2 2 2 < , , , , < 2 2 < < < 2 2 2 5 5 5 5 5 5 5 5 5 0 0 0 q q q q q q q 0 0 6 6 0 q w w 0 0 q q q q q q q q 0 0 0 6 6 6 5 5 6 0 6 0 0 0 0 0 6 0 q q q 6 6 5 7 6 6 6 6 5 7 5 2 2 2 2 2 < , - = = & & & & $ % z ^ t.9.-.0.4.1.0.g.sXBXSXAXkXg.1.1.=.%.%.O.O.O.%.%.%.%.O.O.O.O.O.O.O.O.O.O.{ { { { { { { { { { { { { { { { { { { { { { { { { { { { { { { O.O.O.{ { { ",
"' ' ' ' ' ' ' ' ' ' ' ' ' ' ' ' ' ' ' ' ' ' ' ' ' ' ' ' ' ' ' ' { { { { { { { { { { { { { { O.O.O.*...1.,.$XAXZXAXMXY.1.1.1.1.,.1.7.Z 9 ; % % , , , 3 3 < 2 5 6 q 6 6 q 6 q q q w q q q q q q q q 6 6 6 6 6 q q q q q 6 q q q q 5 5 6 6 6 6 6 6 0 q 6 7 7 7 5 6 6 6 q q w q q 0 q q q q q q q q q q q q q 0 q q 0 q w w w q q q 0 0 0 0 w w 0 0 0 0 2 2 5 5 5 2 2 2 2 2 2 2 2 2 2 2 5 5 0 0 0 5 5 5 5 5 5 2 2 2 2 2 2 2 5 5 6 0 0 6 6 5 5 5 5 5 5 5 5 5 2 2 2 2 2 2 2 2 5 2 2 2 2 2 2 2 5 5 5 5 2 2 2 2 5 5 2 2 2 2 2 2 2 , , , 2 2 1 2 2 2 2 2 2 < , , , , , , , , 2 2 2 2 2 2 2 2 2 2 2 2 2 2 2 2 5 0 0 2 2 2 < 2 2 2 2 2 2 2 5 5 5 2 2 2 2 2 2 2 < 2 3 3 3 < 2 2 2 2 2 2 5 2 5 5 2 2 2 2 5 5 6 6 5 5 5 5 5 5 5 5 6 5 5 5 5 6 5 5 5 5 5 5 5 5 0 0 0 0 0 5 5 5 0 0 5 5 5 5 5 5 2 2 5 5 0 0 0 0 w w 5 2 2 2 , , , , , , , < 2 2 2 2 2 2 2 5 5 5 0 0 0 0 0 0 q q q q q q q q q q 0 0 0 0 0 0 0 0 q q q q q q q q w w w w q 0 6 6 6 6 6 6 0 q 0 q 6 0 q q q 0 6 6 6 6 6 6 6 6 6 5 5 7 7 7 7 2 2 < 3 - > > & & $ % ; c 8.t.2.2.4.1.0.g.sXBXSXZXkXg.1.1.=.%.%.*.%.O.%.%.%.%.O.O.O.O.O.O.O.O.O.O.{ { { { { { { { { { { { { { { { { { { { { { { { { { { { { { { O.O.O.{ { { ",
"' ' ' ' ' ' ' ' ' ' ' ' ' ' ' ' ' ' ' ' ' ' ' ' ' ' ' ' ' ' ' ' { { { { { { { { { { { { { O.O.O.O.*.%.1.,.$XCXZXZXMXY.1.1.5.7.X.7.G 6 % % - * 3 , < < 7 6 5 q q q e e q e e e e e e e e e e q q 6 6 6 6 6 q w w q q q q q q q q 6 6 6 6 0 0 0 0 q 6 6 6 5 5 5 6 6 6 q q q q q 0 q q q q q q q q e t t q q w w 0 0 0 w w q q 0 0 0 0 0 0 0 0 0 0 0 5 2 2 2 0 0 2 2 2 1 1 2 2 2 2 5 5 5 0 0 0 5 5 6 6 5 5 5 2 2 2 2 2 2 2 5 5 6 6 6 5 5 5 5 5 2 2 2 2 5 2 2 2 < 2 2 2 2 2 2 2 2 5 2 2 2 5 5 5 5 5 2 2 2 2 2 2 2 2 2 2 2 2 2 , 2 < 1 1 1 1 1 1 1 1 1 1 , , , , , , , , , , 2 2 2 2 2 2 2 2 2 2 2 2 2 0 0 0 5 2 2 2 2 2 2 2 2 2 2 2 2 2 2 2 2 2 2 2 2 2 2 2 2 2 3 2 2 2 2 5 5 5 2 2 5 5 2 2 2 2 5 5 0 0 0 5 5 5 5 5 5 6 0 0 5 5 6 0 0 0 5 5 2 2 2 2 0 0 0 0 0 0 0 0 0 0 0 5 5 5 5 5 2 2 2 5 0 0 0 0 w w 0 0 5 2 2 < 2 < , , , , < 2 2 2 2 2 2 2 5 5 0 0 0 0 q q q q q e q e q q q q q q 0 6 6 0 0 0 q q q q q q q q w w w w q 0 5 7 6 6 6 q q q q q q q q q q q q 6 6 6 6 q 6 q q q q 6 6 6 6 7 7 2 2 < , : > * = % $ 9 A 8.4.1.1.4.0.g.sXBXZXZXkXg.1.1.=.%.*.*.%.%.%.%.%.%.O.O.O.O.O.O.O.O.O.O.{ { { { { { { { { { { { { { { { { { { { { { { { { { { { { { { O.O.O.{ { { ",
"' ' ' ' ' ' ' ' ' ' ' ' ' ' ' ' ' ' ' ' ' ' ' ' ' ' ' ' ' ' ' ' { { { { { { { { O.{ { { { O.O.O.%.*.%.1.,.$XNXZXSXcXk.4.1.6.7.y.I 8 % ; ; - , , < 2 5 6 6 q q e e e e e e e e e e e e e e e q 6 6 6 6 6 q q w w q q q q q q q q q q q 0 0 6 6 6 q 6 6 6 5 5 6 6 q q q w w q q q q q q q q q q e t t t q 0 0 0 7 7 5 6 0 0 0 0 0 0 0 0 0 0 0 0 0 2 2 2 2 2 5 5 2 , , 1 1 2 2 2 2 0 0 0 0 0 0 6 5 6 5 6 5 5 2 2 2 2 2 2 2 0 0 6 5 5 5 5 0 5 5 2 2 5 5 5 5 2 2 2 2 2 2 2 2 2 5 5 5 2 2 5 5 5 5 5 2 2 2 2 2 2 2 2 2 2 2 2 2 2 2 2 < 2 2 1 1 1 1 2 2 1 1 , , , , , , , , , , , 2 1 2 < < 2 2 2 2 2 2 2 5 0 0 0 2 2 2 2 2 2 2 < 2 2 2 2 2 2 2 2 2 2 2 2 2 2 2 2 2 2 2 2 2 2 5 5 5 2 2 5 2 2 2 2 2 5 5 0 0 0 0 6 5 5 5 6 0 0 0 0 6 0 0 0 0 5 2 2 2 2 5 0 0 0 0 0 0 0 0 0 0 0 0 5 5 5 5 2 2 2 2 5 0 0 0 5 5 5 0 0 5 2 2 2 2 2 1 , , 2 2 < 2 2 2 2 2 5 5 0 0 0 q q q q q q e e e q q q q q q q q 0 0 0 0 q q q q q q q q q w w w q 0 6 5 6 6 6 q q q q q q q q q q q q q 6 6 6 q q q q q q q q 6 6 6 6 6 6 7 2 < , , * = ; % 9 Z ,.1.2.4.0.g.sXBXSXZXhXp.1.1.=.%.*.*.*.%.%.%.%.%.O.O.O.O.O.O.O.O.O.O.{ { { { { { { { { { { { { { { { { { { { { { { { { { { { { { { O.O.O.{ { { ",
"' ' ' ' ' ' ' ' ' ' ' ' ' ' ' ' ' ' ' ' ' ' ' ' ' ' ' ' ' ' ' ' { { { { { { { { O.O.O.{ O.O.O.>.%.>.=.1.,.$XMXCXCXMX$Xa...6.7.8.d ; % 2 , , 2 < 7 5 6 6 e q e t e r r t y y y e e e e e e e q 6 q q q q q q q q q q q q q q q q w q q q 0 0 6 6 0 0 6 6 6 6 6 6 w w w w q q q q q q q q q q e e e t q 6 7 6 7 < 2 2 7 5 0 0 0 0 0 0 0 0 5 2 2 5 2 2 2 2 2 2 2 2 , 1 1 1 2 2 2 0 0 0 0 0 0 5 5 6 6 6 5 5 5 2 2 2 2 2 2 0 0 6 6 5 5 5 5 0 5 5 2 2 5 0 0 0 5 2 2 5 2 2 2 0 0 5 5 5 5 5 5 5 5 5 2 2 2 2 2 2 2 2 2 2 2 2 2 2 2 2 2 < 2 1 1 1 2 2 1 1 1 1 , , , , , , , , , , , 1 2 2 , 2 2 2 2 2 2 2 2 2 2 5 0 5 2 2 2 2 < 2 2 2 2 2 2 2 2 2 2 2 2 2 2 2 2 2 2 2 2 < < 2 2 2 5 5 5 2 5 2 2 2 2 2 2 5 0 0 0 0 0 6 5 5 0 0 0 0 0 0 0 0 0 5 5 2 2 5 5 0 5 0 0 0 0 0 0 0 0 0 0 0 0 0 0 0 0 5 2 2 5 5 5 5 2 5 0 0 0 5 5 5 2 2 2 2 , , 2 2 < 2 2 2 2 2 2 5 0 0 0 0 q q q q q e e e q q q q q q q w q q q 0 q q q q q q q q q q t t t q q q 6 6 q q q q q q q q e e q q q q q q q q q q e e e q e q q q 6 q q 6 7 7 2 < , - 4 % % 6 G 6.t.5.e.d.fXNXSXZXhXp.1.1.=.-.*.*.*.%.%.%.%.%.O.O.O.O.O.O.O.O.O.O.{ { { { { { { { { { { { { { { { { { { { { { { { { { { { { { { O.O.O.O.{ { ",
"' ' ' ' ' ' ' ' ' ' ' ' ' ' ' ' ' ' ' ' ' ' ' ' ' ' ' ' ' ' ' ' { { { { { { { { O.O.O.O.O.O.O.>.O.>.=.3.,.$XBXCXNXMXY.1.:.u.8.l ; 7 < * 2 s 2 5 6 8 e r e e t t y y y y y y y y e e e e t e q 6 q q q q q q q q q q q q 6 q q q q 0 0 0 q q q q 0 0 0 0 0 0 0 0 w w w w q q q q q q q q q q q w t t q q 6 5 7 < 2 2 7 5 0 0 0 0 0 0 s 2 2 2 2 2 2 2 < < 2 2 2 2 1 1 1 1 2 2 2 2 2 5 0 0 0 5 6 6 6 6 5 2 2 2 2 2 2 2 0 0 0 0 6 5 5 5 5 5 5 5 2 2 5 5 5 5 5 2 2 2 2 2 0 0 0 0 5 5 5 5 5 5 2 2 2 2 5 2 2 2 2 2 2 2 < 2 2 2 2 2 2 < 1 1 1 1 , 1 1 1 , , , , , , , , , , , , , 1 2 2 2 2 2 2 2 2 2 2 2 2 2 5 5 0 0 5 2 2 2 2 2 2 2 2 2 2 2 2 2 2 5 5 2 2 2 2 2 2 < < < < 2 2 2 5 5 2 2 2 2 2 2 2 2 5 0 0 0 0 0 0 0 0 0 0 0 0 0 0 0 0 5 5 5 5 5 5 0 0 5 0 0 0 0 0 5 5 0 0 0 0 0 0 0 0 0 5 5 5 5 5 2 2 0 0 0 0 0 5 5 5 2 2 2 2 , , , , < 2 2 2 2 2 2 2 5 0 5 0 0 q q e q q q q q q q q q q w w w w q q q q q q q q q q q q e t e q q q q q q q q w q e e e e e e t t t q q q q e e t t e t t e e q q e e q 6 6 6 5 2 3 - 3 - % y I u.r.e.f.sXNXSXZXhXp.3.1.1.-.*.*.*.%.%.%.%.%.O.O.O.O.O.O.O.O.O.O.{ { { { { { { { { { { { { { { { { { { { { { { { { { { { { { { O.O.O.{ { { ",
"' ' ' ' ' ' ' ' ' ' ' ' ' ' ' ' ' ' ' ' ' ' ' ' ' ' ' ' ' ' ' ' { { { { { { { { O.O.O.O.O.O.>.O.O.>.=.3.,.$XBXCXCXMXk.1.6.8.x 9 ; a 3 , s 0 s q e r d d y y t u y d d d y y y y e e e t t e e q q q q q q q q q q q q 6 6 q q q q 0 q 0 q q q q q q q q q q q q w w q q q 0 0 0 q 0 0 0 q q q w u t q q w 5 5 5 5 5 5 6 0 0 0 0 0 2 2 2 2 2 2 2 2 2 < < 2 2 2 2 1 1 1 1 , 1 2 2 2 2 5 0 5 5 6 0 6 5 5 2 2 2 2 2 2 2 0 0 0 0 6 0 5 5 5 5 5 5 5 5 2 5 5 5 2 2 2 2 0 0 0 0 0 0 5 5 5 2 2 2 2 2 5 5 5 2 2 2 2 2 2 2 2 2 2 2 2 2 2 < 1 1 1 1 1 1 , , , , , , , , , , , , 1 1 1 1 2 2 2 2 2 2 2 2 2 2 2 2 2 2 2 5 0 0 2 2 2 2 2 2 2 2 2 2 2 2 2 2 2 2 2 2 2 2 2 2 < , < < < 2 2 2 2 2 2 2 2 2 2 5 2 2 0 0 0 0 0 0 0 0 0 0 0 0 0 0 0 0 5 5 5 5 5 5 5 0 5 5 5 5 5 5 2 2 0 0 0 5 5 5 0 0 0 0 0 0 0 5 2 2 0 0 0 0 5 2 2 5 2 2 2 2 2 2 , 1 2 2 2 2 2 2 2 2 0 0 5 0 0 0 q e q q q q q q q q q q q q w w w w q q q q q q q q q q q q q q q q w w w w e e e e t t t t t t t t t e e e t t t y t y y u t e e t t t e e e 6 6 5 : 3 3 - 9 l X.r.e.d.fXBXSXZXhXp.3.1.1.-.-.*.*.%.%.%.%.%.O.O.O.O.O.O.O.O.O.O.{ { { { { { { { { { { { { { { { { { { { { { { { { { { { { { { O.O.O.{ { { ",
"' ' ' ' ' ' ' ' ' ' ' ' ' ' ' ' ' ' ' ' ' ' ' ' ' ' ' ' ' ' ' ' { { { { { { { { O.O.O.O.O.O.%.>.>.:.1.3.,.$XBXNXNXMXOXb.8.z 9 9 a ; 5 w 0 0 t q y d g h g d p p g d g g d y y y r e e e e e q q q q q q q q q q q q 6 6 6 6 q q q q q q 0 6 6 6 q q q q q q q q w q q 0 6 6 6 6 0 0 0 0 q q q w t 0 6 0 0 7 7 7 5 5 5 6 5 5 2 2 0 2 2 2 2 2 2 2 2 2 2 2 2 2 2 2 1 1 , , , , , 1 2 2 5 5 0 5 0 0 6 5 2 2 2 2 2 2 5 0 0 0 0 0 0 0 0 0 5 5 2 5 5 5 5 5 5 5 5 2 2 5 0 0 0 5 5 5 0 5 2 2 2 2 2 2 5 0 2 2 2 2 2 2 2 2 2 2 2 2 2 2 2 < 1 2 1 1 1 1 1 1 , , , , , , , , 1 1 1 1 1 1 2 2 2 2 2 2 0 2 2 2 2 2 2 2 2 5 0 0 2 2 2 2 2 2 2 2 2 2 2 2 2 2 2 2 2 2 2 2 2 2 < , , , < < 2 2 2 2 2 2 2 2 2 2 2 2 0 0 0 0 0 0 0 0 6 0 0 0 0 6 0 0 5 0 0 0 0 0 5 5 5 5 5 5 5 2 2 2 0 0 5 0 5 0 6 0 0 0 0 0 0 0 5 2 2 2 5 2 2 2 2 0 2 2 2 2 2 2 2 2 2 2 2 2 2 2 2 2 0 0 5 5 0 0 e t q q q q q q q q q q q q q q q e q q q q q q q q q e q q e q e e e w e e e e e e t t t t t t t t t t t t t y y y y y y y y y y y y y r r r e e q 0 2 3 7 9 9 b 7.e.d.sXNXZXZXhXg.4.1.2.-.-.*.*.%.%.%.%.%.O.O.O.O.O.O.O.O.O.O.{ { { { { { { { { { { { { { { { { { { { { { { { { { { { { { { O.O.O.{ { { ",
") ) ) ) ) ) ) _ { { ) ) ) _ { { { { { _ _ _ { { { { { { { { { { { { { { { ......{ { { ..%.%.%.>.:.>.1.1.1.Y.bXBXNXxX=XU.V 7 8 8 8 6 q q q e y g d g h h g f k k h g d d f d y r e t t t e q q e e e e q q q q q q q q q w w q q q q q 0 0 q 0 0 0 q q q w w w q q 0 6 q q q q q q q q q e w t t q 0 0 5 5 5 5 0 w w 5 5 5 5 7 2 5 5 2 2 2 2 2 2 < < 2 2 2 2 2 2 , , , 1 2 2 2 2 2 0 0 0 0 0 5 2 2 2 2 2 2 2 2 2 0 0 5 5 0 0 0 6 0 0 0 0 0 2 2 2 0 0 2 2 2 2 2 2 2 2 s 0 2 0 0 0 2 2 2 2 2 2 2 5 2 2 2 2 2 2 2 2 2 2 , 1 1 1 1 1 < 2 1 1 1 , , , , , , , , , , , : , 1 1 1 1 2 2 1 2 2 2 s s 0 s 2 s 2 s s s 2 2 2 2 2 2 2 2 2 2 2 2 2 2 2 2 1 1 2 2 2 2 0 0 2 2 2 1 < 2 2 2 2 2 2 2 2 2 2 s 0 0 0 0 0 5 5 5 6 0 0 0 6 6 6 6 q 0 0 0 0 0 0 6 5 5 0 5 2 5 0 0 5 2 5 5 6 0 0 0 0 0 5 0 0 0 0 0 q 6 0 5 5 5 0 0 0 0 0 0 5 2 2 2 2 2 2 2 2 2 5 5 5 6 5 5 5 0 0 q q q q q q q q q q q q q q e e e e e t t t t e e q q e e t t t t e e e e e e e e e e e e t t t t y i y y y y y y y i y y d d d d d d d y d d d f y r p 6 6 u 8 9 r A 4.I.sXCXZXZXhXl.4.2.1.1.1.;.;.-.%.%.%.%.%.%.%.%.%.%.O.O.O.O.O.O.O.O.O.O.O.{ { { { { { { ' ' ' ' { { { { { { { { { { { { { ..{ { { { { ",
") ) ) ) ) ) _ _ { { ) ) ) ) { { { { _ _ _ _ { { { { _ _ { { { { { { { { { ......{ { { ..%.%.%.*.:.>.1.3.4.OXbXBXBXBX*XJ g 6 f 8 8 8 e e r y g j h h h h g g h v h h g d d d y y e t t e e q q e e e q q q q q q q q q w w w q q q q q q 6 q 6 6 q q q q q q q q q 0 5 0 q q q q q q q q e w t t w q 0 0 0 0 0 w 0 5 5 7 5 5 5 5 w 0 5 2 2 2 2 < < 2 2 2 2 2 2 2 , 1 1 1 2 2 2 2 2 2 2 0 0 0 0 5 2 2 2 2 2 2 2 2 0 5 5 5 0 0 0 0 5 2 0 0 0 0 0 2 0 2 2 2 2 2 0 0 0 0 2 0 2 2 2 2 2 2 2 2 2 2 2 2 2 2 2 2 2 2 2 2 2 2 1 1 1 , , , 1 1 1 , , , , , , , , , , , , , : , 1 1 , , 1 2 2 2 2 2 2 2 s s 2 2 2 2 2 2 2 2 2 2 2 2 2 2 2 2 2 2 2 2 2 2 2 2 2 2 2 2 0 0 2 2 2 2 2 2 , , , , 2 2 2 2 2 s s s 5 0 5 5 5 5 5 0 0 0 6 6 6 6 0 0 0 0 0 0 0 0 0 6 0 5 5 5 0 0 5 2 6 6 0 0 0 0 6 6 5 q q 0 0 q q 0 5 5 2 2 5 0 0 0 0 0 0 0 0 0 0 0 2 2 5 5 5 5 5 6 5 5 0 0 q q w w q q q q q q q q t t e e e e q q e t t q e q q q q e t t t e q q e e e e e e e t e t t t e y y i y y y y y y d g g g h h h h h h h h h h h h d d d y f f r 8 8 h ( Y.hXCXZXCXkXl.4.2.2.1.1.;.;.;.*.%.%.%.%.%.%.%.%.%.O.O.O.O.O.O.O.O.O.O.O.O.{ { { { { { ' ' ' ' { { { { { { { { { { { { { ..{ ..{ { { ",
") ) ) ) ) ) _ _ _ _ _ ) _ _ { { { { { { _ { { { _ _ _ _ { { _ _ { { { { { { ....{ { ....%.=.=.-.-.*.1.3.5.OXBXBXBXCXoXx h j l v d d d d g h j z c z h h h h v j h h h h d y y y t t t e e q e e e e q q q q 6 6 q q q q q q q q q q 6 6 6 6 6 6 q q q q 0 0 0 0 q 5 5 0 q q q w q q q q e e w w 0 0 0 0 0 0 0 0 0 5 2 2 5 w 0 5 w 0 5 5 2 2 2 2 2 2 2 2 2 2 2 2 1 1 1 1 2 2 2 2 , 2 2 2 5 5 0 2 s s s 2 2 2 2 2 5 5 5 5 6 0 0 0 2 2 2 2 5 0 2 2 2 2 2 2 2 0 0 0 0 0 0 0 5 2 2 2 2 2 < < < 2 2 2 2 2 2 2 2 2 2 2 2 2 1 1 , , , , , , , , , , , , , , , , , , , , : , 1 , , , , < 2 2 2 2 2 2 2 2 2 2 2 2 2 2 2 2 2 2 2 2 2 2 2 2 2 2 2 2 2 2 2 2 2 2 2 2 0 0 5 2 2 2 2 2 , , , , 2 2 2 2 2 s s s 5 5 5 5 5 5 5 0 5 5 5 6 5 6 6 0 0 0 0 0 6 6 6 6 0 0 0 0 0 6 5 5 q q q q q 0 6 6 6 q q 0 0 q q 0 5 2 2 2 5 0 0 0 0 0 0 0 0 0 0 0 5 5 5 5 5 0 0 0 0 0 0 0 0 q w w w q q q q q q q t t t e e e e q e t t t e e t e t t t y y t t t e e e e e t t t t t y y t y y i y y d d y g g g g g h j j h h h z z z z z l z z l z c h h d f f C I.hXBXNXBXaXl.4.0.2.1.6.1.;.-.*.*.%.*.%.%.%.%.%.%.O.O.O.O.O.O.O.O.O.O.O.O.O.O.{ { { { { ' ' ' { { { { { { { { { { { { { ......{ { { ",
"' ) ) ) ) ) ) _ _ _ ) ) _ { { { { { { { _ _ { { _ _ _ _ _ _ _ _ { { { { { { { ..........=.=.=.-.;.-.3.3.1.OXMXBXMXCX+XZ Z G N z c c j h z z z z N z z h l l h h h h h g d y r y y t e e q e e e e e q q q q 6 6 6 q q q 0 0 0 0 q q q q q q q q w 0 q q 0 0 0 0 q 6 5 0 q q q w q q q q q q q q 5 5 5 0 0 0 0 0 0 5 2 2 5 0 0 5 0 5 5 5 2 2 2 2 2 2 2 2 2 2 2 2 1 1 1 1 , 2 2 2 , < 2 2 2 2 2 2 0 0 0 0 0 2 5 5 2 2 7 5 6 0 0 0 0 0 5 2 2 2 2 2 2 2 2 2 2 2 2 2 0 0 0 0 2 2 2 2 2 2 < 2 2 2 2 2 2 2 2 2 2 2 2 2 2 2 1 1 , , , , , , , , 1 , , , , , , , , , , , , , 1 , , , , 1 2 2 2 2 2 2 2 2 2 2 2 2 2 2 1 1 2 2 2 2 2 2 1 1 , 1 1 2 2 2 2 2 s 2 2 2 0 0 0 2 2 2 2 1 , , , , < 2 2 2 2 2 s 2 0 0 0 5 5 5 6 0 5 5 6 6 5 6 6 6 0 0 5 5 5 5 5 5 0 0 0 0 6 5 5 6 0 q q q q q 0 0 6 q q 0 0 q q 0 5 2 2 5 0 0 0 0 0 0 0 0 0 0 0 0 0 0 0 5 0 0 6 0 0 0 0 0 0 q q 0 w q q q q q q q t t e e e e e e t t t t t t t t t t y p p y y t t t e t e t t t y y y y y y y y g g g g g g g g g h h h z z z z z z z x z x M M M V V x x M M x C oXjXBXBXBXsXl.e.0.5.:.6.1.;.-.*.*.*.*.%.%.%.%.%.%.%.O.O.O.O.O.O.O.O.O.O.O.O.O.O.O.{ { { { ' ' { { { { { { { { { { { { { ......{ { { ",
"{ { ) ) ) ) _ _ ) ) _ _ ) ) ) ) _ _ _ { { { { { { { { { { { { { { { { { { ............%.=.=.=.=.-.1.3.3.1.OXMXNXNXvX*X>.K Z N M N z l z c M M z z z l l l l h g h h h d y r r t y t e e q e e e e e q q q q 6 6 q q q q 0 0 0 0 q q q q q q q q w w q q 0 0 0 q q 0 6 q q q q q q q q q 0 q q q 0 6 0 0 q q q q q 6 5 5 6 0 0 5 0 5 5 2 5 5 2 2 2 2 2 2 2 2 2 , , , , , , , , , 2 2 2 2 2 2 2 2 0 0 0 0 0 0 5 5 2 2 7 5 6 0 0 0 5 5 2 2 2 2 2 2 0 0 2 2 2 2 2 2 0 0 0 0 2 2 2 2 2 2 2 2 2 2 2 2 2 2 2 2 2 2 2 2 2 2 1 1 , , , , , , , 1 1 1 , , 1 1 , , , , , , 1 1 1 , , , 1 1 2 1 2 2 2 2 2 2 2 2 2 2 2 2 2 1 1 1 2 2 2 2 1 1 , , 1 1 2 2 2 2 0 s 2 2 5 5 0 2 2 2 2 2 , , , , , , 2 2 2 2 2 2 2 2 5 5 2 2 5 5 5 5 5 5 6 6 6 6 0 0 6 6 6 6 6 6 0 0 0 0 5 7 5 6 0 0 0 0 q q q 0 0 q q 0 0 q q 0 0 5 5 5 0 0 0 0 0 0 0 0 0 0 0 0 0 0 0 5 5 5 0 0 w 0 q 0 q q q w w w q q q q q q q q q e e t t t e e e e t t t e t t t y y y t t t t t t e e e e t y y y y y y y g g g g g g g h h h h h z c c N M M M M M V Z Z V Z Z Z G G G S D 8.aXNXBXbXpXp.q.0.5.:.6.6.1.-.-.-.*.*.%.%.%.%.%.%.%.%.%.O.O.O.%.%.O.O.O.O.O.O.O.O.O.O.{ { { { { { { { { { { { { { { { { { { { { { { ",
"{ { ) ) ) ) _ { ) _ _ _ ) ) ) ) _ _ _ { { { { { { { { { { { { { { { { { ............%.=.=.=.-.-.-.1.3.3.1.+XMXBXBXeX7.>.P G G M A A M x V V M x z z x c c z h g h h h d y r e e t t e e e e e e e e q q q q q q w q q q q q q q t t e e q q q q w q q q 0 q q q q q 6 q q q 0 0 q q q 0 0 0 0 0 5 5 6 0 0 0 0 0 q 0 0 0 0 0 6 5 0 0 5 2 2 2 2 2 2 2 2 2 2 2 < , , , , , : : , , < < 2 2 2 2 2 2 0 0 5 2 2 2 2 2 5 5 5 5 6 0 0 5 2 2 2 2 2 2 2 2 w 0 0 0 2 2 2 2 0 0 0 2 2 2 2 2 2 2 2 2 2 2 2 2 2 2 2 2 2 2 2 2 2 2 1 1 1 , , , , , , 1 1 1 , , 1 1 , , , , , , 1 , , , 1 1 1 1 1 1 2 2 2 2 2 2 2 2 2 2 2 2 2 2 2 2 2 2 2 2 2 2 1 1 1 1 2 2 2 2 0 s 2 2 2 2 2 2 2 2 2 2 2 , , , , , , 2 2 2 2 2 2 2 2 2 2 2 2 2 5 5 6 0 6 6 6 6 0 0 0 0 0 0 0 0 0 0 0 0 5 5 5 0 5 6 0 0 q q 0 0 0 0 0 6 6 0 q 0 0 5 5 0 0 0 0 0 0 0 0 0 0 0 0 0 0 0 5 5 5 0 0 0 w w w w w w w w w w q q q q q q q q e e t t t t q q q q q q q q t t t y y y y y y t t t t t e e t t y y y y y y d d g g g g h h h h h h l z c N M V V V Z Z Z Z G G K K K K K ^ ^ G XXxXBXzX8Xp.q.r.5.:.:.6.1.-.-.-.-.*.%.%.%.%.%.%.%.%.%.%.O.O.%.%.%.O.O.O.O.O.O.O.O.O.O.{ { { { { { { { { { { { { { { { { { { { { { ",
") _ ) ) ) ) { { ) ) { { { { ) ) _ _ { { { { _ _ { { { { { { { { { { { { ..........%.=.=.=.-.-.1.1.1.3.3.2.+XxXxXdXl.K R K P G A L A A Z Z V V M z x N N c z j h j h d d y y y e t e e e e e e e e e e q q q w e w w w q q w w w t t t t t t q q q q q q 0 0 0 q q 0 6 0 q 0 0 0 q q 0 0 0 0 6 0 5 5 5 5 5 5 0 0 0 q q q 0 0 0 0 0 5 5 2 2 2 2 2 2 2 2 2 2 2 , , , , : : * * : : < < < < 2 2 2 2 2 2 2 2 5 2 5 5 5 5 5 5 0 0 0 5 2 2 2 2 2 2 2 2 0 0 2 2 2 2 2 2 0 0 0 2 2 2 2 2 2 2 2 2 2 2 2 2 2 2 2 2 2 2 2 2 2 2 1 1 1 , , , , , , , , , , , , , , , , , , , 1 , , , , , 1 1 1 1 2 2 2 2 2 2 2 2 2 2 2 2 2 2 2 2 2 2 2 2 2 2 1 1 1 1 2 2 2 s 0 2 2 2 2 2 2 2 2 2 2 2 2 2 < < , , , , 2 2 2 s 2 2 2 2 2 2 2 2 5 5 0 0 0 0 0 5 6 0 0 0 0 0 6 5 0 0 0 6 5 5 0 0 6 6 0 0 0 0 0 0 6 0 0 5 5 0 0 0 0 5 5 5 0 0 0 0 0 0 0 0 0 0 0 0 5 5 5 5 5 5 0 0 0 0 q w w w q q q q q q q q q q q w q t t t t t e e q q q q q q t t t y y p i i p i y y t t t t y t e y y y y y y d d g h h h h h h h g h h z z M M M V A A G Z K K K ( ( X.X.X.8.I I eXbXbXiXm.q.0.0.2.2.1.1.1.-.-.-.*.%.%.%.%.%.%.%.%.%.%.%.%.%.%.%.%.%.%.O.O.O.O.O.O.O.O.{ { { { { { { { { { { { { { { ..{ { { { { ",
"_ _ ) ) ) ) { { ) ) { { { _ ) ) _ _ _ { { { _ _ { { { { { { { { { { { ........%.%.=.=.=.=.-.-.-.2.=.1.1.2.OXhXsXP P ) H Z M M A M b b b V V V V l z z z l h h h j h d d y y y e e e e e t t e e e e e e e e e e w w q q q w w w t t t t t q q q q q q 0 0 0 q q q 0 5 0 q 0 0 0 q q q 0 0 0 0 0 0 0 0 0 0 0 0 0 5 0 w w 0 0 0 q 5 2 2 2 2 2 2 2 2 2 2 2 2 , , , , , : * * * * : , , 3 < < 2 2 2 2 2 2 2 0 0 0 0 0 5 5 5 0 0 0 5 0 s 2 2 2 2 2 2 2 2 2 2 2 2 2 2 5 0 2 2 2 2 2 2 5 5 5 2 2 2 2 2 2 2 2 2 2 2 2 2 , 2 1 1 1 , , , , , , , , , , , , , , , , , , , , , , , , , 1 , , 1 2 2 2 2 2 2 2 2 2 2 2 2 2 2 2 2 2 2 2 2 2 2 1 1 1 1 1 2 2 2 0 2 2 2 2 2 2 2 2 2 2 2 2 2 < < , , , , 1 2 2 s 2 5 5 2 2 2 5 0 5 5 0 0 0 0 0 0 2 5 0 0 0 5 5 2 0 0 0 0 0 0 0 0 0 0 0 0 0 0 6 6 6 0 6 5 5 0 0 0 5 5 5 5 0 0 0 0 0 0 0 0 0 0 0 0 5 5 5 5 5 5 0 0 5 5 0 q q q 0 6 q q q w w q q q w e t t t t t t t t t t t t t t t t t t t t y p k p p y y t t t y y e e e y p p y d d g h h h h z h h h h h z z z z x M A S G G K K K H Q ....[ ^ 7.G P dXxX;Xd.w.0.0.2.2.2.1.-.-.-.-.*.%.%.%.%.%.%.%.%.%.%.%.%.%.%.%.%.%.%.O.O.O.O.O.O.O.O.O.{ { { { { { { { { { { { { { ..{ { { { { ",
"{ { { { ) ) ) _ ) ) _ { { _ _ _ { { _ _ { { { { { { { { { { { { ......%...%.%.=.=.=.=.=.-.-.-.-.2.;.=.t.=.+XtXP G G S S Z Z V V x x x b V V x z l h h h h h g d d g f d y y e e q q q e e y y y e e e e e e q q q q q q q q q q e t t t t t q q q q q q 0 q q w q q q 0 0 0 0 q q 0 6 5 5 6 q q 5 0 q w q q q q q 0 0 0 q 0 0 5 5 5 2 2 5 2 2 2 0 2 2 , , , , 1 * : , : * * * , , , , < < 2 < 2 < 2 2 2 2 2 2 2 5 5 6 0 0 0 0 0 5 2 2 < 2 < < 2 2 2 2 2 2 < < 2 2 2 2 2 2 2 2 2 2 5 5 2 2 2 2 2 2 2 2 2 2 2 2 2 2 2 , , , 1 1 2 , , , , , , , , , , 1 1 1 1 , , : : : , , , , , 2 1 , 2 2 2 2 2 2 2 2 2 2 2 2 2 2 1 , , 2 2 2 , 1 1 1 1 1 2 2 2 2 2 2 2 2 2 2 2 2 2 2 2 2 2 < 2 , , , 2 2 2 2 2 2 2 5 0 5 2 2 2 2 2 5 0 0 0 0 0 2 2 2 2 5 5 6 0 5 5 0 w w w 0 0 q 0 0 0 0 0 5 5 5 5 6 6 5 5 6 0 5 5 5 5 5 5 0 w w w 0 0 0 0 0 0 0 5 5 5 5 5 6 5 0 0 0 0 0 0 0 0 w q 0 0 q w w q q w t t t t t t e t t t t t e q q q e t e e e e y i i y y y y e e t y y e e y y d d d d g h j h h h h h h h h l l l z x Z A G S S S D K K ) [ X.^ X.P B I tXtXb.e.0.0.2.2.2.2.:.2.;.-.-.-.*.%.%.-.-.%.%.%.%.%.%.%.%.%.%.%.%.%.%.O.O.O.O.O.{ { { _ _ _ _ { { { _ { { ......{ { { { { { ",
"{ { { { ) ) ) { _ ) _ { { { _ _ { { _ _ { { { { { { { { { { { { ......%.%.%...=.=.=.=.=.-.-.-.-.-.-.4.>.7.+XP j N M b b b x x x x x x x x x x l z l h h h h h g d d d y y t e e e e e t y y y y t t t t t t e q q q q q q q q q q q q q q q q q q q q q 0 0 0 q q q q 0 0 0 0 0 q 0 q 0 0 0 q q 5 0 q w w q w w w w q q q q 0 6 5 5 5 5 5 5 2 2 2 2 2 2 , , , , * * * * * * * * , , , , < < < , < 2 2 2 2 2 2 2 5 5 6 6 0 0 6 5 2 < < , , , , , , , , , , 2 < 2 2 2 2 2 2 2 2 2 2 2 2 2 2 2 2 2 2 2 2 2 2 2 2 2 , , , , , , , , 1 , , , , , , , , , , , 1 , , , , , , , 1 1 , , 2 1 2 2 2 2 2 2 2 2 2 s 0 0 2 2 2 2 1 1 2 < 2 < < < 2 2 2 2 2 2 2 2 2 2 2 2 2 2 2 2 2 2 2 2 < 2 , , 2 2 2 2 2 2 2 2 2 2 2 2 2 2 2 2 0 0 0 0 0 6 5 5 5 5 5 0 0 0 5 5 0 0 w q 0 0 0 0 0 0 0 0 5 5 2 2 2 2 2 2 2 7 5 5 5 5 2 5 0 0 0 0 0 0 0 0 0 0 5 5 5 5 5 5 5 5 0 0 0 0 0 0 0 6 0 0 5 6 q q w w q w t t t t t t t t t t t t e q q q e e t e e e t t y t t y y y e t y y y y y y y y y d d g h h h h l l l h h l x x x x V A S S S S D J K K ( ( T H G N i N 8.+Xr.q.0.;.;.2.5.>.2.;.-.-.-.-.%.*.*.*.%.%.%.%.%.%.%.%.%.%.%.%.%.%.O.O.O.O.O.O.{ { { { { { { { { { { { ........{ { { { { ",
"_ _ ) _ ) ) { { { { { { { { _ { { { { { { { { { { { { { { { { { ....%.%.%.%.=.=.=.=.=.=.-.-.-.2.2.0...7.y.x d y h h l l l l x z l x x x x l l l l h h g g d d d d y y y y e e e t t t t t t e e t t e q q q q 6 6 6 q 6 q q q q e e e q q q q q 0 q q q 0 0 0 0 q q q q 6 6 6 0 0 q q w w q q 0 5 0 0 0 0 q w w w w q q 0 0 0 5 2 2 2 2 5 5 2 2 < < 2 2 2 2 , , * * * * * * * : , , , , , , , , 3 2 2 2 2 2 5 5 5 5 0 0 0 0 6 5 2 < , , , , , , , , , , , 1 < < 2 2 2 2 2 2 2 2 2 2 2 2 2 2 2 2 2 2 2 < , < 2 2 , , 1 1 , , , , 1 , , , , , , , , , , , , , , , , , , , 1 1 , , 1 1 2 2 2 2 2 2 2 2 2 2 2 2 2 2 2 2 , , < < < , 1 1 1 1 2 2 2 2 2 2 2 2 2 2 2 2 2 2 2 2 2 2 2 2 2 2 2 2 2 2 2 2 2 2 2 2 2 2 2 0 2 5 5 0 0 0 5 5 5 5 5 5 6 0 0 0 5 6 0 0 0 0 0 0 0 0 0 0 0 0 0 0 2 2 2 2 2 2 2 2 5 5 5 2 2 2 0 0 5 0 0 0 0 0 0 0 5 5 5 5 5 5 5 6 w 0 0 0 q q 0 5 5 5 6 6 0 0 q w w w q e t t t t t t t t t t e e t t e e t t e e e t t t t y y y y t t t y y y y y y y y y d d g h j z z z z h h c c c x V A A A S S S D J J J J Y S Z M y 6 h 8.7.5.0.0.0.;.:.5.2.2.2.-.-.-.-.*.-.-.%.%.%.%.%.%.%.%.%.%.%.%.%.%.%.%.O.O.O.O.O.O.{ { { { { { { { { { ........{ { { { { ",
"_ _ ) ) ) ) { { { { { { { { { { { { { { { { ....{ { { ..{ { { ....%.%.=.%.=.=.=.=.=.=.=.-.-.-.1.2.4.X.y.z ; r y d f v v v l z x l z z l l h h h h h d d d y y y y y y y t e e e e e e e e e e e t e q 6 6 6 6 6 6 q q q q q q q e e e e q q q q 0 q q q 0 0 0 0 0 q q q 0 6 6 6 6 q q w w q q 6 5 5 6 6 0 0 0 q w 0 0 5 5 5 5 5 2 < 2 2 2 2 2 2 < < 2 2 2 2 , , : : * * * * : , , , , , , , , , 3 3 2 2 2 5 5 5 2 5 0 0 0 0 5 5 2 < , , , , , , : : , , , 1 < 3 2 2 2 2 2 2 2 2 0 0 0 5 2 2 2 2 2 2 2 , , < 2 2 2 2 1 1 1 1 , , 1 , , , , , , , , , , , , , , 1 1 , , , 1 1 , , , , 1 2 2 2 2 2 , , , , 2 2 2 , 2 2 , , , , , , 1 , , 1 1 1 2 2 2 2 2 2 2 2 2 2 2 2 2 2 2 2 2 2 2 2 2 < 2 2 2 2 2 1 2 2 2 2 5 5 2 5 5 5 5 5 5 5 7 2 5 5 5 5 5 5 6 6 6 0 0 0 0 q 0 0 0 0 0 0 0 0 5 5 5 5 5 5 5 5 5 5 5 2 2 2 5 5 5 0 0 0 0 0 0 0 5 5 0 0 5 5 5 0 w 0 0 0 q w q 6 6 0 0 0 6 6 q q q q q q q q w t t t t t t t t t t t q e t t t e e t t t t t y t y e e e y y y y y y r r r y d g h h l z c z z z N c c x x V A Z Z A S S S G G C S C l h g e 7 6 I 8.e.0.2.;.:.5.2.2.2.-.-.-.-.-.-.*.-.%.%.%.%.-.%.%.%.%.%.%.%.%.%.%.O.O.O.O.O.O.{ { { { { { { { { { ........{ { { { { ",
") ) ) ) _ _ _ { _ _ _ { { { { { { { { { { { { { { ......{ ......%.%.%.%.=.=.=.=.=.=.=.-.-.1.1.1.=.>.u.l ; 6 6 8 u f f v v l z z h l z j h g g g h g f d d y f y y y y y t e e e q e e e e e e e t t q q q q q q q q q w w w q q q q q q q q q q 0 q w 0 0 0 0 0 0 0 q q 0 6 6 6 0 q q q q q 0 0 0 0 5 6 5 5 0 6 6 5 7 2 5 5 7 7 < < < 2 2 2 2 2 2 2 2 2 2 2 2 1 , : : > * : , , , , , , , , , , , , < 2 2 2 5 5 2 5 6 0 0 6 5 2 < , , , , , , , , , , , , , 3 3 2 2 2 2 2 2 2 2 0 0 0 2 2 2 2 2 2 2 2 < < 2 2 2 2 2 2 1 , , , , 1 , , , , , , , 1 1 , , , 1 1 2 1 1 1 1 1 1 1 1 , , 1 2 2 < 2 2 2 2 2 2 2 2 , , < 2 < , , , , , 1 1 < < 2 2 2 2 2 2 2 2 2 2 2 2 2 2 2 2 2 2 < < < < < < 2 2 2 2 , 2 2 2 2 2 2 2 2 2 5 5 5 5 2 2 2 7 7 5 5 5 5 5 6 6 6 6 0 0 0 q 0 0 0 0 0 0 0 5 2 2 2 2 2 2 2 2 5 5 5 2 2 2 2 5 0 0 5 0 0 0 0 0 0 0 0 0 5 5 5 6 0 6 6 0 q w q 0 5 0 0 0 0 0 0 w q q q q q q q q t t t t t t t t t t e e t y t e e t e e e t y t y t e e y y y y y y y y y y d d d g h z c c c c c c c c x M M V V V A A A Z V V x V l y y q ; ; 6 A 7.=.=.0.r.%.2.2.2.2.2.-.-.-.-.-.*.%.%.%.-.-.%.%.%.%.%.%.%.%.%.%.O.O.O.O.O.O.{ { { { { { { { { { ........{ { { { { ",
") ) ) ) _ _ _ _ _ _ _ { { { { { { { { ....{ { { ................%.%.%.%.=.=.=.=.=.=.=.-.1.1.1.1.7.y.x ; ; a 7 6 e u a a f d h h h h h h g d d d d d d d y y y y y y y y e t e e e e e t t t y t y t q q q q q q w w w w w w q q q q q q q q w w 0 0 0 0 0 6 5 5 6 0 q q 0 6 6 6 q q 0 0 0 0 q q q q 0 0 0 0 0 5 5 5 7 2 7 5 5 7 2 2 2 2 5 5 2 2 2 2 2 2 2 2 < 1 , : > > : : : : , , , , , , , , - - , , 2 2 2 2 2 2 5 5 5 7 2 2 , : * * : , , , , , , , , , < 2 2 2 2 2 2 2 2 2 2 2 2 2 2 2 2 2 2 2 2 2 2 2 2 2 2 2 1 , , , , , , , , , , , , , 1 1 1 , 1 1 2 2 2 1 1 1 1 2 2 2 1 1 2 2 2 2 2 2 2 2 1 1 2 , , , < 2 2 2 < , , , 1 1 1 1 < < < < 2 2 2 2 2 2 2 2 2 2 2 2 2 2 < 2 < 2 < < 2 2 2 2 , 1 2 2 2 2 2 2 2 2 2 2 2 2 2 2 7 5 5 6 6 6 5 5 5 5 5 6 0 0 0 0 0 0 0 0 0 0 0 5 2 2 2 2 2 2 2 2 5 5 5 2 2 2 2 5 0 0 0 0 0 0 0 0 0 0 0 0 5 5 5 0 5 6 0 0 q q q q 5 5 0 0 0 q q w q q q q q q q q t t t t t t t t t t t t t t t t q e e e e t y y y y y y y y y y y y y y y y d g d d g h z c c c z x c x x x x x x M M M V M x x c c l d t 0 3 3 % 6 Z 8.5.2.-.2.2.2.2.2.2.2.;.;.-.-.*.*.%.-.-.-.%.%.%.%.%.%.%.%.%.%.%.O.O.O.O.O.....{ ..{ { ....{ { ....{ { { { { { { ",
"{ { ) ) ) _ ) _ _ _ ) { _ _ _ _ { { { { ..{ ....{ { ............%.%.%.%.=.=.=.=.=.=.-.-.1.1.1.:.y.A ; % 7 , 2 w q q w u u f d d d g g g k d y y r y y e e e e y y r e e e e e e e e e t t t t t e e q q q q q q q q q q q q q 0 q q e e e w w w q q 0 5 5 7 7 5 5 6 0 q 0 6 6 6 0 q q q q q q q q q 0 q w 0 0 5 5 7 2 5 5 5 7 2 2 2 2 2 5 5 2 2 2 2 2 2 2 2 2 1 , : : : : , , : , : , , , , , , - - , , < 2 2 2 2 2 5 5 5 7 2 2 , : * * : , , , , , , , , , , 1 2 2 2 2 < 2 2 5 2 2 2 2 2 2 2 2 2 2 2 2 2 2 2 2 2 2 1 1 , , , , , , , , , , , 1 , , , , 1 1 1 2 1 1 1 1 1 1 1 1 1 1 2 < 2 2 2 2 , , , 1 2 2 , , 2 < 2 2 < , , , , , 1 1 1 1 2 < 2 2 2 2 2 2 2 2 2 2 2 2 1 2 2 2 2 2 2 2 2 2 2 2 1 1 2 2 2 2 2 2 2 2 2 2 2 2 2 2 5 5 0 0 0 0 0 5 5 5 5 5 0 0 0 0 0 0 0 0 0 0 0 2 5 5 5 5 2 2 2 2 2 2 5 5 2 2 2 2 0 0 0 0 0 0 0 5 2 5 0 0 5 2 5 0 5 0 q 0 6 5 6 0 5 2 2 0 0 q q q w w q q q q q q q t t t t e t t t t t t t t t t e e e e e t y y y y y y y y y g y y y y y y y y g d d g h j z z z x x x z z z z z z z z z z l l v f r y e s 3 = % $ 7 G 7.=.=.e.2.2.2.2.2.2.2.2.-.-.-.*.-.-.-.-.-.-.%.%.%.%.%.%.%.%.%.%.%.%.%.%.........{ { { { { { { { { { { { { { { ",
"{ { _ ) ) ) ) _ _ _ ) _ _ _ _ _ { ..{ { { ......{ { { ........%.%.%.%.>.=.=.=.=.=.=.1.1.1.1.:.8.L ; 9 ; * 3 , 0 0 q w u u u d d d y y y k p y e e e t e e e e t e e e e e e e e e e e e e e e e e e q q q q q q q q q 0 6 0 6 6 6 q q q q q q q 0 6 6 5 2 2 2 7 7 6 0 q 0 0 6 0 q q w w w w q 0 0 0 0 0 w w 0 5 7 7 2 5 5 7 2 < 2 2 2 2 2 2 2 2 2 2 2 2 2 2 2 , , , , , 1 1 , , , , , , , , , , - , , < 2 2 5 5 5 0 5 5 5 5 5 5 , , : : , , , , , , , , , , , , , , , , 2 2 2 0 2 2 2 2 2 2 2 2 < < < 2 2 2 2 2 2 2 2 2 2 1 1 , , , , , , , , , , , , , 1 1 1 1 1 1 , , , , , , , 1 < 2 < , 2 < 2 2 2 2 2 2 2 2 , 2 2 2 2 , , , , 1 1 2 2 2 < < 2 2 2 2 2 2 2 2 2 2 2 1 , , 1 2 2 2 2 , , 1 2 2 2 2 2 , , , 2 2 2 2 < 2 < 2 2 2 5 6 0 0 0 0 5 5 5 5 5 0 0 0 0 0 0 0 0 0 0 0 5 2 5 5 5 5 2 2 2 2 2 2 5 5 2 2 2 2 2 5 0 0 0 0 2 2 2 2 5 5 2 2 5 0 5 0 w q 5 2 7 0 5 2 2 5 0 0 0 5 w w w q q q q q q e t t t t t y t t t t t t t t t u u e e e t e t y y t e e y y y y y y y y y y k g d d g h h h l z x z z l h h z z l j h h h g v f y t s s 3 = $ $ % 8 G 7.5.=.;.;.;.2.1.1.1.1.-.-.-.*.*.-.=.=.-.-.-.%.%.%.%.%.%.%.%.%.%.%.%.%.........{ { { { { { { { { { { { { { { ",
"{ { X.X._ { { { _ _ { { { { { { { { { { { { { ........%.%.%.%.=.=.=.=.>.>.=.-.1.1.=.1.1.>.7.7.L % % * - , , < 2 0 q w u u u y y y y y y y t e e e e e e e e q q e e e e q q q e e e e e e q q q e w q 6 6 6 q q 0 0 0 0 5 5 5 0 q q w w q 0 0 0 0 6 7 2 2 2 5 5 6 6 0 0 0 0 0 0 0 0 0 0 q q q q 0 5 5 0 0 0 0 5 5 2 2 2 2 < < < 2 2 2 2 5 2 2 5 2 5 0 5 2 2 < 2 , , , 1 1 1 1 1 , , , , , , , , , , < 2 2 2 2 2 2 5 5 5 2 5 2 2 , , , , , , , , , , , , , , : : , , , , , 1 2 2 2 2 2 2 2 2 2 2 , 1 2 2 2 2 , , < < < < 3 < < < , , , , 1 1 , , , : : : : 1 1 1 3 , , , , : , , , 1 1 1 1 1 < 2 2 2 2 2 2 2 2 2 2 2 2 2 2 2 1 , , , , , , < < , < 2 < 2 < < < 2 2 2 2 2 1 1 , , 1 1 1 1 1 1 1 2 2 2 2 2 2 2 2 2 < 2 2 2 2 2 2 5 5 0 0 0 0 5 2 2 0 0 0 5 5 2 5 0 2 2 2 2 0 0 0 5 5 5 5 5 5 5 2 2 5 5 5 5 5 5 2 2 5 5 5 5 5 5 0 5 2 2 0 0 w w 0 0 0 0 0 0 0 6 5 5 0 s 5 2 0 5 0 0 w w u u q q q q q e t e e e t t t t t t e e t t y t e e e y y y e e e e e t y y y y y y y y y y d g h h g g h j h h h z z z h h h j j d d d f k f u e q 0 2 1 > $ * % % y I 7.=.0.;.;.5...,.3.1.1.2.;.-.*.>...=.=.%.%.%.%.%.%.%.%.%.%.%.%.%.%.%...........{ { { { { { { ....{ { ..{ { ",
"{ { X._ { { { { _ _ { { { { { { { { ....{ { ..........%.%.%.%.=.=.=.=.>.>.:.-.-.1...1.1.X.y.I 9 % $ * * - , < < 7 6 q e e t y y y y y y t e e e e e e w q q q q q e e e q q q e e e e e e e e q w q q 6 6 6 6 6 6 6 0 0 0 0 0 0 q q w w 0 0 0 0 0 5 2 2 2 5 5 5 5 5 6 0 0 0 0 0 0 0 0 0 q q q q 0 0 5 5 0 0 5 2 5 2 2 2 2 2 2 2 5 5 5 5 5 5 5 5 2 5 5 5 2 2 2 2 2 1 1 1 1 1 1 , , , , , , , , , - , < < 2 2 2 5 2 5 5 5 5 0 5 2 2 , , , , , , , , , , , , , , , , , , , , 1 2 2 2 2 2 2 2 2 < 2 < 2 2 2 2 2 < , 2 2 < 2 3 3 < < 1 1 , , 1 , , , : : : : : , 1 1 1 , , , , : : , * : , , , 1 1 1 2 2 2 2 2 2 2 2 2 2 2 2 2 2 1 , , < < , , , , , , < < 2 2 2 < < 2 2 2 2 2 1 , , 1 , , , 1 1 1 1 , < < 2 2 2 2 2 2 2 2 2 2 2 2 2 5 5 0 0 0 5 2 2 5 5 0 5 2 2 5 5 2 2 2 2 5 0 5 5 2 2 2 5 5 5 5 5 5 5 5 5 5 5 5 2 2 5 5 5 5 5 0 5 2 2 2 0 0 0 0 5 5 5 5 6 6 6 5 5 0 s 2 2 2 2 0 0 0 w w w q q q q q t t t e t t t t t t t t t e e e e e e e e t y e e e e e e e t y y y y y y y y y d g g g d g h h h h j j j h h d h k d d f f u u u e q 0 2 1 : > = $ $ 7 j I 7.;.9.r.2...,.3.,.1.;.;.;.-.*.>...=.*.%.%.%.%.%.%.%.%.%.%.%.%.%.%...........{ { { { { { { ......{ [ { { ",
"{ { { _ { ' { { _ _ _ _ { { { { ....................%.%.%.%.%.=.=.=.-.-.>.>.>.-.1.4.....u.I r % % * * * , , < < 7 7 6 q e e e e e e e e t t e e e e q q q q 0 q q q q q q q q e e e e e e e e e q q q q 6 6 6 6 5 5 6 6 0 0 0 0 q q w 0 0 0 0 6 5 5 2 5 5 5 5 2 5 5 5 6 0 0 0 0 0 0 0 0 0 0 0 0 w w 0 5 5 5 5 2 2 2 5 5 5 5 2 2 5 5 6 6 5 5 5 5 2 2 2 2 2 2 2 2 2 2 1 1 1 , , , 1 , , , , , , , - , < < < 2 5 5 2 5 0 5 5 0 5 2 2 2 , , , , , , 1 , , , : : , , , , : , , 1 2 2 2 2 2 2 2 2 < 2 2 2 2 2 2 2 2 2 2 2 , < 2 2 < < 1 1 , , , , , , : : : : : : 1 1 , , : , , : : : * * : , , 1 1 1 2 2 2 2 2 2 2 2 2 2 2 2 2 2 2 1 1 1 1 , , , , , , , 1 2 3 3 2 < 2 2 2 2 2 1 1 , , , , , , , , 1 < < 2 2 2 2 2 2 2 2 2 2 < 2 2 2 2 2 5 5 0 5 5 2 5 5 5 2 2 2 2 5 5 2 2 2 2 5 5 5 2 2 2 2 2 5 5 5 5 5 5 0 0 0 5 5 2 2 5 5 5 5 5 5 0 2 2 2 0 0 5 2 2 2 5 5 6 5 5 5 0 s 2 2 2 2 0 0 6 0 q q q q q q q e t t e t t t t t t t e e t t q q q q e e e t t t t e e e e e e t y y y y y r y y d d d d d d h d d g g h h g d g g d y r r e u e q q 0 2 1 : 4 = % % % ; N y.>.r.2.=.1.1.1.1.2.;.;.;.;.-.=...=.%.%.%.%.%.%.%.%.%.%.%.%.%.%.%...........{ { { { { { { ....{ { [ { { ",
"{ { { { { { { { _ _ _ { { { { { ..................%.%.%.%.%.%.%.=.=.-.-.-.>.>.:.=.1...7.y.d % ; % * * , 3 , < 2 2 7 6 q q q e e e e e e e e e e e q q 6 6 6 0 q 6 6 q q q q q q e e e e e e q w q q q q q 6 6 6 5 5 6 6 0 0 0 0 q q q 0 6 6 5 5 5 7 2 2 5 5 5 5 7 5 5 5 5 5 6 6 0 0 0 0 0 0 0 0 w w 0 5 5 5 5 5 2 2 5 5 5 5 5 2 6 6 6 6 5 5 5 5 2 2 2 2 2 2 2 2 2 1 1 1 1 1 1 1 1 1 , , , , , , , < < < < 2 5 5 2 5 0 5 5 0 5 2 2 < 2 < 2 2 1 , , , , , , , , , , : : : , 1 1 2 2 2 2 2 < 2 < < 2 2 2 2 2 2 2 2 , , < , , < 3 < < 1 , , , , , , : : > > : : : 1 , , : , , , , : : , , , 1 1 1 1 2 2 2 2 2 2 2 2 2 2 2 2 2 2 2 2 1 1 1 , , , 1 1 , , , 1 1 < 1 1 2 2 2 2 2 2 1 1 , , , , , , , , < < 2 2 2 2 2 2 2 2 2 2 < < 2 2 2 2 2 5 0 5 5 2 2 5 5 5 2 2 2 5 5 2 2 2 2 2 2 5 5 5 2 2 2 2 2 2 5 5 5 0 0 0 5 5 2 2 5 5 5 5 5 5 0 2 2 2 2 0 5 2 2 2 5 5 6 6 5 5 0 s 2 2 2 2 5 0 5 0 q q q q q q q q q q q q q q t t t t e e t t q q q q q e e e e t t t t e e q e e e y y y y y y y y y y y d d d d d d d d d g y d d y r e e 8 e 6 6 6 s 2 , : = = = % $ $ 6 B 7.5.%...4.1...2.-.:.:.:.;.-.=.=.-.*.%.%.%.%.%.%.%.%.%.%.%.%.%.%.%.........{ { { { { { ......{ { [ { { ",
"X.X.{ { _ _ _ _ { { { { { { { { { { ........%.%.......%.%.=.=.=.-.=.-.-.;.:.:.:.5.( 7.y.d % % = % * * , 3 3 2 2 7 5 6 q q q q q q q q q q e q q q q q q 6 6 0 q 6 6 6 6 6 q q q q q q q q q q q q q 0 0 0 0 6 5 5 6 0 6 5 5 0 0 0 6 6 5 5 5 5 5 5 2 2 2 2 5 0 5 7 5 5 5 6 0 0 6 0 q 0 0 0 0 0 0 0 5 2 2 2 2 5 5 2 2 2 5 5 5 5 2 6 6 5 5 2 2 2 2 2 2 2 2 2 2 2 2 , 1 1 1 1 1 1 1 1 , , , 1 1 , , < < 2 2 2 2 2 5 2 5 5 2 2 5 2 2 2 2 2 2 2 2 1 1 , , , , , , , : : : : : , , , 1 1 1 2 1 < < 2 2 2 2 , 1 1 1 2 2 < < , , , , , , 1 1 , , , , , , : : : > > : : : , , , , 1 1 , : , , 1 1 1 1 1 1 2 2 2 2 2 2 2 2 1 2 2 2 2 2 2 2 < 1 1 , , , 1 < , , , , , , 1 < 2 2 2 2 2 2 1 1 , , , , , , , , , , , < < 2 2 2 2 2 2 2 < < 2 2 2 2 2 5 5 5 5 5 5 5 0 5 2 2 5 5 5 5 2 2 2 2 2 5 5 5 2 2 2 2 2 2 5 5 0 0 5 5 5 5 2 2 2 5 5 5 5 5 5 2 2 2 2 0 0 0 5 5 0 0 0 6 6 5 0 2 2 2 2 2 2 5 6 0 q q w w w q q q q q q q q q t t q q e t t t q q q q e e e e t t t t t t t e q e e t y y y y y y y y y y y y y y d d d d d y d y y t e e e 6 6 6 5 2 2 1 , > = = 4 = $ $ % 7 G 8.7.1.2.2.*.;.:.:.:.:.-.;.-.-.-.-.*.*.-.-.%.%.%.%.%.%.%.%.%.%.%.......................{ { { { [ { { ",
"X.X.[ { _ _ _ _ { { { { { { { { ..........%.%.%.....%.%.=.=.=.=.=.-.-.-.;.:.:.:.:.7.8.j % % 4 $ $ & * : , , 3 2 5 6 6 q q q q q q q q q q q q q q q q 6 6 6 0 0 6 6 5 6 6 q q q q q q 6 q 6 6 6 6 0 q q 0 6 5 5 5 6 0 6 5 5 0 0 0 6 5 5 5 5 5 5 2 2 2 2 2 2 5 5 2 5 5 5 6 6 6 6 0 0 6 5 5 5 6 0 2 2 2 < < < 2 5 2 2 2 5 5 5 5 2 5 5 7 7 2 2 2 2 2 2 2 2 2 2 2 2 , , , , 1 1 1 1 , , 1 1 , 1 1 < 2 2 2 2 2 2 2 2 2 2 2 2 2 2 2 2 2 < 2 2 2 2 < 1 , , , , , , , : : : : : , , , , , , , , , , , , 2 1 1 , , 1 < 2 2 < , , , , , , , , , , , , : : : : > * > > : : : , , , , 1 1 , , , , , 1 1 1 2 2 2 2 2 2 2 2 2 2 2 2 2 2 2 2 2 3 < , , , , , 1 , , , , , , < 2 1 1 2 2 2 2 1 1 , , , , , , , , , , , < 2 2 2 2 2 2 2 2 2 < < 2 2 2 2 2 2 5 5 5 5 5 5 5 5 5 5 5 5 5 5 2 2 2 2 5 2 2 2 2 2 5 5 5 5 5 0 5 5 5 2 2 2 2 5 5 5 5 5 2 2 2 2 2 2 2 2 0 0 0 0 0 0 6 5 5 0 s 2 2 2 2 2 2 0 0 0 q w w e w q q q q e e e q t t e e e e t t q e e e e e e e t t t t t t t t e e e e t y y y y y t t y y y y e y y y y y y y y y e e e q 6 6 7 2 2 2 2 1 , 3 4 = = = = $ $ $ q K oX7.:.0.2.-.;.:.:.:.1.-.-.-.-.-.-.*.-.-.-.-.%.%.%.%.%.%.%.%.%...{ { ..{ ............{ { { { [ { { ",
"X.X.{ { { { _ { { { _ _ { { { { ........%.%.%.%...%.%.%.=.=.=.=.-.-.*.;.;.;.-.1.X.y.N % % - $ = $ * * : , , , < 5 5 6 6 6 6 6 q q q q q q q q q 6 6 6 6 6 6 0 0 6 6 5 6 6 q q q q q q q q 6 6 6 6 5 6 6 5 5 5 2 5 5 5 5 5 6 0 0 0 0 6 5 5 5 5 5 2 2 2 2 2 2 2 2 2 2 2 2 5 5 5 5 5 5 2 2 2 2 2 2 < < < < < < 2 2 5 5 5 5 5 5 5 5 2 2 2 2 2 2 2 2 2 2 2 2 2 2 2 , , , , , , , 1 1 , , , , 1 1 , , , < 2 2 2 2 2 2 2 2 2 2 2 2 2 2 2 < < < < < < 1 , , : * : : , , : : : : : , , , 1 , , , , , < < 2 2 1 1 1 2 2 2 2 2 < , , , , , , , , , , , : : : > * * > > > : : , , , , 1 1 : 1 , , , 1 1 1 2 2 2 2 2 2 2 2 2 1 2 2 2 2 2 2 , < , , , , : , , , , , , , , , 1 1 1 1 1 2 1 1 1 , , , , , , , , , , < 2 < 2 2 2 < 2 2 2 2 2 < < 2 2 2 2 2 2 5 5 5 5 5 5 2 2 5 5 2 5 5 5 2 2 5 5 2 2 2 5 5 5 5 5 2 2 0 0 5 5 2 2 2 2 5 5 5 2 2 2 2 2 2 2 2 < 2 2 2 2 5 0 0 5 5 5 5 0 0 0 5 5 2 2 6 5 5 6 q w w q w q q q q e q q t e t q e e e e e e e e e e e e t t t t t t t t e e e e e e e t y t e e e t e e e t y t t t t t t e q e e q 6 5 2 2 , , , , , , 4 = = = $ = O O $ i I 7.:.0.0.;.;.1.=.1.-.1.;.2.-.-.-.-.*.-.-.-.%.%.%.%.%.%.%.%...........{ { { { { ............[ { { ",
"X.X.{ { { { { { { { { _ { { { { ........%.%.%.%...%.%.%.=.=.=.-.-.-.*.;.;.1.1.1.7.A 9 % = = O = * * : , , , , , 2 7 7 7 5 6 6 6 q q 6 6 6 q q 6 5 7 5 6 6 6 6 6 6 6 5 6 6 q 0 q q q 0 q 6 6 6 7 5 5 5 5 7 7 2 2 2 5 5 5 5 0 0 w 0 0 0 6 5 5 5 5 < < 2 2 2 2 2 < 2 2 2 2 2 2 2 2 2 2 2 2 2 2 2 2 < 2 2 2 < < 2 2 0 5 5 5 5 5 0 0 2 2 2 2 5 2 2 2 2 2 2 2 2 2 , , 1 , , , , , , , , , , , , 1 , , , , < < 2 < < 2 2 2 2 2 2 2 2 2 < 2 , , , 3 < < , , * * & * : , : : : : : , , , 1 1 1 1 < 2 2 2 2 2 2 2 2 2 2 2 2 2 < , , , , , , , , , , , : : : > * * * > > > : : : : , 1 1 : 1 1 1 1 1 1 1 1 2 2 2 2 2 2 1 1 , 1 2 2 2 2 , , , * * : , : , 1 , , , , , , , , 1 1 1 1 1 1 1 1 1 1 , , , , , , , , , < 2 2 2 2 < 2 2 2 2 2 < , 2 2 2 2 2 2 5 5 2 2 5 2 2 2 2 5 2 5 5 5 5 2 5 5 5 5 5 5 5 5 2 2 2 2 0 0 5 5 2 2 2 5 5 5 5 2 2 2 < 2 2 2 , , , 2 2 2 2 5 5 5 5 5 2 0 0 0 0 5 2 2 5 2 7 7 0 q q q w q 0 q q q q q t t e q e e e e e e e e e e q q t t e e e e t t y t e e q e e e y t e e e e e q e t t e q q e t t q q w w q 7 2 < 1 , , , , , 3 * = = = O + + O O * g 8.7.;.9.0.2.1.1.1.=.;.;.;.-.-.-.-.*.-.-.-.%.%.%.%.%.%.%.%...........{ { { { { { { ........[ { { ",
") ) ) ' { { { { { { { { { { ....{ { ........%.%.=.%.=.=.-.-.-.=.5.O.-.2.-.1.4.,.I 6 % = = O & & * : , , - , < 2 2 2 5 7 5 6 6 6 q q 0 q 6 6 6 6 6 6 5 5 5 5 5 5 6 6 7 7 6 0 0 0 0 0 0 0 6 5 7 7 2 2 2 5 5 5 5 5 7 2 2 7 0 w w w 0 0 5 5 2 2 2 2 2 2 2 2 2 2 2 2 2 2 2 2 2 2 2 5 2 2 2 5 2 2 2 2 2 2 < < < < 2 2 2 2 2 5 5 5 0 0 2 5 5 5 2 2 2 2 5 2 2 2 2 , , , 1 , , : , , : * , , , , , , 1 1 2 < < < < 2 2 2 2 2 2 < 2 2 2 2 < 3 < < < < , , * : * : : : : , : : : : , , , , , , 3 < , , , < 2 2 2 2 2 2 2 < 2 2 < < , , , , , , , , , * * : * & & & & & > > : , , , , , , 1 1 1 1 1 1 1 1 1 , , , , < 2 2 2 , , , , , , , , , , , : : : * * , , : : : : , , , , , , 1 1 2 1 2 2 1 1 1 , , , , , , , , , < 2 < < < < < < 2 2 < 2 2 2 2 2 2 2 2 2 5 5 5 2 2 2 2 2 5 5 2 2 2 2 0 5 5 5 2 5 5 5 5 5 5 5 5 5 5 5 2 2 2 2 5 5 5 2 < , 2 2 2 2 , 2 2 2 5 0 0 0 0 0 0 0 0 0 0 0 0 0 5 5 6 0 0 0 6 6 w w w w w w w w u t t t t t t t q q q q q t t t p t e q t t t t t e t t t e q 6 q q e e e e e q e q q q q q q q q q q 0 5 5 7 2 3 3 , , , * * * - * = = & + + + + o - N 8.5.*.0.1.1.1.,.6.2.-.-.;.-.-.-.-.*.%.%.%.%.%.%.%.%.%.%.%.%.%.%...............{ { { { { { { { ",
") ) ' ' { { { { { { { { { { ....{ { ........%.%.=.%.=.=.=.=.=.=.' t.;.=.4.1. .y.d ; $ = = = > O * : , , - , 3 2 2 2 5 5 6 6 6 6 6 6 6 6 5 6 5 5 5 5 5 5 5 5 5 5 0 6 6 6 0 0 w 0 6 6 6 5 7 2 2 2 2 2 2 2 2 2 5 5 5 5 5 0 0 w q 0 0 0 0 6 5 5 5 2 2 2 2 2 2 2 2 1 2 2 2 2 2 2 5 5 5 5 5 5 5 5 5 2 5 2 < < < 2 2 2 5 5 5 5 5 5 2 2 2 2 5 5 2 2 2 2 2 2 2 2 2 2 , , , , : : , , : : , , , , 1 1 < 2 2 2 2 < 2 2 2 2 2 2 2 2 2 2 2 2 < < < , , , , , * * : : : : : , : : : : , , , , , , < < , , , < 2 2 2 2 2 2 , , < 2 < < , , , , : , , , : * * * * * & & & * * > : : , , , , , 1 : , , , , 1 1 1 2 , , , 2 2 2 2 2 < < < 2 < , , , : : : : : : : : : : : : : : : , , , , , 1 1 1 1 1 1 , , , , , , , , , , , 2 2 2 2 2 2 2 2 < 2 < 2 2 2 5 2 2 2 2 2 2 2 2 2 2 2 2 2 2 2 2 2 2 2 5 5 5 5 5 5 5 5 5 5 5 5 5 5 5 5 5 5 5 5 5 2 2 2 2 1 2 2 2 1 , 2 2 2 2 0 0 0 0 0 0 0 0 0 0 0 0 6 5 5 5 5 5 5 5 5 0 0 0 q q q w q w w q q q q q q q q q q q q q q e q q q t t t t t e t t t t e q q q q q w q w w w q q q q q q 0 0 0 6 5 5 5 5 5 3 3 , , , - * * * * & & O O + + o + $ 7 Z 7.4.=.1.3.1.1.1.=.>.:.;.-.-.-.-.*.%.%.%.%.%.%.%.%.%.%.%.%.%.%.................{ { { { { { { ",
"' ' ' ' _ { _ _ { { { { { { { { { ........%.%.%.=.=.=.=.=.=.=.=.:.:.2.1.1.3.P N % $ $ = O = > O * * , , - , , 2 2 2 5 5 5 0 6 0 6 6 5 6 5 5 7 7 2 7 7 5 5 5 2 2 5 7 7 5 5 0 5 5 5 5 5 5 7 7 2 2 2 2 < , , 2 2 5 2 2 5 0 q q 0 6 5 0 0 0 0 5 2 2 2 2 2 2 2 2 1 , , , < < 2 2 2 5 0 0 0 0 0 0 0 2 5 2 2 < 2 2 2 2 5 5 5 5 5 2 2 2 2 2 2 2 2 < < 2 2 2 , < 1 1 1 , : : : : , , : * , , , , 1 < < 2 2 2 2 2 2 2 2 2 2 2 2 2 2 2 2 2 , , , , , , , , : : : : * : : , , : : : , , , , , , , , , , 1 2 1 2 2 2 2 2 , , , < < , , , , , : : : , , : * * * & * & * * > > : , , , : : , , , , , , , , , , 2 2 2 2 2 2 2 2 2 2 2 2 2 2 , , , : : : : : : : : , , , , , , : : , , , , , 1 1 1 1 , , , , , , , , , , : , , 1 1 1 1 < < 1 1 2 < < 2 2 5 5 5 2 2 2 2 2 2 2 2 2 2 2 2 2 2 2 2 2 5 5 5 5 2 5 5 5 0 0 5 5 5 5 5 5 0 5 5 5 5 2 2 2 2 1 1 2 2 1 , 2 2 2 2 2 2 0 5 5 0 0 0 0 0 0 0 6 5 5 5 5 7 7 7 7 5 5 5 6 0 0 q q w w q q q q q q q q 0 q q q q q 6 6 0 q w w w q e e e e t t e w q q q q q q q q 0 0 0 q 0 0 0 0 5 5 2 2 2 2 2 < , 3 , : - * * * * & & & O O + + @ @ O O 6 L 7.1.1.1.1.1.2.>.>.5.:.-.-.-.-.*.*.%.%.%.%.%.%.%.%.%.%.%.%.%.............{ { { { { { { { { ",
"' ' ' ' _ _ _ _ { { { { { { { { ......%...%.%.%.=.=.=.=.=.=.=.=.t.>.-.,.,.8.B % $ $ = $ O & : & * * : : - , , 2 2 2 2 7 7 5 6 6 5 6 6 6 7 7 2 2 2 2 2 2 2 2 2 2 2 2 2 7 7 7 2 2 7 5 5 5 5 7 7 2 2 2 < , , < 2 2 2 2 5 5 0 0 6 5 5 5 0 0 0 5 2 2 2 2 2 2 2 2 2 2 , < < 2 2 2 2 5 5 5 5 5 2 2 2 2 5 2 2 < 2 2 2 5 2 2 5 5 5 5 2 2 2 2 2 2 2 2 < < , , , , , , , , : : , , , , : * : , , , , 1 1 1 2 2 2 2 2 2 2 2 2 2 2 2 2 2 2 < , , , , , , * * , : : : * : : , , : : : , , , , , , , , , , 1 2 2 2 2 2 2 < , , , , , , , , , , , , , , , , , * * * * * * * > > : : , , : : , , , , , , , , : : , , 2 2 2 2 2 2 , , , 2 2 2 2 1 , : : : : : , , , , , , 1 , , , : , , , , 1 1 1 1 1 1 , , , , , , , , , , , , , , , , 1 1 1 1 , 2 2 2 2 5 5 5 5 5 5 5 2 2 2 5 5 5 5 5 5 5 2 2 2 5 5 2 5 2 5 5 5 5 5 5 5 5 5 5 5 2 2 2 2 5 5 2 2 2 2 2 1 1 , 1 2 2 2 2 2 2 2 5 5 0 0 0 0 0 0 0 0 0 6 5 7 7 2 7 7 5 5 5 5 5 0 0 q w q q q q q q q 0 0 0 0 0 0 q q 7 7 5 0 q q w q q q q q q q q q q q 0 0 6 6 6 0 0 0 0 0 0 0 0 0 5 2 2 < , , , , , , , : : * * * $ & & & O O + + @ @ o O % e G 7.,.1.1.1.5.:.>.:.:.;.-.-.-.-.*.*.%.%.%.%.%.%.%.%.%.%.%.%.............{ { { { { { { { { ",
"_ _ _ [ { { { _ { { { { { ..{ { ....%.%.%.%.=.=.=.=.=.=.=.=.=.-.>.:.%...7.G 7 $ % = = & $ & * * * * * * - , , < 2 2 2 2 2 5 5 5 7 7 5 5 5 7 7 2 < 2 2 2 2 2 2 2 2 2 5 5 5 5 5 2 2 2 2 2 2 2 2 2 2 2 2 2 2 2 2 2 2 2 7 5 5 5 0 0 5 5 0 0 0 5 2 2 2 2 2 2 2 2 2 2 2 2 2 < 2 2 2 2 2 2 2 2 2 2 2 2 5 2 2 2 2 5 5 5 2 5 5 5 5 2 2 2 2 2 2 2 2 2 2 2 2 < , , , , , , , , , , , , : : , , , , , , , 1 2 2 , , 1 1 2 2 2 2 2 2 < < 2 2 , , , , , , * * , , * * * : : , : : : : : , , , , , , , , , , 1 2 2 2 2 2 2 , , , < < < , , , < 1 , , , 3 , , : * * & & & * > > : : : : : : : , , , , , , , , , , , , < , , < 2 < < < 2 < < 2 1 , : : : : : , 1 , , , 1 1 , : , , , , , , , 1 1 1 1 1 1 1 1 , , , , , , , , , , , , , 1 1 < < 2 2 2 2 2 2 5 5 5 0 0 0 0 5 5 2 2 2 5 5 5 5 5 5 2 5 5 2 2 5 5 5 5 2 2 2 2 5 5 5 5 2 2 2 2 5 5 5 2 2 2 2 1 1 1 2 2 2 2 < < 2 2 2 5 6 0 0 0 0 0 0 0 0 0 5 5 2 2 2 2 2 2 2 2 7 5 6 0 6 0 q q q q q q 0 0 0 0 0 0 0 0 5 5 5 5 5 5 0 q q q q q q q 6 6 q 0 0 6 5 5 5 5 5 5 5 6 5 0 5 2 2 2 2 < , , , , , , , : * * * * $ & & $ $ O O + o o o + O $ t 8.8.6.1.1.2.2.%.>.:.2.-.-.-.*.-.*.%.%.%.%.%.%.%.%.%.%.%.%.{ ......{ { { { ....{ { { { { ",
") ) ) [ { { { { { { { { { ..{ ....%.%.%.%.%.=.=.=.=.=.=.=.=.=.-.-.-.7.u.L 7 $ $ O O O & & & * * * * * * - , , , 2 2 2 2 2 2 2 2 7 7 7 7 7 7 7 2 2 2 2 5 5 2 2 2 2 5 5 5 5 5 2 5 2 2 2 2 2 2 2 2 2 2 2 2 2 2 2 2 2 2 5 5 5 5 0 0 0 0 0 0 0 5 2 2 < < 2 2 2 2 2 2 2 2 2 < 2 2 2 2 2 2 2 2 2 2 2 2 2 2 2 2 2 5 5 5 5 5 5 5 2 2 2 2 5 2 2 2 2 2 2 2 2 2 1 , , , , , , , , , , : : , , , , , , 1 1 1 2 2 , , , , 2 2 2 2 2 , , , < 2 , , , , , , * * : , * * : : , , : : : : , , , , , , , , , , , 1 2 2 2 2 2 2 , , , < < < , , , < 1 , , , , , * * * & & & & & * > : : : : * * : : : : : , , 3 1 1 * , , , , , , < 2 < < < < < 2 , , : : : : : , 1 : : : : : : : : , , , , , , , , < < 1 1 1 1 1 1 , , , , , , , : , , , , , 1 1 2 2 2 2 2 2 2 2 2 5 5 5 5 5 2 2 2 2 2 2 2 2 5 2 2 5 5 2 2 2 5 5 5 2 2 2 2 2 2 2 5 2 2 2 2 2 5 2 2 2 2 2 1 1 1 2 2 2 2 < < 2 2 2 5 5 5 5 6 0 0 0 0 0 0 0 5 5 5 5 5 2 2 2 2 2 2 5 5 0 q q q q q q q 0 0 0 0 0 0 0 0 6 5 5 2 2 2 5 6 q q q q q 6 6 6 0 0 0 5 5 7 2 2 7 7 5 5 5 2 2 2 2 2 2 2 < 3 3 3 , , : : * = = = & & & & $ $ + + o o o + o o , k 8.7.5.-.;.2.-.1.2.2.;.-.-.-.-.-.%.%.%.%.%.%.%.%.%.%.%.%.{ ......{ ..{ { ..{ { { { { { ",
") ) ) [ { { { { { { { { { ......%.%.%.%.%.=.=.=.=.=.=.=.=.=.=.-.0.*.7.U 7 $ $ $ o + + O & * % * * * * * - , , , 2 2 2 2 2 2 2 2 2 2 2 2 7 2 2 2 2 2 2 2 2 2 2 2 < 2 2 2 < < 2 2 2 2 2 2 2 2 2 2 2 2 < 2 2 2 2 2 2 5 6 5 5 5 5 0 0 0 5 5 2 2 2 2 , 1 1 , 2 2 2 2 < < < 2 2 2 2 2 2 2 2 2 2 2 2 2 2 < 2 2 2 5 5 5 5 5 5 5 2 2 2 < 5 2 2 2 2 2 2 2 2 < , , , , , * , , , , * * , , , , , , , 1 2 2 2 2 2 , , , , 2 , , , , , , , < , , , , , , : * : * * * : , , , , , , , , : * * , , , , , , , 2 1 2 2 2 2 , , , , , < < < , , , 1 1 , , : * * * & & & & & & * = * : : * * * * : : * * : , 3 , , * , , , , , , , 2 , , < < , , , : : : : : : : : : : : : : : : : , , , , , , , , 1 1 1 1 1 1 1 1 1 1 1 1 1 , , , * : : , , , , , 2 2 2 2 2 2 2 2 2 2 2 2 2 2 2 2 2 2 2 2 5 5 5 5 5 5 2 2 2 2 2 5 2 2 2 2 2 5 5 5 5 2 2 2 2 2 2 2 2 2 2 1 1 2 2 2 , 2 2 2 2 2 2 2 5 5 5 6 0 0 0 0 0 0 0 0 0 5 5 5 5 2 2 2 2 2 7 5 6 0 q w e e q w 0 0 0 0 6 6 6 5 0 0 0 5 2 2 2 7 6 q q q q 6 6 6 0 0 6 5 2 2 2 2 2 7 7 5 7 2 2 < 2 2 < < < 3 3 < , , , : * = = = & & & $ $ $ O O o + o X @ o $ ; N X.r.;.;.2.1.1.1.2.2.-.-.-.-.-.%.%.%.%.%.%.%.%.%...%.%.%.%.........{ ......{ { { { { ",
") ) ) { { { { _ { { { { { ......%.%...%.....=.=.%.%.>.>.=.=.1.1...7.L 7 % % $ O + = = O O $ * * * * * * - , , , < < < < < < < , < < 2 < 2 2 2 2 2 2 2 < < < < < < 2 2 < < < < 2 < < < < < < < < 2 2 2 2 2 2 2 2 2 2 5 5 5 2 2 2 5 2 2 2 < , , , 1 1 , , , , 1 2 < < < < < 2 2 2 2 < < , , , < < < < 2 2 5 5 5 2 2 2 2 2 2 2 2 2 5 2 2 2 2 2 2 2 , , , , , , : * * : , * * * , , * * : , , 1 1 2 2 2 2 2 2 , , , , , , , , , , < , 3 , , , , , , : : * * , , , , , , , , , , * * , , , , , , , 2 , , 1 , , , , , , < < < < , , , 2 < < , * * & & * & & & & & & * > : : * * * * : , : * * : : * * * , 1 1 , , , , , : , , , , , , : : : : : : : : , : : : : : , , , , , , , , , , , 1 1 1 , , 1 1 , 1 1 1 1 , , , : , , , , 1 1 2 2 2 2 2 2 2 2 2 2 2 2 2 2 2 5 5 2 2 2 5 5 0 0 0 5 5 5 2 2 2 2 2 2 2 2 2 5 5 5 5 2 2 2 2 5 5 2 2 2 2 2 1 2 2 2 2 , , 1 2 2 2 2 2 5 5 6 0 0 0 0 0 6 0 0 0 0 0 5 2 0 5 2 2 2 2 5 5 2 7 5 0 0 0 0 0 0 6 6 6 5 5 5 5 5 5 0 5 7 2 2 2 2 7 6 0 6 6 6 5 0 0 5 2 2 2 5 5 2 2 2 2 2 2 < , 2 < < , , , , , , , , : * * & & = & = = $ $ O O O + o X @ @ o $ 6 L u.5.2.2.2.1.2.2.;.-.-.-.=.=.%.%.%.%.%.%.%.%.%...%.%.%...........{ ......{ { { { { ",
"{ { { { { { { { { { { { { ......O.>.X...,.,.,.=.;.+.:.:.O.2.4. .8.U r $ % % O = + + & & * * * * * * * * , , , < , < 2 2 2 < < , 2 2 2 2 2 2 < < < 2 2 2 < < < < 2 2 2 2 2 2 2 2 < 2 2 2 2 2 2 < 2 2 < , , , < < 2 2 5 0 0 0 5 2 2 2 < , , , , , , 2 2 2 2 1 , , , < 2 < 2 2 2 2 , , , , , , , , 1 2 2 2 2 2 2 2 2 2 5 2 2 2 2 2 2 2 2 2 , 2 2 2 2 < , , , , , , : : , , : : : , , , , , 1 1 < 2 , 2 2 1 2 2 2 , 2 2 , , , , , , , , , , , , , , , , , , , 1 3 , , , , , , , , , , , , , , , 2 2 < < 2 2 2 , , , , , < < < < , , , , , , , , : * & * & & & & & * : : , : * * * * : : * * * : : , : : : : , , : , : : , , , , , , : : : : : : : : : , , , , , , , : : : , , , , : , , , , , , , , , , < 2 < , , 1 , , , : , , , , , , , , 1 2 2 2 2 2 2 2 2 2 2 5 2 2 2 2 2 2 2 2 2 2 2 2 2 2 2 2 < , 2 2 5 2 2 2 2 2 2 2 2 5 2 2 2 2 2 2 2 2 2 2 5 5 2 2 2 2 2 2 7 5 5 0 0 0 0 0 0 0 6 5 5 5 5 5 0 0 5 5 2 2 2 2 2 2 < 2 5 0 w 0 0 5 2 2 5 0 5 5 2 5 5 5 2 2 2 5 2 2 5 6 0 0 6 5 2 5 5 5 5 2 2 < 2 2 2 2 2 2 2 2 2 < , , : : : : , , , : > * & & & & & & $ $ $ O O O o o o o o O $ 7 U u.>.;.w.-.;.:.;.2.2.1.1.1...X.X.X...%.*.*.%.........{ { { ......{ { { { { { { { ",
"{ { { { { { { { { { { { { ......O.>.>.X.,.,.,.=.' r.:.+.:.=...6.y.k % $ % $ O = = & & & & * * * * * * , , , , , , , , , , , , , , , , < < < < < < < < < < < < < 2 2 2 2 2 2 < < 2 2 2 2 2 2 2 < 2 2 2 < < < < < 2 2 2 2 2 2 2 2 2 2 2 2 , , , , , , , 2 , , , , , , < 2 2 2 < , , , , , , , , , , , 2 2 2 2 2 2 2 2 2 2 2 2 , , 2 2 2 1 1 2 2 2 < < 2 , , , , , : : : : : : : : , , , , , 1 2 2 2 2 2 2 2 2 2 , , , , , , , , , , , < < < , , , , , , , , 3 3 , , , , , , , , , , , , , , , 2 < , , , , < , , , , , , , , , , , , , , , , , : * * * * & & & & * > : , : : : : : * * * * * * * : : > > > : : : : : : : , , , , , , , , , , , , , : : : : , , , , , : : : , , : : , , , , , , , , , , , , 1 1 , , , , , : , , , , , , , , , 1 2 2 2 2 2 2 2 2 2 2 2 2 2 2 2 2 2 2 2 2 2 2 2 2 2 2 2 2 2 2 5 2 2 5 2 2 2 2 2 2 2 2 2 2 5 5 5 2 2 2 2 2 2 2 2 2 2 2 2 5 5 0 0 0 0 0 0 0 0 0 0 0 5 2 2 2 2 5 2 2 < < < 2 2 2 2 2 0 w 0 0 2 2 2 2 0 0 5 0 0 0 0 0 0 0 2 2 2 5 5 5 5 5 2 2 2 2 2 2 2 < < 2 2 2 2 2 2 2 , , , , : : , , : , , , : > * * & & & & & $ O O O O o + o o o o o $ u U y.:.;.;.;.:.2.2.2.2.1.1...X.X.X...%.*.*.%.........{ { { ....{ { { { { { { { { ",
"{ { { { _ { { { { { { { ......%.>.>.....,.,...=.*.9.-.-.5...( oXB - O % $ $ = O = O & & & * * * * * , , , , , , < < , < , < < 3 , , , , , < < < , , , , < < 3 < 2 2 2 2 2 < < , 2 2 2 2 2 2 2 2 < 2 2 2 2 2 < < 2 2 2 5 5 5 2 2 2 2 2 2 2 1 , 1 2 2 2 2 2 2 , , , , < 2 < , , , , , , , , , , , , , 2 2 2 2 2 2 2 2 2 2 2 2 2 2 2 2 2 , , 2 2 2 < 2 < , < , , , , : : : , , : : , , , , , , 2 , 2 2 2 2 2 2 2 2 2 , , , , , , , , 1 1 1 1 , , , , , , , , , , , , , , , , , , , , , , , , 1 < 2 , , , , , , , , , , , , , , , , < < < < , , , , * * * & & & & & * : : : : : : : * * * * * * * > > > * * * * * * * * * : , , , , , , , , , , , , : : : : , , , , , , : : : , : : : : , , , , , , , , * , , , , , , , , : , , , , , , , , , , 2 2 2 2 2 2 2 2 2 2 2 2 2 2 2 2 2 2 2 2 2 2 2 2 2 2 5 2 2 2 2 2 2 5 5 2 2 2 2 2 2 2 2 2 2 2 2 2 2 2 2 2 2 2 2 2 2 2 5 5 0 0 0 0 0 0 0 0 0 0 6 5 2 2 < 2 2 5 5 2 < , , 2 2 2 < < 2 0 0 0 5 2 2 2 5 0 2 2 5 5 5 5 0 0 0 5 5 2 2 2 2 5 2 2 2 2 2 2 < 2 < , , , , , 1 1 : , , , , , , , : : , , : : > * & & & & & $ O O O O O o o o o o o O % d 8.7.*.;.;.;.;.;.;.;.1.1.1.,.....%.O.%.%.%.........{ { { ....{ { { { { { _ _ { ",
") _ { _ _ _ { { { { { { ....%.%.%.=.........%.*.2.%.-.2.%.7.y.L < $ % * O $ 4 O O O O $ $ & * * * * , , , , , , 3 < < < 3 < 3 2 < < , , , < , , , , , , < < < < < < 2 2 2 2 < , 2 2 2 2 2 2 2 2 2 2 < < < < < < 2 2 2 2 2 5 5 2 2 2 2 2 2 2 2 2 2 2 2 2 2 2 2 2 , 2 2 2 2 < , , , , , , , , , , , , 2 2 2 2 2 2 2 2 2 2 2 2 2 2 1 2 , , , , < 2 , , , , , , , , 1 : : : , , : * , , , , , 1 2 2 2 2 2 1 2 2 2 2 2 2 , , , < 2 2 , , , 1 , , , , , , , : : , , , , , : * * , , , , , , , , , 1 < , , , , < , , , 2 < , , , , , , < < < < , , , , * * * & & & & & * : : : : : : , * * * * * * * > * * & * * * * * * * * : , , , , , , , : : , , , , , , , , 1 , , 1 , , : , , , , * * * : , , , , , , * * , , , , , , , : , , , , , , , , , , 2 2 2 2 2 2 2 2 2 2 2 2 2 2 2 2 2 < < 2 2 2 2 2 2 2 5 2 2 2 2 2 2 2 5 5 2 2 2 2 2 2 2 2 2 2 2 2 2 2 2 2 2 2 2 2 2 0 0 0 q q q q q 0 0 0 6 5 5 5 5 5 2 2 5 0 0 5 2 2 < 2 2 2 < < 2 2 0 0 0 5 2 2 2 0 2 2 2 2 2 2 2 2 0 0 5 5 2 5 5 5 5 5 2 2 2 2 2 2 < , , , , , , , , , , , , , , , : : : : : : * * & & & & & $ O O + O O o o o o o o $ O % z 8.7.-.2.2.;.;.;.;.2.1.1.1.....%.O.%.%.%.............{ ....{ { { { { { _ { { ",
") ) ) ) { { { { ..........%.%.%.%.=.=.=.=.>.>.>.%.-.2... .y.U ; O $ * $ O $ = O O O & & & * * * * * : , , , , , , , < < 3 < < < < < , , - - - - < < < < < < < < < 2 2 2 2 2 2 2 2 2 2 2 2 2 2 2 2 3 , , , , , , , , , < 2 2 2 2 2 2 2 2 2 2 2 2 2 1 2 2 2 2 2 2 2 2 2 2 2 2 , , , , , , , , , , 2 2 2 2 2 2 2 2 2 2 , , , , , , 2 , , , , , < 2 , , , , , , , , 1 : : : , , : * , : , , , 2 2 2 2 2 2 , 2 2 2 2 2 2 < < < < < < , , , , , , , , , , : : * * : , , : * * * * : , , , , , , , , , , , < < < < , , < 2 , , , , < < 3 3 < 3 , , , , * * * & & & & & * : : : : : , , : : : * * * * * * * * * > > > > * * : : , , , , , , , , , , , , 1 1 1 1 1 1 1 1 1 , , , , , , , * : * : : : : : : : , : : : , , : : : : : : : : , , , , , , 2 2 2 2 2 2 2 2 2 2 2 2 2 2 2 2 < < < < 2 2 2 2 2 2 2 2 2 2 2 2 < < 2 2 2 2 2 2 2 < , < < 2 2 2 2 2 2 2 2 2 2 2 2 2 0 0 0 q w q 0 0 0 0 0 0 0 0 0 0 2 2 5 5 5 5 2 2 2 2 2 2 2 2 2 , 2 5 5 5 2 2 2 5 5 2 5 5 2 2 2 2 5 5 5 0 0 0 5 5 5 5 2 2 2 2 2 2 2 1 , , , - : : , , , , , , , : : : : : > * & & & & & & & $ O O + O O O o o o o o O O O ; N y.6.1.2.;.;.;.;.;.2.1.1.1.=...%.O.O.O...................{ { { { { { _ _ { ",
") ) ) ) _ { { { ....{ ..%...%.%.%.=.=.=.>.>.>.>.%.2.=.,.7.I 6 $ $ * $ O & + O & O & & * = * * = * * * : , , , , , , < 3 3 < < , < 3 < , , , , , < < < < < < < < 2 2 2 2 2 2 2 2 2 2 2 2 2 2 2 2 < < , , , , , , , , < < 2 2 2 2 2 2 2 2 2 2 2 2 2 2 2 2 2 2 2 2 , 2 2 < 2 2 , , , , , , < 2 2 2 2 2 2 2 2 2 2 2 2 2 , , , , , , 2 1 , , , , 2 2 , , , < < < 3 , , : : : , , : * : * : , , 2 2 2 2 2 2 1 , 2 2 , < 2 , , , 3 3 3 , , , , , , , , , , , , , : : , , : * * , , , , , , , , , , , , , , < < 2 < < < 2 2 < < < < 2 2 3 3 < < , , , , : * * * & * & & * : : : : : , , , : : : * * * * * * * > > : : : : : : : , , , , , , , , , , , , , , , , , , , , 1 , , , , , , , : , , , , , , , * : , : * * : , * * : : : : : : , , , , , , 2 2 2 2 2 2 2 2 2 2 2 2 2 2 2 2 < < < < 2 2 2 2 2 2 2 < 2 2 2 2 < , 2 2 2 2 2 2 < 2 , 2 2 2 2 2 2 2 < < 2 2 2 2 2 2 2 5 6 0 0 0 0 6 2 5 0 w w 0 6 2 2 2 2 2 2 2 2 5 5 2 2 2 2 2 2 , 2 2 2 2 2 2 2 2 2 2 2 2 2 2 2 2 2 2 5 0 0 0 5 5 2 2 2 2 < < < 2 2 2 , , , - * * * * : , : , , , : : : : * * & & & & & & & $ O O O O O O o o o o o X O O O 5 L y.6.1.;.;.;.;.;.;.2.1.1.1.=.%.>.>.O.{ { ..............{ { { { { { _ _ { ",
") ) ) ) _ _ { { { { ........%.%...=.=.%.>.>.>.>.;.-...6.8.e O % = $ O O & O o & & & & & = * > * * * * * * : , , , , , , < , , , < 3 , , , , , , , , , , , , , 3 < 2 2 2 2 2 2 2 2 2 2 2 2 2 2 < , , , , , , , , 2 2 2 2 2 2 2 2 s s 2 2 2 2 2 2 2 2 2 2 2 2 2 2 , , 2 2 2 2 < , , , < 2 2 < 2 2 2 2 2 2 2 2 2 2 2 2 2 2 2 2 2 2 2 2 < , , , , 2 , , < < < 3 , , , , , , , : : , * * * : , , 2 2 2 2 < , < 2 2 , < , , , , , , , , , , , , , 1 1 , , , , , : * , * * , , , , , , : , , , , , , , , , < < < < < , , , , < < < < < , , , , , , , , , : * > : : : : * : : : , : , , , : : * * * * * * & * > > : : : : : : : : : , , , , , , , , , , , , , , , , , , , , , , , , , : , : , : , , : , * * : * : : : : * * * : : : : : , , , , , , , 1 , < < 2 2 2 2 2 2 2 2 2 2 2 2 , , , 2 2 2 2 2 2 2 2 2 2 2 2 2 2 , 2 2 2 2 2 2 2 < 2 2 2 2 2 2 < , , , < < < < 2 2 2 2 5 5 5 5 5 2 2 5 5 5 5 2 2 2 2 2 2 2 2 2 2 2 2 2 2 2 2 < , < < 2 2 2 2 2 < , < < < < , < < < < 2 2 2 2 2 2 2 2 2 2 2 < < < 2 2 , , , , : : * * * * * : : : * * * : > * * & & & & & & $ O O O O O O o o o o o o o O O $ q U 8.1.=.:.;.;.;.;.1.1.1.=.=.%.>.>.O.{ { ......%.%.............{ { _ { { ",
") ) ) _ _ _ _ { { { ........%.%.....=.*.>.>.>.*.*._ 6.8.i % $ = O O = + O O O O & & & & & * * * * * * * * * * : , , , - - - - - , , , , , , , , , , , , , , 3 < < 2 2 2 2 2 2 2 2 2 2 2 2 2 < < , , , , , < < 2 2 2 2 2 2 2 2 2 2 2 2 2 2 2 2 2 2 2 2 , , , , , , , , < 2 2 < , < < < < 2 2 2 2 2 2 2 2 2 2 2 2 , , , 2 < < , , 2 2 2 , , , < 2 , , < 2 3 , , : , , , , : : : , * * * * , , , , , , 2 < 2 2 2 2 < < , , , , , , , , , , , , , 1 , , , , , * * * * * * , , , * * * * , , , , , , , , , , , , , , , , , < < < < < , , , , , , , : , , : : : , , , : : , , , : , , : : * * * * * * & * * * > > : : : : : : * * * * : : : : : : : , : : : : : : : : : : : , , , : : : : * * * * * : : * * * : : : * * * * : : , , , , , , , , , , , , , , , < < < < 2 2 2 2 2 2 2 , , , 2 2 2 2 2 2 2 2 2 2 2 2 2 2 , 1 2 2 2 2 2 2 < 2 2 2 < , , , , , , 2 < 2 2 2 2 2 2 5 0 0 0 5 0 0 2 2 2 2 5 0 2 2 2 2 2 2 2 2 2 2 2 2 < , , < , , < 2 5 2 2 < 2 2 2 < , , , , , , < < 2 2 2 2 2 2 2 2 2 2 2 2 , , , , , , , , , , , * * * * * * * * : : : = * & & & & & $ O O O O O O o o o o o + X o & o O p y.8.:.:.;.;.;.;.-.-.=.=.=.=.=.>.{ { { ......%.%.............{ { _ _ { ",
"{ { ) ) _ { { { { { ....%.%.%.%.....%.:.>.%.-.;...8.y.N % O * $ O + + O O O O O & O O $ $ $ = = * * * * * * * * , , , , , , , , , , , , , , , , , , , , , , , , , , < < < < < 2 , , < < < , , , , , , , , , , , , , , , , , , , , , 2 < 2 2 2 < < < , , , , 2 2 2 2 2 2 , , , , , , , , 2 2 2 2 2 2 2 2 2 2 2 2 2 < 2 < < < < < , , , , , , , , , , , , , , , , , , , , , : * * : : * & & : , , : , , 1 1 , , , , , * * , , , , , , , : : : : * , , , , : * * * : : , , : * * * * : , , , , , , , , , , , 1 1 1 , , , , , , , , , , , : * : : , , , 1 1 1 , , , , , , : : : : , * * : * * * * & * > > > : : : : : : : : , , : * : : , , , , : : : : : : * : , , : : : : : : , , , : > * > > > > * * * * * * = = = = > > : : : : : : : : , , , , 1 < < , < 2 2 , 2 < < < < 2 2 < , , 2 2 2 2 2 2 2 2 < 2 , , , 2 2 < < 2 , , , 2 < , , , , , < < , , , , , < < 2 w 5 2 2 2 2 5 5 2 2 2 < , , , 2 2 2 2 2 2 2 2 2 2 2 2 2 2 2 , , 2 < , , , , < < < 3 3 < 3 , , , , , < < 2 2 2 2 2 2 2 2 < < 2 2 2 < 2 , , , , , : : , , : : * * * * * * * * * & & & = & & $ & O O O + O O o o o o o o o o o o O g 8.7.X.-.2.-.2.-.-.=.=.=.=.-.-.-.%...{ { { ..%.......{ ......{ { { { ",
"{ { ) ) _ { { ..{ { ....%.%.%.%._ 1.>.' >.:.%.{ X.y.B - $ * & O O + + O O O O O & & & $ & & * * * * * * * * * * , , , , , , , , , , , , , , , , , , , , , , , , < < 2 2 2 2 2 2 2 2 2 2 2 2 < < , , , < < 3 < < 2 2 2 2 2 2 2 2 < < < < < < 2 2 < 2 2 , , , < < 2 2 2 2 , , , , < 2 2 2 2 2 2 2 2 2 2 2 2 1 1 1 , , 2 2 < < < < 1 1 1 1 1 1 1 1 , , , , , , , , , : : : : : : * , , , : , , , , 1 1 2 2 1 1 1 1 , , , , , , , , , , , , : : : : : : * * * * * * * * : : : : : * * * : , , , , , , , , , , 1 , , , , , , , , , , , , , , : : , , , , , , , , , , , , , : : : : : * * * * * * * * * * > > > > : : : : : : , , , : : : : : : : : : : : : : : : : , : : : : : : : , : : > * > > > * * * * * * * * * = = : > > : : : : : : : , , , , , 1 < , < < < , 2 2 2 2 2 2 2 2 , , , , , , 2 < 2 < < < , , , , , , < < , , , , < < , , , , , , , , , , , < < < 0 5 2 2 2 2 2 2 2 2 2 < < , < 2 2 2 2 2 2 2 2 2 2 2 2 2 2 2 < , 2 < , , , , < < < 2 3 < , , , , , , , , , < < < 2 2 5 5 2 2 < < 2 2 < < , , : : : : : * * * * * * * * * * * * & & & & & & $ $ O O + O O O o o o o o o o o o o O ; z 8.8...1.2.%.-.-.:.>.=.=.=.-.=.%.%.{ { { { ......{ { ....{ { { { { ",
"{ _ _ _ _ { { ....{ ....%.%.>.%._ 1.>.' >.-...,.y.L < O $ $ o O + + + + O & O O & & & & & & * * * * * * * * * * : : , , , , , , , , , , , , , , : : , , , , , , 3 2 < < , < 2 2 2 2 2 2 2 2 2 2 3 , , , , < 1 1 1 1 2 2 2 2 < < 2 < < < 2 2 2 2 2 2 2 2 2 < , , , , , 2 1 2 1 1 2 2 2 2 2 2 2 2 2 2 2 1 , , , , , , , < < < < < , , 1 , , 1 , , , , , , , , , , : > > > : : : : : , , , , < < , < < 1 , , , , , , , , , , , , , 1 , , , , : : : * * * * * * * * * * * * : * * * * * : : , , , , , , , , , , , , , , , , , , , , , , : : : : , , , , , , , , , , , , , , , , : : * * * * * * * > * & * & * * * * * : : : , , , , : : : : : : : : : : : : : : : , : : : : : : : : : > * * * : * * * * * & & & * * > : : : : : : : : : : : : , , , , , < , , , , , 1 1 1 1 1 1 1 1 , , , , , , 1 1 2 1 1 1 1 , , , 1 1 1 2 < 2 1 1 1 , , , , , , , , , , , , , , , 2 2 2 2 2 2 2 2 2 2 2 2 2 2 2 2 2 2 2 2 2 2 2 2 2 2 2 2 2 2 < , 2 1 , , , , , < < < 3 , , , , - , , , , , , , , , < 2 2 2 2 < < 2 2 < 2 , , , , : : * * * * * : * * * * * * & & & & & $ & $ $ O O O O O O o o o o o o o X X X o O ; B y.6.1.2.O.-.=.>.>.>.=.=.=.=.=.%.%...{ { { { { { { ..{ { { { { { ",
"{ _ _ _ _ { { ..........%.%.%.%.....>.>.O.{ 6.7.L < o = = o O O O O + O & & & & & & & & & & * * * * * * * * * * : : : , , , , , , , , , : : : : : : , , , , , , , , < < , , , , 2 < 2 < < < < , , , , , , , , , , , , , , , , , 2 2 < < 2 < 2 2 2 2 < < 2 < , , , , , 2 2 2 2 2 2 2 2 2 2 2 2 2 2 2 2 2 1 , , , , , , , , 3 < < , , , , , , , , , , , , : : * * * * * * * * : : * , , , , 1 , , 1 1 1 , , * * : , , * : , , , , 1 1 , , , : : : : : : : : : : : * * * * * * * * : : : : : , , , , , , , , , , , , , , , , , , , , , : : : : , , , , , , 1 , , , : , , , , , , , : : : * * * * > * & * & * * * * * * : : , , , , : : : * * : : : : : : : : : : , : : : : : : : : : > * * * * * * * * * * & * * * : : : : : : : : : : : : : : , , , , < , , , , < , , , , 1 1 1 1 1 1 1 , , , 1 1 1 1 1 1 2 1 , , 1 1 , 2 2 2 1 , : : : , , , , , , , , , , , , , , , < 2 2 2 2 2 2 2 2 2 2 2 2 2 2 2 2 2 2 2 < < 2 2 2 2 2 2 2 < 2 2 1 1 , , , , < < < , , , , - , , , , , , , , , , , , , , 2 2 < < < < < , , , , : * * * * * : * * * * * & & & & & & $ $ $ $ $ O O O O O O o o o o o o X X X o O o 5 L 8...=.-.-.=.>.>.=.=.=.=.=.%.%.%.%...{ { { { { { { { { { _ _ { ",
"_ _ _ _ _ { { { { { ........%.%.=.) %.:.{ 6.y.L 6 $ O = + + & o O O O O $ & & & & = = = & & * * * * * * * * * * * * * * , , , , , , , : , , : : , , , , , , , , < 2 2 2 2 2 < < 2 2 < < , , , , , , , , , , , , , , , , , , , , < < , < 2 2 < < 2 2 2 < 2 , , , , , , 1 2 2 2 2 2 2 2 2 2 2 2 2 2 2 2 2 2 2 2 2 , , , , , , , , 1 1 1 1 , , , 1 , , : : : * * * > > * * * * * * * , , , , , , , , 1 1 , , : : : * * * * : , , , , , , : : : : : , : : : : : : : : : > * * * * * * * * > > : : : : : : : , , , , , , , , , , , , , , : : : , , , , , , , , , , , , , , , , , , , , , : * * * * * * & & & * & & & * * : : , , , , : : * * * * : : * : , , : : : , : > > > > > > > > * * * > > * & > > > * * > > > > : : : > : : : : : : > : : : : , , , , , , , 1 , , , , , 1 1 2 1 1 , , , , , , , , , 1 1 2 1 , , , , , 1 1 , : : : * : , , , , , , , , , , , , , , , , < 2 2 2 2 2 2 2 5 5 0 2 2 2 2 2 2 2 < < 2 2 2 2 2 2 2 2 2 2 2 2 2 1 < < , , , , , , , , , , , , , , , , , , , , , , , , , , , , 3 3 , , , , * * * * * * * * * * & & = & & & & & $ $ O O O O O O O + + + o o o o o o X o o o O q I 8.X.5.=.=.=.=.=.=.=.=.=.%.%.%.%.....{ { { { { { { _ { _ _ { ",
"_ _ _ _ _ { { { { { ........>.%.=._ =.=...7.I 6 O * = o + + o $ O O O $ & & & $ & = = = & * * * * * * * * * * * * * * * , , , , , , , , : : : * , , , , , , , , < 2 2 2 2 < , , 2 2 2 < < , , , , , , , , , 1 1 , , 1 1 , , 1 1 < , , < , , , , 2 2 2 2 < , , , , , 1 1 2 2 2 2 2 2 2 2 2 2 2 2 2 2 2 2 2 < < < , , , , , , , : , , , , , , , , , , , , : : : * : : > * * * * * , 3 , : , , < , , , , , : * * * * * * * , , , , , : : : : : > * : : : : : : : > : : : * * * * * * * * * * * * * : : : : : , , , , , , , , , , , , , : : : : , , , , , 1 , , , , , , , , , , , , , , , * * * * * * * * * * * & & * * : : , , , , : : : : : : : : : : , , : : : : : : > > > > > > > * * > : > * * > > > > > > > > : : > > > : : : : : : > * * : : , : , , , , , , , , , , , 1 1 2 1 , , , , 1 , , , , : , , 1 , , , , , , , , , , , , , , , , , , * * : , , , 1 < < < < , , , 2 2 2 2 2 2 2 5 0 2 2 2 2 2 2 2 < < 2 2 2 2 2 2 2 2 2 2 2 2 2 2 < < , , , , , , , , , , - - , , , , , , , , , , - * , , , , , , , , , , , * * * * * * * * * & & & & & & & $ $ $ O O O O O O O + + + o o o o o o o X X + o $ j 8.8.7.=.-.=.=.=.=.=.=.%.=.%.%.=.....{ { { { { { { { _ ) ) ) ",
"_ _ _ _ _ { { { { { ........%.%.>.=.%...=.K d % O & o o + o o = $ $ $ $ & & & $ $ $ = = & & & & * * * * * * * * * * * * * : , , , , , , : : * * , , , , , , , , < < < , , , , , 2 2 2 2 < , , , , , , , , , 1 1 , , , , 1 1 1 1 , , , , , , , , 2 2 2 < , , , , 2 2 2 2 2 2 2 2 2 2 2 2 2 2 2 2 2 2 2 2 2 2 2 2 , , , , , , , , , : : : : : : : , , , : : : : : > > : : : : * * 3 3 , , , , < 1 , , , : * * * * * * * : , , , , : : : : * * * * : : : : : : : : : : : * * * > : > : : : : > * * : : : : : , , , , , , , , , , , , , : : : : : : : , , , , , , , , : : : : : : : : : : : * * * * * * > * * * & * * * * : , , , , : : : : : : : : , , , : : : , , : : : > > > * * > * > > : : > * > > * * * * > > : > > > > > : : : : : > * * * * : * * , , , , , , , , , , , 1 2 1 , , , , 1 1 , 1 , , , , 1 1 , , 1 1 1 , , , , < , , , : : , , * * : , , , 1 3 < 2 2 3 < < 2 2 5 2 2 2 2 2 2 2 2 2 2 2 2 2 2 2 2 2 2 2 2 2 2 2 2 2 2 2 2 2 2 2 , , , < , , , , , - - - , , , , , , , , , , , * , , , , , , , , , , , , : * * * * = = = = & & & & & & & $ $ O O O + O O + + O O O O o o o o o o X @ o O < c I 8.=.=.1.=.=.=.=.=.>.=.%.%.%.%.....{ { { { { _ _ { ) ) ) ",
"' _ _ _ _ { { { { { ....%...%.%...:._ ..8.h % % = o o + o o = O $ $ & & & & & & $ $ = = & & & & * * * * * * * * * * * * * , , , , , , , : * * * * * * , , , , , < < , , - - , , < < < < < , , - : , , , , , 1 1 , , , , , , , , * - , , , < 2 2 2 2 2 < , , , , 2 2 2 2 2 2 2 2 2 2 2 2 2 2 1 1 2 2 2 2 < , , , , , , , , , , , , , : : : : , , : : : : : : * * * * : : : : : * , , , , , , < 1 1 , , : : : , , : * * : , , : * : : > * * * & & > : : : : : : : : : > * > : : : : : , , , : > * , : : : : : : : , , , , , , , , , : : * * * * : : : : , , , , , : : : * * * * * * * : : * * * : > > > * * * * & * * * : , , , , : : , , , , : : , , , : : : , , : : : : > > * * > > > : : : > * * * * & * & * * : > : > > > : : : : > * * * * * * & * * , , * : , , : , , , 1 2 < 1 , , 2 < 2 1 2 2 , , 2 < 2 1 , , 1 , , : , , , , , * * : , , , , , , , , , , < 2 2 2 2 2 2 5 5 2 2 2 2 2 2 2 2 2 < 2 2 2 2 < 2 2 2 2 2 2 2 2 2 2 2 2 2 2 2 2 2 2 2 2 , , , , , , , , , , , , , : * - , < 2 < * * , , , , , , 3 , , , , * * * * * = * & & & & & & & & $ $ O O O + O O O + O O O O o o o o o o @ X o o o ; B 8.>.=.1.-.-.-.=.>.=.=.%.%.%.......{ { { { _ { { _ _ ) ) ",
"' ' ' ' ' { { O.{ { { ..........>._ 6.8.y ; O O O O + + O O O O $ $ $ $ $ & & $ & $ $ & & & & * * * & * * * & & & & & * * * * * * * * * * * * , * : : * : , , : * * - , , , , , 3 , , , , , , , , , , , , , , , : , , , , : , , , , , , , 1 1 1 < 2 1 1 1 , , : , , , < < 2 , < 2 2 , , 2 2 2 , , , , , , , , 1 , , 1 1 2 1 1 , , : : , : * * : * : : : : : * * : : , , , , , , * , 1 , , , , , , , , , : : : : : : : : , , , , * * * * * * * * * * * * * : : : * * * : : : , , , , , , : * * : : : : : , , , : * : , , , , , , , : > * * * : : , , , , , , , , : : : : * * * : : : : * * * * * * > : : * * * * * * * * * * : , * * * * * * * * : : : : , , , , , : : , : * * > : : * & & * & & > * * * * > * : * > * * * * : , , , , , , : : , * : : * * * , , , , : : * * * , 1 , , 2 2 < < , , 2 2 , , 2 2 , < , , , , , , , , , , , , , , : , , , , , , , , , 2 2 < 2 2 2 < 2 < , < 2 2 < , 2 2 2 < 2 2 2 2 2 2 2 2 2 2 2 2 2 2 2 2 2 2 2 < < < < 2 2 2 < , , , , : , : : : : , , , * , , < , * * , , - - , , , , , , , : * * * * & * & & & & & & & & & & O + + O O O O O O O o O O o + o o o o + o O O ; N X.6.-.*.;.*.=.>.%.%.%.%.....%.%.%...{ { { { _ _ { _ ) ",
"' ' ' ' ' { { O.{ { { ..........:.{  .N % $ O + o o + + O O O O $ $ $ $ $ $ $ $ & $ $ & & & & * * * & * * * & & & & & * * * * * * * * * * * * , * , : * : , , * * * - , , , , , 3 , , , , , , , , , , , , , , , : , , , , , , , , , , , , , , , 1 , , , , , * * , , , < , , , < < < , , < < < , , , , , , , , 1 , , 1 1 2 1 1 , , : : : : * * : * : : : : : * * : : , , , , , , * , 1 1 , , , , , , , , , , : : : : : : , , , , * * * * * * * * * * * * : : : : * * * : : , , , , , , , : * * : : : : : , , , : * : , , , , , , , : > * * * : : , , , , , , , , , : : : * * * : : : : * * * * * * * * : * * * * * * * * * * : , * * * * * * * * : : : : , , , , , , , , : * * * , > * & & * & & * * * * * * * : * * * * * * : , , , , , : : : : * : : * * * , , , , : : * * * , 1 , , 2 2 < < , , 2 2 , , 2 2 , , , , , , , , , , , , : : : : : , , , , , , , , , 2 2 < 2 2 2 < 2 < , < 2 2 < , 2 2 2 2 2 2 2 2 2 2 2 2 2 2 2 2 2 2 2 2 2 2 2 < < < < 2 2 2 < , , , , : : : : > : : , : * * , , , * * , - - - < < , , , , , : * * * * & & & & & & & & & & & & O O O O O O O + + o o O O o o o o o o o X o o O 6 L ..O.*.>.*.=.%.%.%.%.......%.%.%...{ { { { { _ { _ ) "
};
