/* XPM */
static char *ff9a0c0486544fb5ebbd6f02de3d8c8eORjgowJ9O1aIBWWu[] = {
/* columns rows colors chars-per-pixel */
"468 665 256 2 ",
"   c #040101",
".  c #0B0101",
"X  c #0D0108",
"o  c #040407",
"O  c #140101",
"+  c #1C0101",
"@  c #130108",
"#  c #1B0606",
"$  c #240101",
"%  c #2B0101",
"&  c #230309",
"*  c #2C0309",
"=  c #280905",
"-  c #330101",
";  c #3B0101",
":  c #340409",
">  c #3C0309",
",  c #380907",
"<  c #340B0F",
"1  c #430101",
"2  c #4C0101",
"3  c #430309",
"4  c #4C0309",
"5  c #480907",
"6  c #530101",
"7  c #5B0101",
"8  c #530309",
"9  c #5C0309",
"0  c #54090A",
"q  c #590907",
"w  c #530C12",
"e  c #630101",
"r  c #6B0101",
"t  c #63030A",
"y  c #6C020A",
"u  c #640A0A",
"i  c #6B0A0B",
"p  c #660905",
"a  c #730101",
"s  c #7C0101",
"d  c #73020A",
"f  c #7C010A",
"g  c #760908",
"h  c #680912",
"j  c #790413",
"k  c #6B1212",
"l  c #770D20",
"z  c #830101",
"x  c #8B0101",
"c  c #83010B",
"v  c #8C010B",
"b  c #880A08",
"n  c #930102",
"m  c #9C0102",
"M  c #94010C",
"N  c #9B010B",
"B  c #980A09",
"V  c #840212",
"C  c #8C0212",
"Z  c #8A0A17",
"A  c #940113",
"S  c #9C0113",
"D  c #930B14",
"F  c #9D021A",
"G  c #9B0B1B",
"H  c #960819",
"J  c #98121B",
"K  c #8A1214",
"L  c #A30101",
"P  c #AC0101",
"I  c #A3010B",
"U  c #AB010C",
"Y  c #A70A08",
"T  c #B30101",
"R  c #BB0201",
"E  c #B3010B",
"W  c #BB020C",
"Q  c #B80A08",
"!  c #A30213",
"~  c #AB0213",
"^  c #A3021B",
"/  c #AC021B",
"(  c #A80B19",
")  c #B30214",
"_  c #BC0113",
"`  c #B3031B",
"'  c #BC031B",
"]  c #B30A1C",
"[  c #BC0A1C",
"{  c #B50A15",
"}  c #A6121C",
"|  c #B71214",
" . c #991324",
".. c #990C22",
"X. c #A80923",
"o. c #B40323",
"O. c #BC0522",
"+. c #B30C23",
"@. c #BC0B23",
"#. c #B8092A",
"$. c #AB1324",
"%. c #A91528",
"&. c #B3142B",
"*. c #B31A2D",
"=. c #B91728",
"-. c #BB1B32",
";. c #B71932",
":. c #B21432",
">. c #B72231",
",. c #952324",
"<. c #C30202",
"1. c #CB0202",
"2. c #C3020C",
"3. c #CB030B",
"4. c #C80A08",
"5. c #D30302",
"6. c #DB0302",
"7. c #DC0A05",
"8. c #D4040A",
"9. c #DC050A",
"0. c #D40B0B",
"q. c #DC0B0B",
"w. c #D40A04",
"e. c #C30114",
"r. c #CB0115",
"t. c #C3021C",
"y. c #CC041C",
"u. c #CC0A1C",
"i. c #C50B18",
"p. c #D3031C",
"a. c #DB011B",
"s. c #D70618",
"d. c #D71317",
"f. c #CE1212",
"g. c #E30302",
"h. c #EB0402",
"j. c #E30A04",
"k. c #EC0A04",
"l. c #E30B0B",
"z. c #EB0B0B",
"x. c #E7050A",
"c. c #F50807",
"v. c #E60619",
"b. c #EE1010",
"n. c #C40423",
"m. c #CB0523",
"M. c #C30B24",
"N. c #CC0C24",
"B. c #C40C2B",
"V. c #CC0C2B",
"C. c #C8052A",
"Z. c #D30423",
"A. c #D40B24",
"S. c #DB0C24",
"D. c #DB052C",
"F. c #D40C2B",
"G. c #DB0C2B",
"H. c #D80427",
"J. c #C41326",
"K. c #C4132C",
"L. c #C8172A",
"P. c #D3122C",
"I. c #DB122D",
"U. c #D81627",
"Y. c #C90B32",
"T. c #DC0C33",
"R. c #D90936",
"E. c #C81A35",
"W. c #D41433",
"Q. c #DC1333",
"!. c #DD143B",
"~. c #D31C3B",
"^. c #DC1B3C",
"/. c #D71A36",
"(. c #E30323",
"). c #E20B23",
"_. c #E20C2D",
"`. c #EA0729",
"'. c #F30729",
"]. c #E4122C",
"[. c #E8172C",
"{. c #E30C33",
"}. c #EB0C34",
"|. c #E30D3B",
" X c #EC0B3B",
".X c #E70636",
"XX c #F30C34",
"oX c #FC053D",
"OX c #F40B3C",
"+X c #FB0B3D",
"@X c #F80737",
"#X c #E41334",
"$X c #EB1435",
"%X c #EB1B34",
"&X c #E4133B",
"*X c #EB143B",
"=X c #E31B3B",
"-X c #EC1C3B",
";X c #E31B34",
":X c #F21234",
">X c #F3133C",
",X c #FC143C",
"<X c #F41B3C",
"1X c #FB1B3D",
"2X c #F71835",
"3X c #F3152E",
"4X c #C92238",
"5X c #D4233B",
"6X c #D92539",
"7X c #CE222D",
"8X c #EB233C",
"9X c #E72639",
"0X c #F8243C",
"qX c #E82A33",
"wX c #DC211A",
"eX c #DA1B42",
"rX c #D21641",
"tX c #EA0C43",
"yX c #F50544",
"uX c #FC0544",
"iX c #F40B42",
"pX c #FD0B44",
"aX c #FD034B",
"sX c #FE0B4B",
"dX c #F6064A",
"fX c #EC1443",
"gX c #EC1B43",
"hX c #E51842",
"jX c #F41442",
"kX c #FC1443",
"lX c #F41A43",
"zX c #FD1B43",
"xX c #FE144C",
"cX c #FE1B4B",
"vX c #F4184A",
"bX c #FE0351",
"nX c #FE0C52",
"mX c #FB0C54",
"MX c #FF1453",
"NX c #FF1B53",
"BX c #FD1958",
"VX c #EE1B51",
"CX c #D82543",
"ZX c #CD2944",
"AX c #EA2644",
"SX c #FD2343",
"DX c #FE2B44",
"FX c #FE234B",
"GX c #F62646",
"HX c #FE3448",
"JX c #FF2553",
"KX c #ED354B",
"LX c #FF3964",
"PX c #FE5060",
"IX c #BC2243",
"UX c #FF6186",
/* pixels */
"& # # + + $ = , , 3 1 1 2 1 1 1 > : : * * , - ; ; 1 8 8 2 1 ; ; - ; 1 2 2 2 2 6 6 6 2 4 2 ; - % $ $ + + O O O + + $ % % % $ $ $ + + + + + + + + + + + + + + + $ $ $ % % % % % % % % $ $ $ $ $ $ $ % $ $ $ $ $ $ $ $ $ $ $ $ $ $ $ $ $ $ $ $ $ $ $ $ $ $ $ $ + + + + + + + O O O O O O O + + + + + + + O O O O O O + + + O O . . O O O O O O O O O O . . . . . . O O O O O O O + + O + = * = = = = + O + O O O O O O # # # # # # + + + + + + + + + + + + + + + + + $ $ $ $ & & & $ & & & = = % % % % % % : : : : % : % : : : : * = & & & & $ $ $ $ $ % % % % % $ $ + $ $ & $ & & & & & & & & & $ $ $ $ $ # # # # O + $ $ % % % $ $ = = = = $ - 1 ; ; ; , - - ; 1 1 ; ; - % $ $ $ $ % % : - ; ; ; - - - - - - - % % = & $ $ % % $ + O + + # # # # & & $ $ $ $ $ $ & % % % % % % * % % % % % % % % % - % % % % % % % % % % % % % % $ + + + $ $ $ $ $ $ % % % % % % % $ $ $ $ $ $ $ $ $ $ $ $ $ = = % : : : : * * & O .             o o     . O + $ ; 1 2 2 4 3 ; % $ $ $ $ ",
"+ + + O + + $ % ; 1 1 2 2 1 1 1 - - % % % % % - ; 1 2 2 2 1 ; ; ; ; 1 2 2 2 2 6 6 6 2 4 4 1 ; - $ $ $ + + O + + $ % : : - % % % % % % % % $ $ $ $ $ $ $ $ $ $ $ % % % % % % % % % % $ $ $ $ & $ % % % % $ $ $ $ $ % % $ % $ $ $ $ $ $ $ $ $ $ $ $ $ $ $ $ $ $ $ $ $ $ $ $ + + + O + + + + + + + + + + + O O O + + + + + + + O O O O O O O O O O O O O O . . O O O O O O O O O + + + + % $ + + $ $ O O + O O + O O O O O O O O O + O + O + O + O + O + O + O + O + + + + + + + + + + + + $ $ $ $ $ $ $ $ $ $ $ $ $ $ $ $ $ $ $ $ # # + + + + $ $ : : : : : * * * = $ $ $ $ $ $ & & & & + + + + + + + + + + + # + + $ $ % - ; - % % + # # + $ - 1 ; ; , , , - ; 1 5 1 ; - % $ $ + $ $ % % % - - - - : - - - - % % $ = = + + = % $ + O O + + + # # + + + $ + + $ $ & & & & & & & & & & & & % % * % % % % % % % % % % % % % % % $ $ $ + + + + $ $ $ $ $ % % % % % % $ $ $ $ $ $ $ $ $ $ $ $ $ $ $ $ % % % % % % & # O .             o o . . . O $ % ; 1 2 2 5 5 ; % $ $ $ $ ",
"+ + + + + $ $ % ; 1 1 2 2 1 1 ; ; - % % % % % - ; 1 1 2 5 1 ; ; ; 1 2 2 6 6 6 2 6 2 8 4 4 1 1 ; % % $ $ $ $ $ $ % : : - - - - - ; ; ; ; ; ; ; ; ; ; - - - - - - - % % % % - % % % % % $ $ $ $ $ % % % % % % % % % % % % % % % % % % % % % % % $ $ $ $ $ $ $ $ $ $ $ & $ $ + + + + + + $ $ $ $ $ $ $ + + + + + + $ $ $ $ & $ # + + + + + + + + + + + + + O O O O O O . @ # O O # & + $ : % $ $ - % + + + + + + + + + + + + + + + O O O O O O O O O O O O O O O O O O O O O O O O O O + + + + + O O O O O O O O O O O O O O O O O O + + + + $ $ % $ $ $ + + + + + $ $ $ $ $ + + + + + + + + + + + + + + + + + + + $ % - 3 5 0 6 2 ; % + + O O $ - - % $ = = $ % - - - - = $ + + O + + + + $ $ % % $ $ $ $ % $ $ $ + # + O O + # O O O O O O # O O + + + + + + + + + + + + + + + + # + + + + + + + $ $ $ $ + + + + + + + + + + + + + + + + + + + $ + $ $ $ $ $ $ $ $ $ + $ $ $ $ $ $ $ $ $ $ + + + + + $ $ $ $ + # O .             o . . . O + $ - 1 2 2 2 2 1 ; % $ $ $ $ ",
"+ + $ $ $ $ % - ; 1 1 1 1 1 ; ; ; ; - - % % - - ; ; 1 1 ; ; - ; 1 2 2 6 6 6 6 6 6 2 2 2 4 2 1 1 - - % % % % % : : ; ; ; ; ; ; ; 1 1 1 1 1 1 1 1 1 1 1 1 1 1 ; ; - - - - : : : : : % % $ $ $ $ $ % % % % % % % % % % % % % % % % % % % % % = = = % $ $ $ $ $ $ $ & & & & & $ $ $ $ $ $ $ % $ % $ $ $ $ + + + + + = = % % % % & = $ $ $ $ $ $ $ $ $ $ $ + + + + + O . . @ @ # # & = $ % , 3 ; 1 w , % % % $ $ $ $ $ $ $ $ $ $ $ $ + + + + + + + + + + + + + + + + O O + + + + + + + + + + + + + + O . . . . . . . O O O . . . . O + + + $ $ % % % $ $ $ + + + + + + $ $ = = + O O O O O O O O + O + O O O + + + + $ % ; 2 q h i t 1 : $ + O . O + % $ + + + + + $ $ $ $ $ + + O O O O O O + + + + + + + + + + + + O O O . O O O O O . O O . O O O O O O + O O O O O O O O O O O O O O O O O O O + O + + + + + O O O O O O O O O O + + + + + + + + + + + + + + + + + + + + + + + + + + + + + + + O O O O + + + + O . . .   . . . . . . O O O $ % ; 2 2 8 2 2 1 ; % % $ % % ",
"= = = = % % - ; 1 1 2 1 1 ; ; ; ; ; - - % - - - ; ; ; ; ; - - - 2 6 6 6 6 6 6 6 2 2 2 6 8 2 2 1 ; - - - % * : , ; > 1 1 1 1 1 1 1 1 1 1 1 1 1 1 1 1 1 1 1 1 1 ; - - - - - , , , : % % $ $ $ $ $ % % % % % % % % $ $ % % % % % % % % % % % % % % % % $ $ $ $ % $ = = = = = = = $ $ % % % % % % % % % % $ $ + + $ = % % - : - : : - % % % % % - % % % % % $ $ $ + . . . . . . O # = $ - 5 4 1 8 k w ; ; ; - - - % % % % % % % % % % % % % % % $ $ % % % % % % % % $ $ $ $ % % % % % % % % % % % % $ + + + + + + + + + + + + + + + + $ $ % % - - ; - % % % $ $ $ $ % % - , = $ + + + + + + + + + + + + O + + + $ $ % - ; 2 p i d t 1 - + O . . O O + + O O O O + + $ $ $ + + O O O O O O O + + + + O O O + + + + + + O O . . O O O O O O O O O O O O O + + + + + + O O O O O O O O O O + O O O O O O O O + + + O O O O O O O O O O + + + + + + + + + + + + + + + + + + + + + + + + + + + + + + O O . . O O O O O O . . . . . O O O O O O O + % ; 5 2 8 6 2 2 2 ; - % % % % ",
"= = = % - - ; 1 2 2 2 1 1 ; - - - - - : - - - - > > ; ; - - - - 2 6 6 6 6 6 6 6 2 2 2 2 8 8 8 2 1 ; - - - - , - ; ; 1 1 1 1 1 1 1 1 1 1 1 1 1 ; 1 1 1 ; ; ; ; ; - - - - - - , , : % % $ $ $ $ $ $ $ $ $ % % % % $ $ $ % % % % % % % % % % % % % % % % $ $ $ % % & & & & $ % % % % - - - - ; - - - : * = $ $ $ $ $ % - - ; ; ; ; ; - - - - - ; ; - - - % % % % $ .     . . . O + $ % - 1 2 2 6 t 0 1 ; ; ; ; ; - - - - : - - - - - - - - - - - - - - - - - - - - - - - - - - - - ; ; ; ; ; ; ; ; : - : - - - - - % % % % % % % % % - - ; ; 1 2 2 1 1 ; ; - - % % 5 1 1 3 ; % $ % % % = % - - - - % $ $ % % , - - ; 1 2 7 p y d e 2 - $ O . o o . @ + + # $ $ $ % - - % % $ $ + + + + $ $ $ $ $ $ + O + $ $ % $ $ $ + O O O O + + $ $ $ $ $ $ $ $ + + $ $ $ $ $ $ $ + + + + + + + $ $ $ + $ + + + + + + $ $ $ $ + + + + + + + + + + + + + $ $ + + + + $ $ $ $ $ $ + + + + + + + + + $ $ $ + + + O . . . O O O O O . . . . O O + + # O O + $ - 1 4 6 6 6 6 2 2 1 - % % % % ",
"$ = % - - ; 1 2 8 8 2 1 ; - % % - : : : % % - , , > ; - - - ; 1 6 6 7 6 6 6 2 6 6 2 2 6 6 6 6 8 1 ; ; - - - - - ; ; 1 1 1 1 1 ; ; ; ; ; 1 ; ; ; ; ; ; ; ; ; ; ; - - - - - - - - - % % $ $ $ $ $ $ % $ $ $ $ % % $ % % % % % % $ % % % % % % % % % % % $ % % % % $ $ $ $ $ $ $ % - - - ; ; ; ; ; ; ; - % = $ $ $ $ % - ; 1 1 1 ; ; ; ; ; 1 1 1 1 ; ; ; ; - - % $ O . . . . . O + = % - 1 2 6 7 7 8 1 ; 1 ; ; ; - ; > > ; ; ; ; ; ; ; ; ; ; ; ; ; ; ; ; ; ; ; ; ; ; ; ; ; ; ; ; ; 1 1 1 1 1 1 1 1 1 1 1 1 1 1 1 1 1 1 1 1 1 ; ; ; ; 1 1 2 6 7 p t i p 7 6 6 2 2 2 u 7 9 6 2 ; - ; 5 5 5 5 5 4 6 4 1 1 ; 1 5 5 5 5 4 6 6 7 p p r e 5 , $ .       o @ # * : - - - ; 1 1 1 1 ; - - - - - - , ; ; ; - $ $ % - , ; - - : % $ $ $ % % * : - : : : : : : % % % - - - - % % % % $ % % % % % - : % % % % % $ % % % - - : % % % % $ $ $ % % % % % % = % $ $ $ $ $ = = $ = $ $ $ $ + + $ $ $ $ $ $ $ $ $ $ + O O O + + + + + O . . O O + # # # + + $ - ; 2 8 9 9 7 6 6 4 2 ; - - - - ",
"$ = % - - 1 4 8 8 6 2 1 ; - % % $ % % % % % % - > > ; - ; ; 1 4 6 7 7 7 6 6 6 6 2 6 2 6 6 6 6 6 2 1 ; - - - - - ; ; 1 1 1 1 1 ; ; ; ; ; ; ; ; ; ; ; ; ; ; ; ; ; - - - - - - - - - % % $ $ $ $ $ $ $ $ $ % % % % % % % % % % % % % % % % % % % % % % % % % % % % $ $ $ $ % % % % - - - ; ; ; ; ; ; ; - % = $ $ $ $ % ; 1 1 1 1 1 1 1 1 1 1 1 1 1 1 1 3 ; ; - - % # O . . . O O + = - ; 1 6 9 i u 0 1 1 1 ; ; ; ; ; > ; > ; ; ; ; ; 1 1 1 1 1 ; 1 ; ; ; ; ; ; ; ; ; ; ; ; ; 1 1 1 1 1 1 1 1 1 1 1 1 2 2 2 2 2 2 1 2 1 1 1 1 1 1 1 1 2 2 6 7 p y d d d e e 7 7 9 7 r e e t 9 1 1 1 5 5 4 6 6 6 9 9 0 4 4 4 4 4 4 2 8 6 6 7 7 e e 7 2 ; $ .       . O & : 3 3 1 1 4 8 8 8 2 2 2 2 4 1 5 5 5 2 2 1 1 - % , > 3 3 3 > > : - % % : , > > > ; ; ; ; ; - % - - - ; ; ; - - - - - - - - - ; - ; - - - - - % - - - ; : ; ; ; - - - % - : : - % * * - * % % % % * * * = = * * = % $ $ $ = = $ $ % = = $ $ $ + + + $ $ $ + + O O O O + + & = + + $ % ; 4 8 6 9 7 7 6 6 6 4 1 - - - - ",
"$ $ % % - ; 2 0 6 6 8 2 1 - % % $ $ $ $ $ % % % - - - ; ; 1 2 6 7 7 7 6 6 6 6 6 6 6 6 6 6 6 6 6 2 1 ; - - % % % - - ; ; ; ; ; ; 1 3 3 3 1 1 ; ; ; ; ; ; ; ; ; ; - - - - - - - - - % % $ $ $ $ $ % % % % % % % % $ $ $ $ $ $ % % % % % % % % % % % % % % % % % % $ $ $ $ $ % % - - - ; ; ; 1 ; ; ; - - - = $ $ $ % - ; 1 2 2 2 2 2 1 1 1 1 1 1 1 1 1 1 ; ; - - % = + O O + + $ $ % % - 1 4 q u u 4 1 ; ; ; ; ; ; - - - - - - - - - - - - - - - - - - - - - - - - - - - - - ; ; ; > > > ; > 3 3 3 5 2 2 2 2 1 1 1 1 1 1 1 1 1 1 1 1 1 2 6 7 e r d a a d r r e e e d r r y 7 2 1 2 4 4 6 8 6 7 7 7 8 8 8 8 8 4 4 4 8 6 6 7 u e 7 6 2 ; - $ .   . . + * 3 4 4 2 2 6 6 9 9 6 6 6 6 6 6 8 6 6 8 6 2 2 ; - > 3 3 3 3 3 > ; - - ; ; > 3 ; ; ; ; ; ; - - - - - - ; ; ; ; ; ; ; ; ; ; ; ; ; ; ; ; ; ; ; ; : ; ; ; ; ; ; ; ; ; - - - - - : - - : : : : : : - - % % % % % % % % % % % % % % % % % % % % % % % % % % % % % % + + + + + + $ $ + $ % ; 1 2 6 7 7 7 6 6 6 6 6 2 ; ; ; ; ",
"$ $ $ % - ; 2 8 6 6 8 2 1 ; % $ + + + + $ $ % * - - - - ; 1 2 6 7 7 7 6 7 7 q 6 6 6 6 6 6 6 6 6 2 1 ; - % % % % % : - - - - - - ; ; ; ; ; ; - - - - - - - - - - % % - - - - - - % % % $ $ $ $ $ % % % % % % $ $ $ $ $ $ $ $ % % % % % % % % % % % % % % % % % % $ % $ % % % - - - ; ; ; ; ; ; ; ; - - % $ $ $ % - ; 5 2 2 2 2 2 1 1 1 1 1 1 1 1 1 1 ; ; ; - - - = + + $ $ % % % % - - ; ; 1 2 2 1 ; ; - - - - - - - - - - - - - - - - - - - - - - - - - - - - - - - - - - - - - - - - ; ; ; ; ; 1 1 ; ; ; ; ; ; ; ; ; ; ; ; ; ; ; ; 1 2 6 7 r y g g g d d d i i d d r p 9 2 1 2 1 1 1 2 2 2 6 2 2 1 1 1 1 1 1 1 1 2 6 u k i r 7 2 1 ; % $ + O O + % > 1 1 1 1 2 6 6 6 6 6 6 6 6 6 6 6 6 6 6 2 1 - - - ; ; ; > > : - - : ; ; ; ; ; ; ; ; - - - % % % % % - - - - - - - - - - - - - - - - ; - ; - - - - - ; ; ; ; ; - - - - % - % - - - - : : - - : : : : : - : : - - % % - - - - : : : : : : : : % - - - - - - % % $ $ $ $ $ $ $ % % - ; 2 8 6 7 7 7 6 6 6 6 6 6 1 ; ; ; ",
"+ $ $ $ % ; 1 8 8 9 6 2 1 ; - $ + O + + + $ & % % % - - ; 1 8 6 7 7 7 7 7 7 7 7 6 6 6 6 6 6 6 6 2 1 ; - % $ $ $ % % % % % % % % % % : % % % % % % % % % * % % % % % % % - - - - % % % $ $ $ $ $ $ $ % % % % % % % % % % $ $ $ $ % % % % % % % % % $ $ $ $ $ $ $ % % % % % : - - - ; ; ; ; ; ; ; ; - % % $ $ % - > 3 4 4 2 2 2 2 1 1 1 1 1 1 1 1 1 ; ; ; - - - % = $ % - > 3 > ; % % % % - ; ; ; ; ; - - - - - - % % - - - - - - - - - - - - - - - - - - - - - - - - - - - - - - - ; ; ; ; ; ; ; ; ; ; ; ; ; - - ; - - - - - - - % % - ; 1 2 6 7 7 7 7 7 7 7 7 7 p p 7 6 2 1 ; ; ; ; ; ; ; 1 1 1 ; ; ; ; ; ; ; ; ; 1 8 q u u p 7 6 2 2 2 1 ; % $ $ % - ; - - ; ; 1 2 2 2 2 2 2 2 2 2 2 2 2 2 2 1 - % % - - - : : % $ $ % - - - - - - - - % $ $ $ $ $ $ $ $ $ $ $ % % % % % % % % % % % % - % % % % % % % - - - - % % % % % $ $ % % - - - - - - - - - - - - - - - - - - - - - - - - - - - - - - - - - ; ; ; ; - - - * = = $ $ % % - - ; 2 2 6 6 7 7 7 6 6 7 7 7 7 2 1 1 ; ",
"+ + $ $ % - 1 2 6 6 8 8 2 ; - % O O O + + $ $ $ $ $ % - ; 1 2 6 7 7 7 7 7 7 7 7 7 7 6 6 6 6 6 6 2 1 ; - $ $ + + $ $ $ $ $ $ $ $ $ $ $ $ $ $ $ $ $ $ $ $ & & & $ $ $ % % % % - - % % % $ $ $ $ $ $ % % % % % % % % % % % % % % % $ % % % % $ $ $ $ $ $ $ $ $ $ $ $ % % % - : - - - ; ; ; ; ; - - - % % $ $ $ % , 3 5 5 2 1 1 1 1 1 1 1 1 1 1 1 1 ; ; ; - - - - % $ $ % ; 5 w w 3 % % % % - - ; ; ; - - - - - - % % % - - - - - - - - - - - - - - - - - - - - - - - - - - - - ; ; ; ; ; ; ; ; ; ; ; ; ; ; ; ; ; - - - - - - - - % % % % - - ; 1 1 2 2 2 2 2 2 2 2 2 2 2 1 1 3 ; - - - - - ; ; ; ; - - - - - - - ; ; 1 1 2 2 2 2 6 2 2 2 9 h w 3 - $ % - - - % % - ; 1 1 1 1 1 1 2 2 2 2 2 2 2 2 1 ; - - % % : * * $ + + $ * - - - - % % % $ $ + + + + + + + + $ $ $ $ $ $ $ $ $ $ % % % % % % % % $ $ % % % % % % % % % $ $ $ $ $ % % - - - - - - - - - - - - - - - - - - - - - - - - - - - - - - - ; ; ; ; ; ; - , - % % % % - - ; ; 1 2 6 7 7 7 7 6 6 7 7 e e 7 6 2 1 1 ",
"+ + + $ % - ; 2 2 6 6 6 2 1 ; - + O O + + $ $ $ $ $ $ % - ; 2 8 6 6 6 7 7 7 7 7 7 7 7 6 6 6 6 2 2 2 ; - $ + + + + + $ $ + + + + + + + O + + O O O O O O O O O + + $ $ $ $ $ % % * % % % $ $ $ $ $ % % % % % % % % % % % % % % % $ % % % % $ $ $ $ $ $ $ $ $ $ $ % % % % : - - - - ; ; - - - - % % $ $ $ $ $ % - ; 1 1 1 1 ; ; ; ; ; ; 1 ; ; ; ; ; - - - - % % * $ $ % ; 0 w 0 1 ; - % = % % - - - - % % % - % % % % % % - : : - - ; ; ; ; ; ; ; - - - - - - - - - - - ; ; ; ; ; ; ; ; ; ; ; 1 ; ; ; ; ; ; ; ; ; - - - - - - % % * * % % % - - - ; 1 3 1 1 1 1 1 ; ; ; ; ; , , % - - - - - - - - % % % % % % - - - ; ; ; ; ; ; ; ; ; 2 t k h 5 - % % % - % % = % - ; ; ; 1 1 1 1 1 1 1 1 1 1 2 5 1 ; - % % $ $ & + O + $ * * - - - % % = $ $ + + + + + + + + $ $ $ $ $ $ $ $ $ $ $ $ = = & & & $ $ $ $ = = % % % % % % $ $ $ $ $ $ % % % % % - - - - - - - - - - - - - - - - - - - - - - - - - - - ; ; ; ; ; ; ; - - % % % - - ; ; 1 2 6 6 7 7 7 6 6 6 7 7 e e e 9 6 2 1 ",
"+ + + $ % - ; 1 2 2 6 6 2 2 1 ; $ + + + $ $ $ $ + + + $ % - 1 4 6 6 6 7 7 7 7 e e e 7 7 6 6 2 2 2 4 5 ; % $ + + + + + + + + + + + + + + + + + + + + + + + + + + + + + $ $ $ % % * % % % $ $ $ & % % % % % % % % % % % % % % % % % % % % % = % $ $ $ $ $ $ $ $ $ % % : : - - : > - - - , : - % % $ $ $ = * % - ; 3 5 5 1 1 ; ; > ; ; ; ; ; ; ; - ; , , - * * * = $ $ - ; 8 w q 2 ; - % = * * : - - % % % % , % % % - - - : - - - - - - - - - - - - - - - - - - - - - - - - ; ; ; ; ; ; ; ; ; ; ; ; ; ; ; ; ; ; - - - - - - - % % : % % % % % - - - - - - - ; ; ; ; , ; - - , , % - - - - % % - - - - - - - - - : % - , - - - - % % % 1 u k h 2 - $ $ = = % % = = - , , > > 3 5 1 1 1 1 1 1 1 5 5 5 1 ; - - % $ + O O O $ = - - - - - - % = $ $ + + + + + + $ $ & $ $ $ $ $ $ $ $ $ $ $ $ & & & $ $ $ = % $ % - , - * % % $ $ + $ $ % % % % % % % % % % % - - - % - - - - % % - - - - - - - - - - - - - ; ; ; ; - - - - - - - - ; 1 2 6 6 7 7 7 6 6 6 6 7 e e r e 7 8 2 1 ",
"+ + + $ = - ; 1 1 2 2 2 2 2 1 ; % $ $ % % % % & & + + + $ % ; 1 2 6 6 6 6 7 7 e e e 7 7 6 6 2 2 2 2 5 ; % $ $ $ & # # + + + # & % % % % % % % % % % % % % % % % $ $ $ $ $ $ % * % % % $ $ $ & $ $ $ $ $ $ $ $ $ % $ $ $ % % % % $ $ $ $ % $ $ $ $ $ $ $ $ $ $ $ % % - : - - - - : : : : % % $ $ $ $ = * * % - > ; 1 1 1 ; ; - - > > ; ; ; - - : : : % % % $ $ $ $ $ - ; 2 9 8 2 ; - % % = * % : - % % % % % % % % % % - : - - : % = * = * * % = % = * * * * * * % = * * * % % * % % % : : : : : : - - : : : : % % % * * % % = % : : : : % % % % % % % - - - - - - - - - - - - - - - : - % % % - - ; - - - : : * & = = = = $ $ # # + > w h 9 1 - $ $ = = % % % % * : : - ; ; 1 1 2 2 2 1 2 1 4 3 4 2 1 ; - % % $ O O O $ % - ; ; ; - - : % % $ $ + + + + $ $ & $ $ $ $ $ $ $ $ $ $ $ $ $ $ $ $ $ $ $ % % $ % - > , , - % $ $ $ $ $ $ $ $ $ % % % % % % % % % % % % % % % % % % % - - - - - - - % % - - - - ; - - - - - - - - ; ; 2 6 6 7 7 7 6 6 6 6 q q e e r r 7 8 2 2 ",
"$ $ $ $ % - > 5 2 2 2 2 2 1 1 ; , : - - - - : : * $ + + $ % - ; 2 6 6 6 6 6 7 e e e 7 7 7 6 2 2 1 1 3 ; % % $ = = = & $ + & & = - - ; - ; ; - - - - ; - - : % = $ + + + + + $ = & & $ + + + # & + + + + + + + + & $ & + & $ & & + + + + + + + + + + + + + + + + + $ & & % % % & & & & & & + + + + O + & & & $ % % % - % % $ $ $ % % % $ $ $ $ $ & & & + + + + + O + $ $ - 3 3 - % $ $ + + + + + $ + + + + + + + + + $ $ $ $ $ $ + + + + + + + + + + + + + + + + + + + + + + + + + + + + + + + $ $ $ $ $ $ + + + + + + + + + + + & & & $ $ + + + + + + + + $ $ $ $ $ $ $ $ $ $ $ $ $ $ $ $ + + $ % % % $ $ & & # # # # # O O O .   . = 5 w 3 - % + + + & & & & & & & & & % % - - - ; - - - - : : ; - - - % & # O O . O + = % % - % % % % & & & + + + + + # # & & + + + + $ + $ $ $ $ $ $ $ $ $ $ $ $ $ $ + $ % : < : % $ + + + + + + + + + + $ $ $ $ $ $ $ $ $ $ = = % % % % % % - - - % - - - - % % - - - - - - - - - - ; ; ; 1 6 6 7 7 7 7 6 6 6 6 q u e r r r e 6 6 2 ",
"$ % % $ % ; 1 2 2 2 2 2 1 ; - - - - - ; ; 1 1 ; 3 > - % $ $ % - 2 6 6 7 6 6 7 7 e p p p 7 7 7 6 1 ; - % % % % $ $ $ $ $ $ $ $ * - - - ; ; - - - - - ; ; - % + O . . . . . . . . . . . . . . O O . . . . . . . . . . . . . . . . . . . . . . . . . . . . . . . . . . . . . . . . . . . . . . . o . . . . . . . . . . . . . . . . . . . . . . . . . . . . o o . . . . . . O O O O . . . .     . . .       . . . .   . . . . . . . . . . . . . . . . .     . . . . . . . . . . . . . . . . . . . . . .     . . . .                 . . . . .       . . .     . . .     . . . . . . . . . . . . . . . . . . . . o o o       o o o o o o . O O O O . . . . . . . . X . . . . . . . . . . . . . . . . . . . . . . X o o o o o o . . . O O O O O O O . . . . . . O O O . . . . O . O O O O O O O O O O . . . O O O # # O O O O . . . . . . . . . . . . O O O O O O O O O O + $ = % - - - - - - - - - - - - - - - - - - - - - ; ; 1 1 2 q 7 7 7 6 6 6 6 7 7 7 e r r r r e 7 7 7 ",
"% % % % - ; 1 2 2 2 2 1 ; - % % - - ; ; 1 1 2 1 5 1 - - % % - ; 2 6 6 6 7 6 7 7 7 e p e e 7 7 6 1 , - % % % % % % $ $ $ $ $ % % % - - ; ; ; - - - ; ; ; ; % + .                           . . . . o . o . o o o . o . o . o . o o o o o o o o o o o o o o o o o o o o o o o o o o o o o o o o o o o o o o o o o o o o o o o o o o o o o o o o o o o o o o o   o o   o o o o o o                                                                                                                                                                                   o o o o o o o o o o o o o o o o o o   o o o o o       o o o o o o o o o o o o o o o o o   o o o o o o o o o o o o o o o o o o o o o o o o o o o o o o o o o o . . . . . . . . . . . . . . . . . . . . . . . . . . . . . . . . . . . . . . @ @ X X . . o o o                     . . . . . .   . O + $ = % - - - - - - - - - - - - - - - - - - - - ; ; 1 1 2 2 q 7 7 6 6 6 6 6 7 7 e e r r r r r e e e ",
"% % % % - ; 1 2 2 2 2 1 ; - % % % % - ; ; 1 1 5 1 ; ; - - ; ; 1 2 6 6 6 7 7 7 7 7 7 e e 7 7 7 6 3 , - % % % % % = % $ $ $ $ % % % - ; ; ; - - - - ; ; ; ; % + .                                 . . . . . . . . . . . . . . . . . . . . . . . . . . . . . . . . . . . . . . .       . . . . . . . . . . . . . . . . . . . . . . . . . . . . . . . . . .   . . . .   . . . . . . . . . . . . . .   .     . . . .     . . . .     .   .   .   .   .   .   .   . . . . . . . . . . . . . . . . . . . .         . .     .   . .   . . . . .             . . . .                     . . . . . . .     .     .   . . . .     .   . . . . . . . . . . . . . . . . . . . . . . . . . . . . . . . . . . . . . . . . .   . . . . .   . . . . . .   . . .     . . . . . . . . . . . . . . . . . . . . . . . . . . . . . . . . . .                               .         . O + $ = - - - - - - - - - - - - - - - - - - - - - ; ; 1 1 2 2 6 6 6 6 6 6 6 6 7 7 7 e e r r r r r r r ",
"% % % % - ; 1 2 2 2 2 1 ; - % % % % % - - ; ; 1 ; ; ; ; ; 1 4 6 8 6 6 6 7 7 7 7 7 7 7 7 7 7 7 6 3 , - % % % % % = % % % $ $ $ % % - - ; ; - : - - - ; ; ; % + .                                 . . . . . . . . . . . . . . . . . . . . . . . . . . . . . . . . . . . . . . . . .   . . . . . . . . . . . . . . . . . . . . . . . . . . . . . . . . . . .   . .         . . . . . . . . . . . . . . .   . . . . .   . . . . .   .   .   .   .   .       .   . . . . . .   . .     . . . . . . . . . . . . . . . . . . . . . . . . . . . . . . . . . . . . . .       . .         . . . . . . . . . . . . . . . . . . . . . . . . . . . . . . . . . . . . . . . . . . . . . . . . . . . . . . . . . . . . . . . . . . . . . . . .                                     .   .   .   .   .   .   .       . . . . . . . . .                               .           . O + $ = % - - - - - - - - - - ; - - - - - - - - - ; ; 1 1 2 6 6 6 6 6 6 6 6 6 7 7 7 e e e e r r a r r ",
"% % % % - ; 1 2 2 2 2 1 ; - - % = = % % - - - ; - ; ; ; 1 2 8 9 6 6 6 6 7 7 7 7 7 7 7 7 7 7 9 6 3 , - % % % % % = % % % $ $ $ % % - - ; ; - : - - - ; ; ; % O .                                     .   .   .   .   .   .   .   .   .   .   .   .   .   .   .   .                       .                                                                                                                                                                                                                                                                                           . . . . . . .                               . . . . . . . . . . . . . . . . . . . . . . . . . .   .   . .   . . . . . . . . . . . . . . . .                                                                                                                                   O + $ * - - - - - - - - - - - ; - - - - - - - - - ; ; 1 1 4 4 6 6 6 6 6 6 6 6 7 7 7 e e e e e y r r r ",
"% % % % - ; 1 2 6 2 2 2 ; - - % % % % % - - - - - - - ; 1 8 9 t 6 6 6 6 7 7 7 7 7 7 7 7 6 7 6 4 ; - % % % % % % % % $ % $ $ $ % = - ; ; ; ; : % - - ; ; - % O .                                   . . . . . . . . . . . . . . . . . . . . . . . . . . . . . . . . . . . . . . . .   . . . . . . .   . . .   .   . . . . . . . . . . . . . . . . .   . . .   .   .                     . . .   . . . . . .   .   .   . . . . .                   .   .                                           . . . . . . . . . . . . . . . . . . . . . . . . . . . . . . . . .           . . . . . . . . . . . . . . . . . . . . . . . . . . . . . . . . . . . . . . . . . . . . . . . . . . . . . . . . . . . . . . . . . . . . . . . . . . .   . .     . . . . . . . . . . . . . . . . . . . . . . . . . . . . . . . . . . . . . .                                           . + = * - - ; - - - - - - - - ; - - - - - - - - - ; ; 1 1 4 4 2 6 6 6 6 6 7 7 7 7 7 7 e e e e i t e 7 ",
"& % % % - ; 1 2 6 2 2 1 1 ; - % % % % % - - - - % % - ; 1 2 9 t 9 6 6 6 6 7 7 7 7 7 6 6 6 6 8 2 - % % % % % % $ $ $ $ % $ $ $ $ = % - ; ; ; : % - - ; ; - % O .                                 . O O O O O O O O O O O O O O O O O O O O O O O O O O O O O O O O O O O O O O O O O O O O O O O O O O . O . O O O O O O O O O O O O O O O O O O O O O O O O O O O O . . . . . . . . . . O O . . . . O O O . O O O O O O O O O O O . O . O . O O O . O . O . . . . . O O . O . . . . . . O O . O O . . . . . O O O O O O O O O . O . O O O O O O O O . O O O O O O . . . . . O O . . . O O O O O . . . . O O O O O . . O O O O O O O O O O O O O O O O O O O O O O O O O . . . . O . . . O O O O O O O O O O O O O O O O O O O O O O O O O O O O O O O O O O O O + + O O O O O O + O + + + + O + O O + + + + + + + + O O O O O .                                   O + $ % - - ; - - - - - - - - - - - - - - - - - ; ; ; ; 1 1 2 2 6 6 7 7 7 7 7 7 7 e e e e e e u q 6 2 ",
"& % % % - ; 1 2 2 2 2 1 1 ; - % % % % % - % % % % % % - ; 2 9 9 9 6 6 6 6 7 7 7 7 7 6 6 6 2 2 1 - % % % % % % % $ $ $ % $ $ $ $ = % - ; > ; : % - - ; ; - % O .   o             . . . . . . . . O + + + + + + + + + + + + + + + + + + + + + + + + + + + + + + + + + + + + + + + + + + + + + + + + + + + + + + + + + + + + + + + + + + + + + + + O O O O O O O O O O O O O O O O O O O O O O O O + + + + O O + + + + + + + + + + O O O O O O O O O O O O O O O O O O O O O O O O O O O O O O O O O O O O O O O O O O O O O O O O O O O O O O O O O O O O O O O O O O O O O O O O O O O O O O O O O O O O O O O O O O O O O O O O + + + + O O O O O O + + + + + + O O O O O O O O O O O O O O O O + + + + + + + + O O O O + O O + + + # + # + # + # + # + # + # + & $ # + # + # + & # # & & & & # # + & & & & & $ & + # + + + O O .   . . . . . .                   O + $ % - - ; - - - - - - - - - ; - - - - - - - ; ; ; ; 1 1 2 2 6 7 7 7 e e e e e e e e e e p q 5 1 ; ",
"% % % % - ; 1 2 6 6 2 2 1 ; - % - - - - - % % $ $ % % - ; 2 6 6 9 9 7 7 6 6 7 7 7 6 6 6 2 2 1 1 - % % % % % % $ % % % $ $ $ $ $ % % - ; ; ; : - - - ; ; - % O     o           O O + + + $ $ $ + $ $ $ $ $ $ $ $ $ $ $ $ $ $ $ $ $ $ $ $ $ $ & $ & $ $ $ $ $ $ $ $ $ $ $ $ $ $ $ $ $ $ $ $ $ $ $ $ $ $ $ $ $ $ $ $ $ $ $ $ $ $ $ & $ & $ $ $ $ $ $ $ $ $ $ $ $ $ $ + # + # + # + # + # + # + # + $ $ $ + + + + + $ $ $ $ $ $ $ $ + + + + $ $ + + $ $ $ $ + $ $ $ + + + + + + + + + + + + + + + + + + + + + + + + + + + + + + + + + + + + + + + + + + + + + + + + + + + + + + + + + + + + + + + + + + + + + + + + + + + + + + + + + + + + + + + + + + + + + + + + + + + + + + + + + + + + + + + + & + + + + + + + + + + + + + + + + $ $ $ $ $ $ $ $ $ $ $ $ $ $ $ $ $ $ $ $ $ $ $ & $ & $ & $ $ $ & $ & $ $ $ & $ $ $ $ $ $ + + O O . . O O O O O .           o   . O + = % - - - - - - - - - - - - ; ; ; - - - - - - ; ; ; ; ; 1 2 7 7 p e e e r e e e r e r r t 6 1 ; - ",
"% % % % - ; 1 2 6 6 6 2 1 ; - - - ; ; - - % % % $ $ % % ; 1 6 6 7 9 9 7 7 6 6 7 7 7 6 2 2 1 1 ; % % % % % % % % % % % $ $ $ $ $ % % - ; ; - : % - - ; ; - % O .   o o       . O = % % - ; ; ; ; ; ; ; ; ; ; ; ; ; ; ; ; ; ; ; ; ; ; ; ; ; ; ; ; ; ; ; ; ; ; ; ; ; ; ; ; ; ; ; ; - - - - ; ; ; ; ; ; - - ; ; ; ; ; ; ; ; ; ; ; ; ; ; ; ; ; ; ; ; ; ; ; ; ; ; ; ; - - - - - - - - - - - - - - - - ; ; ; ; ; ; ; ; ; ; ; ; ; ; ; ; - - - - - ; ; - ; ; ; ; - ; ; ; - - - - - - - ; - - - - - - - - - - - - - - - - - - - - - - - - - % - - - - - - % % % % % % % % % % % % % % - - - - - - - - - - - - - - - - - - - - - - % % % % - - - - - - - - - - - - - - - - - - - - - - - - - - - - - - - - - - - - - - - - - - - - - - - - - - - - - - - - - - - - - - - - - - - - - - - - - - - - - - - - - - - - - - - - - - - - - % % % $ $ $ $ $ $ + O .           o   . O + = % - - - - - - - - - - - ; ; ; ; - - - - - ; ; ; ; ; ; 1 6 7 7 e e r r r r r r r r r r e 6 1 1 ; ",
"% % % % - ; 2 2 2 6 2 2 1 ; - % - ; ; ; - - % % $ % % % ; 1 2 6 6 7 7 7 7 6 6 6 7 6 6 2 1 ; ; - % $ $ $ % % % % % % % $ $ $ $ $ % % - - ; - - % - - ; ; , % O .   o o       . + - 1 2 6 7 7 7 e 7 7 7 7 7 7 7 7 e e e e e e 7 7 e e e e e e e e 7 7 7 7 7 7 7 7 7 e e e 7 7 7 7 7 7 7 7 7 7 7 7 7 7 7 7 7 7 7 7 7 7 7 7 7 7 7 7 7 7 7 7 7 7 7 7 7 7 7 7 7 7 7 7 7 7 7 7 7 7 7 7 7 7 7 7 7 7 7 7 7 7 7 7 7 7 7 7 7 7 7 7 7 7 7 7 7 7 7 7 7 7 7 7 7 7 7 7 7 7 7 7 7 7 7 7 7 7 7 7 7 7 7 7 7 7 7 6 6 6 6 6 6 6 6 6 6 6 6 6 6 6 6 6 6 6 6 6 6 6 6 6 6 6 6 6 6 6 6 6 2 2 2 2 2 2 2 2 6 6 6 6 6 6 6 6 6 6 6 6 6 6 6 6 6 6 6 6 6 6 6 6 6 6 6 6 6 6 6 6 6 6 6 6 6 6 6 6 6 6 6 6 6 6 6 6 6 6 6 6 6 6 6 6 6 6 6 6 6 6 7 7 6 6 7 6 7 6 6 6 2 2 2 2 2 2 2 2 2 2 2 2 2 2 2 2 2 2 2 2 2 2 2 2 2 2 2 2 6 6 6 2 2 2 2 2 6 6 6 6 2 2 2 2 2 1 1 1 1 1 1 ; ; ; % + O .         . . . O + = % - - - - - - - - - - ; ; ; ; ; ; ; - ; ; ; ; ; ; ; ; 1 6 7 7 e p r r r r r r r r r e 7 6 2 2 2 ",
"% % % % - ; 2 2 2 6 2 2 1 ; - % - ; ; ; - : : * $ % % - - 1 4 6 6 7 7 7 7 7 6 6 6 6 2 1 ; ; - - % $ $ % % % % % % % % $ $ $ + $ $ % - - - - - % - - ; ; - % O .             O $ ; h K V c C A v M M M M M M M M M M M M M M M M M M M M M M M M M M M M M M M M M M M M M M M M S N S A A S S S M M A A M M M M M M N M M M M M A A A A A A A A A A A A A A A A A A A A A A A A A A A A A A A A A A A A A A A A A A A A A A A A A A A A A A A A A A A A A A A A A A A A A A A A A A A A A A A A C C C C C C C C C C C C C C C C C C C C C C C C C C C C C C C C v c v v v v v v v v v v C C C A v v v v v v v v v v v v v v v c v v v v v v v v v v v v v v v v v c c c c c c c c c c c c c v v v v c c v v v v v v v v v v v c c c f f c f f f s s s s s s s s c c c c c c c c c c c c c c c f s s s s c c c c s s s s s s a d d d y e 9 9 4 : + .           . . O + = % - - - - - - - - - ; ; ; ; ; ; ; ; ; ; ; ; ; ; ; ; ; 1 8 9 7 t p r r r r r r r r e e 7 6 6 6 6 ",
"% % % % - ; 2 2 2 6 2 2 1 ; - % - - - - - - - : % % % - ; 1 6 6 6 7 7 7 7 7 7 6 6 6 2 1 ; - - % % % % % % % % % % % $ $ $ $ + + $ % - - - - % % - - ; ; - $ O .           . + % 1 K >.-.=.K.E.N.H.H.H.H.H.H.H.D.D.D.D.D.D.D.D.D.D._._._._._.D.D._._._._._._._._._._._.{.{.{.{.{.{.{.{.{.{.{._._._._._._.D.D.D.D.{.{.{.{.{.{.{.{.{.{.{.{.{.{.D.{.{.{.{.{.{.{.D.{.D.D.D.D.D.D.D.D.{.D.D.D.D.D.{.T.T.R.R.R.R..X.X.X.X.X.XR..X.XR.R.R.T.T.T.T.T.T.T..XR..XR..XR.R.R..XR.R.R.R.R..XR.R.R..XR.R.T.R.R.R.R.R.R.R.R.R.R.R.R.R.R.R.R.R.R.R.R.R.R.R.R.R.R.R.R.R.R.R.R.R.R.R.F.D.D.D.D.F.D.D.D.D.D.D.D.D.D.D.D.D.D.D.D.D.D.D.D.D.D.D.D.D.D.D.D.D.D.D.D.D.D.D.D.D.D.D.D.D.D.D.H.H.H.H.H.H.H.Z.Z.H.H.H.D.D.T.D.D.D.H.H.H.H.H.H.H.H.H.H.H.H.H.C.V.V.C.C.C.C.C.C.C.C.C.C.C.C.C.m.m.m.m.m.m.C.C.m.m.m.m.m.m.C.C.C.n.C.n.C.m.m.m.n.n.n.n.n.n.' O.o.o.X.F ..Z h 3 $ O         . . . O + = % - - - - - - - - - ; ; - - - ; ; ; ; ; ; ; ; ; ; ; ; 1 2 6 9 u p e e e r r r r e e 7 6 7 7 7 7 ",
"% % - - - 1 4 2 6 6 6 2 1 ; - % % % - - - - : : % % - - ; 2 6 6 6 7 7 7 7 7 7 6 6 6 2 1 ; - - % % % % % % % % * % $ $ $ $ $ + + $ % - - - - % % - - ; ; - $ O .           . + - 6 V -.KXGX-X>XlX+XpXpX+X+X+XpXpXpXpXpXkXkXpXpXpXpXpXpXpXpXpXpXpXoXoXoXuXuXuXuXuXpXpXpXpXpXpXpXpXpXpXpXpXpXpXpXpXpXpXpXpXpXpXpXpXpXpXpXpXpXpXpXpXpXpXpXpXuXuXuXuXuXuXuXuXuXuXuXuXuXuXuXuXuXuXuXuXuXuXuXuXuXuXuXuXuXaXaXaXaXsXsXsXsXsXsXsXsXaXaXuXsXsXsXsXsXsXsXsXsXsXsXsXsXsXsXsXsXaXaXaXaXaXaXsXaXaXuXuXuXuXuXuXaXaXaXaXaXaXaXaXaXaXaXaXaXaXaXaXaXaXaXaXaXaXaXaXaXaXaXaXaXaXaXaXuXpXuXuXpXpXpXuXuXuXuXuXuXuXuXuXuXuXuXuXuXuXuXuXuXuXuXuXuXuXuXuXuXuXuXuXuXuXuXuXuXuXuXuXuXuXuXuXpXuXuXuXuXoXoXoXoXoXuXpXpXxXxXxXxXsXpXpXpXpXpXpXpXpXpXpXuXuXuXyXiXiXiXiXyXiXiXiXyXiXyXiXyXyXyXOXyXyXyXyXyXyXyXyXyXyXyXyXyXyXyXiXiXOXOXOX+XOXOXOXOXOXOXOXOX X X X.X|.|.!.E.:.j 1 % O .       . . . O + = % - - - - - - - - - ; ; - - - ; ; ; ; ; ; ; ; ; ; ; ; ; 1 8 9 9 e e e e r r r e e 7 6 6 7 e e p ",
"% % : - - 1 4 2 6 6 6 2 1 ; - % % % % % % : : : % - - - ; 2 6 6 7 7 7 7 7 e 7 7 7 6 2 1 ; - % % $ % % % % % % % % $ $ $ $ $ + + $ % - - - - : % - - ; ; , $ O .           . + - 7 c #.AXJXzX,XpXsXsXsXsXaXaXaXaXnXnXnXnXnXnXnXnXnXaXaXaXaXaXaXaXaXaXaXaXaXaXaXaXaXdXdXaXaXaXaXaXnXnXsXsXaXaXaXaXaXaXaXaXaXaXaXaXaXaXaXaXaXdXaXaXaXaXaXaXaXaXaXaXaXaXaXaXaXaXaXaXaXaXaXaXaXaXaXaXaXaXaXaXaXaXaXaXaXaXaXaXdXaXaXaXaXaXaXaXdXdXaXaXaXsXsXsXsXsXsXsXuXuXuXuXuXuXuXuXdXaXuXaXuXaXaXaXaXaXuXaXaXaXaXaXaXaXaXaXaXaXaXaXaXaXaXaXaXaXaXaXaXaXaXaXaXaXaXaXaXaXaXaXaXaXaXaXaXaXaXaXaXaXaXaXaXaXaXaXaXaXaXaXaXaXaXaXaXaXaXaXaXaXaXaXaXaXaXaXaXaXaXaXaXaXaXaXaXaXaXaXaXaXaXaXaXaXaXaXaXaXaXaXaXaXaXaXnXnXmXMXnXnXnXnXnXnXsXsXaXaXaXaXaXaXaXaXaXaXaXaXaXaXaXaXaXaXaXaXaXaXaXaXaXaXaXaXaXaXaXaXaXaXaXaXaXaXaXaXaXaXaXaXaXaXaXaXaXaXaXaXaXaXdXdXpXoXoXiXhX#.V 2 - + .         . . O + = % - - - ; - - - - - - - - - ; ; ; ; ; ; ; ; ; ; ; ; ; ; 1 2 2 6 7 e e r r r r e 7 6 6 6 e e e e ",
"% : - - - 1 4 2 6 6 6 2 1 ; - % % $ $ % % : , : % - - - ; 2 6 7 9 7 6 7 7 e e e 7 6 2 1 - % $ $ $ % % % % $ % % $ $ $ $ $ $ + + $ % - - - - - % - - ; ; , = O .           . + - 7 v B.fXNXJXkX@XpXsXdXdXdXdXdXdXdXdXdXdXdXdXdXdXdXdXaXaXdXyXyXyXaXaXaXaXaXaXaXaXdXdXdXdXdXsXsXsXaXaXaXdXaXdXdXaXdXdXdXdXdXdXaXdXdXdXdXdXdXdXdXdXaXaXaXaXaXdXdXdXdXdXdXdXdXdXdXdXaXaXaXaXaXaXaXaXdXdXdXaXaXaXaXaXdXyXyXuXuXpXpXpXpXpXpXpXpXuXuXuXyXyXyXyXyXyXyXiXyXyXyXyXyXyXyXyXuXuXuXyXyXuXuXuXpXpXpXuXuXuXuXuXuXuXuXuXuXuXuXuXuXuXuXuXuXuXuXuXuXuXuXuXuXuXuXuXuXuXuXaXuXaXuXaXdXaXaXaXaXaXaXaXaXaXaXaXaXaXaXaXaXaXaXaXaXaXaXaXaXaXaXaXaXaXaXaXdXdXdXdXdXdXdXdXaXaXaXaXaXaXaXaXaXaXaXaXdXdXdXdXaXdXaXaXaXaXaXaXaXaXaXdXdXdXdXdXdXdXdXdXaXaXaXaXaXaXaXaXaXaXbXbXaXaXbXbXaXaXaXaXaXaXaXaXaXaXaXaXaXaXaXaXaXaXaXaXaXbXbXbXbXaXaXaXbXbXbXbXbXbXbXaXpXoXoXuXjXY.C 7 - + .           . O + = % - - ; ; ; - - - - - - - - ; ; ; ; ; ; ; ; ; ; ; ; ; ; 1 1 1 2 6 7 p p e r r e 6 6 6 7 7 7 7 7 ",
"% % - - - ; 2 6 6 6 6 2 1 ; - % % % $ % % - ; ; - - % % - 1 6 7 6 6 7 7 7 e e r e e 6 1 - $ + $ $ % % % % % $ $ $ $ $ $ $ $ $ $ $ % - - - - % = % - ; ; : & O           . O O % 6 c F.pXdXMXJXzX,X+X+X+X+XiXiXpX+X+X+X+X+X+XOXOXOXiXpXpXiXOX+X+XoXoXOXOXOXOXOXOXOXOXOXOX+X+XpX+XpXpXpXpXpXiXpXiXiX+XiX+XiX+XiX+X+XOXOXOXiXOXiX+X+X+X+X+X+X+XOX+XOXOXOXOXOXOXOXOXOXOXOXyXiXOXOXOXOXOX@X@XiXiXyXiXOXOXOXOXOXOXOXOX+X+X+X+X+X+X+X+XOXOXOXOXOXOXOXOXOXOXOXOXOXOXOXOX+X+X+X+X+X+X+X+XOXOXOXOXOXOXOXOXOXOXOX@X@XOX@XOXOXOXOXOXOXOX+XOXOXOXoXOX+XOX+XOXoXOXoXOX+XOX+XOX+XiXiXiXiXiXiXiXiXiXiXyXyXyXyX+XyXoXoXoXuXyXyXyXiXiXOXOXOXoXoXoX+XOX@X+X+X@XoX+XoX+X+XoXoXoXoX+X+XOX+X+X+X+XoXoXoXoXoX+X+X+X+XoXoXoXuX+XpXoXoXoXoXoXoXoXoXoXoXoXoXoXoXuXuXuXuXuXuXaXaXdXaXuXuXuXuXuXuXuXaXdXaXdXuXuXuXuXuXuXuXuXaXaXbXbXbXbXbXbXbXbXbXbXbXbXbXaXOXpXaXaXsXR.v 7 - + O . . .     . O + = : - ; ; ; ; - - - - - - ; ; ; ; ; ; ; ; - ; ; ; - - ; ; ; ; ; ; 1 2 8 9 p p e 7 7 7 7 7 7 7 6 6 ",
"% % - - - ; 2 6 6 6 6 2 1 ; - % % % $ $ % - ; ; - - % % - 1 7 7 6 6 6 7 7 e r r e 7 6 1 % $ O O $ % % % % & $ $ $ + $ + + $ $ + $ $ % % % % % $ % % - - * $ .           . O O $ 6 x D.aXaXnXlX_.}._.G.G.G.G.T.G.D.D.D.D.D.G.G.G.F.F.G.G.D.H.D.D.D.D.G.T.F.F.F.F.H.F.H.H.D.D.D.D.H.H.D.D.F.H.H.H.D.D.D.D.D.D.D.D.D.G.G.G.G.G.D.G.G.G.H.G.G.G.G.F.G.F.F.F.G.F.G.F.F.F.F.F.F.F.F.H.G.G.H.Z.G.F.H.R.H.A.G.F.G.F.G.F.G.F.G.F.G.F.G.F.G.F.G.A.G.A.H.F.H.F.G.A.F.F.G.G.G.G.D.H.G.G.G.G.D.G.D.G.G.G.G.G.G.F.G.F.H.F.D.F.G.F.G.F.G.F.G.G.G.H.D.H.D.F.D.F.D.G.D.G.G.G.G.G.D.D.D.D.D.D.D.D.T.T.T.T.G.G.G.G.D.G.D.D.D.D.D.F.R.W.W.F.F.F.D.D.G.H.H.F.G.G.G.G.D.G.D.G.D.H.D.D.G.D.D.D.D.D.D.D.{._.T._.{._.{.{.{.{.{.{.{.T.T.T.{.{.{.{.}.}.}.}.}.{.}.}. X X X.X|.tXtXtX|..X X X X|.|.|.tXtXtXtXtXtXtX X X X X XtXtXtXtXtXtXtXtXtXtXtXtXtXtXiX X_.>XaXaXnXR.v 7 % + O . . .     . O + = : - ; ; ; ; ; - - - - - ; ; ; ; - - ; ; ; ; ; ; ; ; ; ; ; ; ; ; ; 1 2 6 q 7 e 7 7 7 7 7 7 6 6 6 ",
"% % - - - ; 2 2 6 6 6 2 1 ; - % % % % % % - ; ; - : % % - 1 7 7 6 6 6 7 7 7 e e e 9 2 ; % $ O O $ $ $ $ $ $ + + + + + + + $ $ $ $ $ % % % % $ $ $ % - - % + .           . O O $ 6 x D.aXaXdX}.e.U I N M M M A M M M N M M M M M v v M M M M M M M A A A M v v M M M M M N N S S S S S S S S A A M M N M N M M M N M N M A A A M M M M M M M M M M M M M M M M M M M v M M v M M N N n n M M v A M M M M M M M M M M M M M M M M M M M M M M M M M M M M M M M M M M M M M M M M M M M M M M M M M M M M M M M M M M M M M M M M M M M M M M M M M M M M M M M M M M M M M M M M S S S A A A S M M M A M M M A C c c v c x x M M M c x x v M M M M M A M M M M M A N S N S S S N S S S S S S ! ! ! ! ! ! S S S S S S ! ! ! ~ ~ ~ ! ! ~ ~ ~ ! ! S F F F ^ ^ ^ ^ ^ ^ ^ S S F F F F F F ^ ^ ^ ! ^ ! ~ U ~ ) ) ) ) ~ ) ~ ~ ) ) ) _ e.p. XaXaXsXR.v 7 % + O . O .     . O + = : - ; ; ; ; ; - - - - - ; ; - - - - - ; - - ; ; - ; ; ; ; ; ; ; ; ; 1 2 6 7 7 7 7 e 7 7 6 6 6 6 ",
"% % - - - ; 2 2 6 6 6 2 1 ; - % % % % % % - ; ; - : % % - 1 7 7 6 6 6 6 7 7 7 7 7 6 1 ; % + + + + + + + + + + + + + + + + + + + + + $ % % $ $ $ $ $ % % $ + .           . O O $ 6 x D.aXbXdX{._ x s a r r r r r r r r r r r e e e e e e e e r r r r r r e e e r d a a a a s s s s s d d a r r r a a a a a a a r a a a r r r r r r a r r r r r r r r r r r r r r r r e e e e r r a s a r r r e r r r r r r r r r r r r r r r r r r r r r r r r r r r r r r r r r r r r r r r r r r r r r r r r r r r r r r r r r r r r r r r r r r r r r r r r r r r r r r r r r r r r r r r r r d d r r r r a r r r r r r r r e 7 e e e e e a d d e e e r r r r r r r r r r r r r r d a d a d a d a d d d d d s s s s d a a a a a a d s s s c c z z z z c s s a r r r d d s s s a a r r r r r r r r r a a a a a s s s z z z z s s s s s z z x m e..XaXaXaXR.M 7 - + O . O .     . O + = : - ; ; ; ; - - - - - - ; ; ; - - - - - - - - - - - ; ; ; ; ; ; ; ; 1 2 6 7 7 e e e 7 7 6 6 6 6 ",
"% % - - - 1 2 2 6 6 6 2 1 ; - % % % % % % - ; ; - - % % - 1 6 7 6 6 6 6 6 6 6 6 6 1 - % $ + O O + + + + + + + O O O + + + + + + + + $ $ $ $ + + + $ $ $ $ O             . O O $ 6 x D.aXbXdX}.) s e 7 7 6 6 6 6 6 6 6 6 6 6 2 2 2 2 2 2 2 2 6 6 6 6 6 6 6 2 6 6 e e e e e e r r e e e 7 7 7 7 7 7 7 7 7 e 7 7 7 7 7 7 7 7 7 7 7 7 7 7 7 7 7 7 7 7 6 7 6 6 6 6 6 6 6 6 6 6 6 6 7 e p r 7 7 7 6 9 7 7 6 6 6 7 7 7 7 7 7 7 7 7 7 7 7 6 6 7 6 6 6 6 7 7 7 6 6 6 7 7 7 7 7 7 7 7 6 6 7 7 7 7 7 6 7 6 6 6 6 6 6 6 6 6 6 6 6 6 6 6 6 6 7 7 7 7 7 7 7 7 7 7 7 7 7 7 7 7 7 7 7 7 7 7 7 7 7 7 7 7 7 7 7 7 7 7 7 7 7 7 7 7 6 9 7 7 7 e r g y e 7 7 e e 7 7 7 7 7 7 7 7 7 7 7 7 7 7 7 7 7 7 7 7 7 7 7 7 e e e e e e 7 7 7 7 7 7 e e r r y d a a a a a r e 7 6 6 6 7 e e e e 7 7 6 6 6 6 6 6 6 6 6 7 7 7 7 7 7 7 7 e e e e e 7 7 7 e e r a z E .XaXaXaXR.M 7 - + O . O .     . O + = : - ; ; ; ; ; - ; ; - - ; ; - - - - ; ; - - ; ; ; ; ; ; ; ; ; ; ; 1 1 2 6 7 e e e 7 7 6 6 6 7 7 ",
"% % % - ; 1 2 6 6 6 6 2 1 ; - % % % % % % - ; ; - - % $ - 1 6 7 6 6 6 6 6 6 6 2 1 ; % $ + + + + + + + + + + + + + + + + $ $ $ $ + $ $ % % % $ $ $ $ % % % + .           . O O $ 6 x D.aXaXdX{.) a 7 6 2 1 1 1 1 1 1 1 1 1 ; ; ; ; ; ; ; ; ; 1 1 1 1 1 1 1 1 1 1 6 6 6 6 6 7 7 6 7 6 6 2 2 2 2 2 2 2 2 2 2 2 2 2 2 2 2 2 2 2 2 2 2 2 2 2 2 2 2 1 2 2 2 1 2 1 1 1 1 1 1 1 1 1 2 2 6 q q 6 2 2 1 2 2 2 2 1 2 2 2 2 2 1 2 1 2 1 2 1 2 2 2 1 2 1 2 1 2 2 2 2 2 1 2 2 2 1 1 1 1 1 2 1 2 2 2 2 2 2 2 1 1 1 1 1 1 1 1 1 1 1 1 1 1 1 1 1 2 2 2 2 2 2 2 2 2 2 2 2 2 2 2 2 2 2 2 2 2 2 2 2 2 2 2 2 2 2 2 2 2 2 2 2 2 2 2 2 2 2 2 2 6 7 r i 7 6 6 2 6 6 2 2 2 2 2 2 2 2 2 2 2 1 2 1 1 1 1 2 2 2 2 2 2 2 6 6 6 6 6 6 2 2 2 2 2 2 2 6 6 7 7 7 e e e e e 7 6 2 1 1 1 1 2 6 6 6 2 2 1 1 1 1 1 ; 1 1 1 1 1 1 1 1 1 1 1 2 2 2 2 2 2 2 2 6 6 7 e s E .XaXaXaXR.M 7 - + O O O .     . O + = : - ; ; ; ; ; ; ; ; - - ; ; - - - ; ; ; - - ; ; ; ; ; ; ; ; ; ; ; 1 1 2 6 7 e e e 7 7 6 6 6 7 7 ",
"% % % - ; 1 2 6 6 6 6 2 1 ; - % % % % % % - ; ; - % % $ - 1 6 7 6 6 6 6 6 2 2 5 ; - % $ $ & & & $ $ $ $ $ $ $ $ $ $ $ = = = * * = = - : - - = = = % - : * & O           . O O $ 6 x D.dXaXdX{.) a 7 6 2 2 1 1 1 1 1 1 1 1 ; ; ; ; ; ; ; ; ; 5 5 1 1 1 1 1 1 1 2 6 7 7 7 7 7 9 9 6 2 2 2 2 1 2 2 2 2 6 2 2 2 2 2 2 2 2 2 2 2 2 2 2 2 2 2 2 2 2 2 2 2 2 1 2 1 2 1 2 1 1 1 1 1 2 2 6 i i 7 6 2 2 2 2 2 2 2 2 2 2 2 2 2 2 2 2 2 2 2 2 2 2 2 2 2 2 2 2 2 2 2 2 2 2 2 1 1 1 1 2 2 2 1 2 2 2 2 2 2 2 2 2 2 1 1 1 1 1 2 2 2 2 2 1 2 2 2 2 2 2 2 2 2 2 2 2 2 2 2 2 2 2 2 2 2 2 2 2 2 2 2 2 2 2 2 2 2 2 2 2 2 2 2 2 2 1 1 1 1 1 2 6 7 p k 9 2 2 2 8 2 2 2 2 2 2 2 1 1 2 2 2 2 2 2 2 2 2 2 2 2 2 2 2 2 2 8 6 6 6 6 6 6 6 2 2 2 2 6 6 6 7 7 e e e e e e 7 6 1 1 1 1 2 6 6 6 6 2 1 1 ; ; ; ; ; ; ; 1 1 1 1 1 ; > 3 3 3 3 3 3 3 1 1 1 2 6 9 d ) .XaXaXaXR.M 7 - + O O O .     . O + = : - ; ; ; ; ; ; - - ; ; ; ; ; ; ; ; ; ; ; ; ; ; ; ; ; ; ; ; ; ; ; ; 1 2 6 7 p e e 7 7 6 7 7 7 7 ",
"% % % - ; 1 2 6 6 6 6 2 1 ; - % % % % % % - ; ; - % % $ - 1 6 7 6 6 6 6 2 2 2 3 % $ $ $ $ = & & $ $ $ $ $ $ $ $ $ $ % % % % % % = * : - - - % % % % - - % $ .           . O O $ 2 x R.aXaXdX{.) a 7 2 2 1 ; ; ; ; ; ; ; - - - - - - - - - - ; > ; ; ; ; ; ; ; 1 6 6 6 6 6 6 6 6 2 2 2 1 1 1 1 1 1 2 2 1 1 1 1 1 1 1 1 1 1 1 1 1 1 1 1 1 1 1 1 1 1 1 ; ; ; ; ; ; 1 ; ; ; ; ; 1 1 6 p p 7 2 1 ; ; 1 1 1 1 1 1 1 1 1 1 1 1 1 1 1 1 1 1 1 1 1 1 1 1 1 1 1 1 1 1 1 1 ; ; ; ; 1 1 ; ; 1 1 1 1 1 1 1 1 1 1 1 1 1 1 1 1 1 1 1 1 ; ; 1 1 1 1 1 1 1 1 1 1 1 1 1 1 1 1 1 1 1 1 1 1 1 1 1 1 1 1 1 1 1 1 1 1 ; ; 1 1 1 ; ; ; ; ; ; 1 2 9 i k 2 1 1 1 1 1 1 1 1 ; ; ; ; ; ; ; 1 1 1 1 1 1 1 1 1 1 1 1 1 1 1 1 2 2 2 2 2 2 1 1 2 2 2 2 2 2 6 6 7 7 7 7 7 7 6 6 1 ; ; ; 1 2 2 2 2 1 ; ; - - - - - - - - ; ; ; ; ; : : > > > > > 3 > 3 3 4 8 9 d ~ {.aXaXaXR.M 7 - + O O O .     . O + = : - ; ; ; ; ; ; - - - ; ; ; ; ; ; ; ; ; ; ; ; ; ; ; ; ; ; ; ; ; ; ; 1 2 6 7 e e e 7 7 6 7 7 7 7 ",
"% % % - ; 1 2 6 6 6 6 2 1 ; - % % % % % % - ; ; - : % $ - 1 6 7 6 8 6 8 6 2 5 > % $ $ $ & & & % % % $ $ $ $ $ $ $ % % % % - : - - - ; ; ; ; - - - - ; > : & O .         . O O $ 6 x R.aXbXdX}.~ a 6 2 1 ; - - - - - - - % % % % $ % % % % - , , - - - - - ; ; 1 2 6 6 6 2 2 2 2 1 1 1 1 ; ; ; ; ; 1 1 1 ; ; ; ; ; ; ; ; ; ; ; ; ; ; ; ; ; ; ; ; ; ; ; ; ; ; ; ; ; ; - - - - ; 1 2 q u 7 2 1 ; ; ; ; ; ; ; ; ; ; ; ; ; ; ; ; ; ; ; ; ; ; ; ; ; ; ; ; ; ; ; ; ; ; ; ; ; ; ; ; ; ; ; ; ; ; ; ; ; ; ; ; ; ; ; ; ; ; ; ; ; ; ; ; ; ; ; ; ; ; ; ; ; ; ; ; ; ; ; ; ; ; ; ; ; ; ; ; ; ; ; ; ; ; ; ; ; ; ; - ; ; ; ; ; ; - ; ; ; 2 q u 9 1 ; ; ; ; ; ; ; ; ; ; - - - - - ; ; ; ; ; ; ; ; ; ; ; ; ; ; ; ; 1 1 1 1 1 1 1 1 1 1 1 1 1 1 1 2 6 6 6 6 6 6 6 2 5 1 ; - ; 1 3 1 ; ; ; - - % % % % % % % % - - - - - ; ; ; ; ; ; ; ; 1 1 2 6 e d ~ {.aXbXdXR.v 7 - + O O O .     . O $ = : ; ; ; ; ; ; ; ; ; ; ; ; ; ; ; ; ; ; ; ; ; ; ; ; ; ; ; ; ; ; ; ; 1 1 2 9 7 e e 7 7 7 7 7 7 6 7 ",
"% % % - ; 1 2 6 6 6 6 2 1 ; - % - % % % % - ; ; - : % $ - 1 6 7 6 8 6 6 6 2 5 > % $ + + & & & % % % % % % % % % % % % % - - - ; - - ; ; ; ; ; - - ; ; > : % + .         . O O $ 6 x R.aXbXdX}.~ r 6 1 1 ; - - - * * * % % % $ $ $ % = $ % * * - % - - - - ; ; 1 2 2 2 2 2 2 1 1 ; ; ; ; ; ; ; ; ; ; ; ; ; ; ; ; ; ; ; ; ; ; ; ; ; ; - - - - - - ; ; ; ; - - - - ; - - - % - - ; 2 q u q 2 1 ; - ; ; ; ; ; ; ; ; ; ; ; ; ; ; ; ; ; ; - - ; - ; ; ; ; ; - - - - - - - - - - - - - ; ; ; ; ; ; ; ; ; ; ; ; ; ; ; ; - ; ; ; ; - - - ; ; ; ; ; ; ; ; ; ; ; ; ; ; ; ; ; ; ; ; ; ; ; ; ; ; ; ; ; ; ; ; ; ; ; ; ; ; ; ; ; ; ; ; 2 7 i t 1 ; ; ; ; ; ; ; ; ; ; - - - - - ; ; ; ; ; ; ; ; - ; - ; ; ; ; ; ; ; ; 1 ; ; 1 1 ; ; ; 1 1 1 1 1 2 6 8 8 8 8 2 2 5 3 ; - - ; > ; ; ; ; - % % $ $ & & & $ % % % % - - - ; ; ; ; ; ; ; 1 1 2 6 7 a U {.aXbXdXR.M 7 - + O O O .     . O $ = - ; ; ; ; ; ; ; ; ; - ; ; ; ; ; ; ; ; ; ; ; ; ; ; ; ; ; ; ; ; ; ; ; 1 2 9 7 e e 7 7 7 7 7 7 6 6 ",
"% % % - ; 1 2 6 6 6 6 2 1 ; - % - % % % - - ; ; - : $ $ - 1 6 7 6 6 6 6 6 2 4 > % $ + + $ $ % % % % % % % % % % % % - - - - - ; ; ; ; 1 1 ; ; - ; ; 1 3 : % + .         . O O $ 6 x R.yXbXdX}.~ r 6 2 1 ; - - - * % % % % % % % % % % $ % - - % % % - - - ; 1 5 2 2 2 2 2 2 1 1 ; ; ; ; ; ; ; ; ; ; ; ; ; ; ; ; - - - - - - - ; ; ; ; ; - - - - - - - - - - - - ; - - - % - - ; 2 7 i u 6 1 ; - ; ; - - - ; ; ; ; ; ; ; ; ; ; ; - - ; ; ; ; ; ; ; - - - - - - - - - - - - - - - ; ; ; ; ; ; ; ; ; ; ; ; ; ; ; ; ; ; ; ; ; ; ; ; - ; ; ; ; ; - - ; ; ; ; ; ; ; ; ; ; ; ; ; ; ; ; ; ; ; ; ; ; ; ; ; 1 1 1 1 1 ; ; ; 1 1 1 6 p y t 2 1 1 ; 1 1 ; 1 1 1 1 ; ; ; ; ; ; ; ; ; ; ; ; ; ; ; ; ; ; ; ; ; ; ; ; ; ; ; ; ; ; ; ; ; ; 1 1 1 1 2 8 8 8 6 8 2 2 3 ; - - - ; ; ; ; ; - % % $ $ & & & & % % % % % - - - ; ; - - - ; ; 1 2 6 7 a U {.aXbXdXR.M e - + + O O .     . O $ = - ; ; ; ; ; ; ; - - ; ; ; ; ; ; ; ; ; ; ; ; ; ; ; ; ; ; ; ; ; ; ; ; 1 2 6 9 7 7 7 7 7 6 6 6 6 6 ",
"% % % - ; 1 2 6 6 6 6 2 1 ; % % % % % % - - ; ; - : $ $ - 1 6 6 6 6 6 6 6 6 2 3 % $ + + $ $ % % % % % % % % % % % % - - - - - ; - ; ; 1 1 ; ; - ; ; 1 1 : % + .         . O O $ 6 x R.yXbXdX}.~ a 6 2 1 ; - - - % % % % % % % % % % % % % - - % % - - ; ; 1 1 2 2 2 2 2 2 2 1 1 ; ; ; ; ; ; ; ; ; ; ; ; ; ; ; - ; ; - ; ; ; ; - ; ; ; ; - ; - - - - - - - - - - ; - - % * % - 1 2 7 i i 6 1 ; - ; ; - - ; ; ; ; - - - - - - - - ; ; ; ; ; ; ; ; ; ; ; ; - - - - - - - - - - ; ; ; ; ; ; ; ; 1 ; ; ; ; ; ; ; ; ; ; ; ; ; ; ; ; ; ; ; ; ; ; ; ; ; ; ; ; ; ; ; ; ; ; ; ; ; ; ; ; ; ; ; ; ; ; ; ; ; 1 1 1 1 1 1 1 ; 1 1 1 1 7 p d e 1 1 ; ; ; ; ; ; 1 1 ; ; ; ; ; ; ; ; ; ; ; ; ; ; ; ; ; ; ; ; ; ; ; ; ; ; ; ; ; ; 1 ; 1 1 1 1 1 1 1 1 2 8 8 9 6 8 2 4 1 ; - % - ; 1 1 ; - - % $ $ & & & % % % % % % % - - - - - - - - ; ; 2 6 7 a ~ {.aXbXdXR.M e - + + O O .     . O $ = - ; ; ; ; ; ; ; - - ; ; ; ; ; ; ; ; ; ; ; ; ; ; ; ; ; ; ; ; ; ; ; ; 1 2 6 7 7 7 7 7 7 6 6 6 6 6 ",
"$ % % - ; 1 2 q 7 7 6 2 1 ; % % % % % % - - ; ; - : $ $ % 1 6 6 6 6 6 6 6 6 2 5 % $ + + $ $ % % % % % % % % % % % % % % % - - ; - ; ; 1 1 ; ; - ; ; ; ; ; % O .         . O O $ 6 x R.yXbXdX}.) a 6 2 1 1 ; - - - - - - - % % % - % % - - - - - - - ; 1 1 1 2 2 2 8 8 2 2 2 1 1 ; ; ; ; 1 1 1 1 ; ; ; ; ; ; ; ; ; ; ; ; ; ; ; ; ; ; ; ; ; ; ; ; ; ; ; ; ; ; ; ; ; ; - : % : ; 1 2 e d i 7 2 ; ; ; ; ; ; ; ; ; ; ; ; ; ; ; ; ; ; ; ; ; ; ; ; ; ; ; ; ; ; ; ; ; ; ; ; ; ; ; ; ; ; ; 1 1 1 1 1 1 1 1 1 1 1 1 1 1 1 1 ; 1 1 1 ; ; ; ; ; ; ; ; ; ; ; ; ; ; ; ; ; ; ; ; ; 1 ; 1 1 1 1 1 1 1 ; ; ; ; ; ; ; ; ; ; ; ; ; ; ; ; 1 6 u y 7 ; - - - - - - - ; ; ; ; - - - ; ; 1 1 1 ; ; ; ; ; ; ; ; ; ; ; ; ; ; ; ; 1 1 1 1 1 1 1 1 1 1 1 1 1 1 2 6 9 7 7 9 6 8 2 1 - - - ; 1 1 1 ; - - % $ $ & % % % % : - % % % - - - % % % - - ; 1 2 6 r ~ {.aXbXdXR.M 7 - $ + O O .     . O $ = - ; ; ; ; ; ; ; - - ; ; ; ; ; ; ; ; ; ; ; ; ; ; ; ; ; ; ; ; ; ; ; ; 1 2 6 7 7 7 7 7 7 6 6 6 6 6 ",
"$ % % - ; 1 6 q 7 7 6 6 1 ; % % % % % % - - ; ; - - $ $ % 1 6 6 6 6 6 7 7 6 8 4 % $ + + $ $ % % % % % % % % % % % % % % % - : - - - ; ; 1 ; - - - ; ; ; - % O .         . O O $ 6 x R.yXbXdX}.) a 6 2 1 ; - - - - - - - % % % % - % % - - - - - - - ; 1 1 2 2 2 2 2 2 2 1 1 1 ; ; ; ; ; ; ; ; ; ; ; ; ; ; ; ; ; ; - - - - - - - ; ; ; ; ; ; ; ; ; - - - - - - ; ; ; : % * : ; 1 2 7 r p 7 2 ; - - ; - - ; ; ; ; ; ; ; ; ; ; ; ; ; ; ; ; ; ; ; ; ; ; ; ; ; ; ; - ; ; ; ; ; ; ; ; ; ; 1 1 1 1 1 1 1 1 1 1 1 1 1 1 ; ; 1 1 1 ; ; ; ; ; ; ; ; ; ; ; ; ; ; ; ; ; ; ; ; ; ; ; ; ; ; ; ; ; ; ; ; ; ; ; ; ; ; ; ; ; ; - - ; ; 1 6 u p 6 ; - - - - - - - - - - - - - - ; ; 1 1 ; ; ; ; ; ; ; ; ; ; ; ; ; ; ; ; ; ; ; ; ; 1 1 1 1 1 1 1 1 ; ; 1 6 7 7 7 7 6 6 2 1 ; - % - 1 1 1 ; - - % $ $ $ $ % % % % % % % % - : % % % % - - ; 1 2 6 r ~ {.aXbXdXR.M 7 - $ + O O .     . O + = - ; ; ; ; ; ; ; - - ; ; ; ; ; ; ; ; ; ; ; ; ; ; ; ; ; ; ; ; ; ; ; ; 1 2 6 6 7 7 7 7 7 6 6 6 6 6 ",
"$ % % % ; 1 6 q 7 7 6 2 1 ; % % % - % % - - ; ; - - $ $ % 1 6 6 2 2 6 7 7 7 6 2 - $ + + $ $ % % % % % % % $ % % % % % % % % - - - - ; ; ; ; - - - - ; ; - $ O           . O O $ 6 x R.aXbXdX}.~ r 2 1 1 ; - % % % % % % % % % $ % $ % * - % % % % - ; ; 1 1 2 1 2 1 1 1 ; ; ; ; - - - - - - - - - : : : - - - - - - - % % % % - - - - - - - - - - - - - - - % - - : = = = = - ; 2 6 e t 6 1 - % - - - - - - - - - - - - - - - - - - - - - - - - - - - - - - - - - - - - - - - ; ; ; ; ; ; ; ; ; ; ; ; ; ; ; ; ; ; ; ; ; ; ; ; ; - - - - - - - - - - - - - - - - - - - - - - - - - - - - - - - - ; ; ; ; ; ; - ; - - ; 1 q i e 6 ; - - - - - - - - - - - - - - ; ; ; ; ; ; ; - - - - - - - - - - - - - - - - ; ; ; ; ; ; ; ; ; ; - - ; 1 6 7 7 7 6 2 2 3 - % $ % ; ; ; ; - % $ $ $ + $ $ $ $ % % % % - - - - - - - - - ; 1 2 6 r U {.dXbXdXR.M e - $ + O O .     . O $ * - ; ; ; ; ; ; ; ; ; ; ; ; ; ; ; ; ; ; ; ; ; ; ; ; ; ; ; ; ; ; ; ; ; 1 1 6 6 7 7 7 7 7 6 6 6 6 6 ",
"$ $ $ % - 1 2 q 7 7 6 2 1 ; - % - - % % - - ; ; - - % $ % ; 6 6 6 2 6 7 7 7 6 2 - $ $ $ $ $ % % % % % % % $ $ $ $ $ % % % % % - - - ; ; ; ; - - - ; ; ; - $ O .         . O O $ 6 x R.yXbXdX}.~ r 2 1 ; - % % = % % % % $ $ $ $ $ $ % * * % % % % - ; 1 1 1 1 1 5 5 1 ; ; ; - - - - - - - - - - - % % % % % : % % % % % % % % % % % % % % % % % - % % - % % % - - % % = $ = % - 1 2 7 7 9 1 - % % % % % % % % - % % % % % % % % % % % % - - % - % % % - - - - - - - - - - - - - - ; ; ; ; ; ; ; - - - - - - - - ; ; ; ; ; ; ; - - - - - - - - - - % - % - % - - - - - - - - - - - - - - - - - - ; ; ; - ; ; ; ; - ; 1 2 u i p 1 ; - - - - - - - - - - - - - - - ; - ; - ; - - - - - - - - - - - - - - - - - - - - - - - ; ; > - - - ; 1 2 6 7 7 6 2 2 1 , % $ % - - - - - % % $ + + + + $ $ $ % % % - - - - - - - - - ; 1 2 7 a U {.dXbXdXR.M e - $ + O O .     . O $ % - ; ; ; ; ; ; ; ; ; ; ; ; ; ; ; ; ; ; ; ; ; ; ; ; ; ; ; ; ; ; ; ; ; 1 1 6 6 7 7 7 7 7 6 6 6 6 6 ",
"O + + $ % - 1 6 6 7 6 8 1 ; - % % % % % - - ; 1 - - % $ - 1 6 7 6 6 7 7 7 6 2 1 - $ $ $ $ $ % % % % $ $ $ $ $ $ $ $ $ $ % % % - - ; ; ; ; ; ; ; ; ; ; - - $ O .       . . . O % 6 x R.dXbXdX}.~ r 2 1 ; - % % % % % % $ $ $ $ $ % % % % % % - % - ; ; 1 1 1 1 1 4 1 ; ; ; ; - - - - - - - - % % - - - - - - - - - % % % - - - - - - - - - - - - - % % % % % % - - - % % % % - - - ; 8 t t 6 ; % % % - % - % - - % % % % - - - - % % - - - - - - - - - - - - - - - - - - - - - - - ; ; ; ; ; ; ; - - ; ; ; ; ; ; ; ; ; - - - ; - - - - - - - - - - - - - - % % % - - - - - - - - - - - - - - - ; ; ; - - - - ; ; - ; 2 7 i i 6 ; - - - - - - - - - - - - - - - - - - - - - - - - - - - - - - - - - - - - - - - - - - ; ; ; ; ; ; - ; ; ; 1 2 6 6 6 2 2 2 5 ; - % % % % - - - % % $ + + + + $ $ $ % % % % - - - % - - ; ; 1 2 7 a ~ {.aXbXaXR.M e - $ + O O .       O & : ; ; ; ; ; ; ; 1 1 ; ; ; ; ; ; ; ; ; ; ; ; ; ; ; ; ; ; ; ; ; ; ; ; ; 1 1 2 6 7 7 7 7 7 7 6 6 6 6 ",
"O O + + $ - 1 4 6 7 6 8 2 ; - - % % % % - - ; 1 - - % $ - 1 6 7 6 6 7 7 7 6 2 1 - $ $ & & $ % % % % $ $ $ $ $ $ $ $ $ $ % % % - - - ; ; - ; ; ; ; ; ; - * $ + .     . . . . O % 6 x R.yXbXdX}.~ r 2 1 ; - - % % % % % $ $ $ $ $ $ % % % % % % - ; ; 1 1 1 2 2 1 4 1 ; ; ; ; ; - - - - - - - % % - - - - - - - - - - - - - - - - - - - - - - - - - - % % - % - - - - % % - - - - % ; 6 t t 7 ; - - - - - - - - - % % % % - - - - - - - - - - - - - - - - - - - - - - - - - - - - ; ; ; ; ; ; ; ; - - - - ; ; ; ; ; ; ; - - - ; - - - - - - - - - - - - - - - - - - - - - - - - - - - - - - - - ; ; ; - % : - ; ; - ; 2 e d i 4 - - - - - - - - - - - - - % % % - - - - - - - - - - - - - - - - - - - - - - - - - - - ; ; ; ; ; ; ; ; ; ; 1 2 6 6 6 6 2 2 4 1 ; - $ $ % : - - - % $ + + + + $ $ $ $ % % % % - % % - - ; ; 1 2 7 d ~ {.aXbXaXR.M e - $ + O . .       O % - ; ; ; ; - ; 1 1 1 1 - - ; ; ; ; ; ; ; ; ; ; ; ; ; ; ; ; ; ; ; ; ; ; ; 1 2 6 7 7 7 7 7 7 7 7 6 6 ",
"O O + + $ - 1 2 6 7 6 8 2 ; - % % - % % - - ; 1 - - % $ - 1 6 7 6 6 7 7 7 6 2 1 - $ $ & & $ % % % % % % % % $ $ % % % % % % - - - - ; - - ; ; ; ; ; ; - - $ + .     . . . . O % 6 x R.yXbXdX}.~ r 2 1 ; - - % % % % % $ $ $ $ $ $ % % % % % % - ; ; 1 1 1 2 2 1 1 1 ; ; ; ; ; - - - - - - - - - - - - - - - - - - - - - - - - - - - - - - - - - - - - % - - - - - - % % - - - - - - 2 t t 9 ; - - - - - - - - - - - % % % - - - - - - % % % - % - - - - - - - - - - - - ; ; - - ; ; ; ; ; ; ; ; - - - - - - - - ; ; ; ; - - - - - - - - - - - - - - - - - - - - - - - - - - - - - - - - - - - - ; - - % : - ; ; - ; 2 i j t 1 - - - - - - - - - - - - - % % % - - - - - - - - - - - - - - - - - - - - - - - - - - - - - ; ; ; ; ; - ; ; 1 1 2 6 6 6 2 2 2 1 1 - $ $ % : - - : % $ + + + + $ $ $ $ % % % % % % % - - - ; 1 2 7 d ~ {.aXbXaXR.M e - $ + O O .       O % - ; ; ; ; - ; ; 1 1 ; ; - ; ; ; ; ; ; ; ; ; ; ; ; ; ; ; ; ; ; ; ; ; ; 1 1 2 6 7 7 7 7 7 7 7 7 6 6 ",
"+ + + $ % - 1 6 6 6 6 8 1 ; - % - - % % - - ; 1 - - % % - 1 6 7 7 6 7 7 7 6 2 3 - $ $ & & $ % % % % % % % % % % % % % % % - - - - - - - - ; ; ; ; ; ; - - $ + .     . . . . O % 6 x R.yXbXdX}.~ r 2 1 ; - - % % % % % $ $ $ $ $ $ % * % % % % - 3 1 1 1 2 2 2 2 1 ; ; ; ; ; - - - - - % % - - - - % % % - - - - - - % % - - - - - - - - - - - - - - - % - - - - - - % % - - - - % - 2 9 t 9 1 - - - - - - - % % - - % % % % - - - - % % % % - - - - - - - - - - - - - - - - - - ; ; ; ; - - - - - - - - - - - - - - - - - - - - - - - - - - - - - - - - - - - - - - - - - - - - - - - - - - - - ; - % % : - ; ; ; ; 6 i j 7 1 - - - - - - - - - - - - - % % % - - - - - - - - - - - - - - - - - - - - - - - - - - - - - ; ; ; ; - - - ; 1 1 2 2 6 6 2 2 2 2 1 ; % $ % : - - - % $ + + + + $ $ $ $ % % % % % % % % - - ; 1 2 7 d ~ {.aXbXdXR.M e - $ + O O .       O % - ; ; ; ; - ; ; 1 1 ; ; - ; ; ; ; ; ; ; ; ; ; ; ; ; ; ; ; ; ; ; ; ; ; 1 1 2 6 7 7 7 7 7 7 7 7 6 6 ",
"# + $ $ % ; 4 0 6 6 6 8 1 ; - % - - % % - - ; ; - : % % - 1 6 7 7 6 7 7 7 6 2 5 - $ + & & $ % % % % - - % % % % % % % - - - - - - - ; - ; ; ; ; ; ; ; - - $ + .     . . . . O % 6 x R.yXbXdX}.~ r 6 1 1 ; - % % % % % $ $ $ $ $ $ % % % % % - ; 3 5 1 2 2 2 2 2 1 ; ; ; ; ; - - - - % % % % - - % % % % % % % % % % % % % % % % % % % - - - % % % % % % % % % % - - % % - - - % % - 1 7 t 7 1 - - % - - - - % % - - - - - - - - - % % % % - - - - - - - - - - - - - - - - - - - - ; ; ; ; ; ; ; - - - - - - - - - - - - - - - - - - - - - - - - - - - - - - - - - - - - - - - - - - - - - - - - - - - - - - - ; ; ; 6 i i 7 ; - - - - - - - - - - - - - % % % - - - - - - - - - - - - - - - - - - - - - - - - - - - - - ; ; ; - - - - ; ; 1 1 2 6 6 2 2 2 2 2 3 % $ % - - , - : $ $ + + + + $ $ $ $ % % % % % % : - - ; 1 2 7 d ~ }.aXbXdXR.M e - $ O O O .       O % : ; ; ; ; ; ; 1 1 1 ; ; - ; ; ; ; ; ; ; ; ; ; ; ; ; ; ; ; ; ; ; ; ; ; 1 1 2 6 7 7 7 7 7 7 7 7 6 6 ",
"# $ $ % % ; 4 0 6 6 6 2 1 ; - % - - % % - - ; ; - : % % - 1 7 7 7 7 7 7 7 6 2 5 - $ + # & $ % % % % - - % % % % - - - - - - - - - - - - - - ; ; ; ; ; - - $ + .     . . . . O % 6 x R.yXbXdX{.~ r 6 1 1 ; - % % % % $ $ $ $ $ $ $ % % % % % - ; 1 1 2 2 2 2 2 1 ; ; ; ; - - - - % % % % % % - - % % % % % % % % % % % % % % % % % % % % % % % % % % % % % % % % - - % % - - - % = % 1 9 t 7 1 - - % - - - - - - - - - % - - - - % % % % - - - - - - - - - - - - - - - - - - - - - - ; ; ; ; ; ; - - - - - - - - - - - - - - - - - - - - - - - - - - - - - - - - - - - - - - - - - - - - - - - - - - - - - - - - ; 1 7 i p 6 ; - - - - - - - - - - - - - % % % - - - - - - - - - - - - - - - - - - - - - - - - - - - - - - ; - - - - - - ; ; 1 2 2 6 8 2 2 2 2 5 - % % - - > , % % $ + + + + + $ $ $ $ % % % % % : - - ; 2 2 7 d ~  XaXbXaXR.M e - + O O . .       O % : ; ; ; ; ; ; 1 1 1 ; ; - ; ; ; ; ; ; ; ; ; ; ; ; ; ; ; ; ; ; ; ; ; ; 1 1 2 6 7 7 7 7 7 7 7 7 6 6 ",
"$ $ $ % - ; 2 8 6 7 6 2 1 ; - % - : - % - - ; ; - : % % - 1 7 7 7 7 7 7 7 6 2 5 - $ + # & $ $ % % % - % % % % % % % : : : : - - - - - - - - ; ; ; ; ; - * $ + .     . . . . O % 6 x R.yXbXdX{.~ r 6 1 1 ; - % % $ $ $ $ $ $ $ $ & % % % % - ; 1 1 1 2 2 2 2 2 1 ; ; ; ; - - - % % % % % % % % - % % % % % % % % % % % % % % % % % % % % % % % % % % % % % % % % % % % % - - - % % % ; 6 t p 2 - - % % % % % - - - - - - - % % % - - - - - - - - - - - - - - - - - - - - - - - - - - - - - - ; ; - - - - - - - - - - - - - - - - - - - - - - - - - - - - - - - - - - - - - - - - - - - - - - - - - - - - - - - - ; 1 7 i p 2 ; - - - - - - - - - - - - - % % % - - - - - - - - - - - - - - - - - - - - - - - - - - - - - - - - - % % - - ; ; 1 1 2 2 2 2 2 2 2 1 ; - % - - - : % % $ + + + + + $ $ $ % % % % % % : - - ; 2 2 7 d ~  XaXbXyXR.M 7 - + O . . .       O % - ; ; ; ; ; ; 1 1 1 ; ; - ; ; ; ; ; ; ; ; ; ; ; ; ; ; ; ; ; ; ; ; ; ; 1 1 2 6 7 7 7 7 7 7 7 7 6 6 ",
"$ $ % % - ; 4 9 7 7 6 6 1 ; - % - : % % - - ; ; - : % % - 1 7 7 7 7 7 7 7 6 2 5 - $ + # & $ $ % % % % % % % % % % % % % % % : : : : - - - - ; ; ; ; - , * $ + .     . . . . O % 6 x R.dXbXdX{.~ r 6 1 1 ; - % % $ $ $ $ $ $ $ $ % % % % % - 1 5 1 1 2 2 2 2 1 1 ; ; ; - - - - % % % % % % % % % % % % % % % % % % % % % % % % % % % % % % % % % % % % % % % % % % % % % - - - % = % ; 6 t e 2 ; - % % % % % % - - - - - - % % % - - - - - - - - - - - - - - - - - - - - - - - - - - - - - - ; - - - - - - - - - - - - - - - - - - - - - - - - - - - - - - - - - - - - - - - - - - - - - - - - - - - - - - - - - ; 2 u p 7 2 ; - - - - - - - - - - - - - % % % - - - - - - - - - - - - - - - - - - - - - - - - - - - - - - - - - % % - - - ; ; 1 2 2 4 2 8 2 2 1 3 - - % - - : % % $ $ + + + + + $ $ $ $ % % % % - - - ; 2 2 7 d ~  XaXbXyXR.v 7 - + O . . .       O % - ; ; ; ; ; ; 1 1 1 ; ; - ; ; ; ; ; ; ; ; ; ; ; ; ; ; ; ; ; ; ; ; ; ; 1 1 2 6 7 7 7 7 6 7 7 7 6 6 ",
"$ $ % % - 1 2 6 7 7 6 2 1 ; % % % % % % - ; ; 3 - - % $ - 1 6 7 7 7 7 7 7 6 2 3 % $ + + # + $ $ % $ % % % % % % % % % % % % % % % % % % - - - - - ; - : * = + .     . . . . O % 6 x R.dXbXdX}.U r 2 1 ; - - % % % % % $ $ $ $ $ % % % % - ; 1 1 2 2 2 2 1 1 1 ; ; ; - - - - % % % % % % % % % % % % % % % % % % % % % % % % % % % % % % % % % % % % % % % % % % % % % % - - % % $ $ - 2 t u 6 ; - % % % - - - % - - - - - - - - - - - - - - - - - - - - - - - - - - - - - - - - - - - - - - - - - - - - - - - - - - - - - - - - - - - - - - - - - - - - - - - - - - - - - - - - - - - - - - - - % - - - - - - - ; 6 p p 6 1 ; - - - - - - - - - - - - - % % % % - - - - - - - - - - - - - - - - - - - - - - - - - - - - - - - % % % % % - - ; ; 1 1 2 2 2 2 2 2 1 ; - % % - - % * % $ + + + + + $ $ $ $ % % % % % - ; ; 1 2 7 a ) {.aXbXaXF.v 7 % + O . . .       O % - ; ; ; ; ; ; 1 1 1 ; ; - ; ; ; ; ; ; ; ; ; ; ; ; ; ; ; ; ; ; ; ; ; ; 1 1 2 8 7 7 7 7 6 6 7 6 6 6 ",
"$ % % % - 1 6 6 7 7 6 2 1 ; - % % % % % % - ; 1 - : % $ - 1 7 e 7 7 7 7 7 6 2 3 % $ + + + + + $ $ $ $ $ $ $ $ $ $ $ $ $ $ $ $ % % % % % % - - - - - - - = & O .     . . . . O % 6 x R.dXbXdX}.U r 2 1 ; - - % % % % % $ $ $ $ $ % % % - - ; 1 1 2 2 2 2 2 1 1 ; ; ; - - - % % % % % % % % % % % % % % % % % % % % % % % % % % % % % % % % % % % % % % % % % % % % % % % - - % % $ $ - 2 t u 6 1 - % % % % - % % - - - - - - - - - - - - - - - - - - - - - - - - - - - - - - - - - - - - - - - - - - - - - - - - - - - - - - - - - - - - - - - - - - - - - - - - - - - - - - - - - - - - - - - - % % - ; - - - - 1 6 p p 6 1 - - - - - - - - - - - - - - % % % % - - - - - - - - - - - - - - - - - - - - - - - - - - - - - - % % % % % % - - - ; ; 1 2 2 2 2 2 2 1 1 ; - % - - % * % $ $ + + + + + $ $ $ % % % % % - - ; 1 2 7 a ) {.aXbXaXF.v 7 % + O . . .       O % - ; ; ; ; ; ; 1 1 1 ; ; - ; ; ; ; ; ; ; ; ; ; ; ; ; ; ; ; ; ; ; ; ; ; 1 1 2 6 7 7 7 6 6 6 6 6 6 6 ",
"$ % % % - 1 2 6 7 7 7 6 1 ; - % % % % % % - ; ; - : % % - 1 7 e 7 7 7 7 7 6 2 3 % $ O O O + + + + + $ + $ + $ $ & $ $ $ $ $ $ & $ $ $ $ % % % % - - - % = # O .     . . . . O % 6 x R.dXbXdX}.U r 2 1 ; - - % % % % % $ $ $ $ $ % % % - ; 5 2 2 2 2 2 2 1 1 1 ; ; - - - % % % % % % % % % % % % % % % % % % % % % % % % % % % % % % % % % % % % % % % % % % % % % % % % - - % % $ $ - 2 e p 7 1 - % % % % % % % % % - - - - - - - - - - - - - - - - - - - - - - - - - - - - - - - - - - - - - - - - - - - - - - - - - - - - - - - - - - - - - - - - - - - - - - - - - - - - - - - - - - - - - - = % - ; - - - - 1 7 i p 2 ; - - - - - - - - - - - - - - - % % % - - - - - - - - - - - - - - - - - - - - - - - - - - - - % % % % % % % % : - - ; ; 1 1 2 2 2 2 2 2 5 ; - % % % % * % $ $ $ + + + + $ $ $ $ % % % % - - ; 1 2 7 a ) {.aXbXaXF.x 6 % + O . . .       O % - ; ; ; ; ; ; 1 1 1 ; ; - ; ; ; ; ; ; ; ; ; ; ; ; ; ; ; ; 1 ; ; ; ; ; 1 1 2 6 7 7 7 6 6 6 6 6 6 6 ",
"$ % % % - 1 2 6 7 7 7 6 2 ; - % - % % % % - ; ; - : % % - 1 7 e 7 7 7 7 7 7 2 3 % + O O O O + + + + + + + + $ $ $ $ $ + + + + $ $ $ $ $ $ $ $ % % % % $ & + O .     . . . . O % 6 x R.dXbXdX}.U r 2 1 ; - - % % % % % $ $ $ $ $ % % % - ; 4 2 2 6 6 2 2 1 1 ; ; - - - - % % % % % % % % % % % % % % % % % % % % % % % % % % % % % % % % % % % % % % % % % % % % % % % % - - % $ $ $ - 1 7 r 7 2 - % % % % % % % % % - - - - - - - - - - - - - - - - - - - - - - - - - - - - - - - - - - - - - - - - - - - - - - - - - - - - - - - - - - - - - - - - - - - - - - - - - - - - - - - - - - - - - % = % - ; - - % - 2 u i 7 1 ; - - - - - - - - - - - - - - - % % % - - - - - - - - - - - - - - - - - - - - - - - - - - - - % % % % % % % % % : - - ; ; 1 1 2 2 2 2 2 4 1 ; % % % % * % % $ $ + + + + + $ $ $ % % % % - - ; 1 2 7 a ) {.aXbXaXF.c 6 % + O . . .       O % - ; ; ; ; ; ; 1 1 1 ; ; ; ; ; ; ; ; ; ; ; ; ; ; ; ; ; ; ; 1 1 ; ; ; ; 1 1 2 6 7 7 7 6 6 6 6 7 6 6 ",
"$ $ % % - 1 2 6 7 7 7 6 2 ; - - - - % % % - ; ; - - % $ - 1 6 7 7 7 7 7 7 7 2 3 % + O O O O O + O O O O + + + + $ $ + + + + + + + + + + + + $ $ $ $ $ $ + O .       . . . . O % 6 x R.yXbXdX}.U r 2 1 ; - - % $ $ % $ $ $ $ $ % % % - ; 1 4 2 2 6 6 2 2 1 ; ; ; - - - - % % % % % % % % % % % % % % % % % % % % % % % % % % % % % % % % % % % % % % % % % % % % % % % % - - % $ # $ - 1 7 r 7 2 - % % % % % % % % % - - - - - - - - - - - - - - - - - - - - - - - - - - - - - - - - - - - - - - - - - - - - - - - - - - - - - - - - - - - - - - - - - - - - - - - - - - - - - - - - - - - - - % $ % ; ; - - - - 2 u i 7 1 - - % - - - - - - - - - - - - - % % - - - - - - - - - - - - - - - - - - - - - - - - - - - % % % % % % % % % % % : : - - ; 1 1 2 2 6 6 2 4 5 ; % % % % % % % $ $ + + + + + $ $ $ % % % % - - ; 1 2 7 a ) {.bXbXaXF.x 6 % + O . . .       O % - ; ; ; ; ; ; 1 1 1 1 ; ; ; 1 1 1 1 1 ; 1 1 1 1 ; ; ; 1 1 1 1 ; ; ; ; 1 1 2 6 7 7 6 6 6 6 6 7 6 6 ",
"$ $ % % - 1 2 6 7 7 7 6 2 1 ; - : : % % - - ; 1 - - % % - 1 6 7 7 7 e 7 7 7 2 5 % + O O O O O + + + + + + + $ $ $ $ $ + + + + + + + + + + + + $ $ $ $ $ # O .       . . . . O % 6 x R.dXbXdX}.U r 2 1 ; - - % % $ $ $ $ $ $ $ % % - - ; 1 2 2 2 6 2 2 1 1 ; ; - - - - % % % % % % % % % % % % % % % % % % % % % % % % % % % % % % % % % % % % % % % % % % % % % % % % % - - % $ # $ % 1 7 r p 6 - % % % % % % % - - - - - - - - - - - - - - - - - - - - - - - - - - % % - - - - - - - - - - - - - - - - - - - - - - - - - - - - - - - - - - - - - - - - - - - - - - - - - - - - - - - - - - - % $ % - ; - - % - 6 p i 7 1 - - % - - - - - - - - - - - - - % % - - - - - - - - - - - - - - - - - - - - - - - - - - - % % % % % % % % % % % % - - - ; ; 1 2 2 2 2 6 2 1 ; - % $ % % % % % $ + O + + + $ $ $ % % % % - - ; 1 2 7 a ) }.bXbXaXY.x 6 % O O . . .       O % - ; ; ; ; ; ; 1 1 1 ; ; ; ; 1 1 1 1 1 ; ; 1 1 1 1 ; ; 1 1 1 1 ; ; ; ; 1 1 6 6 7 7 6 6 6 6 6 7 6 6 ",
"$ $ % % - 1 2 6 7 7 7 6 2 1 ; - : : % % - - ; 1 - : % % - 1 6 7 7 e e e 7 7 2 5 % + O O # O + + + + $ $ & = & & $ $ $ $ $ $ $ $ + + + + + + $ $ % % % = # # .       . . . . O % 6 x R.yXbXdX}.U r 2 1 ; - - % % $ $ $ $ $ $ $ % % - ; 1 1 2 2 6 6 2 2 1 ; ; - - - - - % % % % % $ $ % % % % % % % % % % % % % % % % % % % % % % % % % % % % % % % % % % % % % % % % % % - - % $ # = % ; 6 r u 6 - % % % % % % % - - - - - - - - - - - - - - - - - - - - - - % % - - - - - - - - - - - - - - - - - - - - - - - - - - - - - - - - - - - - - - - - - - - - - - - - - - - - - - - - - - - - - - - - $ $ - ; - - % ; 6 p p 6 ; ; , % - - - - - - - - - - - - % % % % - - - - - - - - - - - - - - - - - - - - - - - - - - % % % % % % % % % % % % : : - - ; 1 1 2 2 2 6 2 1 1 - % $ $ % : % % $ + O O + + $ $ $ % % % % - - ; 1 6 7 a ) }.aXbXdXY.x 6 % O O . . .       O % - ; ; ; ; ; ; 1 1 1 1 ; ; ; 1 1 1 1 ; ; ; 1 1 1 1 ; ; ; 1 1 1 ; ; ; ; 1 1 6 6 7 7 6 6 6 6 6 7 6 6 ",
"$ $ % % - 1 2 6 7 7 7 6 2 1 ; - - - % % - - ; 1 ; - * % - 1 6 7 7 e e e 7 7 2 5 % $ + # # # $ = $ $ $ $ & & % % % $ $ $ $ $ $ & + + + + + = = % % % * = = # .       . . . . O % 6 x R.yXbXdX}.U r 2 1 ; - - % % $ $ $ $ $ $ $ % % - ; 5 1 2 2 6 6 2 1 1 ; ; - - - - % % % % % % $ $ % % % % % % % % % % % % % % % % % % % % % % % % % % % % % % % % % % % % % % % % % % - - % $ # = % ; 6 p u 6 ; % % % % % - - , - - - - - - - - - - - - - - - - - - - - - % - - - - - - - - - - - - - - - - - - - - - - - - - - - - - - - - - - - - - - - - - - - - - - - - - - - - - - - - - - - - - - - - - $ % - - - - - ; 6 u p 6 ; ; , % % - % - - - - - - - - - % % % % - - - - - - - - - - - - - - - - - - - - - - - - - - % % % % % % % % % % % % : : - - ; ; 1 2 2 2 6 2 1 1 ; - % % : % % % $ + + + + + $ $ $ % % % % - - ; 1 2 7 a ` }.aXaXdXY.x 6 % O O . . .       O % - ; ; ; ; ; ; 1 1 1 1 ; ; ; 1 1 1 ; ; ; ; 1 1 1 1 ; ; 1 1 1 1 1 ; ; ; 1 1 2 6 7 7 6 6 6 6 7 7 7 6 ",
"$ % % % - 1 2 6 7 7 7 6 2 1 ; - - : - - - ; 1 1 ; ; - % - 1 6 7 7 7 7 7 7 6 2 5 % $ + + + & & $ $ $ $ $ % % % % % % % % $ $ $ $ & + O O + $ % % * = = = % & .       . . . . + % 7 x R.dXbXaX{.U r 2 1 ; - - % $ $ & & + $ % % % - ; 1 4 2 2 2 6 2 1 1 ; ; ; - - - - - % % % % % $ % % % % % % % % % % % % % % % % % % % % % % % % % % % % % % % % % % % % % % % - - - - - % % = $ = % - 2 7 u q 1 - % % - % % - - - - - - - - - - - - - - - - - - - - - - - % % - - ; ; - - - - - - - - - - ; - - - - - - - - - - - - - - - - - - - - - - - - - - ; ; ; ; ; ; - % % % % - - - - - - - - - - - - - - - - - - ; 1 6 9 9 2 ; ; - - % % % - - - - - - - - - % % % - - - - - - - - - - - - % - % - % - - - - - - - - % % - - - - - % % % % % % % % % - - ; ; ; 1 1 2 2 2 2 1 1 1 - % % % * $ + + + + + + $ $ $ % % % % - ; ; 1 2 7 d ` .XaXaXiXC.c 2 % O O . . .       O % - 1 1 ; - - - ; 1 1 1 ; ; ; ; ; ; 1 1 1 1 1 1 1 1 ; 1 1 1 1 1 1 ; ; ; 1 1 2 6 6 7 6 6 6 6 7 7 7 7 ",
"$ % % % - 1 2 6 7 7 7 6 2 1 ; - - : - - - ; 1 1 ; - - % - 1 6 7 9 7 7 7 7 6 2 5 % $ + + + $ % % $ $ $ $ % % % % % % % % $ $ $ $ & $ O O + % % % = = % % % $ O       . . . O + % 7 x R.dXbXaX{.U e 2 1 ; - - % $ $ & & + $ % % % - ; 1 2 2 2 2 2 2 1 ; ; ; ; ; - - : - % % % % % $ % % % % % % % % % % % % % % % % % % % % % % % % % % % % % % % % % % % % % % % - - - - % % * & & * - - 1 6 u 7 1 - - - - % % - - - - - - - - - - - - - - - - - - - - - - - % - - - - - - - - - - - - - - - ; ; - - - - - - - - - - - - - - - - % % % - - - - - ; ; ; ; ; - ; - % % % % - - - - - - - - - - - - - - - - - - ; 2 q 9 8 2 ; ; - - % % % % - - - - - - - % % % % - - - - - - - - - - - - % % % % % - - - - - - - - % % - - - - - % % % % % % % % % - - ; ; ; ; 1 1 1 2 2 2 2 1 ; % % % = $ $ + $ $ + + $ $ $ % % % % - ; ; 1 6 6 d '  XaXaXiXV.c 2 $ O O . O .   o   O % ; 1 1 ; - - - ; ; 1 1 ; ; ; ; ; ; 1 1 1 1 1 1 1 1 ; 1 1 1 1 1 1 ; ; ; 1 1 2 6 6 6 6 6 6 6 7 7 7 7 ",
"$ % % % - 1 2 6 7 7 7 6 2 1 ; - - : - - - ; 1 1 ; - - % - 1 6 7 9 7 7 7 7 6 2 5 % $ + + + $ & % $ $ % % % % % % % % % % $ $ $ $ & $ O O $ % - - = $ % % % $ O       . . . O + % 7 x R.dXbXaX{.I e 2 1 ; - - % $ $ & $ $ $ % % % - ; 1 2 2 2 2 2 1 1 ; ; ; ; - - : : - % % % % % $ % % % % % % % % % % % % % % % % % % % % % $ $ % % % % % % % % % % % % % % % % - - - % % % % % % % % - 1 6 u u 1 ; - - - - % - - - - - - - - - - - - - - - - - - - - - - - % % % % % - - - - - - - - - - - - - - - - - - % % % % % % % % % % % % % % % % - - - - - - - - - - - - - - - - - - - - - - - - - - - - - - - - - ; 2 u q 8 1 1 ; - % % % % - - - - - - - - - % % % - - - - - - - - - - - - - % % % % % - - - - - - - % % % - % % - % % % % % % % % % % - - - ; ; ; 1 1 2 2 2 2 1 ; - % $ = = $ + + $ + + $ $ $ % % % % - ; ; 1 2 6 d '  XaXaXiXV.c 2 $ O O . O .   o   O % ; 1 1 ; ; - , ; 1 1 1 ; ; ; 1 ; ; 1 1 ; 1 1 1 1 1 ; ; 1 1 1 1 1 ; ; ; 1 1 2 6 6 7 7 7 6 6 7 7 7 7 ",
"$ % % % - 1 2 6 7 7 7 6 2 1 ; - - : - - - ; 1 1 ; - - % - 1 6 7 7 7 7 7 7 6 2 5 % $ + + + $ & % $ $ % % % % % % % % % % % $ $ $ % $ O O $ % - - % $ $ % % $ O       . . . O + % 7 x R.dXbXaX{.I r 2 1 ; - - % $ $ $ + $ $ % % % ; 1 1 2 2 2 2 2 1 1 ; - - - - - : : - % % % % % $ % % % % % % % % % % % % % % % % % % % % % $ $ % % % % % % % % % % % % % % % % % % % % % % % & $ % - - 1 6 u u 2 ; - - - % % - - - - - - - - % - - - - - - - - - - - - - - % % % % % % % % % % - - - - * % % % : % : % % % % % % % % % % % % % % = % % % % - - - - - - - % % - - - - - - - - - - - - - - - - - - - - - - ; 1 2 u 8 2 1 ; ; - % % % % - - - - - - - - % % % % - - - - - - - - - - - - - % % % % % - - - - - - - % % % - % % % % % % % % % % % % % - - - - ; ; 1 1 2 2 2 2 1 ; - % $ $ = & + + + + + $ $ $ % % % % - ; ; 1 2 6 a '  XaXaXiXV.c 2 $ O O . . .   o   O % ; 1 1 ; ; - , ; 1 1 1 ; ; ; 1 1 1 1 1 ; ; 1 1 ; ; ; ; 1 1 1 1 1 ; ; ; 1 1 2 6 6 7 7 7 7 7 7 7 7 7 ",
"$ % % % - 1 2 6 7 7 7 6 2 1 ; - - : - - - ; 1 1 ; - - % - 1 6 7 7 7 7 7 7 6 2 1 % $ + + + $ & % $ $ % % % % % % % % % % % % $ $ % $ O O + % - % $ $ $ % % $ O       . . . O + % 7 x R.dXbXaX{.I r 2 1 ; - - % $ & + + $ $ % % % ; 1 2 2 2 2 2 2 1 ; - - - - - : - - - % % % % % $ $ % % % % % % % % % % % % % % % % % % % % % % % % % % % % % % % % % % % % % % % % % % % % % $ % % - - ; 6 t h 4 1 ; - - - % - - - - - - - - % - - - - % % % - % % - - - - - % = = = = $ $ % % * * * * % % % % % % : % % % % % % % % % % = % = = $ $ = % % % % % % % % % = % % - ; ; ; ; ; ; - - - - - - - - - - - - ; ; ; 1 2 q 8 1 ; ; - - % % % - - - - - - - - - - % % % - - - - - % % % % % % % - % % % % % % % % % % % % % % % % % % % % % % % % = = = % % % % - - - ; ; 1 2 2 2 2 2 1 ; % $ $ = = + + + + + $ $ $ % % % % - ; ; 1 2 7 a '  XaXaXiXV.f 2 $ O O . . .   o   O % ; 1 1 ; ; - , ; 1 1 1 ; ; ; 1 1 1 ; ; ; ; 1 ; ; ; ; 1 1 1 1 1 1 ; ; ; 1 1 2 6 7 7 7 7 7 7 7 7 7 7 ",
"$ % % % - 1 2 6 7 7 6 6 2 1 ; - - : - - - ; 1 1 ; - % % - 1 6 7 7 7 7 7 7 6 2 1 % $ + + + $ & % $ $ % % % % % % % % % % % % % % % $ O O + $ - % $ $ $ % % $ .       . . . O + % 7 x R.dXbXaX{.U r 2 1 ; - - % $ & + + $ $ % % - 1 1 2 2 2 2 2 2 1 ; - - - - - - - - - % % % % % $ $ % % % % % % % % % % % % % % % % % % % % % % % % % % % % % % % % % % % % % % % % % % % % % $ % % - - ; 2 t h 8 1 ; ; - - % - - - - - - - - % % % % - % % % % - - - - - - - % % $ $ $ $ $ $ $ $ $ % % $ % % % % % % % % $ % $ $ $ % % % % % $ $ $ $ % % % % % % % % % % $ $ % - ; ; ; ; ; - - - - - - - - - - - - - ; ; ; 1 4 0 2 ; ; ; - - % % % - - - - - - - - - - % % % - - - - - % % % % % % % % % % % % % % % % % % % % % % % % % % % % % % % % = = = % $ % % % % - - ; 1 2 2 2 2 2 1 ; - % $ = = + + + + + $ $ $ % % % % - ; ; 1 2 7 a '  XaXaXiXC.f 2 $ O O . O .   o   O % ; 1 1 ; ; - , ; 1 1 1 ; ; ; 1 1 1 1 1 ; ; ; ; ; ; ; ; 1 1 1 1 1 ; ; ; 1 1 2 6 7 7 7 7 7 7 7 7 7 7 ",
"$ % % % - 1 2 6 7 7 7 6 2 1 ; - - - - - - ; 1 2 ; ; % % - 1 6 7 6 6 7 7 7 6 2 1 % $ + + + $ % % $ % % % % % % % % % % % % % % % % $ O O + $ % % % $ $ % % $ .       . . . O + % 7 x R.dXbXaX{.U r 2 1 ; - - % $ & + + $ % % % - 1 2 2 2 8 2 2 1 ; ; - - - - - - - - % % % % % % $ $ % % % % % % % % % % % % % % $ % $ % $ $ $ % % % % % % % % % % % % % % % % % % % % % % % $ $ % % - ; ; 2 7 h 8 2 1 ; - - - - - - - - - - - - % % % % % % % % - - - - - - - % $ $ $ $ $ $ $ % % % % % % % % % % % - % % % % % % % % % % % % % $ $ $ $ % % % % % % % % % $ $ % - - - - - - - - - - - - - - - - - - - ; ; ; 2 0 4 1 ; ; - - % % % % - - - - - - - - - - % % % - - - - - - % % % % % % % % - % % % % % % % % % % % % % % % % % % % % % % % % % $ $ $ % % % % - ; 1 2 2 2 2 2 2 ; - % $ $ = + + $ + + $ $ $ % % % % - ; 1 2 6 7 d '  XaXaXiXC.f 2 % O O . O .   o   O % ; 1 1 ; ; - - ; 1 1 1 ; ; ; 1 1 1 1 1 1 1 1 1 ; ; ; ; 1 1 1 1 1 ; ; ; 1 1 2 6 7 7 7 7 7 7 7 7 7 7 ",
"$ % % % - 1 2 6 7 7 7 6 2 1 ; - - - - - - ; 1 2 ; ; % % - 1 6 7 6 6 7 7 7 6 2 1 % $ + + + $ % % $ % % % % % % % % % % % % % % % % $ O O + $ % % % $ % % % $ .       . . . O + % 7 x R.dXbXaX{.U r 6 2 ; - - % $ & + + $ % % % - 1 2 2 2 8 2 1 1 ; - - % - - - - - - % % % % % % $ $ % % % % % % % % % % % % % % $ $ $ % $ $ $ $ % % % % % % % % % % % % % % % % % $ % % % % % $ % % - ; ; 2 q h 9 2 1 ; ; - - - - - - - - - - - % % % % % % % % % % % % % % % % $ % % % % % - - - - - ; ; ; ; ; ; ; ; ; ; ; ; ; ; ; ; ; - - - - $ $ $ % % % % % % % % % % % % % - - - - - - - - - - - - - - - - - - - ; ; 1 4 0 2 1 ; - - % % % % % - : - - - - - - - - % % % - - - - - - % % % % % % % % - % % % % % % % % % % % % % % % % % % % % % % % = % $ $ $ % % % % % - ; 1 4 2 2 2 2 1 - % $ $ = + + $ + + + $ $ % % % % - ; 1 2 6 7 d '  XaXaXiXC.f 2 $ O O . O .   o   O % ; 1 1 ; ; - - ; 1 1 1 ; ; 1 1 1 1 1 1 1 1 1 1 1 ; ; ; ; 1 1 1 1 ; ; ; 1 1 2 6 7 7 7 7 7 7 7 7 7 7 ",
"$ % % % - 1 2 6 7 7 7 6 2 1 ; - - - - - - ; 1 4 ; - - % - 1 6 7 9 6 7 7 7 6 2 3 % $ + + + $ % % $ $ % % % % % - : - % % % % % % $ & O O + % - % % $ % % % $ .       . . . O + - 7 x R.dXbXaX{.I r 2 1 ; - % $ $ & + $ $ % % - ; 1 2 2 8 8 2 1 ; - - - % % - - - - - - % % % % % $ % % % % % % % % % % % % % % % $ $ $ $ $ $ $ $ % % % % % % % % % % % % % % % % $ $ $ % % % $ $ % % - ; ; 1 q k 9 2 1 ; ; - % % : : - - - - - - - % % % % % % % % % % % % - - - - - ; ; ; ; ; ; 1 1 3 1 5 4 4 4 1 1 1 1 1 1 1 1 5 5 1 5 1 1 1 ; ; - - - - - - - - - % % % % % % % % = % % % % % - - - - - - - - - - ; ; ; 1 4 0 2 1 ; ; - - % % % % % - - - - - - - - % % % % - - - - - - - - % % % % % - - - - % % % % % % % % % % % % % % % % % % % % % $ % $ $ $ $ $ % % % - ; 1 2 2 2 2 1 1 ; % $ $ = $ + + + + + $ $ $ % % % - ; 1 2 6 7 d O. XaXaXdXC.s 2 $ O O . O . o o   O % ; 1 1 ; ; - , ; 1 1 1 ; ; 1 1 1 1 1 1 1 1 ; ; ; ; ; ; 1 1 1 1 1 ; ; ; 1 1 6 6 7 7 7 7 7 7 7 7 7 7 ",
"$ % % % - 1 2 6 7 7 7 6 2 1 ; - - - - - - ; 1 1 ; - - % - 1 6 7 9 7 7 7 7 6 2 3 % $ + + + $ % % $ $ % % % % - - : - - - : % % % % & + O + $ - % % $ % % % $ .       . . . O + - 7 x R.dXbXaX{.I r 2 1 ; - % $ $ $ + $ $ % % - ; 2 2 2 6 4 2 1 ; ; - % % % - - - - - - % % % % % $ % % % % % % % % % % % % % % % $ $ $ $ $ $ $ $ % % % % % % % % % % % % % % % % $ $ $ % % % % % % % - ; ; 1 8 u u 6 1 1 ; - % - % - - - - - - - % % % % % % % % - - - - - - ; ; ; ; ; 1 1 1 1 1 1 1 2 2 2 2 2 2 2 2 2 2 2 2 2 2 2 2 2 2 1 1 1 1 ; ; ; ; ; ; ; ; ; ; ; ; - - - % $ $ $ $ $ % % % % % - - - - - - - - ; ; ; 1 0 0 1 1 ; - - % % % % % % - - - - - - - - % % % % - - - - - - - - % % % % % - - % % % % % % % % % % % % % % % % % % % % % % $ $ $ $ $ $ $ $ % % % - ; 1 1 2 2 2 2 1 ; - $ $ $ $ + + + + + $ $ $ % % % - ; 1 2 6 7 d O. XaXaXdXC.s 2 $ O O . O . o o   O % ; 1 1 ; ; - ; ; 1 1 1 ; ; 1 1 1 1 1 1 1 1 1 1 ; ; ; ; 1 1 1 1 1 ; ; ; 1 1 6 6 7 7 e e 7 7 7 7 7 6 ",
"$ % % % - 1 2 6 7 7 7 6 2 1 ; - - : - - - ; 1 1 ; - - % - 1 6 7 9 7 7 7 7 6 2 5 % $ + + + $ % % $ $ $ % % % % - - - - - - - - % % & + O + % % % % $ % % % $ .         . . O O - 7 x R.dXbXaX{.I r 2 1 ; - % $ $ $ + $ % % - ; 1 1 2 2 2 2 1 ; - - % % % % - - - - - - % % % % % $ % % % % % % % % % % % % % % % $ $ $ $ $ $ $ $ % % % % % % % % % % % % % % % $ $ $ $ $ % % % % % - - ; ; 1 2 q u 6 1 ; ; - % - : : - - - - - - - - - - - - - - ; ; ; ; ; ; ; 1 1 1 1 1 1 1 2 2 2 2 2 2 2 2 2 6 6 2 2 2 2 2 2 2 2 2 2 2 2 2 2 1 1 1 1 1 1 1 4 2 5 4 4 1 1 ; ; - % $ $ $ $ $ % % % % % - , - - % - - ; ; ; 2 0 0 1 ; ; - - - % % % % - % - - - - - - - % % % % - - - - - - - - % - - % % % % % % % % % % % % % % % % % % % % % % % % % % $ % $ $ $ $ $ $ % % % - - ; 1 1 2 2 2 1 1 - % % $ $ $ + + + + $ $ $ % % - - ; 1 2 6 7 d O. XaXaXiXC.s 2 $ O O . O . o o   O % ; 1 1 ; ; - ; ; 1 1 1 1 ; 1 1 1 1 1 1 1 1 1 1 1 1 1 1 1 1 1 1 1 ; ; ; 1 1 2 6 7 7 e e 7 7 7 6 7 6 ",
"$ % % % - 1 2 6 7 7 7 6 2 1 ; - - : - - - ; 1 1 ; - - % - 1 6 7 9 7 7 7 7 6 2 5 % $ + + + $ % % $ $ % % % % - - - - - - - - - % % & + O + $ % % % $ % % % $ .         . . O O % 7 x R.dXbXaX{.I r 2 1 ; - % $ $ + + $ % % - ; 5 1 2 2 2 2 1 ; - % $ $ $ % - - - - - - % % % % % $ % % % % % % % % % % % % % % % % $ $ $ $ $ $ $ % % % % % % % % % % % % % % % $ $ $ $ $ % % - - % - - - ; ; 2 q u 7 2 ; ; - % % - : - - - - - - ; ; ; ; ; ; ; ; 3 ; ; ; ; ; ; 1 1 1 1 1 1 1 1 1 2 2 2 2 2 2 2 2 2 2 6 2 2 2 2 2 2 2 2 2 2 2 2 1 1 1 1 1 2 2 2 2 4 4 2 2 2 1 1 1 - - % % % % % $ % % % % - - % * % % ; ; ; 2 0 6 1 ; - - - - - - % % % % - - - - - - - - % % % - - - - - - - - % - % % % % % % % % % % % % % % % % % % % % % % % % % % % $ % $ $ $ $ $ $ % % % - - ; ; 1 2 2 2 2 1 ; % % % $ $ + + + + $ $ $ % % - - ; 1 2 6 7 s O. XaXaXiXC.s 2 $ O O . O . o o   O % ; 1 1 ; ; - ; ; 1 1 1 1 ; 1 1 1 1 1 1 1 1 1 1 1 1 1 1 1 1 1 1 1 ; ; ; 1 1 6 6 7 e e e 7 7 7 6 6 6 ",
"$ % % % - 1 6 6 7 7 7 6 2 1 ; - - - - - - ; 1 1 ; - - % - 1 6 7 9 7 7 7 7 6 2 5 % $ + + + $ & % % % % % % % - - - - - - - - - % % & + O + $ % % $ $ % % % $ .       . . . O O % 7 x R.dXbXaX{.I e 2 1 ; - % $ $ + $ $ % - ; 1 1 1 2 2 2 1 1 ; - % $ $ $ % - - - - - - % % % % % $ % % % % % % % % % % % % % $ $ % % $ $ $ $ $ $ % % % % % % % % $ $ $ % $ $ $ $ $ $ $ % % % - - - - - - - ; 1 6 u 7 2 1 ; - % % % % - - - ; ; ; 1 1 1 1 1 1 5 5 3 1 1 ; ; ; ; 1 1 1 1 1 1 1 1 1 1 1 2 2 2 2 2 2 2 2 2 2 2 2 2 2 2 2 2 2 2 2 1 1 1 2 2 2 2 2 2 2 8 8 8 6 8 2 2 4 5 1 1 ; ; - % % % % % % % % = * % % - ; 1 8 0 2 1 ; - - - - - - % % % - - - - - - - - - % % % - - - - - - - % % - - % % % % % % % % % % % % % % % % % % % % % % % % % % % % % % % % % % % % % - : - ; 1 2 2 2 2 1 ; - % % % & $ + + + $ $ $ % % % - ; 1 2 6 7 s O. XaXaXiXC.f 2 $ O O . O . o o . O % ; 1 1 1 ; ; ; ; 1 1 1 ; ; 1 1 1 1 1 1 1 1 ; 1 1 1 1 1 1 1 1 1 1 ; ; ; 1 1 6 6 7 e e e e 7 6 6 6 6 ",
"$ % % % - 1 2 6 7 7 7 6 2 1 ; - - - - - - ; 1 1 ; - - % - 1 6 7 9 7 7 7 7 6 6 5 % $ + + + $ & % % % % % % % - - - - - - - - - % % & + O + % % % $ $ % % % $ .       . . . O + - 7 x R.dXbXaX{.I e 2 ; ; - % $ $ + $ $ % - ; 1 1 1 2 2 2 1 ; ; - % % % % % - - - - - - % % % % % $ % % % % % % % % % % % % % $ $ % % $ $ $ $ $ $ % % % % % % % % $ $ $ % $ $ % $ $ $ % % % - - - - - - - - ; 1 6 u 7 2 1 - % % $ % % - - ; 1 5 5 1 2 1 1 1 1 1 1 5 1 1 1 1 1 1 1 1 1 1 1 1 1 1 ; 1 1 1 1 1 1 1 1 1 1 1 1 1 1 1 1 1 1 1 1 1 1 1 1 4 2 2 2 2 2 6 6 8 6 8 6 6 6 2 2 2 2 2 2 1 ; ; - - % % $ $ $ $ $ $ = - ; 1 8 0 1 1 ; - - - - - - % % % - - - - - - - - - % % % - - - - - % - % % % % % % % % % % % % % % % % % % % % % % % % % % % % % % $ % $ $ % % % % % % % - : : ; 1 2 2 2 2 1 ; - % % % % $ + + + $ $ $ % % % - ; 1 2 6 7 s O. XaXaXiXC.f 2 $ O O . O . o o . O % ; 1 1 1 ; ; ; ; 1 1 1 ; ; 1 1 1 1 1 1 1 1 ; ; 1 1 1 1 1 1 1 1 ; ; ; ; 1 1 6 6 7 e e e e 7 6 6 6 6 ",
"$ % % % - 1 2 6 7 7 7 7 2 1 ; - - - - - - ; 1 4 ; - - % - 1 6 7 9 7 7 7 7 6 6 5 % $ + + + $ & % % % % % % % - - - - - - - - - % % & + O + $ - % $ $ % % % $ .         . . O + - 7 x R.dXbXaX{.I e 1 ; ; - % $ $ $ $ $ % - 1 1 1 1 2 2 1 1 ; ; - : * * % - - - - - - % % % % % % $ % % % % % % % % % % % % % $ $ % % $ $ $ $ $ $ % % % % % % % % $ $ % % % % % $ $ $ % % : - - - - - - - - ; 1 2 u u 2 ; - % % % % % - ; ; 5 5 2 2 2 2 2 2 1 1 1 1 1 1 1 1 1 1 1 ; ; ; ; ; ; ; ; ; ; ; ; ; ; ; ; ; ; ; ; ; ; ; ; ; ; ; ; ; ; ; ; 1 1 1 2 2 2 2 2 6 6 6 6 6 6 6 6 6 6 6 6 2 2 1 ; ; - % $ $ + + + $ $ - ; 1 0 0 1 1 ; - - - - - - % % - - - - - - - - - - % % % % - - - - - % % % % % % % % % % % % % % % % % % % % % % % % % % % % % % % % % $ $ % % % % % % - - % : - ; 2 2 2 2 1 1 ; % % % % $ + O + + $ $ % % % - ; 1 2 6 7 s O. XaXaXiXC.s 2 $ O O . O .   o . + % ; 1 1 1 ; ; ; ; 1 1 1 ; ; 1 1 1 1 1 1 1 1 ; ; ; 1 1 1 ; 1 1 1 1 ; ; ; 1 1 6 6 7 e e e e 7 6 6 6 6 ",
"$ % % % - 1 2 6 7 7 7 6 2 1 ; - - - - - ; ; 2 4 ; - - % - 1 6 7 7 7 7 7 7 6 6 4 % $ + + # & & $ % % % % % % : : : - - - : : - % % & + O + $ % % % $ % % % $ O       . . . O + - 7 x R.dXbXdX{.I e 1 ; ; - $ $ $ $ $ % % - 1 1 1 2 2 2 1 ; ; ; > , - % % - - - - - % % % % % % % $ % % % % % % % % % % % % % $ $ % % $ $ $ $ $ $ % % % % % % % $ $ $ % % % % % % $ % % : - - - - - - - - - - ; 4 k p 6 ; - - - - > > 3 1 1 1 1 1 2 2 2 2 2 1 1 1 1 1 1 ; ; ; ; ; ; - ; - - - - - - - - - - - - - ; ; ; - - - - ; - - - - - - - - ; ; ; 1 1 1 2 2 2 2 2 2 6 6 6 6 6 6 6 6 2 2 2 5 3 > > : % $ $ + + $ % - 1 0 0 ; 1 ; - - - - ; - - - - - - % % - - - - % % % % - - - - - - - % % % % % % % % % % % % % % % % % % % % % % % % % % % % % % % % % % $ % % % % % - - % % - ; 1 2 2 2 2 1 ; - % % % & + + + + $ $ % % % - ; 1 2 6 7 s O. XaXaXiXC.s 2 $ O O . . . o o . O % ; 1 1 1 ; ; ; ; 1 1 1 ; ; 1 1 1 1 1 1 1 1 ; ; ; 1 1 1 ; ; 1 1 1 ; ; ; 1 1 6 7 7 e e e 7 7 6 6 6 6 ",
"& $ % % - ; 2 6 7 7 7 6 2 1 ; - ; ; > - ; ; 1 2 1 - - - - 1 6 7 7 7 7 7 7 7 7 4 $ O O + # + $ = $ % % % % % % % % % % % % % % % $ $ + + + $ % % % % % & & # O       . . . O + % 6 x R.yXaXdX_.I e 2 ; - % $ $ + $ $ % - ; 1 1 1 2 4 2 1 ; ; ; ; - - - - % % % - - % % % % % % % $ $ $ % % % % % % % % % $ $ % % $ % $ $ $ $ $ $ $ % % % $ $ $ $ $ $ $ $ $ $ $ $ - - - - - - % % % % - - - - - 5 u i 6 1 ; ; ; 3 1 2 2 2 2 1 1 1 4 4 1 1 1 1 1 ; ; ; ; ; ; ; ; ; - - - - - - - - - - - - - - - - - - - ; ; - - - - - - - - - - - - - - - ; ; ; ; 1 1 1 1 1 1 2 2 4 4 4 2 2 2 2 2 2 2 5 5 3 ; ; % + + $ - 5 5 1 ; ; - - - - ; ; ; - - - - - % % % % % % % % % : % - - - - - - % % % % % % % % % % % % % % % % % % % % % % % % % % % % % % % % % % % % % % % % % % % % % - ; 1 2 6 6 2 1 ; % $ & = + + + + + $ $ $ % - ; 1 2 6 7 f n. XaXaXiXC.s 2 $ O O . . . o o   O * ; 1 1 1 ; ; ; ; 1 1 1 1 1 1 1 1 1 1 1 1 1 1 1 1 1 ; ; ; ; 1 1 1 ; ; 1 1 2 6 7 7 7 e 7 7 7 6 6 6 6 ",
"& $ % % - ; 2 6 7 7 7 6 2 1 ; - ; ; ; - ; ; 1 2 1 ; - - - 1 6 7 7 7 7 7 7 7 7 2 $ O O + # + + & $ $ $ $ & & & & % % & % % % % % & $ + + + $ $ $ % % % = & # O .     . . . . + % 6 x R.yXaXdX_.I e 2 ; - % $ $ + $ % - - ; 1 1 1 1 1 1 ; ; ; ; ; ; ; - - - % % - % % % % % % % % $ $ $ $ % % % % % % % % $ $ $ % $ % $ $ $ $ $ $ $ $ % $ & & $ $ $ $ $ $ $ $ $ % - - - - - - % % % - : - % % - ; 7 i 6 1 1 1 1 1 2 2 2 2 2 2 1 1 1 1 1 1 1 ; ; ; ; ; ; ; ; - - - - - - - - - - - - - - - ; ; - - ; ; - ; - - - - - - - - - - - - - - - - - - - - ; ; ; ; 1 1 1 1 1 1 1 2 2 2 2 2 2 2 2 2 2 1 1 ; $ $ % - 5 5 ; ; - - % - - ; ; ; - - - - - - % % % % % % % % % - - - - - - % % % % % % % % % % % % % % % % % % % % % % % % % % % % % % % % % % % % % % % % % % % % % % - ; 1 2 6 6 6 2 1 - $ & & $ + + + + + $ $ % - ; 1 2 6 7 f n.OXaXaXiXC.s 2 $ O O . . . o     O * ; 1 1 1 ; - ; ; 1 1 1 1 1 1 1 1 1 1 1 1 1 1 1 1 1 1 1 ; ; 1 1 1 1 ; 1 1 2 6 7 7 e 7 7 7 7 7 6 6 6 ",
"& $ % % - 1 2 6 7 7 7 7 6 2 ; ; ; ; ; - ; ; 1 2 1 ; - - - 1 q 7 7 7 7 7 6 7 7 2 $ O O + + + + + + + + + $ $ $ $ $ $ $ $ $ $ $ $ & # + + + + $ $ $ $ & & # O . .     . . . O + % 6 x R.yXaXdX_.I e 2 ; - % $ $ $ $ % - - ; 1 2 1 1 1 1 ; ; ; ; ; ; > - - - % % % % % % % % % % % $ $ $ $ % % % % % % % % $ $ % % $ $ $ $ $ $ $ $ $ $ $ $ $ $ $ $ $ $ $ $ $ % % % - - - - - - - % - - - - % % - ; 6 p 7 2 1 1 1 1 2 2 2 2 2 1 1 1 ; ; ; ; ; ; ; ; ; ; ; ; - - - - - - - - - - - - - - ; ; ; ; - - ; ; ; - - ; - - - - - - - - - - - - - - - - - - ; ; ; ; ; ; ; ; ; ; 1 1 1 2 2 2 2 2 2 2 2 1 1 1 - - - ; 0 4 ; ; - - % % - - - - - - - - - - - % % % % % % % * % - - - - - % % % % % % % % % % % % % % % % % % % % % % % % % % % % % % % % % % % % % % % % % % % % % % - ; 1 2 6 6 6 2 1 - $ $ & $ + + + + + $ $ % - ; 1 6 6 7 f O. XaXaXiXC.s 2 $ O O . . . o   . O * ; 1 1 1 ; - ; ; 1 1 1 1 1 1 1 1 1 1 1 1 1 1 1 1 1 1 1 1 1 1 1 1 1 ; 1 1 2 6 7 7 7 7 7 7 7 7 6 6 6 ",
"% % % - ; 1 6 9 7 e 7 7 6 2 1 ; ; ; ; - ; ; 1 2 1 ; : - - 1 q e 7 7 7 7 6 6 7 2 $ O O O + O O + + + + + + + + + + + + + + + + + # + + + + + + + $ + + + O O .       . . . O + % 6 x R.yXaXdX_.I e 2 ; - % $ $ $ $ % - ; 1 2 2 2 5 1 ; ; ; ; ; ; > > , , % % % - % % % % % % % % $ $ $ $ % % % % % % % $ $ $ % % % % $ $ $ $ $ $ $ $ $ $ $ $ $ $ $ $ $ $ $ % % - - - - - - - - % - - - - - - - ; 6 p 7 2 1 1 1 1 2 1 2 1 1 1 ; ; ; ; ; ; ; ; ; ; ; ; ; - - - - - - - - - - - - - - - ; ; ; ; ; - ; ; ; - - ; - ; - - - - - - - - - - - - - - - - - ; ; ; ; ; ; ; ; ; ; 1 1 1 1 1 4 2 2 2 2 1 1 1 ; ; ; 1 5 1 ; ; - % % % % - % - - - - - - - - - % - % % % % * % - - - - % % % % % % % % % % % % % % % % % % % % % % % % % % % % % % % % % % % % % % % % % % % % % % % - ; 1 2 6 6 6 2 1 - % $ & $ $ + + + $ $ $ % - ; 1 6 6 7 f n. XaXaXiXC.s 2 $ O O . . . o   . O * ; 1 1 1 ; - ; ; 1 1 1 1 1 1 1 1 1 1 1 1 1 1 1 1 1 1 1 1 1 1 1 1 1 ; 1 1 2 6 7 7 7 7 7 7 7 7 6 6 6 ",
"* % % - ; 1 8 7 7 e e e 7 2 1 ; ; ; - - ; ; 2 2 1 ; - - - 1 q 7 7 7 7 6 6 6 7 4 + . O O O O O O O O O O O O O O O O + + + + + + + + + O O O O + + + + O O . .       . . . O + % 7 x R.yXaXyX_.I e 2 1 - % % $ $ % % - ; 1 2 2 2 5 1 ; ; ; ; ; ; - - - - % % % % % % % % % % $ $ $ $ $ $ % % % % $ $ $ $ % % % % % $ $ $ $ $ $ $ $ $ $ $ $ $ $ $ $ $ $ $ % % - , - - - - - % - - % % - - ; ; ; 1 6 u 9 2 2 1 1 1 1 1 1 1 1 ; ; ; ; ; ; ; ; ; ; ; ; - - - - - - - - - - - - - - - - - - - - ; ; ; ; ; ; ; - - ; ; - - - - - - - - - - - - - - - - - - - - ; ; ; ; ; ; ; ; ; ; 1 1 1 2 2 4 4 1 1 1 1 1 1 2 8 1 ; ; - % $ $ = = * % % - - - - - - - - - - % % % * % - - - % % % % % % % % % % % % % % % % % % % % % % % % % % % % % % % % % % % % % % % % % % % % % % % % - ; 1 2 6 6 6 2 1 ; % $ & $ $ + + + $ $ $ % - ; 1 2 6 7 s n.OXaXaXiXC.s 2 $ O O . . . o   . O * ; 1 1 1 ; ; ; ; 1 1 1 ; ; 1 1 1 1 1 1 1 1 1 1 1 1 ; ; 1 1 1 1 1 1 ; 1 1 2 6 7 7 7 7 7 7 7 7 7 7 6 ",
"* % % - ; 1 8 7 e e e e 7 6 1 ; ; ; - - ; ; 2 2 1 - - - - 1 q 7 7 7 7 6 6 6 7 4 + . O O O O O O O O O O O O O O O O O + + + + + + + + + O O + + + + + + O O .       . . . O + % 7 x R.yXaXyX_.I e 2 ; - % % $ $ % % - 1 2 2 2 2 5 ; ; ; ; - - - - - - - % % % % % % % % % % $ $ $ $ $ $ % % % % $ $ % % % % % % % % $ $ $ $ $ $ $ $ $ $ $ $ $ $ $ $ % % % : - , - - - - % - % % % % - ; ; 1 1 1 6 u u 2 1 1 ; 1 ; ; ; ; ; ; - - ; ; ; ; ; ; ; ; - - - - - - - - - - - - - - - - - - - - - ; ; ; ; ; ; ; - - ; ; - - - - - - - - - - - - - - - - - - - - - - - - ; - ; ; ; ; ; ; ; ; 1 1 5 1 1 1 2 2 2 8 8 1 ; 1 - % % $ % % % % % - - - - - - - - - - % % = = % % - - % % % % % % % % % % % % % % % % % % % % % % % % % % % % % % % % % % % % % % % % % % % % % % % % - - ; 2 2 6 6 2 4 ; % $ $ $ $ $ + + $ $ $ % - ; 1 6 6 7 s n.OXaXaXiXC.s 2 $ O O . . . o   . O * ; 1 1 1 ; ; ; ; 1 1 1 ; ; 1 1 1 1 1 1 1 1 1 1 1 1 ; ; 1 1 1 1 1 1 ; 1 1 2 6 7 7 7 7 7 7 7 7 7 7 6 ",
"& & % % - 1 6 9 e e e e 7 2 2 1 ; ; - - ; ; 1 2 1 - - - - 1 q 7 7 7 7 6 6 6 7 4 + . O + + + O + + + + + + + + + + + + + + + + + $ + + + + + + + $ $ $ & # # .       . . . O + % 7 x R.yXaXyX_.I e 2 ; - % % $ $ % % ; 1 2 6 6 6 5 ; - - - - - - % % - % % % % % % % % % % % $ $ $ $ $ $ % % % % % % % % $ $ $ $ $ $ $ $ $ $ $ $ + + $ $ $ $ $ $ $ $ % % - - - - : - % % % % % % - - ; ; 5 5 1 1 6 u u 6 1 1 ; ; ; ; ; - - - - - - - ; - - - - - - - - - - - - - - - - - - - ; ; - - - - ; ; ; ; ; ; ; ; - - ; ; ; ; - - - - - - - - - - - - - - - - - - - - - - - - - - - - ; ; ; ; ; ; 1 1 1 1 2 2 2 8 8 1 ; 1 ; - - % % % % % - - - - - - ; ; ; ; - % % % = % % % % % % % % % % % % % % % % % % % % % % % % % % % % % % % % % % $ $ $ % % % % % % % % % % % % % % % % - ; 1 2 6 2 2 4 ; % $ $ $ $ $ + + $ $ $ % - ; 2 6 6 7 f n.OXaXaXiXC.s 2 $ O O . . . o   . O - ; 1 1 1 1 ; ; ; 1 1 1 1 ; 1 1 1 1 1 1 1 1 1 1 1 1 ; ; ; 1 1 1 1 1 ; 1 1 2 6 7 7 7 7 7 7 7 7 7 6 6 ",
"& $ $ % - ; 2 6 7 e e 7 6 2 1 ; ; ; - - ; ; 1 2 1 - - - - 1 9 7 7 7 7 6 6 6 7 4 + . O + # + + + + + + + + + + + + + + + $ $ $ $ & & = $ $ $ $ $ % % % = & # O       . . . O + % 7 x R.yXaXyX_.I e 2 ; - % % $ $ % - ; 1 8 6 6 8 5 ; - - - % % % % % % % % % % % % % % % % % $ $ $ $ $ $ % % % % % % % % $ $ $ $ $ $ $ $ $ $ $ + + + $ $ $ $ $ $ $ % % : - - - - : - % % % % % % ; ; ; 5 5 1 1 1 2 u u 6 2 1 ; ; - - - - - - - - - - - - - - - - - - - - - - - - - - - - - - ; ; ; - - - ; ; ; ; ; ; ; ; - - ; ; ; ; - - - - - - - - - - - - - - - - - - - - - - - - - - - - - - ; ; ; ; ; ; 1 1 1 1 1 2 4 1 ; 5 5 > ; - % % % % - - - - - - ; ; ; ; - % % % $ $ % % % % % % % % % % % % % % % % % % % % % % % % % % % % % % % % $ $ $ % % % % % % % % % % % % % % % % % - ; 1 2 2 2 2 4 ; % $ $ = $ $ + $ $ $ $ % - ; 2 6 6 7 f n.OXaXaXiXC.s 2 $ O O . . . o     O - ; 1 1 1 1 ; ; 1 1 1 1 1 1 1 1 1 1 1 1 1 1 1 1 1 1 ; ; ; ; 1 1 1 1 ; 1 1 2 6 7 7 7 7 7 7 7 7 7 6 6 ",
"# $ $ $ % ; 2 6 7 7 7 7 6 2 1 ; - - - - - ; 1 2 1 ; - - ; 1 7 e 7 7 7 6 6 6 7 4 $ O O # # + + + + $ $ $ $ $ $ $ $ $ $ $ $ $ $ % % % % % % % % % % % % % = + O .     . . . O + % 7 x R.dXnXdX_.I e 1 ; - % $ $ % % - ; 1 2 6 6 8 1 ; ; ; ; - - - - - % % % % % % % % % % % % $ $ $ $ $ $ % % % % % $ $ $ $ $ $ $ $ $ $ $ $ $ $ + + + + + $ $ $ % % % - - - - ; > , - % % % - - ; ; 1 3 5 1 1 1 1 2 6 u q 1 1 ; ; - - - - - - - - - - - - - - - - - - - - - - - - - - - - - - - - ; ; ; ; ; ; ; ; ; ; ; ; ; ; ; ; ; ; ; - - - - - - - - - - - - - - - - - - - - - - - - - - - - - - - ; ; ; ; ; ; 1 1 5 5 1 - - 1 3 3 3 ; ; - - % % % - - - - ; ; ; ; - % % % % $ % % % % % % % $ % % % % % % % % % % % % % % % % % % % % % % % $ % $ % $ $ $ % % % % % % % % - % % % % % - ; 1 1 2 2 2 4 3 - % $ $ $ $ + $ $ $ $ % - ; 2 2 6 e f n. XuXuXdXC.s 2 $ O O . . .       + - ; 1 1 1 ; ; ; 1 1 1 1 1 1 1 1 1 1 1 1 1 1 1 1 1 1 ; ; ; ; 1 1 1 1 ; 1 1 2 6 7 7 7 7 7 7 7 7 6 7 6 ",
"+ + + $ % - 1 6 7 7 7 7 6 2 1 ; ; - - - - ; 1 2 1 ; - - - 1 7 7 7 7 7 6 6 6 7 4 $ O O # & + + + $ $ $ $ % $ $ $ $ $ % % % % % % % % % % % % % % % % % % & + O .     . . . O + % 7 x R.dXbXdX_.I e 1 ; - % $ $ % % - ; 1 2 6 6 8 1 ; ; ; - - - - - - % % % % % % % % % % % % % % $ $ $ $ % $ % $ % $ $ $ $ $ $ $ $ $ $ $ $ $ $ + + + + $ $ $ % % % - - - - - ; > - - % % - - ; ; ; 1 5 5 1 1 ; 1 2 6 q q 2 1 ; ; - - - - - - - - - - - - - - - - - - - - - - - - - - - - - - - - ; ; ; ; ; ; ; ; ; ; ; ; ; ; ; ; - ; ; ; - - - - - - - - - - - - - - - - - - - - - - - - - - - - - - - ; ; ; ; ; ; ; 3 5 > - - 3 3 1 3 1 1 ; ; - % % - - - ; - - - - - - % % % $ % % % % $ $ $ $ % % % % % % % % % % % % % % % % % % % % % % % $ % $ $ $ $ $ % % % % % % % % - % % % % % - - 1 1 4 2 2 4 5 ; % % $ $ $ $ $ $ $ $ % - ; 2 2 6 e f n. XuXuXdXC.s 2 $ O O . . .       + - ; 1 1 1 ; ; ; 1 1 1 1 1 1 1 1 1 1 1 1 1 1 1 1 1 1 1 1 1 1 1 1 1 1 ; 1 1 2 6 7 7 7 7 7 7 7 7 6 6 6 ",
"+ + + + % - 1 2 6 6 7 6 2 1 ; ; - - - - - ; 1 4 1 ; - - ; 1 7 e 7 7 7 6 6 6 7 2 $ O + # & + + $ $ $ % % % % $ $ % % % % % % % % % - % % % % % % - - - % & + O .     . . . O + % 7 x R.yXbXdX_.I e 1 ; - % $ $ % % - ; 1 2 6 6 8 1 ; ; ; - - - - - - % % % % % % % % % % % % % % $ $ $ $ % % % $ % $ $ $ $ $ $ $ $ $ $ $ $ $ $ + $ + + $ $ $ % % - - - - ; - ; ; - - - - ; ; 3 5 1 1 1 1 1 ; ; 1 2 6 q q 2 1 1 ; - - % % - - - - - - - - - - - - - - - - - - - - - - - ; - - - - ; ; ; ; ; ; ; ; ; ; ; ; ; ; ; ; - - ; ; ; ; - - - - - - - - - - - - - - - - - - - - - - - - - - - - - - - ; ; ; - ; 3 5 , % - > 3 3 1 1 2 1 1 ; - % % - ; > ; - - - - % % % % % % % $ $ $ $ $ $ $ $ % % % % % % % % % % % % % % % % % % % % $ $ $ $ $ $ $ $ % % % % % % % % - - % % % % - - ; 1 4 2 2 4 5 ; - % % $ $ $ $ $ $ $ % - ; 2 2 6 e f n. XaXaXdXn.s 2 $ O . . . .       + - ; 1 2 1 ; ; ; 1 1 1 1 1 1 1 1 1 1 1 1 1 1 1 1 1 1 1 1 1 1 1 1 1 1 ; 1 1 2 6 7 7 e 7 7 7 7 7 6 6 6 ",
"+ + + $ % - 1 6 6 6 6 6 2 1 ; - - - - - ; ; 1 4 ; ; - % ; 1 7 e 7 7 7 6 6 6 7 2 $ O + # & $ + $ $ % % % % % % % % % % % % % % % - - % % % % % % - - - % & + O .     . . . O + % 7 x R.yXbXdX_.I e 1 ; - % $ $ $ % - ; 1 2 6 6 6 ; ; - ; ; - - - - - - % % - - - % % % % % % % % $ $ $ $ % % % $ $ $ $ $ $ $ $ $ $ $ $ $ $ $ $ $ $ $ $ $ $ % % : - - - - ; - - - - - ; ; ; 3 3 5 1 1 1 ; ; ; ; ; 1 2 q q 2 1 1 ; - % % % % - - - - - - - - - - - - - - - - - - - - - ; - - - ; ; ; ; ; ; ; ; ; ; ; ; ; ; ; ; ; ; ; - ; ; ; ; - - - - - - - - - - - - - - - - - - - - - - - - - - - - - - - - - ; - ; 3 , - $ % ; > 3 1 2 2 2 1 1 ; - - - - - - - - , : % % % % % % $ $ $ $ $ $ $ $ $ $ % % % % % % % % % % % % % % % % % % % % $ $ $ $ $ $ $ % % % % % % % - - % % % % % - - ; 1 4 4 4 4 5 ; - % % $ $ $ $ $ $ $ % - ; 2 6 6 e f n.OXaXaXdXn.s 2 % O . . . .       + - ; 1 2 1 ; ; ; 1 1 1 1 1 1 1 1 1 1 1 1 1 1 1 1 1 1 1 1 1 1 1 1 1 1 ; 1 1 2 6 7 7 7 7 7 7 7 6 6 6 6 ",
"& $ $ $ % ; 2 6 6 7 7 6 2 1 ; - - - - - - ; 1 4 ; ; % - ; 2 7 e 7 7 7 7 6 6 7 2 $ O + & & $ $ $ $ % % % % % % % % % % % % % % % % % % % % % % % % % % % = + O .     . . . . + % 7 x R.yXaXdXG.I e 1 ; - % $ $ $ % % ; 1 2 6 6 2 ; ; - - ; - - - - - - % - - - - % % % % % % % % $ $ $ $ % % % $ % $ $ $ $ $ $ $ $ $ $ $ $ $ $ $ $ $ $ $ $ % - , - - - - - - % - ; ; ; 1 1 1 1 1 1 1 1 ; ; ; ; ; 1 2 q q 8 1 1 ; - % % % - - - ; - - - - - - - - - - - - - - - - - - ; ; ; ; ; ; ; ; ; ; ; ; ; ; ; ; ; ; ; ; ; ; ; ; ; ; - - - - - - - - ; ; ; ; - - - - - - - - ; ; - - - - - - - - - - - - - - ; > 5 , % $ % - > 3 1 2 2 2 1 1 ; ; ; - % % - - % - : % % - - % % $ $ $ $ $ $ $ $ $ $ % % % % % % % % % % % % % % % % % % % $ $ $ $ $ $ $ $ % % % % % % % - - - % % % % - - ; ; 4 4 2 2 1 1 - % % $ $ $ $ $ $ % % - ; 2 6 6 e f n.OXaXaXiXn.s 2 % O O . . .       + - ; 1 2 1 ; ; ; 1 1 2 2 1 1 1 1 1 1 1 1 1 1 1 1 1 1 1 1 1 1 1 1 1 1 ; 1 1 2 6 7 7 7 7 7 7 7 6 6 7 6 ",
"& $ $ % - ; 2 6 7 7 7 6 2 1 ; - - : - - - ; 1 4 1 ; - - ; 2 7 e 7 7 7 7 6 7 7 8 $ O + & & $ $ $ $ $ % % % % % % % % % % % % % % % % % % % % % % % % % % = + O .     . . . . + % 7 x R.yXaXdXG.I e 1 ; - % $ $ $ % % ; 1 2 2 6 2 ; - - ; ; ; - - - - - - - - - - % % % % % % % % $ $ $ $ % % % $ $ $ $ $ $ $ $ $ $ $ $ $ $ $ $ $ $ $ $ $ % % - - - - - - - % % - ; 1 1 1 1 1 1 1 1 ; ; ; ; - - ; 1 1 0 q 8 2 1 ; - % % % - - ; ; ; - - - - - - - - - - - - - - - - ; ; ; ; ; ; ; ; ; ; ; ; ; ; ; ; ; ; ; ; ; ; ; ; ; ; ; ; ; - - - - - - ; ; ; ; ; ; ; ; ; ; ; ; ; ; ; ; - - - - - - - - - - - - ; 3 3 , % $ % - ; 1 1 1 2 1 1 ; 5 3 3 ; - % % * % * % % - - - - % % $ $ $ $ $ $ $ $ $ $ % % % % % % % % % % % % % % % % % % $ $ $ $ $ $ $ $ % % % % % % % - - - % % % % % - - ; 1 4 2 2 1 1 ; - % $ $ $ $ $ $ % % - ; 2 6 6 e f C.OXaXaXiXn.s 2 % O O . . .       + - ; 1 2 1 ; ; ; 1 1 2 2 1 1 1 1 1 1 1 1 1 1 1 1 1 1 1 1 ; ; ; ; 1 1 1 1 1 2 6 7 7 7 7 7 7 7 7 6 7 6 ",
"% % % % - ; 2 6 7 7 7 7 6 1 ; - - - - - - ; 1 2 1 ; - - ; 2 7 e 7 7 7 7 7 7 7 8 $ + + & & $ $ $ $ $ % $ = % % $ $ $ $ $ $ $ % % % % % % % % % % % % % = & + .       . . . O + % 7 x R.yXaXdXG.I e 1 ; - % $ $ $ % % ; 1 2 2 2 2 ; - - - ; - - - - - - - - - - - % % % % % % % % $ $ $ $ % % % % $ $ $ $ $ $ $ $ $ $ $ + $ + $ $ $ $ $ % % - - - - - - - % % - ; 1 1 1 1 1 1 1 1 ; ; ; ; ; - - - ; 1 6 u 8 2 1 ; - % % % - - ; ; ; ; ; - - - - - ; ; ; ; - - - ; - - ; ; ; ; ; ; ; ; ; ; ; ; ; ; ; ; ; ; ; ; ; ; ; ; ; ; ; ; ; ; - - - - - - ; - ; ; ; ; ; ; ; ; ; ; ; ; - - - - - - - - - - - - 3 3 > - % $ % % ; ; 1 1 1 1 ; ; 5 3 3 ; - % % $ % = % % - ; ; - % = $ $ $ $ $ $ $ $ $ $ % % % % % % % % % % % % % $ % % % $ $ $ $ $ $ $ $ $ % % % % % % % - - - % % % % % - - ; 1 2 2 1 1 1 ; - % $ $ $ $ $ $ % % - ; 2 6 6 e f C.OXaXaXiXn.s 2 $ O O . . . o o   + - ; 1 2 1 ; ; ; 1 1 2 2 1 1 1 1 1 1 1 1 1 1 1 1 1 1 1 1 ; ; ; ; 1 1 1 1 1 2 6 7 7 7 7 7 7 7 6 6 6 6 ",
"* % % - - 1 2 q e e e 7 6 1 ; - - - - - - ; 1 2 1 ; - - ; 2 7 e 7 7 7 7 6 7 7 8 $ O + & & $ $ $ $ $ $ = = $ % $ $ $ $ $ $ $ $ $ % % $ $ $ $ $ % % % % = & O .       . . . O + % 7 x R.yXaXyXG.I e 1 ; - % $ $ $ % - ; 1 4 2 2 1 ; - - - ; ; - - - - - - - - - - % % % % % $ % % $ $ $ % % % % % % $ $ $ $ $ $ $ $ $ $ + + + $ $ $ $ % % - - - - - - - - - - ; 3 1 1 1 1 1 1 1 1 ; ; ; ; ; - - - ; 1 6 u q 2 1 ; - - - - - - ; ; ; ; ; ; ; - - - ; ; ; ; ; ; ; ; ; ; ; ; ; ; ; ; ; ; ; ; ; ; ; ; ; ; ; ; ; ; ; ; ; ; ; ; ; ; ; ; ; - - - - - - ; ; ; ; ; ; ; ; ; ; ; ; ; - - - - - - - - - - - ; 1 1 ; % $ $ $ $ - ; ; 1 1 ; ; ; 4 2 2 5 3 > - $ % % % % - - : ; - * % % $ $ $ $ $ $ $ $ % % % % % % % % % % % % % $ % % % $ $ $ $ $ $ $ $ % % % % % % % - - - - % % % % - - - ; 1 1 1 1 1 1 ; - % $ $ $ $ $ $ % % - 1 2 6 6 e f C.OXaXaXiXn.s 2 $ O O . . . o o . + - ; 1 1 1 ; ; ; 1 1 2 2 1 1 1 1 1 1 1 1 1 1 1 1 1 1 ; ; ; - ; ; ; 1 1 1 1 2 6 7 7 7 7 7 7 7 6 6 6 6 ",
"% - % % - 1 6 q 7 e e 7 6 1 ; - - - - - - ; 1 4 1 - - - - 1 q e 7 7 7 6 6 6 7 8 $ O + & + + $ $ $ $ $ $ $ $ $ $ $ $ $ $ $ $ $ $ $ $ $ $ $ $ $ $ $ $ $ $ $ + .       . . . O + - 7 x R.dXaXyX_.I e 1 - % % $ $ $ % - ; 1 1 1 1 ; - - - - - - - - - - - - - - - - % % % % % % % & $ $ % % % % % % % % $ $ $ $ $ $ $ $ $ + + + + $ % - - : - % - - % % - ; ; 1 1 1 2 1 1 1 1 1 1 ; ; ; ; ; ; - - - ; ; 2 u i 6 1 ; - - ; ; ; ; ; ; ; ; ; ; ; ; ; ; ; ; ; ; ; ; ; ; ; ; ; ; ; ; ; ; ; ; ; ; 1 ; 1 ; 1 ; 1 ; 1 ; ; ; ; ; ; ; ; ; ; ; ; ; ; ; - - - - ; ; - - ; - ; ; ; ; ; ; - ; ; ; ; ; ; ; ; ; - ; 2 8 2 % $ $ $ = $ - ; 3 ; ; - ; 2 6 8 8 2 1 ; - % % % % % % : - - - - % % % $ $ $ $ % % % % - - % % % % % % % % % % % % % % % % $ $ $ $ % % % % % % - - - - - % : % % % - - - - ; ; 1 1 1 1 1 - $ $ $ $ + $ $ $ % - 1 2 6 7 e c C.iXaXaX XO.a 2 $ O O O O .     . + , ; 1 1 1 1 1 1 1 2 2 2 1 1 1 1 1 1 2 2 2 2 2 2 1 1 ; - % $ % - ; 1 1 1 2 2 7 7 7 e e e 7 7 6 6 6 6 ",
"% - % % - ; 4 q 7 e e 7 6 1 ; - - - - - - ; 1 4 1 - - - - 1 q e 7 7 7 6 6 6 7 6 $ . + # + + $ + $ $ $ $ % $ $ $ $ $ $ + + + $ $ $ $ $ $ + $ $ $ $ $ $ $ & + .       . . . O + - 7 x R.dXaXyX_.I e 1 - % % $ $ % % - 1 1 1 1 > - - % % - - - - % - - - - % % % % % % % % % $ $ & $ $ $ % % % % % % % % $ $ $ $ $ $ $ + + + + $ $ - - - - - % % % % % - ; 1 2 2 2 2 1 1 1 1 1 ; ; ; ; ; ; ; - ; - - ; 2 p i 7 1 ; - - ; ; 1 1 ; ; ; ; ; ; ; ; ; ; ; ; ; ; ; ; ; ; ; ; ; ; ; ; ; ; ; ; 1 1 1 ; 1 1 1 1 1 1 1 ; ; ; ; ; ; ; ; ; ; ; ; ; ; ; - - - - ; ; - - - - - - ; ; ; - - - ; ; ; 1 ; ; ; ; - ; 8 9 1 % $ + + = % % - ; ; ; - ; 2 6 6 8 8 2 1 ; - % % % % % : - - - - - % % $ $ $ $ % % % - - - % % % % % % % % % % % % % % % $ $ + $ $ % % % - % - - - - % % % - - % % - - - ; ; ; 1 1 1 1 1 ; $ $ $ $ + $ $ $ % - 1 2 6 7 e c C.yXaXaX XO.a 1 $ @ O O O .     . + : ; 1 1 1 ; 1 1 1 2 2 2 1 1 1 1 1 1 2 2 2 2 2 2 1 ; - % $ + % - ; ; 1 1 2 6 7 7 7 e e e e 7 6 6 6 6 ",
"% - % % - 1 4 q 7 e e 7 6 1 ; - - - - - - ; 2 4 1 ; - - - 1 7 e e 7 7 7 6 7 7 6 $ O + & + + $ $ $ $ $ $ % % % $ $ $ $ $ $ $ $ $ $ $ $ $ $ $ $ $ $ $ $ $ & + O       . . . O + - 7 x R.dXaXyX_.I e 1 ; - % $ $ % % - ; ; 1 3 ; - : - - : - - - - - - - % % % % % % % % % % $ $ $ $ $ $ $ % % % % % $ $ $ $ $ $ $ $ $ + + + + $ $ % - - , - % % % % - - ; 1 2 2 2 1 1 1 1 1 1 ; ; ; ; ; ; ; - - - - ; 2 p i 7 1 ; - - ; ; 1 ; ; ; ; ; ; ; ; ; ; ; ; ; ; ; ; ; ; ; ; ; ; ; ; ; ; ; ; ; ; ; ; ; ; ; ; ; ; ; ; ; ; ; ; ; ; ; ; ; ; ; ; - ; ; - - - - ; ; ; - - ; - ; - ; - - - - ; ; ; ; ; ; ; - - ; 0 0 ; $ + O + $ = % - - - ; - ; 1 2 2 6 2 2 1 ; ; % $ $ % - : - - - - % % % $ $ $ $ $ % % % % % % % % % % % % % % % % % % $ % $ $ + $ $ % % % % % % - - - % % % - - % - - - - ; ; ; 1 1 1 1 1 ; $ $ $ $ + $ $ $ % - 1 2 6 7 e c C.yXaXaX XO.a 1 $ @ O O O .     . $ - ; 1 1 1 ; ; 1 1 2 2 2 1 1 1 1 1 1 1 1 2 2 2 1 1 ; - % $ + % - ; ; 1 1 2 2 7 7 7 7 7 7 7 7 6 6 6 6 ",
"% - % % - 1 6 q 7 e e 7 6 1 ; - ; ; - - ; ; 2 4 1 ; - - ; 1 7 e e e 7 7 7 7 7 8 $ O + & + + $ + $ $ $ $ $ % % $ $ $ $ $ $ $ $ $ $ $ $ $ $ $ $ $ $ $ $ & & + O       . . . O + - 7 x R.dXaXyX_.I e 2 ; - % % $ % % - ; ; ; ; - % % % % % - - % % % % % % % $ $ % % % % % % $ $ $ $ $ $ $ % $ $ $ $ $ $ $ $ $ $ $ $ $ + + + $ $ % % - , , - - % % - ; ; 1 2 2 2 2 1 1 1 1 1 ; ; ; ; ; ; ; ; ; - - - ; 2 7 i 7 1 1 ; - ; ; ; ; ; ; ; ; ; ; ; ; ; ; ; ; ; ; ; ; ; ; ; ; ; ; ; ; ; ; ; ; ; ; ; ; ; ; ; ; ; ; ; ; ; ; ; ; ; ; ; ; ; ; - - - - - - - - ; ; ; - - ; ; ; - - - - - - ; ; ; ; ; ; - - , , w w - + O O O # = % % - - - - - 1 1 2 2 8 2 2 1 ; - % % % % - - - ; - - % % $ $ $ $ $ % % % % % % % % % % % % % % % % % $ $ $ $ $ + $ $ % % % % % % - - % % % % - - % - - - - - ; ; 1 1 1 1 1 ; % $ $ $ + + $ $ % - 1 2 6 7 e x Z.yXaXaX XO.a 1 $ @ O O O .     . + , ; 1 1 1 ; ; 1 1 2 2 2 1 1 1 2 1 1 1 1 1 2 1 1 1 ; - % $ + % - ; ; 1 1 2 2 6 7 7 7 7 7 7 7 6 6 6 6 ",
"- - - % - ; 4 7 7 e e 7 6 2 ; - ; ; - - ; 1 2 4 1 ; - - ; 1 7 e e e 7 7 7 7 7 6 % O + & + + $ + $ $ & $ & $ & $ $ $ $ $ + + + $ $ $ $ + + $ $ $ $ $ $ & # + .       . . . O + - 7 x R.dXbXyX_.I e 2 ; - % $ $ % % - ; ; ; - % $ $ $ $ % % % % % % % $ $ $ $ $ $ % % % % % $ $ $ $ $ $ $ $ $ $ $ % $ $ $ $ $ + + $ $ $ $ $ $ % * - - - - - - - - ; ; 1 4 2 2 2 2 1 ; ; ; ; ; ; ; ; ; ; ; - - - - - ; 1 7 i 7 2 1 ; - ; ; ; ; ; ; ; ; ; ; ; ; ; ; ; ; ; ; ; ; ; ; ; ; ; ; ; ; ; ; ; ; ; ; ; ; 1 1 1 ; ; ; ; ; ; ; ; ; ; ; ; ; ; ; - - ; ; ; ; ; ; ; ; ; ; ; ; ; ; ; ; - - - - - ; ; ; ; ; - - - , w w * + O O # # = = - - - - - - ; 1 1 2 2 2 2 4 3 > - % % % % - ; ; - - % % % $ $ $ $ $ % % % % % % % % % % % % % % $ $ $ $ $ $ $ + $ $ % % % % % % % % - - % - % % - - - - - - ; ; 1 1 1 1 1 ; % $ $ $ + + $ % % - 1 2 6 7 e x Z.yXaXaX XO.a 1 $ @ O O O .     . + , ; 1 1 1 ; ; 1 2 2 2 2 1 1 2 2 2 1 1 1 1 1 1 1 1 ; - % $ + % - ; ; 1 1 2 2 6 7 7 7 7 7 7 7 6 6 6 6 ",
"- - - % - 1 4 7 e e e 7 6 2 ; ; ; ; ; ; ; 1 2 6 2 ; - - ; 2 7 e e e e 7 7 7 7 8 $ O + & + + + + + $ $ $ & & & & + + + + + + + + & # # + + + $ $ $ $ $ & # O .       . . . O + - 7 x R.dXaXyX_.I e 2 ; - % & & $ % - ; - - - % $ $ % % % % % % % % % $ $ $ $ $ $ % - % % % $ $ $ $ $ $ $ $ $ $ $ $ $ $ $ $ $ $ $ $ $ $ $ $ % % - - - - - - - ; ; 1 1 2 2 2 2 2 1 1 ; ; ; ; ; ; ; ; - ; ; ; - ; ; - ; 1 6 u u 2 1 ; ; ; ; ; ; ; ; ; ; ; ; ; ; ; ; ; ; ; ; ; ; ; ; ; ; ; ; ; ; ; ; ; ; 1 1 1 1 1 1 1 ; ; 1 1 ; 1 ; ; ; ; ; ; ; ; ; ; ; ; ; ; ; ; ; ; ; ; ; ; ; ; ; ; ; ; - - - - ; ; ; ; ; - - % % < < + . . . . # + = : : - - % - ; ; 1 1 2 2 2 2 2 3 > - % % % - ; ; ; - - % % % $ $ $ % % % % % % % % % % % % % % % % $ $ $ $ $ $ $ $ $ % % % % % % % - - - - - - % - - - - - ; ; ; 1 1 1 2 2 1 % $ $ $ + + $ $ % - 1 2 6 7 e x Z.yXaXaX XO.a 1 $ @ O O O .     . + , ; 1 1 1 ; ; 1 1 2 2 2 1 1 2 2 2 1 1 1 1 1 1 1 ; ; - % + + % - ; ; 1 1 2 2 6 6 7 7 7 7 6 6 6 6 6 6 ",
"- - - % - 1 4 9 e e e 7 6 2 ; ; ; ; ; ; ; 1 2 8 1 ; - ; ; 2 t e e e e 7 7 7 7 4 $ O + # + + + + + # # # # # # # + + + + + + + + # # # + + + + $ $ $ & & + O .       . . . O + - 7 x R.dXaXyX_.I e 1 ; % % & & $ % - - - - - % % % % % : - - - - - - % % % $ $ $ - - - - % % % % $ $ $ $ % $ $ $ % $ $ $ $ $ $ $ $ $ $ % % % - : - - - - - ; 1 1 2 2 8 2 2 2 2 1 1 1 ; ; ; ; ; ; ; ; ; ; ; ; ; ; ; ; 1 6 u p 6 1 ; ; ; ; ; ; ; ; ; ; ; ; 1 ; 1 ; 1 ; 1 ; ; ; ; ; ; ; ; ; ; ; 1 1 1 1 1 1 1 1 1 1 1 1 1 1 1 1 1 1 ; ; ; ; ; ; ; ; ; ; ; ; ; ; ; ; ; ; ; ; ; ; ; ; ; ; ; ; - - - - ; ; ; ; , - $ $ $ + O .       . O + $ % : - % % - ; ; 1 2 2 8 2 2 4 3 ; - - - - ; ; ; ; - - % % % % $ % % % % % % % % % % % % % % % % % $ $ % $ $ $ $ $ % % % % % - - - - - - - - - - - - - - ; ; ; 1 1 1 2 2 1 % $ $ $ $ + $ % % - ; 2 6 7 e x Z.yXaXaX XO.a 1 $ @ O O O .     . + , ; 1 1 1 ; ; 1 1 2 2 2 1 1 2 2 2 1 1 1 1 1 1 ; ; - % $ + + % - ; ; 1 1 2 2 6 6 6 6 7 6 6 6 6 7 7 7 ",
"- - - % - 1 4 9 e e e 7 6 2 ; ; ; ; ; ; ; 1 2 8 2 ; - ; ; 2 t r e e 7 7 6 6 7 4 $ . O # + O + O + + + + # # + + + + + + + + + + + + + + O + + + + + # # # . .       . . . O + - 7 x R.dXaXyX_.I e 1 - % & & & $ % - - - - - - % % : : : - - - - - - - % % $ $ % - - - - % % % % $ $ % $ % % % % % % $ $ $ $ $ $ $ $ % % % - - - - - - - - ; 1 2 8 8 8 2 2 1 1 1 1 1 ; ; ; ; ; ; ; ; ; ; ; ; ; ; ; ; 1 6 u p 6 2 1 ; ; ; ; ; ; ; ; ; ; ; 1 1 1 ; ; 1 1 ; ; ; ; ; ; ; ; ; ; ; 1 1 1 1 1 1 1 1 1 1 1 1 1 1 1 1 1 1 ; ; ; ; ; ; ; ; ; ; ; ; ; ; 1 ; ; ; ; ; ; ; ; ; ; ; ; ; - - - ; ; ; - ; - % $ + O O .         . . O + $ % - - % - - ; 1 2 2 8 8 2 1 1 ; ; ; - - ; ; ; ; ; - - % % % % % % % % % % % % % % % % % % % % % % % % % $ $ $ % % % % % - - - - - - - - - - - - - - - - ; ; 1 1 1 2 2 ; % $ $ $ $ + $ $ % - ; 2 6 7 e x Z.yXaXaX XO.a 1 $ @ O O O .     . $ , ; 1 1 1 ; ; 1 1 2 2 2 1 1 2 2 1 1 1 1 1 1 ; ; ; - % $ + + % - ; ; 1 1 2 2 6 6 6 6 6 6 6 6 6 7 7 7 ",
"- - - - - 1 2 7 e e e 7 6 2 ; ; ; ; ; ; ; 1 2 8 2 1 - - ; 2 7 r e e 7 7 6 6 7 4 $ . . O O O O O O O O O O O O O O O O O O O O O O O O O O O O + + + + O O .         . . . O + - 7 v R.pXbXdXG.m e ; % $ & # # $ $ % - - - - - : % % : - - - - - - - - : % % $ % - - - - % % % % % % % % % % % % % % % % % $ % $ % % % - - - ; ; - - % - ; 1 2 2 8 8 2 2 2 1 1 1 1 ; ; ; ; ; ; ; ; ; ; ; ; ; ; ; ; ; 1 2 7 u 7 2 1 ; ; - ; ; ; ; 1 1 1 1 1 1 1 1 ; ; ; 1 ; ; ; ; ; ; ; ; ; ; 1 1 1 1 1 1 1 1 1 1 1 1 1 1 1 1 1 ; ; ; ; ; ; ; ; ; ; ; ; ; ; ; 1 ; ; ; ; ; ; ; ; ; 1 1 ; ; ; ; ; ; ; ; ; > - % $ + O . .           . . + $ % - - - % - ; 1 1 2 2 2 4 1 ; ; 3 3 ; - - ; ; > > ; - - % % % % % % % % % % % % % % % % % % % % % % % % % % % % % % % - - - - - - - - - - - - - - - - - ; ; ; 1 1 1 1 ; % $ $ $ $ + $ $ % - ; 2 6 7 r x F.oXaXaX X' a 1 $ @ O . O .     . + , ; 1 1 1 1 ; 1 1 2 2 2 1 1 1 2 1 1 1 ; ; ; ; ; - - % $ + + % - > ; 1 1 2 2 6 6 6 6 6 6 6 6 7 7 7 7 ",
"- - - - - 1 2 7 e e e 7 6 2 ; ; ; ; ; ; ; 1 2 8 2 1 - - ; 2 7 r e e 7 7 6 6 7 4 + . . . . . . . . . O O O O O O . . . . O O O O O O O O . O O O O O O O O .         . . . O + - 7 x T.dXbXdXG.m 7 ; % $ & # + + $ % - - - - % % % % - : - - ; ; - - - - % % % % - - - - % % % % $ $ $ % % % % % % % % $ % $ $ $ % % % - - - ; - - - - ; ; 4 4 2 2 2 2 2 1 1 1 ; ; ; ; ; ; ; ; ; ; ; ; ; ; ; ; ; ; ; 1 1 6 9 7 2 1 ; - - : - ; ; ; ; ; ; ; ; ; ; 1 ; ; ; ; ; ; ; ; ; ; ; ; ; ; 1 1 1 1 1 1 1 1 1 1 1 1 1 1 1 1 1 1 ; ; ; ; ; ; ; ; 1 1 1 1 1 1 1 1 1 1 1 1 1 1 1 ; ; ; ; ; ; ; ; ; ; ; - : $ + O .   o o o o       . O + & * % % % - ; 1 1 2 2 2 4 1 ; ; ; 3 ; ; - - ; ; ; ; - - % % % % % % % % % % % % % % % % % % % % % % % % % % % % % % % % % - - - - - - - - - - - - - - - - ; ; 1 ; ; ; ; % $ $ $ $ + $ $ % - ; 2 6 7 r x F.oXaXaX X' a 1 $ @ O O O .     . + : ; 1 1 1 ; ; 1 1 2 2 2 1 1 1 1 1 1 ; ; ; ; ; ; - - % $ + + % ; > ; 1 1 2 2 6 6 7 6 6 6 6 6 7 7 7 7 ",
"- - - - - 1 2 7 e e e 7 6 2 ; ; ; ; ; ; ; 1 2 8 2 1 - - ; 2 7 r e e 7 7 7 6 7 4 + . . . . . . . . . . . . . . . . . . . . . . . . . . . . . O O O O O O . .         . . . O + - 7 x T.dXbXyXD.m 7 ; % $ & + + + $ % % % % % % % % % % % - - ; ; ; ; - - - % % % : - : % % % % % $ $ $ $ $ % % % % % % $ % $ $ $ % % % : - - - - % - - ; ; 3 3 5 4 2 3 1 1 ; ; ; ; - - - - - - - ; ; ; ; ; ; - - - ; ; ; 2 q q 2 1 ; % $ $ $ - ; ; ; ; ; ; ; ; ; ; ; ; ; ; ; ; ; ; ; ; ; ; ; ; ; ; ; ; ; ; ; ; ; ; ; ; ; ; ; ; ; ; ; ; ; ; ; ; ; ; ; ; ; ; ; ; ; ; ; ; ; ; ; ; ; ; ; > > , - - - - - > : : $ + O .       o o o     . O + = * * % % % - ; 1 1 1 1 3 ; - - ; 3 , > ; - - - - , - : % % % % % % % % % % % % % % % % % % % % % % % % % % % % % % % % % % - - - - - - - - - - - - - - - - ; ; ; ; ; ; % $ $ $ $ + + $ % - ; 2 6 7 r x F.oXaXaX X' a 1 $ @ O O O .     . $ - ; 1 1 1 1 ; 1 1 2 2 2 1 1 1 1 1 ; ; ; - - - - - - % $ + + % - > ; 1 1 2 2 6 6 6 6 7 6 6 6 7 7 7 7 ",
"- - - - - 1 2 7 e r e 7 6 2 ; ; ; ; ; ; ; 1 2 8 1 ; - - ; 2 7 r e e e 7 7 7 7 4 + . . . . . . . . . . . . . . . . . . . . . . . O O O O O O O O O O O O . .         . . . O + - 7 x T.dXbXyXD.m 7 ; - % $ + + + $ $ % % $ $ + + & % % % - - - ; ; - - - % % % % % % % % % = = $ $ $ $ $ & $ & $ & $ & $ & $ $ $ & % * : : - : % % - : , > > 3 3 3 > > ; : - - - : - : - : , - , - , : - : - : : : : - - 1 w w 2 ; - = + O + % - - - : , - , - , > , > , > > > > , - , , , , , , - - - - - - - - - - - - - - - - - , - , - - - - - - : - - , : , - - - - : - : - > > : - % % $ $ : : : < * $ + O .       o o o     . O + = = * * % % : , ; ; ; ; > - % % - , , < , - - % - : : : * % % $ $ $ & & $ $ $ $ $ $ $ $ $ % * * = % % % = $ & $ = = = = = * * - : - : - - - - - - - - - - - - ; - - - - % $ $ $ $ + + $ % - ; 2 6 7 r c F.yXaXaX X' a 1 & @ O O O .     . + , ; 1 1 1 ; ; 1 1 2 2 2 1 1 1 1 ; ; ; - - - - - - - % % $ + % ; > ; 1 1 2 2 6 6 7 7 7 7 7 7 7 7 7 7 ",
"- - - - - 1 8 7 e r e e 6 2 1 ; ; ; ; ; ; 1 2 8 1 ; - - ; 2 7 r e e e e 7 7 7 4 $ . . O O . . . O O O O O O O O O O O O O O O O + + + O O O + + + + + + O .         . . . O + - 7 x T.dXbXdXG.m e 1 ; % $ + + + $ $ $ $ + + O O + + & % % : - - - - - % % % & & & $ & $ # + # + + + + + # + & $ & + + + + + + + & $ = = = % % $ % * : : : : : < * * % % % % % = % $ % % % = % = = = = = = = % % % * = % , w w 1 - * & # . O $ % % % % % % % % % % * % % % * % * % = % = % = % % * * * * - * : - * * * * * * * * * = = = = = % % * * * * * * : * * * * * * * * * * * * = $ + + + % * * = = # O . . . .           . . . # # = = = $ $ * - - - - * * $ + $ $ % * * * $ $ $ $ = = = & $ $ + + + # # + + + + + + + + + $ = = = & & $ & + + + + # # $ $ $ $ $ % % % - - - - - - - - - - - - - - - - , % $ $ $ $ + + $ % - ; 2 6 7 r c F.yXaXaX X' a 1 $ @ O O O .     . + , ; 1 1 1 ; ; 1 1 2 2 2 1 ; 1 ; ; ; - - - - - - - - : % $ $ % - > ; 1 1 2 2 6 7 7 7 7 7 7 7 7 6 9 6 ",
"- - - - - 1 8 7 e r e e 6 2 1 ; ; ; ; ; ; 1 2 2 1 ; - - ; 2 7 r r r e e e 7 e 8 $ O O O O O O O O O O O O O O O + + + + + + + + $ $ $ $ $ $ $ $ $ $ $ $ + O .       . . . O + - 7 x R.pXbXdXG.I r 6 1 ; % $ + + + + + + O O . . O O + = = % - - - - % % % % & + O O O O O O O O . O O O O O O O O O O O O O O O O O + + + + + + + $ $ $ + + + + + + + + + + + + + + + + + + + + + + + + + + + + + + + + $ , ; - % & @ .     O $ + + + + + + + + + + + + $ $ + + + + + + + + + + + + $ $ $ $ $ $ $ + $ $ + $ + + + + + + + + + + + + $ $ $ $ $ $ + + + $ $ $ $ $ + + + + + O O O + # # # + O . . . . . . . .       . . O + + $ $ + + + $ $ $ $ + + + O O + + $ + + + O O + + + + + + O O O O O O O O O O O O O O O + + + + + + + O O O O O O O O O + + + + $ $ = - - - - - - - - - - - - % % % - % $ $ $ + + + + % - ; 2 6 7 r c R.yXaXaX X' a 1 $ @ O O O .     . + , ; 1 1 1 ; ; 1 1 2 2 2 1 ; ; ; - - - - - - - - - - : % $ $ % - > ; 1 1 2 2 6 7 7 7 e e e 7 6 6 6 6 ",
"- - - - - 1 8 7 e e e e 7 2 1 ; ; ; ; ; ; 1 2 2 1 ; - - ; 2 7 r r r r e e e e 9 % + + + + O O + + + + + + + + + + + $ $ $ $ $ $ $ $ $ $ $ $ $ % % % % = & + O       . . . O + - 7 M R.sXnXuX_.L a 7 2 5 - $ + + + + + O .       . O O + $ % % % - % % % * & $ + O . . . . . . . . . . . . . O O O O O . . . . O . . O O O O O O O O O O O . . . O . O O O O O O O O O O O O O O O O O O O O O O O O . O O + % $ + O .       . O O O O O O O O O O O O O O O O O O O O O O O O O O O O O O O O O O O O O O O O O O O O O . . O O O O O O O O O O O O O O O O O O O O O O O . O O O O O O . .     . . . . . . . . .   . . O + + + O O O O O O O O O . . . O O + O O . . . O O O O O O O O O . O . O . O O O O . O O O O O O O O O . . . . . . . . . . . . O + + = - - - - - - - - % % % % % % % - % $ $ $ + + + + % - ; 2 6 7 r c R.yXaXaX X' a 1 $ @ O O O .     . + , ; 1 1 1 ; 1 1 1 2 2 2 1 ; ; ; - - - - - - - - - - : % $ $ % - > ; 1 2 2 6 7 7 7 e e e e 7 6 6 6 6 ",
"- - - - - 1 8 7 e r e e 7 2 1 ; ; ; ; ; ; 1 2 2 1 ; - - ; 2 7 r d r r e e e e 9 - + + # # + + + + + + + + + + + $ $ $ $ $ $ $ $ $ $ $ $ $ $ % % % % % = = # O .     . . . O + - 7 M !.sXnXdX_.L a 7 6 4 > % $ + + + O O .         . . O + & & % % % % % * & + O . . . . . . . .   . . . . . . O O O . . . . . . . . . . . O O O O O O O O . . . . . . . . . . . . . O . . . . . O O O O O O O O O . . O O O + $ + O . o o o . O O O O O O O O O O O O O O . O . . . . . . . . . O O O . O O O O O O . . . . . . O O O O . . . O . O O O O O O O . O O O O O O O O O . . . . . . O O O . . . . . . . . . . . . . X . . . O O + O . O O O O O . . . . . . O O O O . . O O . . . . . . O O O O O O . . . . . . . . . O O O . . O . . .       . . . . . . . . O + = - - - - % % % = $ $ $ $ $ $ $ = $ $ + + + + + + % % ; 2 6 7 r c R.yXaXaX X` a 1 $ @ O O O .     . $ , ; 1 1 1 1 1 1 1 2 2 1 1 ; ; - - - % - - - - - - - : % $ $ % ; 3 1 1 2 2 6 7 7 e e e e e 7 7 6 6 6 ",
"- - - - - 1 8 7 e e r e 7 6 1 ; ; ; ; ; ; 1 2 2 2 ; ; - ; 2 p r r r e e e e e 9 - $ + + & + + + + + + + + + + + $ $ $ $ $ $ $ $ % $ $ $ $ $ % % % % $ $ + + O       . . . O # - 7 v R.sXbXdXG.L a 7 7 8 5 > - $ $ $ + + O . . .       . . O & * % - - - % % + .   X X X . . . .   . O + O O O O O O O O O . . . . . . . . . . . O O . . . . . . . . . . . . . . O . . . . . . O O O O O O O O O O . . . O O O O O O . . . . O O O O O O . O . . . . . . . . . . O O O O O O O O . . O . . . . . O O . . . . . . . . . . . . . . . . . . . . . . . . . . . . . . O O @ @ @ @ O O O O O O O O O O . . . . . . . . @ O . . O O O O . . . . . . . . . . . . O O . . . O . . . . . . . . . . . . O O O O O O O O O O O O O O O . . . O . .     . . . . . . . O + $ = % - - % = $ $ # O O O O O O + + + O O O O O + + $ % ; 2 6 e r v F.yXaXaX X~ a 1 & @ . . . .     . $ - ; 1 1 1 1 1 1 1 1 1 1 ; ; - - - - % % - - - - - - , : % $ - ; 1 1 1 1 2 6 7 e e r r e e 7 7 7 7 7 ",
"- - % % - 1 8 7 e e e e 7 2 1 ; ; ; ; ; ; 1 2 6 2 ; ; ; ; 2 e r r r e e e e e 8 ; $ + + $ $ + + + O + + + + + $ $ $ $ $ $ $ $ $ $ $ $ $ $ $ $ % % % $ $ $ O O       . . . O # - 7 v R.sXbXyXG.L a 7 7 6 4 5 - % % % % $ + O O O . . .   . . O & % - - - % = # O . o X . . . O O . . + $ + O O + + + + + O O O O O O O O O O O O O O O O O O O O O O O O O O O O O O O O O O O O O O O O O O O O O O O O O O O O O O O O O O O O O O O O O O O O O O O O O O O O O O O O O O O O O O O O O O O O O O O O O O O O O O O O O O O O O O O O O O O O O O O O O O O O O O O O O O O + + + + + + + + O + + O O O O + + + O O O O O O O O O O O O O O O O O O O O O O O O O O O O O O O O O O O O O O O O O O O O O O O O O + + + O O O O . .     . . . . . . . O + $ % - - % = = + O . . . . . . O + # O O O O O O + + $ % ; 2 6 e a v F.yXaXaX}.~ a 1 # @ . . . .     O $ - ; 1 1 1 1 1 1 1 1 ; ; ; ; - - - % % % % - - - - - , - % $ - ; ; 1 1 1 2 6 e e r r r e e e 7 7 7 7 ",
"% % % % - ; 8 7 e e e e 7 2 1 ; ; ; ; ; ; 1 2 8 2 ; ; ; ; 2 e r r r e e e e e 8 - $ + # & $ + + + + + + + + + + $ $ $ $ $ % $ $ $ $ $ $ $ $ $ % % % % $ & + O .     . . . O + - 7 v R.pXbXyXG.L a 7 6 6 4 3 ; - : - - * % $ $ + O O .     . . O $ % % % % = # O o o . O . O + $ + + % - % $ $ % % % % & & & & & & & # & $ $ $ $ & & & $ & $ # + + + + + # $ & & & & # # # & & & # # # # # # # # $ + + + + + + + $ $ $ $ $ $ $ $ $ $ $ $ $ $ $ $ $ $ $ $ $ $ $ $ $ $ $ $ $ $ $ $ $ $ $ $ $ $ $ $ $ + + + + + + + + + $ $ $ $ $ $ + + + + + + $ + $ + $ + + + $ $ & & $ & & & $ $ $ $ $ $ $ $ $ $ $ $ $ $ $ $ $ $ $ $ $ $ $ $ $ $ & & & & & & # + # + # + & & & & + $ + $ $ $ + + + $ $ $ $ $ $ + # & & & & & & & + # & & & & + + + O O . . . . .       . O + $ * - - % $ + O . . . . . . O O + # O O O O O + + + $ % ; 2 6 e r v F.iXaXbX}.~ a 1 # @ . . . .     O $ - ; 1 1 2 1 2 1 1 ; ; ; ; - - - - % % % % - - - - - , - % $ - ; ; 1 1 1 2 6 e r r r r r e e 7 7 7 7 ",
"% % % % - ; 8 9 e e e e 7 2 1 ; ; ; ; ; ; 1 2 8 2 ; ; ; ; 2 e r r r e e e e e 8 > $ + # & $ + + + + + + + + + $ $ $ $ % % % % % % % $ $ $ $ % % % % % $ & + O .     . . . O + - 7 v R.dXbXyXG.L a 7 6 2 1 ; - - , , , , , - - * $ O . .   . . O + $ $ $ $ $ + .     . O O + % - - ; 2 2 1 1 1 1 1 1 1 1 1 1 1 ; ; ; ; ; ; ; ; 1 ; ; ; ; ; ; ; ; ; ; ; ; ; ; ; 1 ; ; ; ; ; ; ; ; ; ; ; ; ; ; ; ; ; ; ; ; ; ; ; ; ; ; ; ; ; ; ; ; ; ; ; ; ; ; ; ; ; ; ; ; ; ; ; ; ; ; 1 ; ; ; 1 ; 1 ; ; ; ; ; ; ; - - - - - - - - - - - - - ; ; ; - - ; - ; - ; - ; ; ; - ; - ; ; ; ; ; ; ; ; ; ; ; ; ; ; ; ; ; ; ; ; ; ; ; ; ; ; ; ; ; ; ; ; ; ; ; ; ; ; ; ; - - - - - ; ; ; ; ; ; ; ; ; ; ; - - - - ; ; ; ; - - - - - - - - - - - - - - - - - % % $ + + + O O O       . O + % * * = $ + + O . . . . O O O + + + + + + + + + + + % - ; 2 6 e r v F.iXaXbX}.~ a 1 # @ . . . .     O $ , > 1 1 2 2 2 1 ; ; ; - - - - - - - - - - - - - - - , - % $ - ; 1 1 1 2 2 6 e r r r r r e e 7 7 7 7 ",
"% % % % - ; 2 9 e e r e 7 6 1 ; ; ; ; ; ; 1 2 8 2 ; ; ; ; 2 t r r r e e e e e 8 > $ + # & $ + + + + + + + + $ $ $ $ % % % % % % % % % $ $ $ % % % % % $ & + O .     . . . O # - 7 v R.uXbXyX_.L a 7 6 2 1 ; - - - - > ; ; ; ; , % $ O . . . . . O + $ $ $ + O .     . O + % 2 t e e a a r r r a s s s s s s s s s a a a a s a s a a s s s a a a s a d a d a d s a a a a a a a a a a a a a a a a a a a a a a a a a a a r r r r r r r r r r r r r r r r r r r r r r r r r r r r r r r r r r r r e e e e e e e e e e e e e e e e e e e e e e e e e e e e e e e e e e e e e e e e e e e e e e e e e r e e e e e e r e e e e e e e e e e e e e e e e e e e e e e e e e e e e e e e e 7 e e e e e e e e e 7 7 7 7 7 7 7 7 7 7 7 7 7 7 2 1 ; ; ; % $ # .       O + & * = $ + O O . . . . O O + + + $ $ $ $ + $ $ $ $ $ % - ; 2 6 e r M F.iXaXbX X) a 1 # X . . . .     O % , > 1 1 1 1 1 1 ; - - - - - - - - , - - - - - - - - , - % $ - ; 1 1 1 2 2 6 e r r r r r e e 7 7 7 7 ",
"% % % % - ; 2 9 e r r e 7 6 1 ; ; ; ; ; ; 1 2 2 2 ; ; ; ; 2 t r r r e e r e e 8 - $ + + & $ + + + + + + + + $ $ $ $ $ % % % % % % % % $ $ $ % % % % % & & + O .     . . . O + - 7 v R.dXaXyX_.L s e 6 2 ; - - - - - ; ; ; 1 1 3 , % $ + O . . . O + $ $ $ & O . .   . O + ; j  .%.%.+.` ] ] ] ] [ { [ [ [ [ [ [ ` ] ] { { { { { ` ` ` [ [ [ ` ` ` ` ` ` ` ` ` ` ` ~ { { { ~ ) ~ ~ ~ ) ~ { { ` ~ ~ U U U U ~ ~ ~ { ~ ~ ~ U U U U Y Y Y Y U U Y Y Y Y U U U U U ~ ! ! ! ( ( ( ( ( ! ! ! ! ! ( ( ! ! S S ! ! ! ! ! ! ! ( ( ( ! ! ! ! ! ! ! ! ! ! ! ! ! ! ! ! ! ! I I I I ! ! ! Y I B B B B B B B ! I ! ! ! ! ! ! ! N ! ! ! ! ! ! ! ! S S S S S S S S S S S S S S S S S S S S S S S S S S N N N N N N N N N N N N N M M M B B B D D  .V f f i 8 - $ O .   . . + $ = $ + O . . . O O O O + + $ $ % * = % % % % % % % % - 1 2 6 e a v F.iXaXbX}.~ r 1 # X . . . .     O % , > 1 1 1 1 1 ; ; - - - - - - - - , - - - - ; ; ; - , - % $ - ; 1 1 1 2 2 6 e r r r r r e e 7 7 7 6 ",
"% % % % - ; 2 7 e r r e 7 6 1 ; ; ; ; ; ; 1 2 2 2 ; ; ; ; 2 t r r r e e r e e 8 - $ + + + + + + + + + + + + $ $ $ $ $ $ % % % % % $ $ $ $ $ % % % % % & & + O       . . . O # - 7 M R.dXaXyX_.P s e 7 2 1 ; - - - - ; ; ; 1 2 4 5 ; % $ + O O O + $ = = = & + .     . O $ 1 Z E.KXAX<X>X*X*X*X$X$X%X*X*X*X*X*X*X*X*X*X$X$X$X$X&X&X*X*X*X*X*X&X&X&X&X&X&X&X*X*X*X$X;X=X;X$X$X$X#X#X#X&X$X$X$X$X#X&X&X&X&X&X=X&X&X&X=X=X=X&X&X&X&X&X&X&X&X&X&X&X&X*X*X*X*X*X*X*X&X&X&X&X&X*X*X*X*X&X&X&X&X{.{.{.{.!.!.!.&X&X&X&X&XhXhXhXhXhX&X&X|.|.|.|.|.&X&X&X&X&X&X&X|.|.|.|.|.|.&X&X&X&X&X&X&X{.!.!.&X&X&X&X&X&X&X&X&X&X&X&X&X|.&X&X&X&X&X&X&X&X&X!.!.!.&X&X&X&X&X&X&X!.!.!.T.!.!.!.hXhX!.|.!.hX!.R.R.R.R.!.R.{.{.T.T.Q.Q.Q.Q.Q.Q.!././.!.Q.W.CXE.n.M.$.V 2 % + O . . . O $ & O O . . . O O + + + $ $ % % : : - - * % % : : : - - 1 2 6 e r v F.yXaXbX}.~ r 1 # X . . . .     + % > 3 1 1 1 1 1 ; - - - % - - - - - - - - - ; ; ; ; ; , - % $ - ; 1 1 1 2 2 6 e r r r r r e e 7 7 7 6 ",
"% % % % - ; 2 7 e e r e 7 6 1 ; ; ; ; ; ; 1 2 2 2 ; ; ; ; 2 e r r r e e r e e 8 - + O O + + O + + + + + + + $ $ $ $ $ $ $ $ $ $ $ $ $ $ $ $ $ $ % % % $ $ + O       . . . O # - 7 v R.dXaXyX_.P s r 7 6 1 ; - - - ; ; ; ; 1 2 2 2 1 - % $ $ # + + $ % * = & # O     . + % 2 F W.JXFXkX+X,X,X,X,XkXkXkXkXkXkXkXkXkXkXkXkXkXlXjXjXjXkXkXkXkXkXjXjXkXkXkXkXcXcXcXcXcXzXcXzXzXzXzXkX,X,XkXzXzXzXzXkXxXxXxXxXxXMXNXNXNXcXNXxXxXxXxXxXxXxXxXxXMXMXMXMXMXMXMXMXMXMXMXMXxXcXcXcXcXcXNXcXcXcXxXkXkX+X+XiXxXxXxXxXMXxXMXMXMXNXBXNXNXMXMXsXsXsXsXsXMXMXMXMXMXMXMXMXMXMXMXxXxXcXNXNXNXNXcXxXxXxXMXNXNXNXNXNXNXBXBXBXBXBXBXNXxXMXNXNXNXMXMXNXNXcXcXcXcXcXJXJXcXcXcXcXzXkXkXxXMXMXMXMXMXMXMXMXMXMXnXdXmXxXMXMXxXkXkXkXkXkXkXlXJXJXJXJXJXJXcXlXFX X`. XQ.( e - $ O . . . . + $ O . . O O O + + & $ % % % - : - - - - - - : - - - ; 1 2 7 e r v F.yXaXbX}.~ r ; # X . . . .     + % > 3 1 1 1 1 ; ; - - % % % % % - - - - - - ; ; ; ; ; - - $ $ - ; 1 1 1 2 2 6 e r r r r r e e 7 7 6 6 ",
"% % % % - ; 6 9 e r r e 7 6 2 1 ; ; ; ; ; 1 2 8 1 ; ; - ; 2 7 r r r e e r r e 8 - + O O + + # O + + # $ $ $ $ $ $ $ $ $ $ $ $ % % $ $ $ $ $ $ % % % $ & & + O       . . . O # - 7 M R.dXaXyX_.P z r e 6 2 1 ; - - ; ; ; ; 1 1 2 8 2 1 - % % = = % % - % % * & O . . . + - 6 S T.>X+X+XoXXX>X>XOXOXOXOXOXOXOX+X+XoXoXoX+X+X+XOXOXOXOXOXOXOXOXOXOX+X+X+X+X+X+XpXkX+X+X+X+X+X+X+X+X+X+X+X+X+X+X+XpXpXpXuXuXdXsXsXpXsXyXpXsXyXyXpXpXsXdXdXdXdXdXdXsXdXdXsXsXsXsXsXsXiXOXiXiXpXjXkXkXpXpXpXiXiXOXOXOXpXpXsXsXsXsXsXsXsXsXsXsXsXsXsXsXpXpXsXsXsXsXsXsXsXsXsXsXsXsXpXpXpXpXsXxXpXsXxXpXsXiXiXxXiXiXsXiXsXxXxXxXxXxXxXpXpXpXpXpXpXpXpXpXpX+X,XjXjXkXkXkXjXjX,X,XjXjXjXpXiXdXdXsXdXsXsXsXsXdXdXdXdXsXdXdXpXpXpXpXpXiXiXiXkXkXjXjXiXOXOXOX>X@X@X+X{./ r ; $ O . .   O $ $ O . . . O + $ $ = - : , - - - - - - - - - - - - - ; 1 2 7 e r v F.uXaXaX{.U r ; # X . . . .     + % > > ; 1 1 ; ; - - % % % % % % - - - - - ; ; ; ; ; ; > - $ $ - ; 1 1 1 2 6 7 e r r r r r r e 7 7 7 6 ",
"% % % % - ; 6 9 e r r e 7 6 2 1 ; ; ; ; ; 1 2 6 1 ; ; - ; 2 7 r r r e e r r e 8 - + O O O + # O + + + + $ $ $ $ $ $ $ $ $ $ % % % % & = $ $ = = % % & = & + .       . . . O # - 7 M R.dXaXyX_.P z a e 6 2 1 ; ; ; ; ; ; 1 1 1 2 6 6 2 1 - % % - - - - - : % & O . . . + - 7 S {.OX+X@X(.m.n.n.n.n.C.C.Z.m.m.Z.H.H.H.H.H.H.H.H.Z.H.Z.Z.Z.Z.Z.Z.Z.H.H.H.F.F.F.F.G.D.D.D.D.H.H.H.H.H.H.H.D.D.D.D.D.D.R.R.R.R.R.D.R.{.D.D.D.D.D.{.{.R.R.R.R.R.R.R.R.R.R.R.R.R.R.R.R.R.T.T.T.T.T.T.R.T.T.T.R.T.T.T.T.D.D.T.T.T.T.T.T.{.{.{.{.{.{.{.{.D.D.{.{.{.{.{.{.{.{.{.{.{.{.{.{.{.{. X*X{.|.|.{.{.D.|.&XT.|.|.T.T.{.{.{.{.|.{.D.{.{.{.{.{.{.{.{.{.{.{.#X{.#X#X#X#X#X{.{.{.{.{.{.T.T.|.|.|.|..X{.|.|.|.|.|.|.|.|.|. X X{.|.{.|.{.&X&X&X&X|.{.|.{.D.`.@X+X X` r ; $ O . .   O $ $ O O O + + $ $ % : > > ; - - - - - - - - - - - - - ; 1 2 7 e r M R.uXaXaX{.U r ; + X . . . .   . O % > > ; ; ; ; ; - - % % % % % % - - - - - ; ; 1 ; ; ; > % $ $ - ; 1 1 1 2 6 7 e r r r r r r e 7 6 6 6 ",
"% % % % - ; 4 9 e r r e 7 6 2 1 ; ; ; ; ; 1 2 8 1 1 ; - ; 2 7 r r r r e r r e 8 - + . O O O # O + + + + + + $ $ $ $ $ $ $ $ $ $ & & $ $ $ $ $ $ $ $ & = # # .       . . . O + - 7 M !.sXbXyX_.P z r e 6 2 1 ; ; > ; ; ; 1 1 1 2 6 6 2 1 ; ; - - - ; ; ; - : & + O O O + - 6 S T.jX XD._ M c V c s s c c x x x M M M M M M v c x z z z z z z z z z z z z z z z x x x x x x x x x x x x x x x x x x x x x x x n x N n n n n n m N n n n N N M n N N N N N N N M M N N N N N M N M N N N N N N N N I L I I I U U U I U U U U U U U I I U I U U U U U U U U U U U U U L U U U U I m m m I I I I I I I U I I I U I I I I I I L L I I N N I I I I I I I I I I I N N N N m I I I I I I I I I I I m N I I I ! I S N S N S N S N ! I ! I ~ y.XXkX*X( e - $ O . .   O % % + + $ $ $ % - - , > 3 ; - - - ; ; ; ; ; ; ; - - - ; 1 2 7 e r M D.uXaXaX{.U r ; + X . . . .   . O % , > ; ; ; ; ; - % % % % % % % - - - ; ; ; 1 1 1 1 ; > % $ $ - 1 1 1 1 2 6 7 e r r r r r r e 7 6 6 6 ",
"% % % % - ; 4 7 e r r r 7 6 2 1 ; ; ; ; ; 1 2 8 1 1 ; - ; 2 7 r r r r e r r e 8 - + . . O O O O # # # & + $ $ $ $ $ $ $ $ $ $ $ & $ $ + + + $ $ $ $ $ & # O .       . . . O + - 7 M &XsXnXyX_.P s e 7 2 1 1 ; ; 1 ; ; ; 1 2 1 2 2 6 8 4 3 ; ; ; ; 1 1 ; ; - % + O O O + % 6 S R.jX&Xm.N r 7 7 6 2 6 6 7 7 7 e e r r r r e e 7 7 7 7 7 7 7 7 7 7 7 7 7 7 7 7 7 7 e e e e e e e e e e e e e e e e e e e e e e e r g a r r r a a s a r r a a r r r r r r r r r r e a a a r r r r r r r r r r r r a a a a a s s z z s s z z z z z z s a a a a a s s a s s s s s s s z z z x z z s a a a z z a a s a a a a a a a a a a a a a a a a a a a a a a a a a a a a a a a a a a a a a s s s s s s s s a r a a a a a a r r r r r r r a a a s s x ) }.zX=X( 7 % + . . . . O : - $ $ = * % - ; 3 5 5 5 1 ; - - ; ; ; ; ; ; ; ; ; ; 1 1 2 7 e r M T.uXaXaX{.U r ; + X . . . .   . O % - > ; ; ; - - - % % % % % % % - - - ; ; 1 1 2 1 1 ; > % $ $ - 1 1 1 1 2 6 7 e r r r r r r e 7 6 6 6 ",
"% % % % - ; 4 q e r r r e 6 2 1 ; ; ; ; ; 1 2 8 2 1 ; - ; 2 7 r d a r r r r e 8 - + . . O O O O O + + + + + + + $ $ $ $ $ $ $ $ & & + + + + $ $ $ $ $ + + O .       . . . O + - 7 M &XsXnXyX_.L a 7 6 1 1 ; ; ; ; ; ; 1 1 4 2 2 2 6 2 2 3 ; ; ; 1 1 1 ; ; , % + O O . + % 6 S T.gX=XB.M 7 1 1 ; ; 1 4 2 2 6 9 9 t t t 9 9 8 8 2 8 8 8 8 2 8 8 8 8 8 2 2 2 2 2 2 8 8 8 8 8 8 8 8 8 8 8 8 8 8 8 8 2 2 6 6 6 6 6 7 i u 7 6 e e e k 7 7 6 7 q 6 6 6 6 6 6 6 6 2 2 2 6 8 6 8 6 6 6 6 6 8 6 8 6 6 6 6 6 6 7 7 7 7 7 7 7 7 7 7 7 7 e 7 7 7 6 6 6 6 7 7 7 7 7 7 7 7 7 7 e e r g r e e 7 7 e i i 7 7 7 7 7 6 6 6 6 6 7 6 7 7 7 7 6 6 7 7 7 9 9 9 9 6 7 9 9 9 9 9 9 9 9 7 6 6 7 7 7 7 e e e p p e 7 6 6 6 8 8 8 2 4 2 4 2 4 2 8 8 9 9 9 t d ! #XzX#X( 7 % + . . . . O : ; % % - - ; ; 1 4 2 1 1 1 ; ; ; ; ; ; ; ; ; ; ; ; ; 1 1 2 7 e r M T.uXaXaX{.I r ; + X . . . .   . O $ - - - ; ; - - - % % % % % % % - - - ; ; 1 1 2 2 1 1 ; % $ $ - 1 1 1 1 2 6 7 e r r r r r r e 7 6 6 6 ",
"% % % % - ; 4 q e r r r e 6 2 1 ; ; ; ; ; 1 2 8 2 1 ; - ; 2 7 r d a r r r r e 8 - + . . O O O . O + + + + + + + + + + + + + + + + + + + + + + + + + + + O O .       . . . O + - 7 M !.sXnXyX_.I r 6 2 1 ; ; ; ; ; ; 1 1 2 2 2 2 2 2 2 5 1 ; ; ; 1 1 1 ; ; - $ + O . . O % 6 S T.*X&XB.v 6 ; - - - ; > 1 1 2 8 9 9 9 9 8 8 4 4 3 1 1 1 1 1 ; 1 1 1 1 1 ; 1 1 1 ; 1 ; ; ; ; ; ; ; 1 1 3 1 1 1 1 ; ; ; ; ; 1 1 1 1 q q 2 2 6 6 6 h 8 2 1 1 2 1 1 1 1 5 3 1 ; ; ; ; ; 1 1 1 1 1 1 1 1 1 1 1 1 1 1 2 2 6 6 6 2 2 2 2 2 2 2 2 2 2 2 6 2 1 1 1 1 1 1 1 1 1 1 2 2 2 2 2 6 6 7 u 7 6 2 2 2 6 u q 2 1 2 1 2 1 1 1 1 1 2 2 1 1 1 1 1 1 1 1 2 1 2 1 1 1 1 1 2 2 2 2 2 1 2 1 1 1 1 1 2 2 2 6 8 8 8 8 2 1 1 1 1 ; ; - - - - - - - ; ; 1 1 4 6 d ! {.zX&X( 7 % + . . . . O - ; - - ; ; ; 1 2 6 2 2 2 1 1 ; ; ; ; ; ; ; ; ; ; ; ; 1 1 2 7 e a M T.uXaXaX{.I r - + X . . . .   . O $ - : - - - - - % % % % % % % % % - - ; ; 1 2 2 2 1 1 ; % $ $ - 1 1 1 1 2 6 7 e r r a r r r e 7 6 6 6 ",
"% % % % - ; 2 7 e r r r e 6 2 1 ; ; ; ; ; 1 2 6 2 1 ; - ; 2 7 r d a r r r r e 8 - + . . O O O . O O O O + + O O O O O O O O + + + + + O O + + + + + + + O O .       . . . O + - 7 v R.sXbXyXG.I e 2 1 ; ; ; ; ; ; 1 2 2 2 2 2 2 2 2 1 1 ; ; ; 1 1 1 1 ; ; - $ O . . . O % 6 N D.>X*XV.v 6 ; ; - - - ; ; 1 1 6 6 6 6 6 2 2 1 1 1 1 1 1 1 1 1 1 1 1 1 1 1 1 1 1 1 1 ; ; ; ; ; ; ; 1 ; ; ; ; ; ; ; ; ; ; ; 1 1 1 1 q u 6 2 6 6 6 k w 8 2 2 2 1 1 1 ; ; ; ; - - - - 1 2 2 2 2 2 2 2 6 2 2 2 2 2 2 2 2 2 2 2 2 2 2 2 8 8 8 6 6 8 8 0 1 1 1 1 ; ; ; ; ; ; ; 1 1 1 1 1 6 6 u k 7 2 2 6 6 q k q 2 1 2 2 1 1 ; 1 1 1 1 1 1 1 1 1 1 1 4 4 2 2 2 2 2 1 2 2 2 2 2 2 2 2 2 2 4 4 2 2 2 2 8 8 8 6 8 8 4 2 1 ; ; ; - - - - - - - - ; ; ; 1 2 6 d / }.,X X` e - $ O . .   O : ; ; - ; ; 1 2 2 6 2 2 2 2 5 1 ; ; ; ; ; ; ; ; ; - ; 1 1 2 7 e a A T.pXaXaX{.I e - + X . . O .   . O $ * : - - - - - % % % % % % % % - : - ; ; 1 2 6 2 1 1 ; % $ $ - 1 1 2 1 2 6 7 r r r a r r r e 7 6 6 6 ",
"$ $ $ % - ; 2 6 e r r r e 8 1 ; ; ; ; ; ; 1 2 8 2 1 ; - ; 2 7 r d a r r r r e 8 - O O O O O O . O + + + + + + + + + + + + + + + $ $ + + + + + + $ $ + + O O .       . . . O + - 7 M R.uXaXyXG.m 7 1 ; - - - - ; ; 1 2 8 8 2 2 2 2 2 1 1 ; ; ; 1 1 1 1 ; - - $ O . . . O % 6 N D.>X>XV.v 6 ; ; - - - ; ; 1 2 6 7 6 6 2 1 1 1 1 1 ; ; ; ; ; ; ; ; ; ; ; ; ; ; ; ; ; ; ; ; - - - - ; ; ; ; ; - ; - ; - - ; ; ; 1 1 8 u 6 2 6 2 2 k q 2 1 1 1 1 ; ; 1 ; ; ; 1 1 3 1 2 2 2 2 2 2 2 2 2 2 2 2 2 2 2 2 2 2 2 2 2 2 2 2 2 2 2 2 2 2 2 2 1 1 1 1 1 1 ; ; ; ; ; ; ; ; ; 1 2 6 t i 6 1 1 2 2 7 u 6 ; ; 1 1 1 ; ; ; 1 ; ; 1 ; ; ; ; ; ; 1 1 1 1 1 1 1 1 1 1 1 1 1 1 1 1 1 1 1 1 1 1 1 1 2 2 2 2 2 4 4 2 1 - ; - - % % % % % % % - - ; ; 1 6 a / }.pX X` r - $ O . .   O : ; - - ; ; 1 2 2 2 2 2 6 2 2 1 ; ; ; ; ; ; ; - - - ; 5 2 2 7 e a N T.pXaXaX{.I e - + . . . . .   . O $ * % - - - - - % % % % % % % - - - ; ; 1 2 2 2 2 1 ; - % $ $ - 1 1 2 1 2 6 7 e r r r r r e e 6 6 2 2 ",
"+ + + $ % ; 2 9 e r r e 7 2 1 ; ; ; ; ; 1 1 2 8 2 ; ; ; ; 2 e r r r r r r r e 6 - O . O O O O O + + + # # # + + $ $ $ $ $ $ $ $ % % & # # # & $ $ % % = # # .         . . O + - e n {.aXaXdXG.m 7 ; - % % = = - - 1 2 2 6 6 8 8 8 4 2 1 ; ; ; ; ; ; ; ; - - $ O . . . + % 2 N G.>X>Xm.x 6 ; - - - - ; 1 2 6 7 6 6 2 1 ; ; ; ; ; ; ; ; ; ; ; ; ; ; ; ; ; ; ; ; ; - - - - - - - - ; ; - - - - - - - - ; ; ; 1 1 1 8 u 7 6 9 6 2 u u 6 1 ; ; - ; ; 1 1 2 2 2 8 8 2 2 5 5 1 1 1 1 1 1 1 1 1 1 1 1 1 1 1 1 1 1 1 1 1 1 1 1 1 1 1 1 1 1 1 1 1 2 2 2 2 1 1 1 ; ; ; ; ; 1 6 j j 2 ; ; 1 e r q 2 ; - ; ; ; ; - - - ; ; ; ; ; ; ; ; ; ; ; ; ; ; ; ; ; ; ; ; ; ; ; ; ; ; ; 1 1 ; ; 1 ; ; ; 5 5 4 4 4 2 2 1 - - , % % % % $ % % % - - ; 1 6 a ` }.+X{./ e - + O . . . O - ; - - ; ; ; 1 2 2 2 6 7 6 6 2 1 ; - - ; ; ; - % - ; 1 2 6 7 e a N T.uXuXuX{.I e - + O . . . .     . + % % % : - : % % % % % % % - ; ; ; 1 1 1 1 1 1 1 ; ; - % $ $ ; 1 1 1 1 2 6 7 e r r r r e e 7 q 6 8 2 ",
"O + + $ % - 2 9 e r r e 7 8 1 ; ; ; ; ; 1 1 2 8 2 ; ; ; ; 2 e r r r r r r r e 6 - O . O O O O + + + + + + # + $ $ $ $ $ $ $ $ $ % % & & # # & $ $ % % $ & O .         . . O + - e n {.uXaXdXG.m 7 1 - % $ $ $ $ - ; 1 6 6 8 8 8 8 4 4 1 ; ; ; ; ; ; ; - : * $ O . . O + % 6 M G.>XjXm.x 6 - - - % - ; 1 6 9 9 6 2 1 ; - - - ; ; ; - - - - - - - - - - - - - - - - - - - - - - - - - - - - - - - - - ; > ; ; 1 1 6 h 9 6 6 2 2 q u 6 1 1 ; ; ; 1 1 2 2 2 6 6 8 2 1 1 1 1 ; ; 1 1 1 ; ; ; ; ; ; ; 1 1 1 1 1 1 1 1 1 ; ; ; 1 1 ; ; 1 1 1 1 1 2 2 2 2 1 1 1 ; ; ; ; 1 6 j j 1 - ; 1 e r 7 2 ; - ; ; ; - - - - - - - ; ; ; ; ; ; ; ; ; ; ; ; ; ; ; ; ; ; ; ; ; ; ; ; ; ; ; ; ; ; ; ; ; 3 5 4 4 2 2 1 - - , % % $ & $ $ % % - - ; 1 6 a `  X+X_.( 7 - + O . . . + - ; - - - - ; ; 1 2 6 7 7 7 7 6 2 1 - - ; ; ; : % % ; 2 2 2 6 e a N R.pXuXuXT.S 9 - + O O . X o     O + & % % : : % % % % % % % % - 5 1 1 1 1 1 1 ; 1 1 ; ; , % $ $ ; 1 1 1 1 2 6 7 e r r r r e e 7 6 8 8 2 ",
"+ + + $ % ; 2 7 e r r e 7 2 1 ; ; ; ; ; 1 1 2 6 2 ; ; ; ; 2 t r r r e r r r e 6 - O . . O O O O O + + + + + + + $ $ $ $ $ $ $ $ $ $ $ # + + # $ $ $ $ $ + O .       . . O O + - e n {.uXaXdXI.m e 2 ; % $ $ $ $ % - 1 2 2 2 2 2 4 4 1 ; ; - ; ; - - - - : * $ O . . O + % 6 N G.OXjXN.x 6 - - % - - ; 1 8 9 9 6 1 ; ; - - - ; ; ; - - - - - - - - - - - - - - - - - - - - - - - - - - - - - - - - ; ; > ; ; 1 1 2 h u 6 2 1 1 q i 7 2 2 1 1 1 5 5 1 2 2 2 1 1 1 ; ; ; ; ; ; ; ; ; ; ; ; ; ; ; ; ; ; ; ; ; ; ; ; ; ; ; ; ; ; ; ; 1 1 1 1 1 1 1 1 1 1 1 1 1 ; ; ; 1 7 j d 1 - ; 2 e r q 2 ; ; > ; ; - % % - - - - ; ; ; ; ; ; ; ; ; ; ; ; ; ; ; ; ; ; ; ; ; ; ; ; ; ; ; ; ; ; ; ; ; ; 1 4 4 2 2 1 - - - % % $ $ $ $ % % - - ; 1 6 a `  X+X{.( e - + O . . . + - ; ; - - - ; ; 1 2 6 7 e 7 7 7 6 1 - - ; ; - : % - ; 2 2 2 6 e a N R.uXuXuXT.S 7 - + O O . X o     O # % % % : : % % % % % % - - - 5 5 2 1 1 ; 1 1 1 1 ; ; , % $ $ ; 1 1 2 1 2 6 7 e r r r r e e 7 6 8 2 2 ",
"$ $ $ % - ; 8 t r r r e 6 2 ; - ; ; ; ; 1 1 2 6 2 1 ; ; ; 2 t y r r r r a r r 6 - O . . O O O O O O O O O + + + + $ $ $ $ $ $ $ $ $ + + + + + + $ $ $ $ + O .         . . O + - e N {.uXaXdXI.I r 6 1 ; - % % % % - ; 1 2 4 4 1 3 > ; - - - - - - - - - % = $ O . . O + % 6 N G.OXjXN.x 6 - - - - - ; 1 8 9 6 8 1 ; - - - - ; ; - - - - - - - - - - - - - - - - - - - - - - - - - - - - - - - - ; ; ; > ; ; 1 1 2 u h 6 1 1 1 6 i e 6 2 2 1 3 3 1 1 1 1 1 ; ; ; ; ; ; ; ; ; ; ; ; ; ; ; ; ; ; ; ; ; ; ; ; ; ; ; ; ; ; ; ; ; ; ; ; ; ; 1 1 1 1 1 1 1 5 3 3 3 ; 1 1 u j y 1 - ; 1 i r 6 1 ; - ; ; - - - - - - - - ; - ; ; ; ; ; ; ; ; ; ; ; ; ; ; ; ; ; ; ; ; ; ; ; ; ; ; ; ; ; - ; ; 1 1 2 2 2 2 ; - - % % $ $ $ $ $ % - - ; 1 6 a `  X+X_.( e - + O . . . + - ; ; ; ; ; ; ; 2 2 7 e e e e p 7 2 - - ; ; - - * - ; 2 2 6 6 e a N R.uXuXuXT.S 7 - + O O . X o     O & = % % - - % % % % % - - ; ; 5 4 1 1 ; 1 1 1 1 1 ; ; , % $ $ ; 1 1 2 1 2 6 7 e r r r r e e 7 6 8 2 2 ",
"$ = % % - 1 8 t r r r e 6 2 ; - ; ; ; ; 1 1 2 6 2 1 ; ; ; 2 t y r r r r a r r 9 - O . O O + O O O O + + + + + + + + $ $ $ $ $ $ $ + + + O O + + $ % % $ + O .       . . . O + - e N {.uXaXdXG.I a 7 2 1 ; : : , - - ; 1 1 5 3 3 ; - - % % % % % % % % % % = + O . . O + % 6 N G.OXjXm.x 6 - - - - - 1 2 8 6 8 2 ; ; - - - - - ; - - - - - - - - - - - - - - - - - - - - - - - - - - - - - - ; ; ; ; - ; ; ; ; 1 1 u k 6 2 1 1 2 i r 7 6 2 1 ; ; ; ; ; ; ; - - - - ; ; ; ; ; ; ; ; ; ; ; ; ; ; ; ; ; ; ; ; ; ; ; ; - ; - ; - - ; ; ; ; ; ; ; ; 1 ; ; ; ; 3 3 3 1 2 u j e 1 - ; 2 k p 6 1 - - - - - - - - - - - ; - - ; - ; ; ; ; ; ; ; ; ; ; ; ; ; ; ; ; ; ; ; ; ; ; ; ; - - - - ; ; ; 1 2 2 6 2 ; - - % % $ $ + $ $ % - - ; 1 6 a `  X+X_./ e - + O . . . + - ; ; ; ; ; ; 1 2 6 7 e e e e t 7 2 % % - - % % % % ; 1 2 6 6 e a N R.uXuXuXT.S e - + O O . X o     O $ = % % - - % - % % % - ; ; 1 1 1 1 ; ; 1 1 2 2 1 1 ; , % $ $ ; 1 1 2 2 2 6 7 e r r r r e e 7 6 6 2 2 ",
"% % % % - 1 8 t r r r e 7 2 1 ; ; ; ; ; 1 1 2 6 2 ; ; ; ; 2 t y r r r r a a r 9 - + . O O + + O + + + + + + + $ $ $ $ $ $ $ % % $ $ + + + + + $ $ % % $ $ + .       . . . O + - e N |.uXaXdXG.I a 7 2 1 ; > : , - ; 1 1 1 ; ; > - % % % $ % % % % - - % % = + O . . O + % 6 N G.>XjXm.x 6 ; - - - ; 1 1 8 8 2 1 ; - - - - - - - - - - - - - - - - - - - - - - - - - - - - - - - - - - - - - ; ; > ; - - - ; ; 1 1 8 u 8 2 1 1 2 i r 7 6 2 1 ; ; - - - - - - - - - - ; - ; ; ; ; ; ; ; ; ; ; ; ; ; ; ; ; ; ; ; ; ; ; ; - ; - - - ; ; ; ; ; ; ; ; ; ; ; ; ; ; ; 1 2 u d 7 1 ; ; 5 k p 2 ; - - - ; - - - - - - - ; - - - - - - ; ; ; ; ; ; ; ; ; ; ; ; ; ; ; ; ; ; ; ; - - - - - - - ; ; 1 2 2 6 2 ; - - - % $ $ + $ $ % % - ; 1 6 a `  X+X_.( e - + O . . . + - ; ; ; ; ; ; 1 2 6 7 e e e e e 7 2 % $ % - % $ $ % ; 1 2 6 6 e a N R.uXuXuXT.S e - + O O . X o     O + = % % - - - - - - - ; ; 3 5 1 1 ; ; ; 1 2 2 2 1 1 ; , % $ $ ; 1 1 2 2 2 6 7 e r r r r e e 7 6 6 6 6 ",
"% % % - - 1 8 t r r r r 7 6 1 ; ; ; ; ; 1 1 2 8 2 ; ; ; ; 2 t y r r r r a a r 9 - + O # + + + + + + + + $ $ $ $ $ $ % % % % % % $ $ + + O + & $ % % % % = + .       . . . O + - e N |.aXbXdXG.m r 7 2 1 ; > , - ; ; 1 1 1 ; ; ; % % % % = % % % - - - - * = $ O . . O $ % 6 M G.jXjXm.x 2 - - - - ; 1 2 2 2 1 1 ; - - % - - - - - - - - - - - - - - - - - - - - - - - - - - - - - - - - - ; ; ; ; ; - - - - ; ; 1 1 2 4 1 1 1 1 i r 7 2 1 1 ; - - - - - - - % : - - - - - - ; ; ; ; ; ; ; ; ; ; ; ; ; ; ; ; ; - - - - - ; - - - - ; ; ; ; ; ; ; ; ; ; - ; ; ; ; 2 i i 6 1 ; ; 5 9 6 1 ; - % : - - - - - - - - - ; - - - - - - - - - ; ; - - - - ; ; ; ; ; ; ; ; ; - - - - - - - - ; ; 1 2 2 2 2 1 ; - - % $ $ $ $ $ % % - ; 1 6 a `  X+X_.( 7 - + O . . . + - ; ; ; ; ; ; ; 1 2 6 7 e e e 7 6 1 % $ % - % $ $ $ ; 1 2 6 6 e a N R.uXuXuXT.S e - + O O . X o     O + = % % : - - - - - ; ; 3 1 1 1 1 1 1 1 1 2 2 2 1 1 ; , % + $ ; 1 1 2 2 2 6 7 e r r r r e e 7 6 6 6 6 ",
"- - - - ; 1 6 t r a r r 7 6 1 ; 1 ; ; ; 1 1 2 8 2 ; ; ; ; 2 t y r r r r a a r 9 - O O # + + + + + + + + + + $ $ $ $ % % % % % % $ $ + O O O $ $ % % - * = # O       . . O O + - e N |.sXnXdXG.m r 6 2 1 ; - - - ; 1 4 2 1 ; ; - % % % % - - , - - > > , : * & + . . O $ % 6 M G.jXjXm.x 2 - - ; ; ; 1 2 2 2 1 ; - - - - - - - - - - - - - - - - - - - - - - - - - - - - - - - - - - - - - ; ; ; ; ; - - - - - ; 1 ; 1 1 1 ; ; 1 i r 6 1 1 ; ; - - - - - - - : : - - - - ; ; ; ; - - ; ; ; ; ; ; ; ; ; - - - - - - - - - - - - - - - - - - - - - ; ; - - - - - ; 6 k i 6 1 ; - 3 2 1 ; ; - % - - ; - - - - % - - - - - - - - - - - - - ; - - - - ; ; ; ; ; ; ; ; - - - - - - - - - - ; 1 1 2 2 2 1 ; ; - - % $ $ $ $ % % - ; 1 6 a `  X+X_.( 7 - + O . . . + - ; ; - - - - ; 1 2 2 9 9 p 7 7 2 ; % $ - - : % $ % ; 1 2 6 7 e a N R.uXuXuXT.S e - + O O . X o     O + = % - - - - - - ; > 5 5 1 1 ; 1 1 1 1 2 4 4 2 1 1 ; , % + $ ; 1 1 2 2 2 6 7 e r r r r e e 7 6 6 6 6 ",
"- - - - ; 1 6 e r r r r 7 6 1 ; 1 ; ; ; 1 1 2 6 2 1 ; ; ; 2 e r r r r r a a r 9 - O . O + + + + + + + + $ $ $ $ $ % % % % % % % % $ + O O # = $ % % - % = # O       . . . O + - e N |.sXnXdXG.m e 2 1 ; - : : - ; 1 2 6 4 1 ; - % % % % - - - - - ; ; - : : $ + . . O + % 6 N F.jXjXm.x 6 ; - ; ; 1 2 2 2 1 ; ; - - - % % - - - - - - - - - - - - - - - - - - - - - - - - - - - - - - - ; ; ; ; ; - - - - - ; ; 1 1 1 1 1 ; ; ; q p 6 1 ; ; - - ; ; ; ; - - - : - - - - - - - - - - ; ; ; - ; - ; ; ; - - - - - - - - - - - - - - - - - - - - - > - - - ; - - 1 q p 7 2 1 ; > ; 1 2 1 ; - % : - - - - - - - - - - - - - - - - - - - ; ; ; ; - - ; ; ; ; ; ; - - - - - - - - - - - - ; ; 1 2 2 2 2 1 ; - - % $ + + $ $ % - ; 1 6 a `  X+X_.( 7 - + O . . . + - ; ; - - - - ; ; 1 1 6 9 9 7 6 2 ; % % , > : * = % ; 1 2 6 7 e s N T.pXuXuXT.N 7 - + O O . X o     O $ * * % - - ; ; ; > 3 5 1 1 ; 1 1 1 1 1 1 2 2 2 1 1 ; , % $ $ ; 1 1 1 1 2 6 7 e r r r r r e 7 6 6 6 6 ",
"- - - - ; 1 6 e r r r r 7 6 1 1 1 ; ; ; 1 1 2 6 2 1 ; ; ; 2 e r r r r r a a r 9 - O O O + + + + + + + + $ $ $ $ % % % % % % % % % $ + O O + & $ % % - % = # O       . . . O + - e N |.sXnXdXG.m e 2 ; ; - : : - ; 1 2 6 8 2 1 ; % % % % - - - - ; ; ; ; - : % + . O O + % 6 N F.jXjXm.x 6 ; - ; 1 2 2 2 1 1 ; - - - - % % - - - - - - - - - - - - - - - - - - - - % - % % % - - - - ; ; ; ; ; ; ; ; - - - - ; ; 1 1 1 1 ; ; - ; q q 6 1 ; ; - - ; ; ; ; ; ; - - - - - - - - - - - - ; ; ; ; ; ; ; ; ; ; - - - - - - - - - - - - - - - - - - - - - - - - ; - - ; 7 e 6 1 ; ; - - 3 2 2 1 - % % - - - - - - - - - - - - - - - - - - - ; ; ; ; - - ; ; ; ; - - - - - - - - - - - - % - - - ; 1 2 2 4 1 ; - - % $ + + $ $ % - ; 1 6 a `  X+X_.( 7 - + O . . . + - ; - - - - - - ; ; 1 2 8 6 6 2 2 1 % % - ; - * % % ; 1 2 6 7 e s N T.pXuXuXT.N 7 - + O O . X o     O $ = % % - - ; ; ; ; 3 5 1 1 1 1 1 2 1 1 2 2 2 2 1 1 ; , % + $ ; 1 1 1 1 2 6 7 e r r r r p e 7 6 6 6 6 ",
"- - - - ; 1 6 e r r r r 7 6 1 1 1 ; ; ; 1 1 2 6 2 1 ; ; ; 2 e r r r r r a a r 9 - + O O + $ + + + + $ $ $ $ $ $ % % % % % % % % % $ + + O + $ $ % % - % $ + O       . . . O + - e N |.sXnXdXG.m e 1 ; - - - : - ; 1 2 8 8 8 2 1 - % % - - - - ; ; ; ; ; - : % + O O O $ - 6 N F.jXjXm.x 6 ; ; ; 1 2 2 2 1 ; ; - - - % % - - - - - - - - - - - - - - - - - - - - - % % % % % - - - - ; ; ; ; ; - ; ; ; ; ; ; ; ; ; 1 1 ; ; - - ; 6 q 6 1 ; ; - - ; ; ; ; ; ; ; - - - - - - - - - ; ; ; ; ; ; ; ; ; ; - - - - - - - - - - - - - - - - - - - - - - - - - - - - - ; 7 7 2 1 ; ; - - ; 1 2 1 ; - - - - - - - - - - - - - - - - - - - - - - - - - - - - - - - - - - - - - - - - - : : % - - - ; 1 2 4 2 1 ; - - % $ $ + $ $ % - - ; 6 a `  X+X_.~ 7 - + O . . . + - ; - - - - - - - ; 1 1 2 2 6 6 6 1 % % - ; : % % % ; 1 2 6 7 e s I T.uXuXuXT.N 7 - + O O . X o     O + = % % - - ; ; ; ; ; ; 1 1 1 1 4 4 1 1 2 2 2 2 2 1 ; - % + $ ; 1 1 1 1 2 6 7 e r r r e p e 7 6 6 6 6 ",
"- - - - ; 1 6 7 r r r r 7 6 2 1 1 ; ; 1 1 1 2 6 8 1 ; ; ; 2 t r r r e r a a r 9 - + O + + $ + + + + $ $ $ $ $ $ % % % % % % % % % % $ + O + & $ % % - % $ + .       . . . O + - e N |.sXnXdXG.m e 1 ; - - - : - ; ; 2 6 8 0 2 ; % % % - - - ; ; ; ; ; ; - : % + O O O $ - 6 N F.>XjXm.x 6 ; ; ; 2 6 6 2 1 ; - - - - - - - - - - - - - - - - - - - - - - - - - - % % % % % % - - ; ; ; ; ; ; ; ; ; ; ; ; > > ; ; ; ; ; ; ; - - ; 2 q 0 1 ; ; - - ; ; ; ; ; ; ; - - - - - - - - - ; ; ; ; ; ; ; ; ; ; - - - - - - - - - - - - - - - - - - - - - - - - - ; ; - - ; q 7 1 ; ; - - % - ; 1 1 ; - - - - - - - - - - - - - - - - - - - - - - - - - - - - - - - - - - - - - - - - - : : % - - - - ; 5 4 2 2 1 - - % $ $ + $ $ % - - ; 6 a `  X+X_.~ 7 - + O . . . + - ; - - - - - - ; ; 1 1 2 2 6 6 6 5 - % ; ; - : % % ; 2 2 6 7 e s I R.uXuXuXT.N 7 - + O O . X o     O $ = % % - - ; ; ; - ; ; 1 1 1 1 4 4 1 1 2 2 2 2 2 1 ; - % + $ ; 1 1 1 1 2 6 7 e r r e e e e 7 6 6 6 6 ",
"- - - - ; 1 8 7 r r r r 7 6 2 1 1 1 ; 1 1 1 6 9 8 1 ; ; ; 2 t r r r r r a a r 9 - + O + $ $ $ + $ $ $ $ $ $ $ $ % % % % % % % % % % $ + + + = $ % % % % $ + .       . . . O + - e N |.sXnXdXG.m e 2 ; - - - : - ; ; 1 2 6 4 1 - % % % - - - - ; ; ; ; ; - : $ + O O O $ - 6 N F.jXjXm.x 6 ; ; 1 6 7 6 2 1 ; - - - - - - - - - - - - - - - - - - - - - - - - % - % % % % % - - - > > ; ; ; ; ; ; 1 1 ; 3 > ; ; - ; ; ; ; ; - - ; 2 u q 1 ; ; - - - ; ; ; ; ; - - - - - - - - - - ; ; ; ; ; ; ; ; ; ; - - ; ; - - - - - - - - - - - - - - - - - - - - - ; - - ; 1 q 6 ; - ; - * % % - 1 1 ; , > > - - - - - - - - - - - - % - - - - - - - - - - - - - - - - - - - - - - - : % % % % % - - - ; ; 5 2 2 1 ; % % $ $ + $ $ % - - ; 6 a `  X+X_.~ 7 - + O . . . + - ; ; - - - - - ; ; 1 2 2 6 9 6 6 2 - - ; ; ; : % - ; 2 2 6 7 e s I R.pXuXuXT.N 7 - + O O . X o     O $ = % % - - ; ; - - - ; ; 1 1 4 4 1 1 1 2 2 6 6 2 1 ; - % + $ ; 1 2 2 1 2 6 7 e r r e e e e 7 7 6 6 6 ",
"- - - - ; 1 8 7 e r r r 7 6 2 1 1 1 ; 1 1 1 6 9 8 1 ; ; ; 2 t y r r r r a a r 9 - + O + $ $ $ + $ $ $ $ $ $ $ $ % % % % % % % % % % $ + + $ = = % % % % $ O .       . . . O + - e N |.sXnXdXG.m e 2 ; - - - : - ; ; 1 1 4 5 ; - % % % % - - - - ; ; ; - : * $ + O O + $ - 6 N F.jXjXm.x 6 ; ; 1 6 7 6 2 1 ; - - - - - - - - - - - - - - - - - - - - - - % - % % % % % % - - - - > ; ; - ; ; ; ; 1 1 1 ; ; ; - - ; ; ; ; ; - - ; 2 u q 2 ; ; ; - - ; ; ; ; - - - - - - - - - - - ; ; ; ; ; ; ; ; ; ; - - ; ; - - - - - - - - - - - - - - - - - - - - - ; ; - ; 2 u 6 ; - ; ; % % % - 1 1 - - ; > > - - - % - - - - - - - % - - - - - - - - - - - - - - - - - - - - - - - : % % % % % - - - - ; 1 2 4 2 ; - % $ $ + $ $ % - - ; 6 a `  X+X_.~ 7 - + O . . . + - ; ; - - - - - ; ; 1 2 8 9 9 7 6 2 - - ; 1 ; - : - ; 2 2 6 7 e s I R.uXuXuXT.N 7 - + O O . X o     O $ = % % - ; ; ; - - - ; ; 1 1 1 5 1 1 1 2 6 8 6 2 1 ; - % + $ ; 1 1 2 1 2 6 7 e r r e e e e 7 7 6 6 6 ",
"- - - - - 1 6 7 e r r r e 6 2 1 1 1 ; ; 1 1 6 9 8 1 ; ; 1 2 t y r r e r a r r q - + O + $ $ $ + $ $ $ $ $ $ $ $ % % % % % % - - - % $ + + $ = = % % % % $ + .       . . . O + - e N  XsXnXdXG.m r 2 1 ; - - : - - ; 1 1 1 ; - % % % % % - - - - ; ; ; - : * $ O . O + $ - 6 N F.lXjXm.x 6 1 1 2 7 7 6 2 1 ; - - % % - - - - - - - - - - - - - - - - % % % % - % % % % % - - - - - - ; ; ; ; ; 1 1 1 1 ; ; ; ; ; ; ; ; ; ; - - ; 2 i h 2 1 ; ; - - ; - - - - - - - - - - - - ; ; ; ; ; ; ; ; ; ; ; ; ; ; ; ; - - - - - - - - - - - - - - - - - - - - - ; ; ; ; 5 u 6 - - ; - % = % - 1 1 ; - ; ; > ; - - - - - - - - - - % % % - - - - - - - - - - - - - - - - - - - - - : : % % % % - - - - - 1 2 6 4 ; - % = + + $ $ % - - ; 6 a ]  X+X_.~ 7 - + O . . . + - ; ; ; - - - - ; 1 1 2 9 9 7 7 6 2 ; - ; ; ; - : - ; 2 2 6 7 e s I R.pXuXuXD.N 7 - + O O . X o     O $ * % - - ; ; - - - - ; ; 1 1 1 1 1 1 1 2 6 6 6 2 1 1 - % + $ ; 1 1 1 1 2 6 7 e r e e e e e 7 7 6 6 6 ",
"- - - - - 1 6 7 e r r r e 6 2 1 1 1 ; 1 1 1 2 6 8 1 1 ; 1 2 t y r r r r r r e 6 - + O O + $ $ + + $ $ $ $ $ $ $ % % % % % % % % % % $ + + + = % % % % % $ + .       . . . O + - e N &XpXnXiXG.m r 6 1 ; - - - - - ; 1 1 1 ; - % % % % % - - - - ; ; ; - : * $ O . O + $ - 8 N F.lXlXm.x 6 1 1 2 7 7 6 2 1 ; - - % % - - - - % % - - - - % % % % % % % % % % % % % % % % % - - , % - - ; ; ; ; 1 1 1 ; ; ; ; ; > ; ; ; ; - - - ; 2 i h 6 1 ; ; ; ; ; ; - - - - - - - - - - - ; ; ; ; ; ; ; ; ; ; ; ; ; ; ; ; - - - - - - - - - - - - - - - - : : : - - - - ; 1 0 u 6 - - ; ; - % % - 1 1 ; - ; ; 3 ; ; ; - - - - ; - - - - - - - - - - - - - - - - - - - - - - - ; - - - - - : % % % % - - % - ; 2 6 4 1 - % = + $ $ $ % % - ; 6 s `  X+X_.~ 7 - + O . . . + - ; ; ; - - - ; ; 1 1 2 8 9 9 6 6 2 ; - ; ; ; - - - ; 2 2 6 7 e s S R.dXaXaXG.M 6 - + O O . X o     O $ * % - - ; ; - - - - ; ; 3 5 1 1 2 2 2 6 6 6 8 2 1 1 - % + $ ; 1 1 2 1 2 6 7 e e e e e e r 7 7 6 6 6 ",
"- - - - ; 1 6 p e r r r 7 6 2 1 2 1 1 1 1 1 2 8 8 1 1 ; ; 2 e r r r r r a r e q - O . # + + + + + $ $ $ $ $ $ $ $ $ % % % % % % $ $ $ + O + & % % - - % = + .       . . O O + ; e N {.xXaXdXS.I r 6 2 1 ; ; - - ; 1 1 2 5 ; - % % % % - - - - - ; ; ; ; - - % + . O + + % 6 M P.zXlXN.n 7 1 2 6 7 7 6 2 1 ; - % : : - % % % $ $ % - - - % % % % % % % % % % % % % % % - - - - - % - - ; > > ; ; ; ; ; ; ; ; - - ; ; ; ; - - - ; 2 9 k 6 2 ; 3 - ; ; ; - - : - ; - : - - - - - - ; ; ; ; ; ; ; ; ; ; ; ; ; ; ; ; ; ; ; ; ; ; ; - - - - - ; ; : : % : % % ; ; 1 q q 2 ; ; ; ; - - - - ; ; ; ; ; ; 1 1 ; ; 1 1 ; - ; ; ; ; ; ; - - - - - - - - - - - - - - - - - - - - - - - - - - % % % % % % $ % 5 4 6 2 ; % $ = $ $ $ % % % ; 6 s `  X+X_.~ e - + . . . O & - ; ; - ; ; ; ; 1 1 1 2 8 8 8 6 6 2 - - ; 1 ; - - - 1 2 2 6 7 e s S |.aXaXaXT.M 6 % + O O O . o     O $ : : - ; ; 3 ; - - ; > ; ; 1 1 2 8 0 6 6 8 6 6 2 2 ; - % + + ; 1 1 2 2 2 6 6 u e 7 7 e e e 7 7 7 7 6 ",
"; - - - ; 1 6 7 e r r r 7 6 2 1 2 1 1 1 1 1 2 8 8 1 1 ; ; 2 p r r r r r r r e 0 % O . # + + + + + $ $ $ $ $ $ $ $ $ % % % % % % $ $ $ + O + & % % - - % = + .       . . O O + ; e N !.xXsXiXS.L r 6 2 1 ; ; - ; ; 1 1 2 1 ; - - % % % % - - - - ; ; ; ; - : % + . O + + % 2 M P.lXlXN.n e 2 2 6 7 7 6 2 > ; - - : : - - % % $ % - - : - % % % % % % % % % % % % % % - - - - - - - - ; ; ; ; ; ; ; ; ; ; ; ; ; ; ; ; ; ; - - - ; 1 8 h 9 2 ; > - ; ; ; - % : ; ; - : : : - - - - ; ; ; ; ; ; ; ; ; ; ; ; ; ; ; ; ; ; ; ; ; ; ; - - - - ; ; ; : : % * % % ; 1 6 h 0 1 ; ; ; ; - ; - - - - - - ; ; 1 ; ; ; 1 1 ; ; ; ; ; ; ; ; ; - - - - - - - - - - - - - - - - - - - - - - - - - - - % % % $ $ $ 1 2 6 2 ; % $ $ % % % % % % ; 6 s '  X,X_.~ e - + . . . O & - ; - - ; ; ; ; 1 1 1 1 2 2 8 6 2 2 - - ; ; ; - - - 1 2 2 6 7 e s S |.aXaXdXR.M 6 % + O O O . o     O = : : - ; ; > ; - - ; > ; ; ; 1 2 6 6 6 6 6 6 6 2 2 ; - % + + ; 1 1 2 2 2 6 6 e 7 7 7 7 7 7 7 7 7 7 6 ",
"- - - - ; 1 6 7 e r r r 7 6 2 1 2 1 1 1 1 1 2 8 8 1 1 ; ; 2 p r r r r r r r e 0 % O . # + + + + $ $ $ $ $ $ $ $ % % % % % % % % $ $ $ + + + & % % - - - % # O       . . O O + ; e N !.xXsXiXS.L r 6 2 1 ; ; - ; ; 1 2 1 1 ; - % % % % % % % - - - ; ; - : * $ + . O + + % 2 M P.lXlXN.n e 2 2 6 6 6 2 1 ; - - - - - - - - % % % - - - - - - - - - - - - - % % % - - ; ; ; ; ; ; 1 1 1 1 1 1 1 1 1 ; ; ; ; ; ; ; ; ; ; ; ; ; ; ; 1 2 u 6 1 - , - ; ; - - = % - - - - - % - - - - - - - - - - ; ; ; - - - - - - - - - - - - - - - - - ; ; 1 1 ; ; % , - - 1 2 7 k 4 ; - ; ; - - - - - - - - - - - - - - - ; > > > - - - - ; ; - - - - - - - - - - - - - - - - - - - ; ; ; - - - - - - % % % $ $ $ ; 2 8 2 ; - $ $ % % % % % % ; 6 s '  X,X_.~ e - + . . . @ & - ; ; ; ; ; ; ; 1 1 1 1 2 2 6 6 2 1 - - ; ; ; - - - 1 2 2 6 7 e s S |.aXaXdXR.M 6 % + O O O . o     O = * : - - ; ; > ; - - ; ; ; ; 2 6 6 6 2 2 2 6 6 2 2 1 - % $ $ ; 1 1 2 2 2 6 6 e e 7 7 7 e 7 7 7 7 7 6 ",
"- - - - ; 1 6 7 e r r r 7 6 2 1 2 1 1 1 1 1 2 8 8 1 1 ; ; 2 e r r r r r r r e 0 % O . # + + + + $ $ $ $ $ % % % % % % % % % % % % $ $ + + + & % - - - - % # O .     . . O O $ ; e N !.MXsXiXS.L r 6 1 1 ; ; - - ; 1 1 1 1 ; - % % % % = = % % - - - - - % = $ O . O + + % 2 M P.lXlXN.n e 2 2 6 6 2 1 ; - - - - - - - - - % % % - - ; ; - - - - - - - - - - % % - ; ; ; ; ; ; ; 1 1 1 1 1 1 1 1 1 ; ; ; ; ; ; ; ; ; ; ; ; ; ; ; 1 2 9 q 1 - - - - ; - % = = - - - - % % - - - - - - - - - - - - - - - - - - - - - - - - - - - - - - ; ; 1 1 ; ; - - - ; 1 2 e k 4 ; - - - - - - - % - - % % % - - - - - - ; , , , - % % - - - - % % % % % % - - - - - % % % - - - ; ; ; ; ; - - - - - % % $ $ $ ; 1 8 4 1 - $ $ % % % % % % ; 6 s [  X,X_.~ e - + . . . O & - ; ; ; ; ; ; ; 1 1 1 1 2 2 8 6 2 1 - - ; ; ; - - - 1 2 2 6 7 e s S |.aXaXdXR.M 6 % + O O O X o     O & = % % - ; ; > - - - - - ; ; 2 6 2 2 2 2 2 6 6 2 2 1 > % $ $ ; 1 1 2 2 2 6 7 e e 7 7 7 7 7 7 7 7 7 7 ",
"- - - - ; 1 6 7 e r r r 7 6 2 1 2 1 1 1 1 1 2 8 8 2 1 ; ; 2 p r r r r r r r e 0 % O . # + + + + $ $ $ % % % % % % % - - - - - % % % $ + + + % % - - - - % # O .     . . O O $ ; e N &XMXsXiXS.L r 6 1 ; ; - - - ; 1 1 1 1 ; - % % $ $ $ $ = % % % - - % = $ + O . O + + % 2 N P.jXjXN.n e 2 6 6 2 1 ; ; - - - : - - - - - - % % - - - - - - - - - - - - - % % % - ; ; ; - ; ; ; ; ; ; ; ; ; 1 ; ; ; - ; ; - - - - - - - - - - - ; 2 q q 1 - - - ; ; - - = % - - - % - - - - - - - - - - ; ; - - - - - - - - - - - - - - - - - - - - ; ; ; ; ; ; - - , ; ; 2 e u 1 ; - - - - - - - - - - - - - - - - - - - - > , , , - % - - - - - % - % - - - - - - - - - - - - - ; ; ; ; ; - - - - - % % $ $ $ - ; 2 6 3 - % $ % % % % % % ; 7 z [ *XjX_.~ e - + . . . O & - ; ; ; ; ; ; ; 1 1 1 1 2 2 8 8 2 1 - - ; ; ; - - - 1 2 2 6 7 e s S |.aXaXdXR.M 6 % + O O O X o     O + $ $ % - ; > ; - % - - - ; 1 2 2 2 2 2 2 2 6 6 2 2 4 > - $ $ ; 1 1 2 2 2 6 7 7 e e e 7 7 7 7 e 7 7 7 ",
"- - - - ; 1 6 7 e r r r 7 6 2 1 1 1 1 1 1 1 2 8 8 2 1 ; ; 2 p r r r r r r r e 0 % O . # + + + + $ $ $ $ % % % % % % % - - - - % % % $ + + + % % - - - - % # O       . . O O + ; e N #XMXnXiXS.L r 6 1 ; ; - - - ; ; 1 1 1 ; - % $ $ $ $ $ $ = % % % % % = $ + O . O + + % 2 N P.jXjXN.n e 6 6 6 1 ; - - - % - % - - - - - % % % - - - - - - - - % % % % % % % - ; ; ; ; ; ; ; 1 ; ; ; ; ; ; ; ; - - - - - - - - - % - - - - - - ; 1 6 u 1 ; - - ; ; ; - % % - ; - - - - - - - - ; ; ; ; ; ; ; ; ; ; ; ; ; ; ; ; - - - - - - - - - - - ; ; ; ; - - - - ; ; 2 7 7 1 ; ; ; ; - - - - - - - - - - - - - - - - - - > , > - - - - ; ; - - - - - - - - - - - - - - - - - - - - - - - - - - % % % $ $ $ % ; 2 6 3 - % $ % % % % % % ; 7 z [ *XjX_.~ e - + . . . O & - ; ; ; ; ; ; ; 1 1 1 1 2 2 8 8 2 1 - - ; ; ; - - - 1 2 2 6 7 e a S |.aXaXdXR.M 6 % + O O O . o     . O + $ % - , > - - % - - ; ; 1 2 2 2 2 2 2 6 6 6 2 2 4 3 - % % ; 1 1 2 2 2 6 7 7 e e e 7 7 7 7 e e 7 7 ",
"- - - - ; 1 6 7 e r r r 7 6 2 1 1 1 1 1 1 1 2 8 8 1 ; ; ; 2 p r r r r r r r e 6 % O . # + + + + $ $ $ $ $ % % % % % % % % % % % % % $ + + + & % % - - % = + .       . . O O + - e M !.MXnXiXS.L e 2 1 ; - - - - - ; 1 5 3 ; % $ $ $ $ $ $ $ % % % % % % % $ + O . O + + % 2 N P.>XjXN.n e 6 6 6 1 ; - - % % % % - - : - % % % % % - - - - - - % % % % % % % % - ; ; ; ; ; 3 > ; ; ; ; ; ; ; ; - - - - - - - - % % - - % % % % - ; 1 6 h 1 ; - - ; ; ; - - - ; ; ; ; ; ; ; ; ; ; ; ; ; ; ; ; ; ; ; ; ; ; ; ; ; ; ; ; ; ; ; ; ; ; - - ; ; ; ; ; ; > - - ; ; 6 u 6 1 ; ; ; ; ; ; ; ; ; ; ; ; ; ; ; ; - - - - - ; ; ; ; ; ; ; ; ; ; > ; ; ; ; ; ; ; ; ; ; ; ; ; ; ; - - - - : - - % : % * % $ $ $ $ $ ; 2 4 5 ; % % : % & % % % 1 7 z [ *XjX_.~ e - + . . . O & - ; ; ; ; ; ; ; 1 1 1 1 2 2 8 8 2 1 - - ; ; ; - - - 1 2 6 6 7 e s S |.aXaXdXR.M 6 % + O O O X o     . O + + $ % , - ; - % - - ; ; 1 2 2 2 2 2 2 8 9 6 2 2 4 3 - % % ; 1 1 2 2 2 6 7 7 e e e 7 7 7 7 e e e 7 ",
"- - - - - 1 6 7 e r r r 7 6 2 1 1 1 1 1 1 1 2 8 8 1 ; ; ; 2 7 r r r r r r r e 6 % O . # + + + + $ $ $ $ $ $ % % % % % % % % % % % $ $ + O + & % % - - % = O .       . . O O + - e M &XMXnXpXS.L e 2 1 ; - - - - - ; 1 5 3 ; % $ $ $ $ $ $ $ % % % % % % % $ + O . O + + % 6 N P.*XjXN.n e 6 6 6 1 ; ; - - - - - - : % % % $ $ $ % : : : : : % % % % % % % % : - ; ; ; ; 3 3 3 ; ; ; ; > ; - - - - - - - - - - - - - % % % % % - ; 1 2 k 1 ; % - ; ; ; - % % - ; ; - - - ; ; ; ; ; ; ; ; ; ; ; ; ; ; ; ; ; ; ; ; ; ; ; ; ; ; ; - - - ; ; ; ; ; ; ; - ; 1 1 8 u 6 1 ; ; ; ; ; ; ; ; ; ; ; ; ; ; ; - - - - - - ; ; - ; 3 3 ; ; ; ; 3 > ; ; ; ; ; ; ; ; ; ; ; ; ; ; - - - - : % % % = = = = $ + + + $ - 2 4 5 ; % % : % & & % % 1 7 z [ *X,X_.~ e - + . . . O & - ; ; ; ; ; ; 1 1 1 1 1 1 2 2 8 2 1 - - ; ; ; - - - 1 2 6 6 7 e a S |.aXaXdXR.M 6 % + O O O . o     . O + + $ % - - , - - - ; ; ; 1 2 2 2 2 2 6 6 q 6 2 2 4 3 - % % ; 1 2 2 2 2 6 7 7 e e e 7 7 7 7 e e 7 7 ",
"- % % - - 1 6 7 e r r r e 6 2 1 1 1 1 ; 1 1 2 8 8 2 1 1 1 2 p e r r r r r r e 0 - O . # + + $ + + + + + $ $ $ $ $ $ $ $ % % % % $ $ + + O + & $ % % % = & # .       . . O O + - e N T.NXnXOXS.L r 6 1 ; ; - - - - ; 1 5 5 > - % % % * % % % - - - - - - - * $ + . O + + % 6 N P.jXjXZ.n e 6 6 6 1 ; ; ; ; > ; : : % $ $ $ & $ $ % % % % % % : : % % % % : : : : - ; > 3 3 > : ; : : : - - - - : - - - - - - - : - - : - : : : - - ; 4 w 5 - % % - - : % = = : - - : : : : : : : - - - - - - - - - - - - - : - : : : : : - : : : - ; ; ; ; ; ; ; ; ; ; ; 1 0 9 4 ; ; ; ; ; - ; - - - - - - - - : : : - - - - - - - - - ; > > ; - ; ; ; ; - - - - - - - - - - - - : : * = % $ $ + $ + + + + + + + + % 1 5 5 ; - % - % $ $ $ % 1 7 z ' *XkX].U e ; + . . . O & - ; ; ; ; ; 1 1 1 1 1 1 2 2 2 2 2 1 - - ; ; ; - - - 1 2 6 6 7 7 a S |.aXaXyXR.x 8 % + O O O X o     . O # + $ $ % - , - - ; ; ; 1 1 1 8 0 6 2 2 6 6 6 2 2 1 3 - % % ; 1 2 2 2 6 6 7 e e e 7 7 7 7 7 e e 7 7 ",
"% % % % - 1 8 7 e r r r e 6 2 1 1 1 1 ; 1 1 2 8 8 2 1 1 ; 2 p r r r r r r r e 0 - O . O + + + + + + + + + + + $ $ $ $ $ $ $ $ $ $ $ + O O + # $ $ $ % $ + O         . . O O + - e N T.NXnXOXS.L r 6 1 ; ; - - - ; ; 1 1 5 > - : : : : - % % - - - ; ; - - * $ + . O + + % 6 M G.jXjXZ.m e 6 6 6 1 1 1 ; ; ; ; % % $ $ + + + + + $ $ $ $ & & & & $ $ $ $ & % % % % : - : : : : % : % % % % % % % % % % % % % % % % % % % % % % % % - > 3 < % $ = % % % $ # + & % % % % % % % % % % % % % % % % % % % % % % % % % % % % % % % % % % : : : : : : : : : - - ; 4 4 3 - % % % % % % % : : : % % % % * = = % % % % * * % % % - , , - % - - - * % % % * : % : % % % % % = = $ $ $ + + O + O O O O O O O + % ; 4 4 1 - % - % $ $ $ % 1 7 z ' *XkX].U e ; + . . . O & - ; ; ; ; ; 1 1 1 1 1 1 1 2 2 2 2 1 - - ; ; ; - - - 1 2 6 6 7 7 a S |.aXaXyXQ.x 8 % + O O O X o     . O # # $ $ % - - - - ; ; ; 1 1 2 6 0 6 2 2 2 2 2 2 1 1 1 - % % ; 1 2 2 2 6 6 7 e e e e 7 7 7 7 e e 7 7 ",
"% % % % - 1 8 7 r r r r e 6 1 1 2 1 1 1 1 1 2 8 8 2 1 1 1 2 p r r r r r r r e 0 , O . . O + + + + + + + + + + + + + + + + + $ $ $ + + O O O + + $ $ $ $ + O         . . O O + ; e N !.NXnXOXS.L r 6 2 1 ; ; ; ; ; 1 1 1 5 ; - : : - - - - - - ; ; ; ; - - * $ + . O + + % 6 M F.jXjXZ.m r 6 6 6 1 1 1 1 ; ; - % + + O O O O O O O O O O O O O O O O + + + + + + + + + + + + + + + + + + + + O + + + + + + + + + + + + + + + + + + + $ % $ O O + + + + O O O + + + O O O O O O O + + + O + + + + + + + + + + + + + + + + + + + + + + + + + + + + + & $ $ $ * - % $ + + + + + + + $ $ $ + $ + + + + + + + + + + + + + + $ $ & $ + $ $ $ + + + + + + + $ + + + + + $ $ + + + O O O O O . . . . . O O $ ; 2 4 3 - % - % $ $ $ % 1 7 z [ *XkX].U e ; + . . . O & - ; ; ; ; ; 1 1 1 1 1 1 1 2 2 2 2 1 - - ; ; ; - - - 1 2 6 6 7 7 a S |.aXaXyXQ.x 6 % + O O O X o     . # # # $ $ % - - - - ; ; 1 1 2 2 6 6 2 2 1 2 2 2 1 1 1 ; - % % ; 1 2 2 2 6 6 7 e e e e 7 7 7 e e e e e ",
"% % % % - 1 8 7 r r r r e 6 1 1 2 1 1 1 1 1 2 8 8 2 1 1 1 2 7 r r r r r r r e 0 , O . . O + + + + + + + + + + + + + + + + + + + + + + + + + + + $ $ $ + + .         . . O O + ; e N !.NXMXiXS.L r 6 2 1 ; ; ; ; ; 1 2 2 1 ; - - - - - - - - - ; ; ; ; - : * $ + . O O + % 6 M F.lXlXZ.m r 9 7 6 1 1 1 1 ; ; % $ O O O O O O + + O . . . O O O O O O O O O O O O O O O O O O O O O O O O O O O O O O O O O O O O O O O O O O O O O O + + + . . O + + O O . . O O O O O O O O O O O O O O O O O O O O O O O O O O O O O O O O O O O O O O O . O O . O O O O + + O O O O O + + + + + + O O O O O O O O O O O O O O O O O O O O O O O O O O O O O O O O O O O O O O + + + + + O O . . . . . . . . . O $ - 1 4 3 ; - - % $ $ $ % 1 e z [ >XkX].U e - + . . . O & - ; ; ; ; ; 1 1 1 1 1 1 1 2 2 2 2 1 - - ; ; ; - - - 1 2 6 6 7 7 a S |.aXaXyXQ.x 6 % + O O O X o     . @ # + + $ % - - - - - ; 1 2 8 8 8 6 2 1 1 1 2 2 1 1 1 > - % % ; 1 2 2 2 6 6 7 e e e e e e e e e e e 7 ",
"= % % % - 1 8 7 r r r r e 6 1 1 2 1 1 ; 1 1 2 8 8 1 1 1 1 2 7 r r r r r r r e 0 , O . O + + + + + + + + + + + + + + + $ + + $ $ $ $ $ + # + $ $ % % % $ + O .       . . O O $ ; e N !.BXMXiXS.L r 6 2 1 ; ; ; ; ; 1 2 2 1 ; - - - - - - - - - ; ; ; ; - : * $ + . O O + % 6 M F.lXkXZ.m r 9 6 6 1 1 1 ; ; - % + O O O O O + $ $ + O O O + O + + + + + + + + + + + + + + + + + + + O + O + + + + + + + + + + + + O O O O O O O O + + $ % $ + + + $ $ + + O O + + + + + + + + + + + + + + + + + + + + + + + + + + + + + + + + + + O O O . . . . . . O O O O O O . O O O + + + + + + + + + + + O O O O O O O O O O O O O O O O O O O O O O O O O O O O O O O O O + + + + + O O O . . . . . . . . . O + - 1 4 5 ; - - % $ $ $ % 1 e z [ >XkX].U e - + . . . O & - 1 ; ; ; ; 1 1 1 1 1 1 1 2 2 2 2 1 - - ; ; ; - - - 1 2 6 6 7 e a ! |.aXbXyXQ.x 6 % + O O O X o     . O + + + $ % - - - - - ; 1 8 8 6 6 6 2 1 1 1 2 2 1 1 1 > - $ $ ; 1 2 2 2 6 6 7 e e e e e e e e e e 7 7 ",
"% $ $ % - 1 6 7 r r a r e 6 1 1 2 1 1 ; 1 1 2 8 8 1 1 ; 1 2 7 r r r r r r r e 0 - O . # # + + + + + + + + + + + $ $ $ $ $ $ $ $ % % $ & & & & % % - % % $ O .       . . O O + ; e N &XBXMXiXS.L r 6 2 1 ; ; ; ; 1 1 2 4 1 ; ; - - - - - - - - ; ; ; ; - : * $ O . O O + % 6 N F.lXkXZ.m r 9 6 2 1 ; ; ; ; - $ + O O O O O + $ % $ $ $ $ $ $ $ % $ $ $ $ $ $ % % % $ $ $ $ $ $ $ $ $ $ $ $ $ $ $ $ $ $ $ $ $ $ $ $ $ $ $ $ $ $ $ $ % % - % $ $ $ % % % $ + + $ % $ $ $ $ $ $ $ $ $ $ $ $ $ $ $ $ $ $ $ $ $ $ $ $ $ $ $ $ $ $ $ $ $ + + + O O O O O + + + + + O O + + + + + $ $ $ $ $ $ $ + + + + + + + + + + + + + + + + + + + + + + + + O + + + + + + + + + + + + + + + + O O O . . . . . . . . . + - 1 2 5 ; - - % $ $ $ % 1 e z [ >XkX].U e - + . . . O & - 1 ; ; ; ; 1 1 1 1 1 1 2 2 2 2 2 1 - - ; ; ; - - - 1 2 6 6 7 e a ! |.aXbXyXQ.x 6 % + O O O X o     . O O + + $ % - - - - - ; 2 6 9 6 2 2 2 2 1 1 2 2 1 1 ; > % $ $ ; 1 2 2 2 6 6 7 e e e e e e e e e 7 7 7 ",
"$ $ $ % - 1 6 7 r r a r e 2 1 1 2 1 1 ; 1 1 2 8 8 1 1 ; 1 2 p r r r r r r r e 0 - O . # # + + + & & $ $ $ & $ $ $ $ $ $ % % % % - - % % & % % % - - - % & + .       . . O O + ; e N &XBXMXiXS.L r 7 2 1 1 ; ; ; 1 2 6 4 2 ; - - - - : - % % - - - - - - * = $ O . O O + % 6 N F.zXkXZ.m r q 6 2 ; ; ; - - * $ O . . . O + % - ; 1 1 1 1 1 1 1 2 2 2 1 2 2 2 2 2 1 1 1 1 1 1 1 1 1 1 1 1 1 1 1 1 1 1 1 1 1 1 1 1 1 ; 1 ; ; ; ; ; ; ; 1 1 ; ; - - ; 1 ; ; - - ; ; ; - ; - ; - - - - - - - - - - - - - - - - - - - - - - - - - - - - - - - % % % % % - - - - % % % $ $ % % % % % % % % % % % % % % % % % % % % % % $ $ $ $ $ $ $ $ $ $ $ $ $ $ $ $ $ $ $ $ $ $ $ $ $ $ $ + + + O O O O O O . . . . . + % 1 2 5 ; - - % $ $ $ % 1 e z [ >XkX].U e - + . . . O & - ; ; ; ; ; 1 1 1 1 1 1 2 2 4 2 2 1 - - ; ; ; - - - 1 2 6 6 7 e a ! |.aXbXyXQ.x 6 % + O O O X o     . . # + + $ % - - ; ; ; 1 2 8 6 6 2 2 2 2 1 2 4 1 1 ; ; , % $ $ ; 1 2 2 2 6 6 7 r e e e e e e e 7 7 7 7 ",
"$ $ $ % - 1 8 7 r r a r e 6 1 1 2 1 1 1 1 1 2 8 8 1 1 ; ; 2 p r r r r r r r e 0 - O . # + $ $ + $ $ $ $ $ & % % % % % % % % % % - % % % % % % - - ; ; - % + .       . . O O $ ; e N !.JXMXiXS.L r 7 2 2 1 ; ; ; 1 2 6 6 2 ; - - - - - % % % - - - - - - - * $ O . O O + % 6 N U.lXlXZ.m r 7 6 2 ; - - - : * $ O . . O $ > 8 h j f f f d d d f f f f f f f f f f f f f f f f f f f f f f f f f f d f f f d d d d d d d d d d d d y y d d y y y t y y y y e e r r e e t e t e t e t e t e t e t t 9 7 7 7 7 9 7 7 7 7 7 7 7 7 7 7 7 7 7 7 7 7 7 7 7 7 7 7 7 6 6 6 8 2 8 6 6 6 8 8 8 8 6 2 2 2 2 2 2 2 2 2 2 2 2 2 2 2 2 2 2 1 1 2 1 2 2 2 1 1 2 2 2 2 2 2 2 2 2 1 1 ; 1 ; ; ; - - % % $ + O O . . O + % 1 2 2 ; - - % $ $ $ - 1 e z [ >XzX].~ e - + . . . O & - ; ; ; 1 1 1 1 1 1 1 1 2 2 4 2 2 1 - - ; ; ; - - - 1 2 6 6 7 e s ! |.aXaXyXQ.c 6 % + O O O . o     . O # + + $ % - - , 3 1 1 2 2 2 6 2 2 2 2 2 2 2 1 ; ; ; , % $ $ ; 1 2 2 2 6 6 7 r e e e e e e e e 7 7 7 ",
"% $ $ % - 1 6 e r a a r e 6 2 1 1 1 1 1 1 2 6 6 6 1 ; ; ; 2 p r r r e r r r e 6 - O . + & $ $ $ $ $ $ $ $ $ % % % % % % % % % % - - - % % % % - - ; ; , * + . .     . . . O $ ; r N Q.NXMXiXS.L a 7 6 2 1 1 ; ; ; 2 6 6 8 ; % % - - - - % % - - - - - - - * $ + O O O + % 2 N U.lXlXu.m r 7 6 2 ; - - - - % $ O . . O $ 6 ..~.D.H.H.F.W.B.K.W.F.T.F.F.F.P.W.P.F.P.W.W.P.F.F.F.F.F.F.F.F.F.F.F.F.F.F.F.F.V.V.V.V.V.V.V.V.V.V.V.V.V.V.m.N.N.N.N.V.m.C.C.C.C.m.m.n.O.O.O.O.@.@.@.@.O.@.O.O.O.O.O.O.O.#.#.#.o.o.o.o.o.o.O.O.o.` ` ` ` ` ` o.o.o.o.` ` / / / ` ` o./ / ~ / ! ! ! ! ^ ! S S S S S S S S S S S S N N M N N N M A A A M M M M M x x M M x x M x x x x v c f c c c s s a r r 2 % O .   . + $ - ; 2 2 2 ; - % $ $ % - 1 e z i.jXzX#X~ 7 - # . . O O & ; 1 ; ; 1 1 1 1 1 1 2 2 2 2 2 2 1 1 - - ; ; - - % - 1 2 6 6 7 e s ~  XuXuXpXY.A 6 - $ + O .         . . O + + $ % - - ; 3 5 4 2 1 1 2 2 8 2 2 2 2 2 2 2 1 ; - % $ % ; 2 2 2 2 2 6 7 e r r r r e e e e e 7 7 ",
"% $ $ % - 1 6 e r a a r e 6 2 1 1 1 1 1 1 2 6 6 6 1 ; ; ; 2 p r r r e e r r e 6 - O O + & $ $ $ $ $ % % $ % % % % % % % % % % % - - - % % % % - ; ; ; - * + O .         . O $ ; r N Q.NXMXOXS.L a 7 6 6 2 1 ; ; ; 6 7 7 8 ; $ $ % - % % % % % - - - - - - % $ + O O O + % 6 N U.lXlXu.m r 9 2 1 ; - - - % % & + . . + - y &.jXoXoX@X,XlX-X-XlX,XkXkX,X,X1X1XzX1X,X1XlX1XlX,X,X,X,X,X,X,X,X,X,X,X,X,X,X,X,X,X,X,X,X,X,X,X,X1X,X,X,X,XXXXXXXXXXXXXOXOXOXOX+X@X@XXXXXXXXXXX>X:X>X:X:X:X>X:XOX:XXX>X>XjXjXOXOXOX*X*X X$X$X>X$X$X$X$X>X>X>X>XjXjXiX>X*X$X$X$X$X*XOXOX}. X$X}.{.{.&X&X&X#X#X#X#X#X#X#XQ.].#X#X#X].G.G.{.#X{.#X#X#X{.Q.Q.I.I.I.G.G.G.G.F.F.G.F.F.A.A.F.B.B.V.V.V.V.M.M.o.X.j 1 + .   . + % - ; 2 2 2 ; % % $ $ % - 1 e x [ jXzX#X! 7 - # . O O O % ; 1 ; ; 1 1 1 1 1 1 2 2 2 2 2 2 1 1 - - ; ; - - % - 1 2 6 7 7 e s ~  XuXuXiXY.A 7 - $ + O .     . . . . O + + + % - - ; 3 5 4 1 1 1 2 2 2 6 2 2 6 6 6 2 1 1 ; % $ % 1 2 2 2 2 2 6 7 r r r r r r e e 7 7 7 7 ",
"% % $ % - 1 8 p r a a r e 6 2 1 1 1 1 1 1 2 6 6 6 1 ; ; ; 2 p r r r e r r r e 6 - O O + $ $ $ $ $ % $ $ $ % % % % % % % % % % % - - - % % % % - ; ; ; - * + O .         . O $ ; r N Q.JXMXOXS.L a 7 6 6 2 1 ; ; ; 2 7 7 8 ; % $ % % % % % % % % % % - % % $ $ O O O O + % 6 N S.lXlXN.m r 6 2 1 ; ; - - - : % + O . + - y &.jX+XoX@XOX*X&X&XfX>XpX+XOX>X>X>X>X>X>X>X>X>X>X>X>X>X>X>X>X>X>X>XOX>X,X,X,X,X+X,X,X,X,X>X,X,X,X,XlXlXzX,X>X:X:X:X:X:X X XOXOXOX>XXXXX@X@X+X@X+X@X+X@X+X+X+X+X+X+X+X+XpXpXpXpX+X+X+X+XkXkXkXkXzXzXzXzXXX@X+X+XoX+X+X+X,X,X,X,X,XkXpXpXpXpXpXpXpXpXpXpXpXpXxXxXxXxXxXxXkXkXkXkXkXkXkXpXOXOXOXOXOXOXOXyXyXyXyXuXyXdXyXyXsXsXsXsXsXsXsXsXiX XOXOX>X>X$X#X&XE.Z 2 $ .   . + $ - ; 1 2 1 ; % % $ % % - 1 e x [ jXzX#X! 7 - # . O O O % > 1 ; ; 1 1 1 1 1 1 2 2 2 2 2 2 1 1 - - ; ; ; - - - 1 8 6 7 e r z ~  XuXuXiXY.A 6 - $ + O .     . . . . O + + + % - - ; 3 5 1 1 1 1 2 2 8 6 2 2 2 2 6 2 1 1 ; % $ % 1 2 2 2 2 2 6 7 e r r r r e e e 7 7 7 7 ",
"% % $ % - 1 8 7 r a a r e 7 2 1 1 1 1 1 1 2 6 6 6 1 ; ; 1 6 p r r r r r r r e 6 - O O + $ $ $ $ $ % % % $ $ % % % % % % % % % % - - - % % % % - - ; ; - * + . .         . O $ ; r N Q.NXMXOXS.L r 7 6 2 1 1 ; ; ; 2 7 6 8 1 % $ % % $ $ $ $ $ $ % % % $ $ $ + O O O O + % 6 N G.lXlXN.n r 8 1 1 ; 1 3 ; > > : & O O + - y +.>X@X(.y.t.' / / O.' n.t.n.' ' ' t.t.' O.' ' ' ' ' ' O.O.O.O.O.O.O.t.t.t.t.t.t.t.t.t.t.t.t.n.n.n.n.n.n.n.n.t.y.N.N.m.V.V.Y.Y.W.W.F.F.H.F.F.F.F.F.F.D.F.F.G.G.T.T.T.T.T.T.{.{.T.T.T.T.H.H.G.G.G.G.G.G.I.Q.T.{.|.|.|.|.D.G._.I.T.T.T.T.T.|.|.|.|.{..X.X X X X X X X X X.X{..X X X X X.X X X X XtXtX XtXtXtXtXtXtXtXtXtXtXtXtXtXtXtXtXiXiXOX@XOXOXXXXXXX>XW.H 6 $ O . O + $ - ; 1 2 1 ; % % $ % - ; 1 e x [ jXkX].! 7 - # . O O O % > 1 ; ; 1 1 1 1 1 1 2 2 2 2 2 2 1 ; - - ; ; ; - - - 1 8 6 7 e r z ~  XuXuXiXY.A 6 - $ + O .     .   . . O + + + $ - - ; ; 1 1 1 1 2 2 8 2 2 2 2 2 2 6 2 1 1 ; % $ % 1 2 2 2 2 6 6 7 e r r r e e e e 7 7 7 7 ",
"$ % % % - 1 8 7 r r a r e 7 2 1 1 1 1 1 1 2 6 6 6 1 ; ; ; 2 p r r r e r a r r q - + O + $ $ $ $ % % % $ $ % % % % % % % % % % % - - - % % % % - - - ; - * + . .       . . O $ ; r N Q.JXMXOXS.L r 7 6 2 1 ; ; ; ; 2 6 6 8 ; % $ $ $ $ $ $ $ $ $ $ $ $ $ $ + + O O O O + % 6 I _.lXlXN.n e 4 ; ; ; 3 3 3 3 > : & + + $ - y &.*X X) M c f d d f s c c c f f s s s s s s s s s d s s s s s s s s s s d d d s s s s s s d s s s s f d s c z x v v c c f f V c c c c s s s s s s s s s s s f f f c c c c c c c c c c c c c c c c c c c c c c C C v v v v D D C C V C C v C M A M A A A S S S S S S S N N N S S S S S S S S S ! ! ! S S S S S ! ! ! S ^ ( ( ( ( ^ ( +.o.n.C.Z.m.y.H.`.zX=XX.7 % + O O + & * - 1 1 1 ; % % $ % - ; 1 e x i.>XkX].! 7 - # . O O O % > 1 ; ; 1 1 1 1 2 2 2 2 2 2 2 2 1 1 - - ; ; ; - - - 1 8 6 7 e r z ~  XuXuXiXY.C 6 - $ O . .     .   . . O + + + $ - - - - ; 1 4 4 2 0 8 2 2 2 2 2 6 6 2 2 1 ; % $ % 1 2 2 2 2 6 6 7 e r r r e e e 7 7 7 7 7 ",
"$ $ % % - ; 2 7 r r a r e 7 2 1 1 1 1 1 1 2 6 6 6 1 1 ; ; 2 p r r r r r a a r q - + O + $ $ $ $ % % % % $ % % % % % % % % % % % - - % % % % % - - - ; - * + . .       . . O $ ; r N Q.JXMXOXS.L r 7 6 2 1 ; ; - ; 2 6 7 8 ; $ $ $ + + + + + + + $ $ $ + + + O O . O O + - 6 I _.lXvXN.M 7 1 - - - ; > > > > : $ + + $ ; r &.-X*X^ s e 7 2 2 6 7 7 e 7 7 7 6 7 7 6 6 6 6 6 6 6 6 6 6 6 6 6 6 6 6 6 6 6 6 6 6 6 6 6 6 6 6 6 6 6 6 2 6 7 7 e e e 7 e 7 9 9 9 9 7 7 7 6 6 6 6 6 9 6 6 6 9 6 9 q q q 7 7 7 7 7 7 7 7 6 6 6 6 6 6 6 6 6 6 7 9 9 7 7 e 7 7 7 7 6 6 2 2 2 6 6 6 6 6 7 7 7 e e e e e e e e e e e e e e e r r r r r r r r r r r a a a a a r r r r r r r a a c M N N I e.D.lX=XX.e - $ + + + & * : - ; ; - % $ $ % - ; 1 e x i.>XlX].! 7 - # . O O O % > ; ; ; 1 1 1 1 1 2 2 2 2 2 2 2 1 1 - - ; ; ; - - - 1 8 6 7 e r z ~  XuXuXiXY.C 6 - $ O . .         . . O + + + $ - - - - ; 1 4 4 2 0 8 2 2 2 2 6 6 6 2 2 1 ; % $ % 1 2 2 2 2 6 7 7 r r r r e e 7 7 7 7 7 7 ",
"$ $ % % - ; 2 7 e r r r e 6 2 1 1 1 1 1 1 2 6 6 6 1 1 1 1 2 p r r r r r a r r q - + O + $ $ $ $ % % % $ % % % % % % % % % % % % - - % % % % % - - ; ; - = + . .         . O $ ; r N Q.JXMXOXS.L r 7 6 2 1 ; - - ; 2 6 9 8 ; $ + + + + + + + + + + + + + + + O . . . O + - 7 I _.vXvXN.M 9 ; - % $ % : : : : * $ + + $ ; r &.*X&XG r 6 2 ; ; 1 2 2 2 2 2 1 1 2 2 1 1 1 1 1 1 1 1 1 1 1 1 1 1 1 1 1 1 1 1 1 1 1 1 2 1 2 2 2 2 2 1 1 1 2 2 2 6 6 6 2 1 1 1 ; 1 1 1 1 1 1 1 1 1 1 1 1 1 1 1 1 1 1 1 1 1 1 1 1 1 1 1 1 1 1 1 1 1 1 1 1 1 1 2 2 2 2 2 6 6 7 6 2 1 ; ; 1 1 1 1 1 1 2 2 2 2 2 2 2 2 2 2 2 1 1 1 1 1 5 5 1 1 1 1 2 2 2 2 6 6 6 6 6 7 7 7 6 7 7 6 6 6 6 6 2 6 7 y d z ~ F.gX!.F e ; $ $ + + # = % % - - % % $ & % % - 1 7 x i.>XkX].! 7 - # . . O O % > ; 1 1 1 1 1 1 1 2 2 2 2 2 2 2 1 1 - - ; 1 ; - - - 2 8 6 7 e r z ~  XuXsXpXY.C 6 - $ O . .         . . O + + + $ - - - ; ; 1 4 4 2 2 2 1 2 2 6 6 6 6 6 2 1 ; % $ % 1 2 2 2 2 6 7 7 r r r e e 7 7 7 e e 7 7 ",
"$ $ % % % ; 2 6 e r r r e 6 2 1 1 1 1 1 1 2 6 6 6 1 1 1 1 6 e r r r r r a a r q - + O + $ $ $ $ % % % % % % % % % % % % % % % % - - % % % % % - - - - - = + . .         . O $ ; r N Q.JXMXOXS.L a 6 6 2 1 ; - - - 2 6 9 8 ; $ + + + + + O O + + + + + + + + O . . . O + - 7 I _.kXvXV.v 9 ; % $ + $ % = : < * $ + + $ ; d &.>X$XH e 2 1 ; - 1 1 1 2 1 3 ; ; 1 1 ; ; ; ; ; ; ; ; ; ; ; ; ; ; ; ; ; ; ; ; ; ; ; ; 1 ; 1 1 1 1 1 ; > > 1 1 2 6 6 2 2 5 ; ; ; ; 1 1 ; ; ; ; ; ; ; ; 1 1 1 1 ; ; ; ; 1 1 1 ; ; ; ; ; ; ; ; ; ; ; ; ; ; ; ; ; ; 1 1 1 1 2 2 2 1 - % % - - - - - - ; ; > ; ; ; ; ; - - - - - - - - - - , - : ; ; ; ; ; 1 1 1 1 2 2 2 8 2 2 2 2 1 1 1 1 ; ; 1 2 7 a ! N.GX=XX.e - $ + O O # # $ $ $ % $ $ $ & & % - 1 7 x i.>XlX].! 7 - + . . O O % > ; 1 1 1 1 1 1 2 2 2 2 2 2 2 2 2 1 - - ; 1 ; - - - 2 8 6 7 e r z ~  XuXsXpXV.v 6 - $ O . .         . . O O + + $ * - ; ; 1 1 2 2 2 1 1 1 2 6 6 6 7 7 6 2 1 ; - $ % 1 2 2 2 2 6 7 7 r r r e e 7 7 7 e e e 7 ",
"$ $ $ $ % - 2 7 e r r r e 6 4 5 1 1 ; 1 2 2 6 q 6 1 1 ; 1 6 r d a a r r a a r q - + O + $ $ $ $ $ $ $ $ % % % % % % % % % % % % - - % % % % % % - - - - = + . . .     . . O $ 1 r N !.JXMXOXS.L a 6 6 2 1 ; - - ; 2 6 6 8 1 % % $ $ $ + + + $ $ $ $ $ $ $ $ + O . O O + - 6 I _.cXlXN.v 9 - % $ $ + O + & = & + + + $ 1 d =.>X$XS r 6 1 ; ; 1 1 2 2 1 1 ; ; 1 1 ; ; ; ; ; ; ; ; ; ; ; ; ; ; ; ; - - - - - - - - ; - - - ; ; ; > , ; 1 2 2 7 7 6 2 1 ; ; ; ; ; ; ; ; ; ; ; ; ; ; ; ; ; ; ; ; ; ; ; ; - - ; ; - - - - - - - - - - - - - ; : ; ; 4 1 2 2 1 - - % % - - - - - - ; ; : - - : - % % - : - - - - - - - - - - ; ; ; ; ; > > > > > 3 3 3 3 3 > ; > > : ; ; ; 1 2 7 a N F.lX=XX.7 % + + O # @ O O + + $ $ + + + $ % - ; 6 z [  XjXG.! 7 - # . O O O % > 1 1 1 1 1 1 1 2 2 2 2 2 2 2 2 2 1 - - 1 1 ; - - ; 2 8 6 7 e r z ~  XuXsXpXC.v 6 - $ O . .         . O O O + + $ % % - 3 5 1 2 2 2 1 1 2 2 2 6 6 q 7 6 2 2 ; % $ % 1 6 2 2 2 6 7 7 r r e e e 7 7 7 e e e 7 ",
"$ $ $ $ % ; 2 7 e r r r e 6 1 1 1 ; ; 1 1 2 6 q 8 1 1 ; 1 6 r d a a r r a a r q ; + O + $ $ $ $ $ $ $ $ % % % % % % % % % % % % - - % % % % % % - - - - = + .   .     . . O $ ; r N !.JXMXOXS.L a 7 6 2 1 ; - - ; 2 6 7 6 1 % % % % $ $ $ $ % % % % % % % = $ O O . O + % 7 I _.kXjXm.x 6 ; % $ $ + O O + # # + O + % 1 d =.>X$XS r 6 1 ; - ; ; 4 2 1 ; ; ; ; 1 ; ; ; ; ; ; ; ; ; ; ; - - - ; - - % - - % % - - - - - - - - > , - % ; 1 2 7 u q 2 1 ; - - - ; ; ; - - - - - - - - - - - - - - - - - - - : - : - : - - - - - : : : - : : : - ; 1 1 4 4 1 - % & % - ; - - - - - - - - - * = $ $ $ % % % % % % % % % % % - - - - - - : - - : : > > 3 > : : : : : - ; ; 1 2 7 a N F.lX=X..9 % O O O . . O O O + + + + + + $ % % ; 7 z i.OXjXG.! 7 - # . O O O % > 1 1 1 1 1 1 2 2 2 2 2 2 2 2 2 2 1 - - 1 1 ; - - ; 2 6 6 7 e r z ~  XuXsXpXC.v 6 - $ O . .         . O O + + + % - - - ; 1 2 2 2 2 1 1 4 4 6 6 6 7 7 6 2 2 ; % $ % 1 2 6 2 2 6 7 7 r r e e e 7 7 e e e e 7 ",
"$ $ $ % % ; 2 7 r r a r e 6 1 ; 1 ; ; ; 1 1 6 6 6 1 ; ; 1 6 r d a a r r a a r q ; + O + $ $ $ $ $ % $ $ % % % % % % % % % % % % - - % % % % % % - - - - = + . . .     . . O $ ; r N !.JXMXOXS.L a 7 6 2 1 ; - - ; 2 6 7 6 1 - % % % % % % % % % % - - - % * $ + O O O + - 6 I _.jXfXm.M 7 ; - % = + O O O O O O O + % 1 f =.>X&XA e 2 ; - % - - ; ; - % % % - - - % % % % % % % % % % % % % % % % % % % % % % % % % , , , > > - = $ % ; 1 6 q 2 1 ; - * % % - - - - - - - - - - - - - - - - - - : % % : : - : % % % - - : : : : : : % : * % - ; 1 5 4 1 : % & & > ; ; ; ; ; - - - - - - = $ + + + + $ + + + + + + + $ $ = % % - - - - - - ; ; ; 5 3 ; ; - - - - ; ; 1 1 6 r N F.lX=X..6 $ O O O . . O O + + + + + + + $ % % ; 7 x i.>X>XG.! 7 - # . O O O % > 1 1 1 1 1 1 2 2 2 2 2 2 6 2 2 2 1 - - 1 1 ; - - ; 2 6 7 7 e r z /  XuXsXpXC.v 6 - $ O .           . O + + + + % - - - ; 1 2 2 6 2 1 2 4 6 6 6 6 6 7 6 2 2 ; % $ % 1 2 6 2 2 6 7 e r r r e e e e e e e e 7 ",
"$ % % % - ; 8 t r r a r e 6 1 1 1 ; ; ; 1 1 6 6 6 1 ; ; 1 6 r d a a a a a a r 7 ; + O + $ $ $ $ % % $ $ % % % % % % % % % % % % - - % % & % % % - - - - = + . . .     . . O $ ; r N !.JXMXOXS.L a 7 6 2 2 ; - - ; 2 7 7 9 2 - % % - % % % % % - - - - - : % $ + O O O + % 6 I _.lXlXN.n e 1 ; ; - = + O O . . O O + % 1 f B.>X&XA e 2 ; - % - - - - % % $ % % % % % % % % % % % % % % $ $ $ $ % % % % % % % % % % % - - - - - % & + % ; 1 6 6 1 ; - % $ $ % % % % % % % % % % % % % % % % % % % % % % % % % % % % % % - - - - : % % % * = % - ; ; 1 5 1 - $ + # % - ; ; ; ; ; - - - - = $ + + + O O O O O O O O O O + $ $ $ = % % % % % - - ; ; ; ; - - - % % % ; ; ; ; 2 e N F.jX&X..6 $ O O O O O O + O O + + + + + $ % - ; 6 x i.*X>XG.! 7 - # . O O O % > 1 1 1 1 1 1 1 2 2 2 2 2 6 2 2 2 1 - - 1 1 ; - - ; 2 6 7 7 e r z /  XuXsXpXY.v 6 - $ O .           O O # + + $ % - - ; ; 1 2 6 6 6 2 2 4 4 2 2 6 6 7 6 2 2 3 - $ % 1 2 2 2 2 2 7 7 e r r e e e e e e e e 7 ",
"% % % % - ; 8 t r a a r e 7 2 1 1 ; ; ; 1 1 6 6 6 1 ; ; 1 6 r d a a r a a a r 7 ; + O + $ $ $ $ % % % % % % % % % % % % % % % % - - % % % % % % - - - - = + . . .     . . O $ ; r I !.JXMXOXS.L a 7 6 6 2 ; - - ; 2 7 7 9 2 - : - - - - % % - - - - - - - - $ + O O O + % 6 N G.lXlXN.N r 2 1 5 5 ; % + O O O . O + % 1 f #.jX&XS e 6 1 ; - ; ; ; ; - % % % - - - - - - % % % - - % % % % % % % % % % % % % % % $ $ $ % $ $ $ $ + + % 1 6 i i 6 ; - % $ $ % % % $ $ $ $ $ $ $ $ $ $ $ $ $ $ $ $ + + $ $ $ $ $ $ $ $ % % % % % % $ $ $ $ $ $ % - ; 1 4 3 - $ O O + $ % % : : : % % % % & + O O O O + O + O O O O O O + + $ $ % % $ $ $ $ $ % % % % % % % % $ $ $ - - - - ; 7 M V.>X!...6 $ O O + O # + + + + + $ $ $ $ % - - 1 7 z i.>XjXG.I 7 - # . O O O % > 1 1 1 1 1 2 2 2 2 2 2 6 6 6 2 2 1 - ; 1 1 ; ; - ; 2 8 6 7 e r z `  XuXsXjXC.c 2 - $ O .           O + + + + $ % - ; ; ; 1 6 9 7 6 2 2 2 2 2 2 6 7 7 6 2 2 1 - $ % 1 2 2 2 2 2 7 7 e r r r e e e e e e e 7 ",
"% % % % - 1 8 t r a a r e 7 8 4 1 ; ; 1 1 2 6 6 6 1 ; ; 1 6 r d a a r a a a r 9 - + O + $ $ $ $ % % % % % % % % % % % % % % % % - - % % & $ % % - - - - = + .   o     . . O $ ; r I !.JXMXOXS.L a 7 7 6 2 3 ; - ; 2 7 7 9 2 ; - - - - - - - - - - ; ; - - - % + O O O + % 6 N S.lXlXN.m r 6 2 2 6 2 ; % $ + O O O + % 1 d =.jX&XF r 6 1 ; ; ; ; ; ; - - - - - ; ; - ; - - - ; - - - - - - - - - - % % % - - - % % % % % $ $ % $ + $ - 2 t l j 7 1 ; - % % - - - % = = = = = = = = = = % % % % % % % % % % - - - - - ; ; ; ; ; ; - % % - , - - ; 2 6 q 0 ; % + + $ $ % % : : : : : : * * * $ + # & & & & # # # # + + $ $ % % : % % $ = % % % - - - - - % % % $ = - - % % ; 7 v V.>X{.F 7 % O + + + & & $ $ $ = % * % : ; ; 1 2 e x i.jXlXG.I 7 - # . O O O % > 1 1 1 1 1 2 2 2 2 2 2 6 6 6 2 2 1 - ; 1 1 ; ; - ; 2 8 6 7 e r z `  XuXsXjXC.c 2 - $ O .         . O + + + + $ % - ; ; 1 2 6 7 7 6 2 1 1 1 1 2 7 p 7 6 6 2 1 - % % 1 2 2 2 2 2 6 7 e r r r r r r e e e e 7 ",
"% % % - - 1 8 t r a a r e 7 8 2 1 ; ; 1 1 2 6 7 8 1 1 ; 1 6 r d a a r a a a r 9 ; + O + $ $ $ $ $ $ % % % % % % % % % % % % % % % % % % $ $ % % - - - - = + .   o     . . O $ ; r I !.JXMXOXS.L a e 7 6 2 1 ; - ; 2 7 7 9 2 ; - - - - - - - - - - ; ; - - - % + O O O + % 6 N U.lX-Xu.m r 6 2 6 t 9 1 ; * = + O O + $ 1 d #.jX*XS r 6 1 ; ; ; ; ; ; - - - - - ; ; ; ; ; ; - ; - ; - - - - - - - - - - - ; ; > - - , - - - - - % $ $ - 2 t l j 7 2 1 ; , : : ; ; ; ; 1 1 1 1 1 1 1 1 1 1 1 ; ; ; 1 1 1 1 1 2 6 q q u u u u p p 7 6 2 2 5 0 4 6 7 e a g r 6 ; - % - - - ; > 3 3 1 3 1 1 ; ; - - , % % % % % % = = % % - - - ; ; ; - - - - ; ; 1 1 ; 1 ; ; - - - - 1 ; - - 1 e M F.OX{.^ 7 % + + $ $ % : : % % - - : - ; 3 1 1 2 e x M.lXzX].! 7 - # O O O O % > 1 1 1 1 1 2 2 2 2 2 2 2 6 6 2 2 1 - ; 1 1 ; ; - ; 2 8 6 7 e r z `  XuXsXjXC.c 2 - $ O .         . O + + + + $ % - - ; 1 8 9 9 7 6 1 1 1 1 2 6 u i e 6 6 2 ; - $ % 1 2 2 2 2 2 6 7 r r r r r r e e e e e 7 ",
"% % % - - 1 8 t r a a r e 7 2 1 1 1 ; 1 1 1 2 6 6 1 1 1 1 6 r a a a a a a a r 9 ; + O + # & $ $ $ $ $ $ % % % % % % % % % % % % % % % % $ $ % % - - - % $ + .         . . O $ ; r I !.JXMX XS.P a e 7 6 2 1 ; ; ; 6 7 7 9 2 ; - - - - % % % - - - - - - - - $ + O O O + % 2 N U.lXgXu.m a 7 6 7 y 7 6 1 > : $ O O + $ ; d #.jX*XS r 6 1 ; ; 1 1 ; ; - - - - - - - ; ; - - - - - - - - - - - - - ; ; ; ; ; ; > ; - - - : : % % % $ $ - 1 9 k k 7 1 ; - - - - - ; 1 1 1 1 1 1 1 1 1 1 1 1 1 1 1 1 1 1 1 1 1 2 6 q q 7 7 7 e 7 7 7 6 8 4 0 0 8 6 6 e y g u 6 1 ; - - - - ; 3 3 5 1 5 1 1 1 1 ; ; 3 - - % % % % % - - - - ; ; ; ; ; - - ; ; ; ; ; ; ; 1 1 1 ; - - - > ; ; - 1 e M G.OX{.F 7 % + + $ % : > , > - - - - - ; 3 1 1 2 e x N.zXzX].! 7 - # O O O O & > 1 1 1 1 1 2 2 2 2 2 2 2 6 2 2 2 1 ; ; 1 1 ; - - ; 2 6 6 7 e r x `  XuXsXjXC.c 2 - $ O .         . O O + + + $ % - - ; 2 8 q 9 7 6 1 1 1 2 2 6 u k p 7 6 2 ; % $ % 1 2 2 2 2 2 7 7 r r r a r r r e e e e 7 ",
"% % % % - ; 8 p r r a r e 7 6 2 2 1 1 1 1 1 2 6 8 1 ; ; 1 6 r d a a a a a a r 9 > + O O # # # $ $ $ $ $ $ $ $ $ $ $ $ $ $ $ $ $ % % $ $ + & & % % % % % & O .         . X O $ ; r I Q.FXxX XS.L s e 7 6 2 1 ; ; 1 6 7 7 9 2 - * - : % % % % % - - - - - - % $ + O O O + % 2 m U.lXfXA.P s e e e e 7 7 6 8 3 = O O O $ ; d #.jX&XS r 2 2 1 1 1 ; - % % % - - % % - - - - - - - - - % % % - - - - ; ; ; ; ; > ; - - - % % % % % % - % % ; 1 2 2 1 ; - % % % % - - - - - - - - - - ; ; ; ; ; ; ; ; - - - - - - ; ; 1 ; 1 1 1 1 1 1 ; ; ; - - - ; ; ; 1 5 5 ; % % % % - - - - - - ; - ; ; ; ; ; - - - % % % % % % % % % % - - - - % = = - - - - % % % - 3 3 ; % $ $ % - - - 1 7 N H.OX|.H 6 % + + + % 1 5 5 ; ; - - - - - ; 1 1 2 e x u.>XJXU.N 7 % # O O O O % > 1 1 1 1 2 2 2 2 2 2 2 2 8 2 2 2 1 ; ; 1 ; - - - ; 2 6 6 7 e r x '  XuXxXjXn.c 6 % + O O . o     . . O O + + + $ - - ; 2 6 6 2 2 2 2 6 6 6 6 7 u u p 6 2 2 3 - $ % 1 2 2 2 2 2 6 7 e r a a a r r r e e e 7 ",
"% % % % - ; 8 p r a a r e 7 6 2 2 2 2 2 1 2 6 8 8 1 ; ; 1 6 r a a a a a a a r 9 , + . O O + # + $ $ $ $ $ $ $ $ $ $ $ $ $ + + $ $ $ $ + # + & % % % % * & O .         . X @ $ 1 r Y Q.FXxX XS.L a e 7 6 2 2 ; ; 1 6 7 7 9 1 % = % % % % % % % % - - - - : - % + O O O + % 2 m U.vXjXH.P s r r e p 7 7 6 6 4 % O O O + ; d B.jX&XA e 2 2 2 1 1 ; - % % - - - % % - - - - - - % - % % % % % - - - ; ; ; ; ; ; ; - - % % % % % % % - - ; 5 1 ; ; - - - % % % % % - - - - - - - - - - - - - - - - - - % % % % - - - - - - - , - - - - - % % % % % % % % : - % % $ $ % % % % % % % % - - - - - - - - % % % $ % % % % % % % % % % % % = $ % - - - % % % - 3 1 ; - $ = % % - - ; 7 N A.iXR.H 6 % # O + - 1 4 2 1 ; ; ; - - ; ; 1 1 2 e n u.2XJXU.B 7 % + O O O O % , 1 1 1 2 2 2 2 2 2 2 2 2 8 2 2 2 1 ; ; 1 ; - - ; 1 2 6 6 6 e r x '  XuXxXjX@.c 6 % + O @ . o     . O O # + + + % - ; 1 2 2 2 2 1 2 6 7 7 7 7 7 u u 7 6 2 2 1 - $ % 1 2 2 2 2 2 7 7 r r r a r r r r e e e 7 ",
"% % % % - ; 8 p r a a r e 7 6 2 2 2 1 1 2 2 6 8 8 1 ; ; 1 6 r a a a a a s a r 9 > + . O O + + + $ $ $ $ $ $ $ $ $ $ $ $ $ $ + + $ $ + + + + + $ % % % % & O .         . X O $ 1 r Y Q.JXxX XS.L a e 7 6 2 1 ; ; 1 6 7 7 6 1 % % % % % % % % % % % - - - : * % + O O O + % 2 m U.vXjXA.P s r r e p 7 7 6 6 4 % O O + + ; f B.jX&XA e 2 2 2 2 1 ; - - - ; ; ; - % : : : : : : * * % % % * * % % - ; ; ; ; ; - - - - % % % % % % % - ; w 0 1 1 ; - - % % = % % % % % = % = % % % % % % % % % % % % % - % % % - - - % - - - ; ; - - - % % % % % % - % % - ; ; ; ; % % $ $ $ % % % % % % % - - - - - = $ $ $ $ $ $ $ $ % % $ % % % % $ % - ; ; - - - - ; 2 2 2 ; - % % % - - ; 7 N A.iX|.H 6 % + O + - 5 4 2 1 1 1 ; ; - ; ; 1 1 2 e n u.2XFXU.B 7 % + O O O + * > ; 1 1 2 2 2 2 2 2 2 2 2 8 2 2 2 1 1 1 1 ; - - ; 1 8 7 6 6 e r x ' tXuXxXkX@.c 6 % + O X o o   . . O + + + + $ * ; ; 1 2 2 2 2 2 2 u p 7 7 7 7 7 p 7 2 2 1 ; - $ % 1 2 2 2 2 6 7 e r r r a r r r r e e e 7 ",
"% % % % - 1 8 p r a a a e 7 6 2 2 2 1 1 1 2 6 8 8 1 1 ; 1 6 r a a a a a s s d 9 > + . O O O + + + $ $ $ + + + + $ $ $ $ $ $ $ $ $ $ + + + + + $ % % % % $ O .         . X O $ ; r Y Q.JXMX XS.L a 7 7 6 2 1 ; ; 1 6 7 7 6 1 % $ % % % % $ $ $ % % % % % % * $ + O O O + % 2 m U.vXvXA.L s r r e p 7 6 6 6 2 * O O + + ; d B.jX&XA e 2 2 2 1 1 ; - - - ; 1 ; - - : : : : : % * % % % * % % % : - > 1 ; ; ; - - - - - % % % % % % - 1 w w 2 1 1 - - % % % % % - % % $ $ $ $ $ % % % % % % % % % % % % % % % % % % % % % - : - - % % % % % % % % % - - - ; 5 0 8 1 - = = % % % % % % % % - - - - , % $ $ $ $ $ % % % % % % % % % % % % - ; ; ; - - - ; 2 2 2 1 ; - % % - - ; 7 N A.iX|.H 6 % + O + - 5 5 2 1 1 1 ; ; - - ; 1 1 2 e n u.>XFXU.B 7 - + O O O + % > ; 1 1 2 2 2 2 2 2 2 2 2 8 2 2 2 1 1 1 1 ; - - ; 1 8 7 6 6 e r x ' tXuXxXkX@.c 2 % + O X o o   . . O # & + + % - > ; 1 2 2 2 2 6 6 u u 7 7 6 6 7 7 7 2 2 2 1 - $ % 1 2 6 2 2 6 7 e r r r r r r r r e e e 7 ",
"% % % % - 1 8 p r a a a e 7 6 2 2 1 1 1 1 1 6 6 8 1 ; ; 1 6 r a a a a a s s d t ; + . O + + + + + $ $ $ $ $ $ $ $ $ $ $ $ $ $ $ $ $ + + + + $ $ % % % % $ O           . X O $ 1 r Y Q.JXxX XS.L a 7 6 6 2 1 ; ; 1 6 7 7 6 1 % $ $ $ $ $ $ $ $ $ % % % % % % $ + O O O + % 2 m U.vXvXA.L s r r e 7 6 6 6 8 2 * + O + + ; f B.jX&XA e 2 2 2 1 1 ; - - ; ; 1 1 ; - - - - % % % % % % % % % - - > , ; ; ; ; - - - - - - % % % % % - - 1 0 0 2 1 1 ; - - % % % % - % % % % % % % % % % % % % % % % % $ $ $ % % % % % % % % % % % % % % $ $ $ $ $ % % % - - ; 2 q 9 2 ; - - - - - - - - - - - ; ; ; > - % % % % % - % % % - - - - - - - - ; ; ; - - % - - 1 1 2 1 ; - % % - - ; 7 N A.pX|.H 6 % + O + % ; 5 4 2 1 1 ; ; - - ; ; 1 2 e n u.>XFXU.N 7 - + O O O + % > 1 1 1 2 2 2 2 2 2 2 2 2 8 2 2 2 1 1 1 1 ; ; - ; 1 8 7 6 7 e r x ' tXsXxXkX@.c 2 % + O X o o   . . O & & + $ % > 3 ; 1 6 6 6 6 6 7 i p 7 7 6 6 7 7 7 6 2 2 1 - $ % 1 2 6 2 2 6 7 e r r r r r r r r e e e 7 ",
"% % % % - 1 8 p r a a a r 7 6 2 2 1 1 1 1 1 2 6 8 1 ; ; 1 6 r a s s a a s s d t ; + O O # + + + $ $ $ $ $ $ $ $ $ $ $ $ $ $ $ $ $ $ $ + + + $ % % % % % & O .         . X O $ 1 r Y Q.JXMX XS.L a 7 6 6 2 1 1 ; 1 6 7 7 6 1 % $ % % $ $ $ $ $ % % % % % % % $ + O O O + % 6 m U.vXvXA.L s r r e 7 6 2 2 8 4 * + O + $ ; f B.jX&XA e 2 2 2 1 1 ; - : - ; ; ; - - - - - - - - - - - - - - - ; > 3 ; ; ; - - - - - - - - % % % % - ; ; 4 0 2 1 ; - - - % % % % % % % % % % % % % % % % % % - - - % $ $ $ $ % $ % % % % % $ $ $ % % % $ $ $ $ $ $ % % - - ; 2 9 7 2 ; - - - - - - - - - - - ; ; ; ; - - - - - - - - - - - - - - - - - - ; ; ; ; - % - - - ; 1 1 ; - % % - - ; 7 N H.kX|.H 6 % + O + $ ; 5 4 2 2 1 ; ; - : - ; 1 2 r n u.>XFXU.N 7 % + O O O + % > 1 1 1 2 2 2 2 2 2 2 2 6 8 2 2 2 1 1 1 1 ; ; - ; 1 8 9 6 7 e r n ' tXsXxXkX@.c 2 % + O X o o   . . + & = $ $ % > ; ; 2 6 6 6 6 9 t t e 7 7 7 7 7 7 7 6 2 4 3 % $ % 1 6 6 6 2 6 7 e r r a a a r r r r e e 7 ",
"% % % % - 1 6 p r a a a r 7 6 2 2 2 1 1 1 2 2 6 8 1 ; ; 1 6 r a s s a s s s d u ; + O O # + # + $ $ $ $ $ $ % % $ % % % % $ $ $ % % $ + + + $ % - - - * = O .         . X O $ 1 r Y Q.JXNX XS.L a 7 6 6 2 1 ; ; 1 6 7 7 9 1 % % % % % $ = = = % % - - % * = $ O O O . + % 6 m U.vXvXA.L s r r 7 6 2 2 2 2 4 = O + + $ ; f B.jX&XS e 6 2 2 ; ; ; % = % : : - % % - ; ; ; ; ; ; ; ; ; ; ; 1 1 1 1 - - - - - - - - - - % % % % % - ; ; 5 w 5 ; - - - % % % % % % % - : - : : : : : : : : : : - - : % % % % % % % % % % % % % % % % % % % % $ $ $ % - - - 1 0 k 7 1 - % % % % % % % - - - - - - - , - % % % % % % % % % % % % % % - ; ; ; ; ; - - % % % % - ; ; ; - % % - - ; 7 N A.kX|.H 2 % + O + $ - 3 4 2 2 2 1 ; - - - ; 1 2 r n u.:XFXA.N 7 % + . O O + % 3 1 1 1 2 2 2 2 2 2 2 2 6 8 2 2 2 1 1 1 1 1 ; - ; 1 8 9 6 7 e r n ' tXsXxXlXn.c 2 % + O X o o   . . O & = $ $ % , ; ; 2 9 9 7 6 7 t e e 7 7 7 7 p p 7 6 2 4 ; % $ % 1 6 6 6 2 6 7 e r r a a a a r r r e e 7 ",
"% % % % - 1 6 p r a a a r 7 6 2 2 2 1 1 1 2 2 9 8 1 ; ; 1 6 r s s s s s s s d u ; + O O + + & $ $ $ $ $ $ $ $ $ % % % % % % $ $ % % $ + + + & * - - - - $ + . .       . X O $ 1 r Y ;XJXNX XS.L a 7 6 6 2 1 ; ; 1 6 7 7 9 2 - = $ $ $ $ $ $ % % % - - % % = + O O O . + % 6 m U.vXvXA.L s r e 7 2 2 1 2 2 3 % O + + $ ; f B.jX*XS r 6 6 2 ; ; , = = = * * % = = - - - - - - - - ; ; ; ; 3 3 ; ; % % % % % % % % % % % % % % % % - - 5 w 5 - - , % % $ $ $ $ % % % % % % % % % % : : : : : : : : % % % % % % % % $ % % % * * % % % % % % & $ $ $ % % % ; w k 9 ; - % % % % % % % % % % % % % % % * = % % * = * % % % % % % % % % : ; ; ; ; - - % * = = - , > ; - % % - - ; 6 N A.kX|.D 2 % + O O $ - 3 5 4 6 4 5 - - - - ; ; 2 r n A.>XFXA.N 6 % + . O O + % 3 1 1 2 2 2 2 2 2 2 2 2 6 8 2 2 2 1 1 1 1 1 ; - ; 1 6 9 6 7 e r n ' tXsXxXkXn.c 2 % + O X o o   . . O # = + $ % - ; 1 2 9 9 7 6 6 7 7 7 6 6 7 e p p 6 2 2 4 ; % $ % 1 6 6 6 6 6 7 e r r a a a a a r r r e 7 ",
"% % % % - 1 8 p r r a a r 7 6 2 2 1 1 1 1 2 6 6 8 1 1 1 1 6 r s s s s s s s d u ; + O + $ $ # + $ $ $ $ % $ $ $ % % % % % % % % % % $ + + $ % % - - - - = + .         . X O $ 1 r Y ;XJXNX XA.L a 7 7 6 2 1 ; ; 1 6 7 7 9 1 % % $ $ $ $ $ $ $ % % % % % % $ + O O . O + $ 6 m S.vXvXZ.L s r 7 6 2 1 1 1 4 3 = O + + $ ; f K.jX*XN a 7 6 1 ; - $ + . O + + $ = O & $ & + # $ & $ & $ & % % % & $ + + + + + + + + + + + + # # # + $ % - - - % $ + + + + + + + + + $ $ $ $ $ $ $ $ $ % % % % % = = % % % % % % $ $ $ $ $ $ $ $ % % % % % & & & & & $ $ % > 5 w 1 - % & % % % % % % % % % % % % % % = = % & % & = = % $ $ $ $ $ % % : : : : - : : - * % * , > 3 4 - : % - - ; 9 n G.xX|.A 2 % + O O + $ - 1 2 6 4 1 - % % % - 1 2 r n U.,XzXI.N 7 % + . O O + % 3 1 1 1 2 2 2 2 2 2 2 2 2 8 6 2 2 1 1 1 1 1 ; ; ; 1 8 9 6 7 e r n [ tXsXxXjXO.c 2 % + O . o o   . . O # # + $ = - - ; 6 q 9 6 6 2 6 6 7 7 7 7 p p 7 7 6 2 4 3 % $ % 1 6 6 6 6 6 7 e r a d a a a r r r r e 7 ",
"% % % % - 1 8 p r a a a r e 6 2 2 1 1 1 1 2 6 6 8 1 ; 1 1 6 r a s s s s s s d t ; + O + $ $ $ + $ $ $ $ % $ $ $ % % % % % % % % % % $ + + $ % % - - - - = + .         . X O $ 1 r Y ;XJXNX XA.I a 7 6 6 2 1 ; ; 1 6 7 7 9 1 - % $ $ $ $ $ $ $ % % - - % % = + O O . . + $ 6 m S.vXvXZ.L s r 7 6 1 1 1 2 8 3 = O + + $ ; f K.jX&XI s e 6 1 ; - + O   O + + $ $ O O O O O O + + + # # # # # # # + + + + + + + + + + + + + + + + + + $ $ % % $ $ + + + O O O O + + + $ + + + + + + + + + + + + + + $ $ $ $ $ $ $ $ $ $ $ $ $ $ $ $ $ $ & & # # + + + + $ % % - % % $ + + + $ $ + $ $ $ $ $ $ $ $ $ + + + + + + + $ $ $ + + + + $ $ $ & & & & $ % % $ $ $ $ % > 4 ; : % - - ; 9 n G.xX!.A 2 % + O O + $ % ; 1 6 2 1 - - % % - 1 6 r n U.,XkXI.N 7 % + . O O + : 5 1 1 1 2 2 2 2 2 2 2 2 2 8 6 2 2 1 1 1 1 1 ; ; ; 1 8 9 6 7 e r n [ iXsXxXjXO.c 2 % + O . o o   . . O + + + $ = - - ; 6 q q 6 2 2 2 6 7 p 7 p u p 7 7 6 2 4 3 % $ % 1 6 6 6 6 6 7 e r a d a a a a r r r e 7 ",
"% % % % - 1 8 p r a a a r e 6 2 2 1 1 ; 1 2 6 6 8 1 ; ; 1 6 r a s s s s s s d u ; $ O + $ $ $ + $ $ $ $ % % % % % % % % % % % % % % $ + + $ = % - - - - = + . .       . X O $ 1 r Y ;XJXNX XA.L a 7 6 6 2 1 ; ; 1 6 7 7 q 2 - % $ $ $ $ = % % % - - - - * = & O O . . + $ 6 m S.vXvXA.L s r 7 6 1 1 1 1 4 3 = O + + $ 1 f K.jX$XI s e 6 1 ; % + . . O $ % % % $ $ + + + + + + + + + + + + + + + + + + + + + + + + + + + + + + + + + $ $ $ $ $ $ + + + + + + + + + + + + + + O O + + + + + + + + O O O O O O O O O O O O O O O O + + O O O O O . . . O O O O O + + + + + + + + + + + + + + + + + + + + + + + + + + + + + + + + + O . O O O + + + + + O + + % 3 > : $ - - ; 7 n G.xX!.A 2 % O O O O + $ - 1 2 2 1 ; - - - ; 1 6 r m A.,XkXI.N 9 % + . O O + : 3 1 1 1 2 2 2 2 2 2 2 2 6 8 6 2 2 1 1 1 1 1 ; ; ; 1 8 7 7 7 e r n [ iXaXxXjXO.c 2 % + O . . o   . . O + + + $ = - - 1 6 q 9 6 6 6 6 6 7 u 9 9 q 7 6 6 2 2 4 3 % $ % 1 6 6 6 6 6 7 e r a a a a a a r r r e 7 ",
"- % % % - 1 8 p r a a a r e 6 2 2 1 1 ; 1 1 6 6 8 1 ; ; 1 6 r s s s s s s s d t ; $ O + $ $ $ + $ $ $ $ % % % % % % % % % % % % - % % + + $ % % - - - - = + O .       . X O $ 1 r Y ;XJXNX XS.m a 7 6 6 2 1 ; ; 1 6 7 e 7 2 - % $ $ $ % = % % - - - - - * = & O O . . + $ 6 m S.jXvXA.P s r 7 6 ; ; ; ; 1 > & O + + $ 1 f B.jX X~ s e 6 1 - % + O O $ - ; 1 1 1 ; ; ; - ; ; ; ; ; ; ; ; ; ; ; - ; ; ; ; ; ; ; ; ; ; ; ; ; - - - - - ; ; ; ; ; ; - - - - - - ; - - % - % % % % % % % % % % % % $ % % % % % $ $ $ $ $ $ $ $ $ $ $ % % $ $ $ $ $ $ + + $ + + + $ = $ $ $ $ $ $ $ $ $ $ $ $ $ $ $ $ $ $ $ $ $ $ $ $ $ $ $ $ $ $ $ + O O O O + + $ $ + O O O O $ : : : $ - - ; 6 n G.vX!.A 2 $ O O . O O $ % ; 2 2 1 ; - - - ; 1 6 r N A.,XkXI.N 9 % + . O O + : 5 1 1 1 2 2 2 2 2 2 2 2 2 8 6 2 2 1 1 1 1 1 ; - ; 1 8 7 7 7 e r n t.iXuXsXjXO.c 2 % + O X . o   . . O + + + $ = - - 1 6 q 7 6 6 6 6 6 9 q q q 6 6 6 6 2 2 5 > % $ % 1 6 6 6 6 6 7 e r a a a a a a r r r e 7 ",
"- - - - - 1 8 p r a a a r e 6 2 2 1 1 ; 1 2 6 6 8 1 ; ; 1 7 a s s s s s z s s p ; $ O + $ $ $ $ $ $ $ $ % % % % % % % % - - - % % % $ + $ $ % % - - - - = + O .       . X O $ ; r Y Q.JXxX XA.m r 7 6 2 2 1 ; ; 1 6 e e 9 2 - % $ $ $ % * % - - - - - - % = $ O O . . + % 6 m S.jXvXA.L s r 7 2 ; - - ; 1 ; & O O + $ 1 f B.jX&X! s 7 2 ; - % + + + - 6 y d a a s s s s s a s s s s s a a a a a r e e e e e e e e e e e e e e e 7 7 7 e e e e 7 7 7 9 7 7 7 e 7 6 6 6 6 6 6 6 6 2 2 2 2 2 2 2 2 2 2 1 1 1 1 1 1 1 1 1 1 ; ; ; ; 1 1 ; ; ; ; ; ; ; ; ; ; ; - - - - - - - - - - - - - - - - - - - - - - - - % % - - - - - % % % % % % % % % - - - % + O O . + - : : % % - ; 6 n G.kX!.D 2 $ O O . . O $ % 1 8 6 2 ; - - - ; 1 6 r m A.OXjXG.N 9 % + . O O + : 5 2 1 1 2 2 2 2 2 2 2 2 2 8 6 2 2 1 1 1 1 1 ; - ; 1 6 7 7 7 e a n t.iXuXxXjXO.s 2 % + O X o o   . . O + + + $ % - ; 1 2 7 7 7 7 7 7 6 6 6 6 6 6 6 6 2 2 2 2 ; % $ % 1 6 6 6 6 6 7 e r a a a a a a r r r e 7 ",
"- - - - - 1 8 e r a a a r e 6 2 2 1 1 ; 1 2 6 9 8 1 1 1 1 7 a s s s s s z s s p ; $ + + $ $ $ $ $ $ $ $ % % % % % % % % - - - - % % $ $ $ $ % % - - - - * + O .       . X @ $ 1 r Y Q.FXxX XA.m r 6 6 2 1 1 ; ; 1 6 e e 9 2 - % $ $ $ % * % - - - ; - - % = $ O O . . + % 6 m S.jXvXA.L s r 7 2 ; - - ; 1 > & O + + $ ; f B.jX}.! s 7 2 ; - % + $ % 2 j *.E.K.L.L.J.J.J.M.M.M.M.M.M.M.M.M.@.@.=.+.+.+.$.$.$.$.$.X.X.X.$.$.$.$.%.} X.X.X.X.X.^ ^ F F F F F F ^ ^ F A F A F A F A A A A A C C C C V V V V V f f f f f f f f f f f d d d d d f j j f j d d d y y e y y y y y y y y t e t e t e e e e e e e e e e 7 7 7 7 7 7 7 7 7 7 7 6 6 7 7 7 6 1 % + O . + : : : $ % % ; 6 n A.kX&XD 2 $ O O .   . + % 1 6 6 4 ; - - - ; 1 6 r N A.OX,XG.N 9 % + . O O + : 5 2 1 1 2 2 2 2 2 2 2 2 2 8 6 2 2 1 1 1 1 1 ; - ; 1 6 7 7 7 e a n [ iXuXxXjXO.s 2 % + O X o o   . . + + + $ $ - ; ; 1 6 7 7 e e p 7 6 6 6 2 2 2 2 6 6 2 2 1 ; % $ % 1 6 6 6 6 6 7 e r a a a a a a r r r e 7 ",
"% % - - - 1 6 p r a a a r e 6 2 1 1 1 ; 1 2 6 6 8 1 ; ; 1 7 a s s s s s z s s p ; $ + + $ $ $ $ $ % $ $ % % % % % % % % - - - - % % % $ $ $ % % - - - - * + O .       . X O $ ; r Y Q.cXxX XS.m r 7 6 2 1 1 ; ; 1 6 e e 9 2 - % % $ $ % * - - ; - ; - - : = $ O O . . + % 6 L S.vXvXA.L s e 6 1 ; ; ; ; 3 > = O + + $ ; f B.jX{.! d 6 1 - - % $ $ - 7  .KXHXGXSXGXGXlXlXlXlXlXlXFXFXFXGXGXGXGXGXFXSXFXSXSXSXSXGXGXGXGXGXGXGXGXGXAXAXAXGXGXGXAXAXhXhX=X=X=X-XgXgXgXgXgXgXgXgXfXhX!.!.!.!.!.!.R.!.!.!.!.!.R.!.!.!.!.!.!.!.!.W.!.!.W.E.W.W.R.R.R.R.R.R.R.R.Y.Y.Y.B.C.C.C.C.C.C.C.C.M.M.M.n.n.@.@.@.O.O.O.O.O.O.O.o.` ` ` ` ` ` / / / ~ ! ! ! ^ F C j 6 % + O + - : * $ % % ; 6 n A.kX!.D 2 $ O O .   . + % 1 8 6 4 ; - - - ; 2 9 a N A.OXOXG.N 9 % + . O O + : 5 1 1 1 2 2 2 2 2 2 2 2 2 8 6 2 2 1 1 1 1 1 ; ; ; 1 6 9 7 7 e r n t.iXuXsXjXO.s 2 % + O X o o   . . + $ & $ % - ; 1 2 6 7 e r r e 7 6 2 2 2 2 2 2 6 2 2 2 1 - % $ - 2 6 6 6 6 6 e r r a a a a a a r r r e 7 ",
"% % % - - 1 6 p a a a a r e 6 2 1 1 1 1 1 2 6 6 8 1 ; ; 1 6 r s s s s s z s s p 1 $ + + $ $ $ $ $ $ $ $ % % % % % % % % % % - % % % % $ + $ % - - - - - * + O .       . X O $ ; r Y Q.cXxX XS.m a 7 6 2 2 1 3 1 1 6 e e t 2 - % $ $ $ % % % - - - ; - - % = $ O O . O + $ 2 L S.vXvXA.L s r 6 1 ; ; ; ; 1 > = O + + $ ; c V.>X&XS a 6 1 ; - % $ % ; 7 G AXFX%X].;X=X&X#X#X#X#X#X&X&X&X!.!.^.=X=X&X$X$X$X$X$X$X$X#X#X$X%X%X%X-X-X;X;X%X%X$X%X-X-X-X=X=X=X-X-X<XjXlXlXlXlXjXlXjXlXjXlXjXjXjXlXjXjXjXjXjXjXjXjXlXlXjXlXlXlXlXlXlXlXlXlXlXlXlXjXjXjXjXjXjXjXjXfXlXlXzXzXzXzXlXlXlXlXlXlXlXlXlXlXjXjX>X>X>X<X<X-X<X*X>X>X<X<X>X*X*X*X*X&X!.!.!.!.!.W.;.j ; + O + - ; - % % % - 6 x F.jX!.D 2 $ + O . . . + $ ; 2 8 2 ; - - , ; 1 7 a N A.}.OXG.N 9 % + O O O + : 5 2 1 1 2 2 2 2 2 2 2 2 6 8 8 2 2 1 1 1 1 1 ; ; ; 1 6 9 7 7 e a n t.iXuXsXjXO.s 2 % + O X . o o . . # & & $ % - ; 1 2 6 7 p p t e 7 2 1 1 2 6 2 2 6 6 2 2 1 - $ $ - 2 6 6 6 6 7 e r r a a a a a a r r r e 7 ",
"% % % % - 1 6 p a a s a r e 6 2 2 2 1 1 1 2 6 6 8 1 ; ; 1 6 r a s z s s z z s p 1 $ + + $ $ $ $ $ $ $ $ % % % % % % - % % % % % % % $ $ + $ % % - - - , * + O .     . . . O $ ; r I &XxXsXOXu.m a e 6 2 2 2 1 1 1 6 e r p 6 - % $ $ $ % % - - - - - - % * = & O O . O + $ 2 m ).pXjXA.L s e 6 1 ; ; ; ; ; : % + O + $ ; c F.lX!.S r 2 1 ; ; - $ $ - 7 ( <X1X[ N M N N M M S S S N N S N S S S S N N N N N N N N I I ! ! ! ! ! ! ( U { E ) ' U U ( ( } } ( ` O.O.@.@.@.@.@.@.@.@.M.M.M.M.M.M.M.M.M.M.V.M.V.V.V.V.V.V.V.P.P.P.E.P.P.G.G.P.W.E.L.P.G.{.{.{.Q.W.Q.Q.!.!.&X!.^.^.!.!.!.!.&X&X&X&X*X*X>X*X*X&X&X&X*X*X*X>X>X>X,XlX<X-XjXjXgXhXhX&XXX:XF.v ; + O + - 3 - - - - - 2 c W.jXQ.C 2 % + O O . . + $ $ ; 8 2 ; - ; ; ; 1 6 a I S.#XlXF.S 6 % + O O O O % 4 2 2 2 2 1 2 2 2 2 2 6 6 6 8 2 1 1 ; ; 1 1 ; ; ; 1 6 9 6 7 e a N m.iXuXsX>XO.s 2 % + O X . o   . . O # $ $ - ; 1 1 2 6 6 0 6 2 2 1 1 1 1 2 6 6 6 7 6 6 5 ; - $ $ - 2 6 6 6 6 6 7 e r a a a a a r r r e 7 7 ",
"= % % - - 1 6 r a a s a r 7 6 2 2 2 1 1 1 2 6 6 8 1 ; ; 1 6 r s s z s s z z s p 1 $ + # $ $ $ $ $ % % % % % % % - - - % % % % % % % $ + + $ % % - - - , = # .       . O O O $ ; r I &XxXsXOXu.m a e 6 2 2 2 2 1 1 2 7 r y 6 - $ + + $ % % - - - - - - % * = $ + O . O + $ 2 L ).pXpXA.L z e 2 1 1 1 ; ; ; - % + O + + ; c F.lXQ.N a 6 1 1 ; : $ $ - 7 G >X:X( s r r r r r r a r r r r r r r r r r e e r r r r r r r r r a a a a a a s s z x s a r e e e r a s s a a a a s s s s s s s z z z z z z z z z z x x x x x x x x x v M n m m M x c c x N ~ ) ~ N S S ! ! ! ! ! F S S S ^ ^ ^ ^ / / ` ` ` ` ` / / / / ` ' ' t.t.' ' ` ` n.n.#.#.#.m.'.3XG.M ; + O + - 1 ; - ; - - 2 c W.<XQ.v 2 % + O O O O + + + - 4 2 ; - ; ; ; 1 6 a I S.#XGXF.S 2 % $ O O . O % 4 6 2 2 2 1 1 2 2 2 6 6 6 6 8 2 1 1 ; ; 1 1 ; ; ; 1 6 9 6 7 e a N m.iXuXsX>X+.s 2 $ + O @ . .   . . O # $ $ - 1 1 1 2 2 2 4 2 2 1 1 ; ; 1 2 6 7 7 7 6 6 1 ; - $ $ - 1 6 6 6 6 7 7 r r a a a a a r r r e e 7 ",
"% % % - ; 1 9 r a s s a r e 6 2 2 2 1 1 1 2 6 9 8 1 ; ; 1 6 r s s z s s z z s p 1 $ + # $ $ & $ % % % % % % % % - - - - - % % % % % $ + + $ % % - - - , = # O       . O O O $ ; e I &XxXsXiXu.m a 7 6 2 2 2 1 1 1 2 7 r y 6 - $ $ $ $ % : - - - - - - - % * $ + O . O + + 2 L ).pXxXA.I s e 2 1 ; ; ; ; ; - % + O + $ ; c F.lXQ.N a 6 2 1 3 - $ % - 6 G $X}.N r 6 2 2 2 2 6 6 2 2 2 2 1 1 1 1 1 1 1 1 1 1 1 1 2 2 2 2 2 2 2 6 6 6 2 6 7 e p 7 2 1 1 ; ; 1 2 6 6 2 2 2 2 2 2 2 2 2 2 2 6 6 6 6 6 6 6 6 7 7 7 7 7 7 7 7 7 7 7 7 7 7 7 e 7 6 2 6 6 e a f d r e e r r r r e e e e e 7 7 7 e e e e e r r e e 7 7 e e r d f s d r r r s f f f c ! a.3XF.v ; O O + - 1 1 ; ; ; - 2 c W.<XI.v 2 % + O O O O + + + - 4 2 ; - ; ; ; 1 6 a I G.#XGXG.! 6 % $ O O . O % 4 6 2 2 2 2 2 2 2 2 6 6 6 6 8 2 2 1 ; ; 1 1 ; ; ; 1 6 9 6 7 e a m y.iXuXsX>Xo.s 2 $ + O @ . .   . . O # $ % ; 1 1 2 2 2 2 2 1 1 1 1 ; ; 1 2 6 7 7 7 6 4 1 ; - $ $ - 5 6 6 6 6 7 e r a a a a a a r r r e e 7 ",
"% % % - ; 1 9 r a a s s r e 6 2 2 2 1 1 1 2 6 9 8 1 ; ; 1 6 r s s z s s z z s p 1 $ + # $ $ & $ % % % % % - - - - - - - - - - % % % $ + + $ & % - - - - = # .       . O O O + - e I &XxXsXiXu.m a 7 6 2 2 2 1 1 1 2 7 e y 6 - $ $ $ $ % : - - - - ; - - : * $ + O . O + + 2 L S.pXjXA.I s e 2 1 ; ; ; - ; : % + O + $ 1 v F.<X#XI a 7 2 2 3 - $ $ - 6 H $X$XS e 2 ; ; ; 1 5 1 ; ; ; ; ; - - - - ; ; - - ; - ; ; ; ; ; ; 1 1 1 1 ; - 1 1 6 q 2 ; - % % = % - ; ; - - - - - - - - - - - - - ; ; ; ; ; ; ; ; ; ; ; ; ; ; ; 1 1 1 ; ; ; ; ; - - - ; 2 e h t 2 2 2 6 6 6 6 6 2 2 2 2 1 1 1 ; 1 1 1 1 1 1 ; ; ; ; ; 1 2 6 6 6 2 1 1 2 6 6 6 6 e x y.%XP.c - O O + ; 1 2 1 1 ; ; 6 v W.<XQ.C 2 % + O O . . O + + - 4 2 ; - ; ; ; 1 7 a I G.%XGXQ.! 6 % $ O O . O % 4 6 2 2 2 2 2 2 2 2 6 6 6 6 8 2 2 1 ; ; 1 1 ; ; ; 1 6 9 6 7 e a m y.iXuXsXjXo.s 2 $ + O @ . o   . . + & % - 3 1 1 2 2 2 1 1 1 1 1 ; - ; 1 2 6 7 7 7 6 2 1 - - $ $ - 2 6 6 6 6 7 e r a a a a a a r r r r e 7 ",
"% % % - ; 1 9 r a a s a r e 6 2 2 2 1 1 1 2 6 9 8 1 ; ; 1 6 r s s z s s z z s p 1 $ + + $ $ & $ % % % % - - - - - - - - - - - % % % $ + + # & % - - - - = + .       . O O O $ - r I &XxXsXiXu.m a 7 6 2 2 2 1 1 1 2 7 e t 6 % $ $ $ % % : - - - - - - - % % $ + O . O + + 1 m ).jXjXA.I s 7 1 ; ; ; ; - ; : & + O + $ 1 v F.<X#XI a 6 2 4 3 - $ $ - 6 H *X$XS e 1 ; ; ; 3 > ; - - - - - - - - - % % % % % % % % - - - ; ; ; - - - - ; ; 2 w 2 ; - % $ $ $ % % % % % % % % % % % % % % % % % % % % % % % % % % % % % % % % % % % % % % % $ $ % - 1 9 u 8 1 ; 1 1 2 2 2 2 2 1 1 ; ; ; ; - - - - - ; - - - - - - ; ; 1 2 2 1 ; ; ; ; ; ; 1 2 s [ 9XL.c - # O + ; 1 2 1 2 1 ; 6 M W.lXT.C 2 % + O O . . O + + % 5 2 ; - ; ; ; 1 7 a I I.%XDXI.! 6 % $ O O . O % 2 2 2 2 2 2 2 2 2 2 6 6 6 6 6 6 2 1 ; ; 1 1 ; ; ; 1 6 9 6 7 e a m y.iXaXxXjXo.a 1 $ + O @ X o   . . + % - > 5 1 1 2 2 1 1 1 ; ; ; ; - ; 1 2 6 7 7 7 6 2 1 - - % $ - 2 6 6 6 6 7 e r a a a a a a a r r r e 7 ",
"% % - - - 1 6 r a s s s a e 6 2 2 1 1 1 2 2 6 9 8 2 1 1 1 6 r s s z s s z z s i 1 $ + + $ $ & $ % % % % - - - - - - - - - - - % % % $ + + # & % % % % % = O .       . O O O $ ; r I &XMXsXiXu.m a 7 6 2 1 1 1 1 1 2 7 p t 6 % $ $ $ % % : - - - - - - % % * $ + O . O + + 1 m S.jXjXA.I s 7 1 - ; ; - - - - = + O + $ 1 v F.<X#XN a 6 2 3 3 : $ $ % 6 H *X{.M 7 1 ; ; ; 3 ; - - - - - - - - % % % % % % % % % % : : - ; ; - - - : - ; ; 4 k 4 ; - % % $ & & % % & & & & & & & & & & & & & & & & & & = & = & & & & = & = = = = = $ $ % $ $ $ $ - ; 8 w 4 - - - ; ; 1 1 1 1 1 ; ; ; ; - - % = $ % - - - % % % - - - ; 5 5 1 1 ; ; % % , ; 2 d [ 9XP.c ; + O + ; 2 8 2 4 1 1 7 M Q.1XQ.A 2 % + O O . . O + + % 5 2 ; - ; ; ; 1 7 a L I.%XDXI.! 6 % $ O O . O % 4 2 2 2 2 2 2 2 2 2 6 6 6 6 6 6 2 1 ; ; 1 1 ; ; ; 1 6 9 6 7 e a m y.iXaXxXjXo.a 1 % + O @ . o   . . + : > 3 4 1 1 2 2 1 1 ; ; ; ; ; - ; 1 2 6 7 7 6 6 2 1 - - % $ - 2 6 6 6 6 7 e r a a a a a a a a r r e 7 ",
"% % % % - 1 6 e a s s s a e 7 2 2 2 1 2 2 2 6 9 8 2 1 1 1 6 a s s s s s z s s i 1 $ + + $ $ & $ $ % % % % % - - : - - : : - - % % $ $ + + + & % % % % % = O .       . O O O $ - e I *XMXnXiXu.m a 7 2 1 1 1 1 1 1 2 7 p t 2 % $ $ $ $ % % - - - - - % % % = $ + O . O # $ 2 m S.jXjXN.m s 7 1 - - - - - : % & O O O $ 1 x G.<XQ.N r 2 1 ; : * + + % 6 H &X{.M 7 2 1 1 4 4 1 ; ; ; ; - - - - - - - - - - - - - ; > > > > > ; ; - % $ - - 1 w 3 ; % % $ + + & # + + + + + + + + O + + + + O O O + + + + + + + $ $ & $ & $ & $ & + + + + + + O + $ ; 4 w ; % % * - - ; ; 1 1 1 ; ; ; - - % $ $ + $ % - - % % - - - ; ; 1 1 1 1 ; ; % - - ; 6 s i.%XP.c ; + O + ; 2 6 2 8 2 1 7 M Q.1X#XA 2 % + O O . . O + + % 5 2 - - ; ; ; 1 7 a L I.%XGXG.S 2 % $ O O . O % 4 2 2 2 2 2 2 2 2 6 6 6 6 6 6 6 2 1 ; ; 1 1 ; ; ; 1 6 9 6 7 e a N m.iXaXxXjX` a 1 $ + O X . o   . O $ , 5 1 1 2 2 2 1 1 ; ; ; ; ; ; - ; 1 2 6 7 7 6 6 2 1 ; - % % - 2 6 6 6 6 7 e r a a s s a a a a r r e e ",
"% % % % - 1 6 e a s s s a e 7 6 2 2 1 2 2 2 6 9 8 2 1 1 1 6 a s z z s s z s s i 1 $ + + $ $ & $ $ $ $ % % % % % : : : : : % % % % $ $ + + + & $ % % % = & O .       . O O O + - e I *XMXnXiXu.m a 7 2 1 1 1 1 ; 1 2 7 p t 2 % $ + $ $ % % % % % % % % % % = $ + O . O # $ 1 m S.jXjXN.m s 7 1 - - - - % - % $ O O + $ 1 v G.<XQ.M e 1 ; - : * + + % 6 H *X{.S e 6 1 2 4 2 ; ; ; ; - - - - - - - - - - - - - - - > : : - - - - - % % - - 3 w 4 ; - % $ $ & & & # + + + + + O O O + O + O O O O + # + # # # & & & & & & & & $ & + + + & $ + + $ % ; 5 5 - + + $ $ % % - - ; ; ; ; - - % % $ $ + $ % % % % % % - - - - ; ; 1 1 ; - - - ; 1 6 c y.2XF.M 1 $ + $ ; 2 6 6 8 2 2 7 N Q.1X#XA 2 % + O . . . O + + % 4 2 - - ; ; ; 1 7 s L I.%XGXG.S 2 % $ O O . O % 2 2 2 2 2 2 2 2 2 6 6 6 6 6 6 6 2 1 ; ; 1 1 ; ; ; 1 6 9 6 7 e a N m.iXaXxXjX` a 1 $ + O X . o   . O $ 5 w 1 1 2 2 1 1 1 ; ; ; ; ; ; - ; 1 2 6 6 6 6 6 4 1 ; - % % - 2 6 6 6 6 7 e r a a s s a a a r a r r e ",
"% % % - - 1 6 i d s s a a e 7 6 2 2 1 2 2 2 6 9 8 1 1 ; 1 6 r s c z s s s s s i ; $ + # + $ $ $ $ $ $ % % % % % % % % % % % % $ $ $ $ + + + + $ % % % % + O     o   . O O O $ ; r ( &XNXMXOXA.m a 7 2 1 1 1 1 ; ; 2 7 e e 2 % $ + + + + $ $ $ $ $ % % $ $ = $ O O . O + $ 1 m a.jXjXN.m a 6 ; % % % % % % % + O O O + ; x F.<XI.v 6 - % % % & + + % 2 G gX}.S e 2 1 5 5 ; - - - - % % % % % % % % % % % % : - , - : : - - - - - % % - ; 1 8 w 1 ; ; > : % $ + + + + + + + + + + + + + + + + + + O O O O O O O O + + + + + + + + + $ - - % % % - 4 8 3 - $ + $ $ $ $ $ = - , > > - - % = $ $ + $ $ % % % % % - % - - - - > > ; - - ; ; 2 6 z p.3XS.M 1 $ + + ; 2 6 6 2 2 2 7 N T.zX#XA 2 % + O . O O O + + % 4 2 ; - ; ; ; 1 7 s L S.-XHXI.S 6 % $ O O O O % 5 6 2 2 2 2 2 2 2 6 6 6 6 6 6 6 2 1 ; ; 1 1 ; ; 1 2 8 7 6 7 e a N m.iXaXxXjX+.d 1 $ O O X . o   . O % 1 1 1 2 2 1 2 1 1 ; ; ; ; ; ; ; ; 1 2 6 6 7 6 6 1 1 ; - % % - 2 6 6 6 6 7 e r a a s s a a a r r r e 7 ",
"% % % - - 1 6 i d a s s a e 7 6 2 2 1 2 2 2 6 9 8 1 1 1 1 6 r s c z s s z s s i 1 $ O + + + + + $ $ $ $ $ % % % % % % % % $ $ $ $ $ $ $ # + $ $ % % % $ + O     o   . O O O $ ; r ( &XNXMXOXA.m a 7 2 2 2 1 1 ; ; 2 7 e e 2 % $ + + + + + $ $ $ $ $ $ $ $ $ + O O . O + $ 1 m a.OXjXN.m a 7 ; - % % % % % % + O O O + ; x F.<XQ.c 2 - $ $ $ # O + $ 2 G *X}.S e 2 1 3 ; - - - - % % % % = = % % % $ % % % % * * % % % % % % % % % % - - ; 5 4 1 ; ; > , * $ + + + + + + + + + + O O O O O O O O O O O O O O O O O O O + + + O + $ % ; 3 3 - % - 3 4 ; % + + $ $ + + $ $ % : - ; - ; - % % $ $ $ $ % % % % % : % % % % : , > ; - - - - 1 6 s A.:XS.M 1 $ + $ ; 6 6 9 6 2 2 7 N G.zX#XA 2 % O O O O O + + + % 4 2 ; - ; ; ; 1 7 s L S.-XHXI.S 6 % $ O O O O % 5 8 6 2 2 2 2 2 2 6 6 6 6 6 6 6 2 1 ; ; 1 1 ; ; ; 1 8 9 6 7 e a m m.iXsXxXjX+.d 1 $ O O X . o   . O % 1 1 1 2 2 1 1 1 1 ; ; ; ; ; ; ; ; 1 2 6 6 7 6 6 1 ; ; - % % - 2 6 6 6 7 7 e r a a s s a a a a a r r e ",
"% % % - - ; 6 p r a s s a r 7 6 2 2 1 2 2 2 6 9 8 2 1 1 1 6 r s c s s s s s d u 3 + O O O + + + + + $ $ $ $ $ % $ $ $ $ $ $ $ $ % % $ & # + + $ $ % % $ + O     o   . O O O + ; r ( &XNXMXOXA.m a 7 6 2 2 1 1 ; ; 2 7 e e 2 % $ + + + + + $ $ $ $ $ $ $ $ $ + O O . O + $ 1 m S.OXfXN.I s 7 1 ; - - - - - % $ + O O + ; v F.<XQ.c 2 - $ $ + + O + $ 6 G *X}.S e 2 ; ; ; - % % = = $ $ $ $ $ % $ % $ $ $ $ % = = % % $ $ $ $ $ $ $ $ % % % - > - % - * * $ + O O O O O O O . O . O O O O O O O O O O O O O O + + + + + + + + + + $ % ; 5 5 % $ % > ; - $ O # # + $ $ % % - - ; ; 3 3 > ; - - % % % % % % % - - % - % % - , > ; - % $ % ; 2 s N.$XG.M 1 $ + $ 1 6 7 7 6 6 2 7 N G.zX#XA 2 % O O O O O + + + - 4 2 ; - ; ; ; 2 7 s P S.%XHXI.S 6 % $ O O . O % 5 8 6 2 2 2 2 2 2 6 6 6 6 9 6 6 2 1 ; ; 1 1 ; ; ; 1 8 7 6 7 e a m m.iXsXxXjX] a 1 $ + O X X o   . O % 1 2 1 2 2 1 1 1 1 ; ; ; ; 1 1 1 1 1 2 6 7 7 6 6 1 ; ; - $ % - 2 6 6 6 7 7 e r a s s s a a a a a r r e ",
"% % % - - ; 2 p r a s s a e 7 6 2 2 1 2 2 2 6 9 8 2 1 1 1 6 d s c z s s z s s u 3 + O O O O + + + + + + + $ $ $ $ $ $ $ $ $ $ $ $ $ $ $ # + + $ $ % % $ + O     o   . O O O + ; r ( &XNXMXOXA.m a 7 6 2 2 2 1 1 1 2 7 e t 2 % $ $ + $ + $ $ $ $ $ $ $ $ $ $ + O O . O + $ 1 m S.OXiXN.I s 7 1 ; ; ; ; - - - & + O + + 1 v G.<XW.c 6 - % $ $ + O + % 6 G *X}.S e 2 ; ; - - % % = $ $ $ $ $ $ $ $ % % % $ $ $ % % % $ $ $ $ $ $ $ $ $ = % % - ; - % - - = $ O O O O O O O O O O O O O O O O O O O + + + + + + + + + + $ $ $ $ $ $ $ $ - 5 > % $ % - - % + + # + $ $ $ % % - - - ; 3 3 ; ; - - - % $ $ $ % % % % % % % % % - - - - $ $ $ - 1 a M.%XF.M 1 $ $ % 1 6 7 7 6 6 6 e N I.zX#XC 2 % O O O O + + $ + - 4 2 ; - ; ; ; 2 7 s P S.%XHXI.N 6 % $ O O . O % 5 8 6 2 2 2 2 2 2 6 6 6 7 9 6 6 2 1 ; ; 1 1 ; ; ; 1 8 9 6 7 e a m m.iXsXxXjX` a 1 $ + O X X o   . O % 5 2 1 2 2 2 2 1 1 ; ; ; 1 1 1 1 1 2 2 6 6 7 6 2 1 ; - % $ $ - 2 6 6 6 7 7 e r a s s s s a a a a r e e ",
"% % % - - ; 2 7 r a a a a e 7 6 2 2 2 2 2 2 6 9 8 2 1 1 1 7 d s z z s s z z s u 3 + O O + + + + + + + $ $ $ $ $ $ $ $ $ $ $ $ $ $ $ $ $ + + + $ $ % % $ + O     o   . O O O $ ; r ( &XNXMXOXA.m a 7 6 2 2 2 1 1 1 2 7 e t 2 % $ $ & $ $ $ $ $ % $ % % $ $ = $ + O . O + $ 2 m S.OXiXm.I s e 2 ; ; ; - - - : $ + O + + 1 v R.<XQ.c 7 1 , - % $ + + % 6 H &X{.N e 2 ; ; ; - - - - % % % % - - % % - % % % % % % % % % % % % % % % : : : - - - ; ; ; ; ; ; - % $ $ % $ $ $ $ % % % % % % % % % % % $ $ $ $ $ $ $ $ % % $ $ % % % % - - 1 8 2 - % ; ; ; - % = % % % % $ $ % % % % - - - - - - - % % $ $ $ % : - % % $ $ $ $ $ % % % $ $ $ , 1 d M.[.A.v 1 $ + % 1 q 7 6 6 6 6 e I I.zX].A 2 % O O O + + $ $ $ - 4 2 ; ; ; ; ; 2 7 s U U.%XHXI.N 6 % $ O O O O % 4 8 2 2 2 2 2 2 2 6 6 6 7 9 6 6 2 1 ; ; 1 1 ; ; ; 1 6 9 6 7 e a m m.iXsXMXlX` a 1 $ + O X X o   . O % 5 2 1 2 2 1 1 1 1 ; ; ; 1 2 2 1 2 2 6 6 6 6 6 2 ; ; - % $ $ - 2 6 6 6 6 7 e r a s s s s a a a r r r e ",
"% % % % - - 1 7 e r a a a e 7 6 2 2 2 2 2 2 6 9 9 2 1 1 1 7 d s z z s s z z s u 3 + O O + + + + $ $ $ $ $ $ % % % % % % % $ $ $ $ % % $ & $ $ $ % % % $ + O .   o   . O O O $ ; r ( $XNXMXOXA.m a 7 6 2 2 2 1 1 1 6 e r y 6 % $ % % % % % % % % % % % % % * $ + O . O + $ 2 m ).iXiXZ.I s e 2 1 ; ; ; ; ; - % + O + $ 1 v R.lXQ.M e 2 3 > - % + + % 6 H &X_.N e 6 1 ; - - - - - % % * * * : - - : : : : : - % % : : % % % % : - : - : : - - > ; ; 3 3 > ; : : * % % % : - : : : > > > > > > > > - - - - - : , , , , , , , > > > ; ; 8 w w ; - - 3 ; ; , , , ; ; - * * * * * - - : - - - - : : * = = % , , , > - = = = = = % - - - % % > 2 d J.%XN.c ; $ + % 1 6 7 6 6 6 6 e ! I.zX].A 2 % O O O & $ % % % ; 6 2 ; ; ; ; ; 2 7 s P U.8XHXG.N 6 % $ O O O O % 4 8 2 2 2 2 2 2 2 6 6 7 7 9 6 6 2 1 ; ; 1 1 ; ; 1 1 6 9 6 7 e a m m.iXsXMXlX` a 1 $ + O X . o   . O % 3 5 1 2 2 1 1 1 1 ; ; 1 2 2 8 2 2 6 6 6 6 6 6 2 ; - - % $ $ - 2 6 6 6 6 7 e r a s s s s a a a d r e e ",
"$ $ $ % % - 1 7 e r a a r e 7 6 2 2 2 2 2 2 6 9 9 2 1 1 1 7 a s z z s s z z s u 3 + O O + $ # + $ $ % % % % % % % % % % % % % % % % % = & & = * % % % % $ O .   o   . O O O $ ; r ( &XNXnXOXA.m a e 6 2 2 2 2 1 1 6 e r y 6 - % % % % % % % % - % - % % % % % + O . O + $ 2 m ).pXiXH.L z e 2 1 1 1 ; ; 3 > = + + + $ 1 v R.lX!.N r 6 2 4 ; : $ $ % 6 H $X_.N e 2 ; - % % % % $ $ $ $ $ $ % % % % % % % % % % % % % % $ % % % % * % % * $ $ * % % : - : % % = = & & & = & = = = : : : : : : : : , , , , , < < < < < , : : > < , % - 3 5 , % $ $ - - : < < * ; > , - - - - % % % - * % % * * - - % % - 3 5 3 1 ; - , % % - - ; ; ; ; ; 3 6 s N.%XN.x ; + + $ 1 6 6 6 2 2 2 e ! #XzXI.A 2 % O O O & % : , - > 8 2 ; ; ; ; ; 2 7 s P S.8XHXG.N 2 % $ O O O O % 4 8 2 2 2 2 2 2 2 6 6 6 9 9 9 6 2 1 ; ; 1 1 ; ; ; 1 6 9 6 7 e a m m.iXsXNXlX` a 1 $ O O X . o   . O % 3 3 1 4 4 1 1 1 1 1 1 1 2 8 8 2 2 6 6 7 6 6 6 2 ; - - % $ $ - 2 6 7 6 6 7 e r a s s s s a a a d r e 7 ",
"$ $ $ % % - 1 6 e r r r r e 6 2 2 1 1 2 2 2 6 9 8 2 1 1 1 7 a s s s s s z z s i 5 $ O O + $ $ $ $ $ % % % % % - : : : : : % % % % % % % & & = - % - - % $ O .       . O O O $ ; r ( &XNXnXiXA.m a e 6 2 2 2 2 1 1 6 e r y 6 - % % % % % % % % - - - - - % % % + O . O + $ 2 m S.pXjXA.L z e 2 1 1 ; ; ; ; > % + + + $ 1 v T.lXQ.N a 6 2 4 3 : $ $ % 6 H &X_.N e 4 - $ $ $ $ $ + $ $ $ $ $ $ $ $ $ % % % % $ $ $ $ $ $ $ $ $ $ $ % $ $ $ + $ $ $ $ $ $ $ $ + + + + + + + + + + $ $ $ $ $ $ $ $ $ $ $ $ $ $ $ $ $ $ $ $ $ $ $ $ $ $ $ % % $ $ + + $ + $ $ + + $ % % % % % $ $ $ $ % $ $ $ $ $ $ $ % % - ; 3 > ; - - % % $ % % - - - - - 1 6 s A.$XN.c ; + + $ 1 6 6 6 2 2 6 e ! #XzXQ.C 2 % O O O * : > > - 1 6 2 ; ; ; ; 1 2 7 s P U.8XHXI.N 2 % $ O O . O % 5 8 2 2 2 2 2 2 2 6 6 7 7 9 9 6 2 1 ; ; 1 1 ; ; ; 1 6 9 6 7 e a m m.iXsXNXlX/ a 1 $ O O . .     . O - 3 3 1 2 2 1 1 1 1 1 2 2 6 7 7 6 8 6 6 6 6 6 6 2 ; ; - % $ $ - 2 6 7 6 6 7 e r a s s s s a a a r r e 7 ",
"+ + + $ $ % 1 6 r r r r e 7 6 2 1 ; ; 1 1 2 6 8 8 1 1 1 1 7 a s s s s s z z s p 1 $ O + $ % % $ $ % % % % % - - : - - - - - - - - - % % % % % - - - - * = O .       . . O O $ ; r ~ *XxXnXpXu.m s e 7 6 8 2 2 1 1 6 e r e 6 - $ % % % % % % % % - - - - : * % + O O O # $ 1 m a.OXjXA.L s e 2 1 ; ; ; - ; - % + + + + ; v T.<X].I s 7 5 1 ; % + $ % 6 G *X{.S e 8 < O O $ $ - - % $ $ $ - - $ $ % - % % % % % % % % % % % - - % % % $ $ $ $ $ % % % % % $ $ $ $ $ $ $ $ $ $ $ $ $ $ $ $ $ $ $ $ $ + $ + + + + $ $ $ $ $ + + + + $ $ $ $ $ + + + + + + + + + $ $ $ $ $ $ $ $ $ $ $ $ $ $ $ $ $ % % % % % + + $ $ % $ $ + + $ & $ $ $ % ; 2 s N.}.V.c ; $ O $ 2 6 2 4 2 2 6 r ~ $X,XG.V 1 $ O O + % - ; ; 1 1 4 1 ; ; ; ; 1 2 7 s L S.0XHXU.M 6 % $ + . . + - 2 6 2 2 2 2 2 2 2 6 6 7 7 7 6 6 2 1 1 1 1 1 ; ; ; 1 6 7 7 7 r s I Z.iXsXcX*X/ a 1 $ + O . .     . O - 1 5 2 4 2 2 2 2 2 2 6 7 e e e e 7 7 6 6 6 6 6 1 1 ; - - $ $ - 2 6 6 6 6 7 r a s s s s s s s a a r e 7 ",
"$ $ $ $ % - 1 7 r r r r r 7 6 1 1 ; ; ; 1 1 2 6 2 1 ; ; 1 6 a a s s s s z z s p 1 $ O + $ % % $ % % % % % % - - - - - - - - - - - - - % % % - - - - - * = + .       . . O O $ ; r ~ *XxXsXiXN.m s e 7 6 8 2 2 1 1 6 e e e 6 - % % % % % % = % - - - - - : - % + O O O # $ 1 m a.>XjXu.L s e 2 1 1 > > > > > * + + + + ; v G.<X].L a 6 5 1 - % + $ % 6 G  X.XS e 4 < O O % - 2 6 2 1 1 2 6 6 1 1 2 2 2 2 2 2 2 2 2 2 2 2 2 2 2 2 2 1 1 1 1 1 1 1 1 1 1 1 1 ; ; ; ; ; ; ; ; ; ; ; ; ; ; ; ; ; ; ; - - - - - - - - - - - - - - - - - - - - - - - - - % - - - - - - - ; - - ; ; ; ; ; ; ; - - - - ; ; ; ; ; % $ % - ; - % % $ $ # O + $ % ; 1 d A.}.L.s ; $ O $ 2 9 5 3 1 2 6 a ) }.,XW.V 1 $ O O + % ; ; ; 1 1 4 5 ; ; ; ; 1 6 7 a L U.0XHXU.n 6 % $ + . . + - 2 2 2 2 2 2 2 2 2 6 6 7 7 7 6 6 2 1 1 1 1 1 ; ; ; 1 6 7 7 7 r s L Z.iXsXcX-X/ a 1 $ + O . .     . O - 1 2 2 6 2 2 6 6 6 6 7 e e r e e 7 7 6 6 6 6 6 1 1 1 ; - % $ - 2 6 6 6 7 7 r d s s s s s s s a a r e 7 ",
"= $ = % - ; 2 7 r a a a r 7 6 2 1 1 ; 1 1 2 2 6 8 1 ; ; 1 6 r a s s s s z z s p 5 $ O + $ % % % % % % % % % - - - - - - - - - - - - - % % % - - - - - * = + .       . . O + $ ; r ~  XsXaXiXN.m s e 7 6 8 2 2 1 1 6 e e r 6 - % % - % % % % - - - ; - - - - % + O O O # $ 1 m a.jXjXu.L s e 2 1 ; ; ; ; ; , % + + + + 1 M I.<X].m a 6 5 ; - % + $ - 7 S  X.XS r 2 > + $ ; 7 V H H A H S ~ ! F A A M M M M M M M A v v v v v A A v v v v v v v v C C c V c c c c f s d s f s f s s s d a d a d d d d d d d y d y r r r r y y d d d d r r r r r r r r r r r r r r r r r e r r r r r r r e e e e e e e e e 9 7 e r r e 7 2 1 ; & O + $ % ; 1 d A.$XL.s ; $ + $ 2 6 4 1 1 2 7 a ) _.,XR.V 1 $ O O + % - ; ; 1 1 2 5 ; ; ; ; 1 6 7 a L S.0XHXP.M 6 % $ + . . + - 2 2 2 2 2 2 2 2 2 6 6 7 7 7 q 6 2 1 1 1 1 1 ; ; 1 2 6 7 7 e r s L Z.iXsXcX-X/ a 1 $ O O . .     . O - 2 2 2 6 6 6 6 q 7 7 7 7 e e e e 7 6 6 6 2 2 2 1 1 1 ; ; % $ - 2 6 6 6 6 7 r d d s s s s s s a a r e 7 ",
"% % % - - ; 6 u r a a a r e 6 2 1 1 1 1 1 2 2 6 8 1 ; ; 1 6 r a a a a s z x s i 5 $ O + $ % % % % % % % % % - - - - - - - - - - - - - % % % - - - - - * = + . .     . . O O $ ; r ~  XsXaXiXu.m s e 7 6 2 2 2 1 1 6 e r r 6 - % - - - % % - - - ; ; ; ; ; - % + O O O # $ 1 m a.jXjXu.L s e 2 1 ; ; ; - ; - $ + O + + 1 M I.<X].m a 6 1 ; - % + $ - 7 S  X.XS r 2 ; + $ 2 f E.CX5X5X^.=X X X&X^././.7X7X5X5X5X5X5X/.E.L.E.E././.~.~.~.~.~.~.W.W.~.~.~.W.~.E.~.E.L.=.=.=.K.L.K.=.K.=.K.=.=.=.=.=.=.=.-.&.-.#.-.-.#.#.#.#.#.&.#.&.#.&.&.#.&.&.#.&.#.#.#.+.#.#.#.&.+.+.+.+.+.&.&.&.&.+.+.+.+.+.+.$.$.$.X.+.X.X.+.+.@.=.X.J Z h > + + $ % ; 1 d A.:XL.s ; $ + $ 2 6 5 1 1 2 7 s ) {.,XF.V 1 $ O O + % ; ; 1 1 2 4 5 ; ; ; ; 1 2 7 a I U.0XHXP.M 6 - $ + . . + - 2 2 2 2 2 2 2 2 2 6 7 7 7 7 q 6 2 1 1 1 1 1 ; ; 1 1 6 7 7 7 r s L Z.iXsXcX*X/ a 1 $ + O . .     . O - 6 6 6 7 7 7 7 7 7 7 7 7 e p e 7 7 6 6 6 6 2 2 1 1 1 1 > % $ - 2 6 6 6 6 7 r d d s s s s s a a a a r 7 ",
"- - - - - 1 6 p a a s a r e 7 2 2 1 1 1 1 2 2 6 8 1 ; ; 1 6 r a a a a s z z s i 5 $ O + $ % % % $ $ % % % % - - - - - - - - - - - - - % % % - - - - - * = + O .     . . O O $ ; r ~ }.sXaXiXu.m s e 7 6 6 2 2 1 1 6 e r r 6 - % - - - - - - - - ; ; ; ; ; - % $ O O O # $ 2 m S.kXjXu.L z e 2 ; ; ; ; ; ; - % + + + $ 1 M I.<XU.m a 6 1 ; - % + $ - 7 ! tX XS r 6 ; $ % 2 C AXLXAX9X^.=X*X*X=XhX8X9X9X9X9X9X9X9X9X9X9X9X;X;X;X=XAXgXgXAXAXAXAXAXAXgXgXgXhXhXgXgXAX9X-X9X8X8X8X9X8X8X8X8X8X9X8X-XgXgXgXgXvXlXvXGXgXgXgXgXgXgXgXgXgXgXgXgXvXGXGXGXgXgXgXgXgXgXvXlXlXlXlXlXvXGXGXGXGXGXGXlXGXGXGXGXAXAXlXlXlXlXzXzXFXFX0X=X~.X.7 - $ $ % ; 1 d F.2XL.s ; $ + $ 2 6 2 1 1 2 7 s ) }.>XF.V 1 $ O O + % ; 1 1 2 2 2 1 ; ; ; ; 1 2 7 a L U.2XDXP.M 6 % $ + . . + - 2 6 2 2 2 2 2 2 6 6 7 7 7 7 7 6 2 1 ; 1 1 1 ; ; 1 2 9 7 7 e r s L Z.iXsXxX*X/ a 1 $ + O . .     . O ; 6 p e p y e e e 7 6 6 7 7 e e 7 7 6 6 6 6 2 2 2 2 1 1 3 - % ; 2 6 6 6 6 7 e r s s s s s s s a a a e 7 ",
"- - - - - 1 6 r a s s s a e 7 6 2 1 1 1 2 2 6 6 4 1 ; ; 1 2 e a a a a s z z s p 5 $ O + $ % % % $ $ % % % % - - - - - - - - - - - - % % % % - - - - - * = + O .     . . O O $ ; r ~  XsXaXiXu.m s e 6 6 6 2 2 1 1 6 e r r 6 - % - - - - - - - - ; ; ; ; ; , % $ O O O # $ 2 m ).kXlXu.L z e 2 ; ; ; ; ; ; - % + O + + 1 M I.<XU.m a 6 1 ; - % + $ - 7 ! jX XS r 6 ; % - 2 v AXDXN.[ ) ) ' ` / / ` ` ` ` / / / / ] ( ( / / / / / o.o.o.o.o.O.O.O.o.O.O.O.O.O.O.O.@.[ [ [ M.M.M.@.M.M.M.M.M.M.M.M.n.n.C.C.C.C.V.V.C.C.C.C.V.C.V.C.V.B.B.B.Y.Y.E.W.V.V.C.V.Y.Y.Y.Y.W.R.R.R.R.R.T.Q.Q.Q.Q.Q.Q.!.!.Q.E./.#X}.{.{.{.#X].$X}.$X-X+.e ; $ $ % > 1 d F.2XL.s ; $ O $ 2 6 1 1 2 6 p s ) }.XXF.V 1 $ O O + - ; 1 1 2 2 1 1 ; ; ; ; 1 2 7 a I U.%XDXP.M 6 % $ + . . + - 2 6 2 2 2 2 2 2 6 6 7 7 7 7 q 6 2 1 ; 1 1 1 ; ; 1 2 9 7 7 e r z L Z.iXsXcX*X/ a 1 $ + O . .     . O 1 e p r d g d r e 7 7 6 6 6 6 7 7 7 6 6 6 6 2 2 2 2 1 5 3 - % ; 2 6 6 6 6 7 e d s s s s s s s a a a e 7 ",
"- - - - - 1 6 r d s s s a r 7 6 2 2 1 1 2 2 6 6 2 1 ; ; ; 2 e a a s a s z z s p 1 $ O + $ % % % % % % % % % - - - - - - - - - - - - % % % % - - - - - * = + .       . . O O $ ; r ~  XsXaXiXu.m s e 6 6 2 2 2 1 1 6 e r r 6 - % - - : - - - - - ; ; ; ; ; , % + O . O # & 2 I ).zXlXu.L z e 2 ; ; ; ; - ; - $ + O + $ 1 M I.<XU.m r 6 1 ; - % + $ - 7 ( jX XS e 2 - % - 2 c 5X9X! x s a a r e 7 e e e 7 7 7 7 6 6 6 9 6 6 6 7 7 e e e e e e e e e e e r r r e e e e e e e e e e e e e e e e e e e e r r r r r r r r r r r r r r y y y r y r y y y r y r d d d d f d f f f s f f f s f f f f c f g c M M v c c x z n P N.9X+.7 ; $ $ % > 1 d P.<XL.s ; $ O $ 2 9 1 2 6 7 p s ) }.XXF.V 1 $ O O + - 1 1 1 2 2 2 1 ; - ; ; 1 2 7 a I U.%XDXA.M 2 % $ + . . + - 2 6 2 2 2 2 2 2 6 6 7 7 7 7 q 6 2 1 ; 1 1 1 ; ; 1 2 9 7 7 e r z L Z.iXsXcX*X( a 1 $ O O . .     . + 2 i g r a g d r r e 7 6 6 6 6 6 6 7 6 6 6 6 2 2 2 2 2 4 5 - % ; 2 6 6 6 7 7 e d s s s s s s s a d r e 7 ",
"- - - - ; 1 6 r d s s s d e 7 6 2 2 1 1 2 2 6 6 2 1 ; ; 1 6 r a a s a s z x s i 1 $ O + $ % % $ % $ % % % % - - - - - - - - - - - - - % % % - - - - - * = + .       . . O O $ ; r ~  XsXaXiXA.m s e 6 6 2 2 2 1 1 6 e r r 6 - = - : : - - - - - ; ; ; ; , - % + O . O # & 2 I ).zXlXu.L z e 2 ; ; ; ; ; ; - % + O + $ 1 M I.<XU.m r 2 1 ; - % + $ - 7 ( jX XS e 2 - $ % 1 c 5X6XS s e 7 7 2 1 ; 1 1 1 ; ; ; ; - - - : - - - - ; ; ; ; ; ; ; ; ; ; ; ; 1 1 1 1 ; ; ; ; ; - - ; ; ; ; ; ; ; ; ; ; ; ; ; ; ; ; ; ; ; ; ; ; ; ; ; ; ; ; ; - - ; ; ; ; ; ; ; ; ; ; ; 1 1 1 1 1 1 1 2 1 1 2 2 1 2 2 2 2 6 e e 7 6 2 2 6 r n J.AX&.7 ; $ $ % > 1 d P.<XL.s ; $ O $ 2 6 1 2 6 p r s ) }.XXF.V 1 $ O O + > 5 2 1 2 2 4 3 ; - ; ; 1 2 7 a I S.3XDXN.M 2 % $ + . . + - 2 6 2 2 2 2 2 2 6 6 7 7 7 7 q 6 2 1 1 1 1 1 ; ; 1 2 9 7 7 e r z P Z.iXsXcX*X( r ; $ O O . .     . + 2 g a r r a a r e 7 6 6 6 6 6 6 6 6 6 6 6 2 2 1 2 2 2 4 w ; % ; 2 6 6 6 7 7 e d s s s s s s s a a r e 7 ",
"- % % - ; 1 6 e a a a a r e 6 2 2 2 1 2 1 2 2 6 2 1 ; ; ; 6 r a s s s s z z s i 5 $ O + $ % % % % % % % % % - - - - - - - - - - - - % % % % - - - - - * = + .       . . O O $ ; r U  XxXaXiXu.m s e 7 6 8 2 2 1 1 6 e r r 6 - % * % % % % % - - - - - - - - $ + O O O + = 2 m ).FXlXu.L z r 2 1 1 1 1 ; 1 ; % + O O + 1 v ;XDXU.B r 2 ; ; - & + $ - 7 ( jX XS e 1 - + $ ; f /.^.G r 7 6 2 1 - - - - : : : % % % & & & & & & & % % % % % % % % % % % - > ; - - - % % % % % % % % % % % % % % % % % % % % % % % % % % % % % % % % = % $ $ $ % % % % % % % % % % % % % % % % % % % % % % - - - % - - 1 6 8 1 ; - - ; 6 s L.AX@.r ; % $ % ; 1 d F.<XL.s ; $ O $ 2 6 2 6 6 7 e s _ }.,XF.f 1 $ O O + , 5 2 1 2 2 2 1 ; ; ; ; 1 2 7 a I S.0X0XP.M 2 % + O . . + ; 2 6 2 2 2 2 2 2 6 6 7 7 7 7 9 6 2 1 1 1 1 1 ; ; 1 2 9 e 7 e r s U F.iXMXcX$X/ a ; $ O . . .       + 6 r e e r a d r e 7 6 6 6 2 2 2 6 6 6 6 2 2 2 2 2 2 2 4 3 - % ; 2 6 6 6 7 7 r a s s s s s s a a d r e 6 ",
"- % % - - ; 2 p r a a r r 7 6 2 2 1 1 1 1 2 2 6 8 1 ; ; ; 6 r a s s s s z z s i 5 $ O + $ % % % % % % % % % - - - - - - - - - - - - % % % % - - - - - * = + .       . . O O $ ; r ~ &XxXaXOXu.m s e 6 6 8 2 2 1 1 6 e r r 6 - % % % % % % % % - - - - - - * $ O . O O + = 2 m ).FXlXu.L z e 2 1 1 1 1 ; 1 ; % + + + $ 1 M ;XDXU.B r 2 ; ; - & + $ - 7 ( jX XS e 1 : + $ 1 f !.=XG r 7 6 1 > % % % % % % & $ $ + + + + + # # # $ $ $ $ $ $ $ $ + + + $ * * % % $ $ $ $ $ $ $ $ $ $ $ $ $ $ $ $ $ $ + $ $ $ $ $ + $ $ $ + $ + $ $ + + + + + + + + + + $ $ $ $ $ + + + + + + + + + $ $ $ $ $ $ $ $ % - 1 1 - % $ $ % 2 s K.GX@.e ; $ % % > 2 d F.<XL.s ; $ O $ 1 6 2 6 7 7 e z _ }.,XF.f 1 $ O O + > 5 2 1 2 2 2 1 ; ; ; ; 1 2 7 a I S.0X0XP.M 1 % + O . . + ; 2 6 2 2 2 2 2 2 6 6 7 7 7 7 9 6 2 1 1 1 1 1 1 ; 1 2 9 e 7 e r s U F.iXMXcX$X/ a ; $ O . . .       + 6 g r r a a g r 7 7 6 2 2 2 2 2 6 6 6 6 2 2 2 2 2 2 2 4 3 - % ; 2 6 6 6 6 7 r a s s s s s s a a a r e 6 ",
"% % % - - ; 6 p e r r r e 7 6 2 1 1 1 1 1 1 2 8 8 1 ; ; 1 2 r a a s a s z z s i 5 $ O + $ % % % % % % % % % - - - - - - - - - - - - - % % - - - - - : * = + .       . O O O $ ; r ~ &XxXsXiXu.m s e 7 6 8 2 2 1 1 6 e r r 6 - $ $ $ $ $ $ $ % % - - - - % $ + O O O O + & 2 m ).cXlXs.L z r 2 1 1 1 1 1 1 ; % + + + $ 1 M ;XDXU.M e 1 > - % & + $ % 6 } jX|.M e 2 - $ % 1 V &X*XS r 7 2 ; : % % $ $ $ + + + O O O O O O O O + + + + + + + O O O O O + & = $ $ $ + + + + + + + + + + + + + + + + + + + + + + + + + + + + + + + + + O O O O O + + + + + + + + + + + + + + + + + + + + + + + + + $ $ % ; ; : % $ % - 2 s K.AX+.7 % $ % - 3 2 d F.<XL.s ; $ O $ 1 6 6 6 7 e e z _ }.,XF.f 1 $ O O + > 5 1 1 2 2 2 1 ; ; ; ; 1 2 7 a I S.0X0XP.M 2 % + O   . + - 2 6 2 2 2 2 2 2 6 6 7 7 e 7 7 9 2 1 1 1 1 1 1 ; 1 2 9 e 7 e r s U G.iXMXcX$X( r ; $ O . .       . + 6 i r e r r g p 7 6 2 2 2 2 2 2 6 6 6 2 2 2 1 1 2 2 2 4 3 - % ; 2 6 6 6 6 7 r a f s s s s s a a r r e 6 ",
"% % % - - ; 6 p e r r r e 7 2 1 1 ; ; 1 1 1 2 8 2 1 ; ; ; 2 r a a a a s z z s i 5 $ O + $ % % % % % % % % % - - - - - - - - - - - - - % % - - - - - : * = + . .     . O O O $ ; r ~ *XxXsXiXu.m s e 7 6 8 2 2 1 1 q e r r 6 - $ $ $ $ $ $ % % % - - - % $ $ + O . O O + & 1 m ).cXzXp.L z r 2 1 1 1 1 1 1 ; % + + + + 1 v Q.0XU.n e 1 > - % & + $ % 7 } jX|.M 7 2 : $ % 1 V &X>XS r 7 1 - % $ % $ + + + + O O O O O O O O O O + + + + + # # # O # O + # & $ $ + + + + + + + + + + + + + + + + + + O + + + O + O + O + O + O + O O O O O O O O O O O + + + + O O + + + + + + + + + + + + + $ $ $ $ % : : : % % % - 2 s K.AX+.6 % $ % - 3 2 d P.<XL.s ; $ O $ 1 6 6 6 7 e r z _ }.,XF.c 1 $ O O + > 5 1 1 1 2 4 1 ; ; ; 1 1 6 7 a I S.0XGXP.v 2 % + O   . + - 2 6 2 2 2 2 2 2 6 7 7 7 e 7 9 q 6 1 1 1 1 1 1 1 1 2 9 e 7 e r s U G.iXMXcX$X( r ; $ O . .         + 6 i e e r r u 7 2 2 1 1 1 2 2 2 6 6 6 2 2 2 1 1 1 2 2 3 3 - % ; 2 6 6 6 6 7 r d s s s s s s a a r r e 6 ",
"- % % - - ; 6 p r a a r e 7 2 1 1 ; 1 1 1 1 2 6 2 1 ; ; 1 6 r a a a a s z z s i 5 $ O + $ % % % % % % % % : - - - - - - - - - - - - - % % % - - - - : * = + . .     . . O O $ ; a ~ *XMXsXiXu.m s e 7 6 8 8 2 1 1 q e r r 6 - % $ $ $ $ % % % - - - - % % $ + O . . O + & 1 m ).cXkXp.P z e 2 1 1 1 1 1 1 ; % + + + + 1 v I.0XU.n 7 1 : - % & + $ % 6 } gX|.v 7 1 - $ % 1 V &X*XA e 6 ; $ # + & $ $ $ $ + + + + + + + + + + + + $ & & & & + + + + + + $ % % % $ + + + + + + + + + + + + + + + + + O + # + O + O O O O O O O + # O O O O O O O O O O O # # O # O + # # # # # $ $ & & $ $ $ $ $ $ $ $ % * = % - - ; 6 s K.AX+.6 % $ % - 3 2 d F.<XL.s ; + O $ 1 6 6 7 7 e r z _ XX,XG.f ; $ O O + : 3 1 1 1 2 4 1 ; ; ; 1 1 6 7 s U G.0X<XF.M 2 % + O   . + - 2 6 2 2 2 2 2 6 6 7 7 e e e 7 q 6 1 1 1 2 1 1 1 1 2 9 e 7 e r s P S.iXMXcX&X( r ; $ O . .         + 4 i e 7 p 7 q 6 1 1 1 1 1 2 8 8 6 6 6 2 2 1 1 1 1 2 1 3 > % $ ; 2 6 6 6 6 7 r d s s s s s s a a d p e 6 ",
"- - - - ; 1 6 p r a a a r 7 2 1 1 1 1 1 1 2 6 9 2 1 ; 1 1 6 r a a s a s z z s i 5 $ O + $ % % % % % % % % % - - - - - - - - - - - - - % % % - - - - : * = + . .     . . O O $ ; a ~ *XMXnXiXu.m s e 7 6 6 2 2 1 1 6 e r p 6 - = $ $ $ % % - - - ; ; ; - : * $ O . . O O & 1 m ).kXlXp.P z e 2 2 1 1 1 1 1 ; % + + + $ 1 v P.0XU.x 7 ; : % % & + + % 6 } gXT.v 7 1 : $ % ; c &X*XA e 2 - + # # & $ $ $ $ + + + + + + + + + + $ $ $ $ $ & & $ + + + $ $ % - , : % + + + + + + + + + + + + + + + + + + + + + + + + + + + + + + + # + + + + + + O O + + + + # + O + + + # # # + $ $ & $ $ $ $ $ % % % $ $ & = = - - ; 6 s L.AX+.7 % $ % - > 1 d F.<XJ.s ; + O $ 1 6 6 7 7 e r z e.XX,XG.f ; $ O O + : 3 1 1 1 2 4 1 ; ; ; 1 2 6 7 s U G.0X<XF.v 2 % + O   . + ; 2 6 8 2 2 2 2 6 6 7 7 e e e 7 q 6 1 1 1 2 1 1 ; 1 2 9 e e e r s P S.iXMXcX#X~ r ; $ O . .         O 1 u 7 7 9 6 6 1 ; ; ; 1 1 2 8 9 6 6 6 2 2 1 1 1 1 1 3 3 > % $ ; 2 6 6 6 6 7 e d s s s s s s s a d r e 6 ",
"- - - ; ; 1 6 p a a a a r e 6 2 1 1 1 1 1 2 6 9 2 1 1 3 1 7 a s s s s s z z s i 5 $ O + $ % % $ % % % % % % - - - - - - - - - - - - - % % % - - - - : * = + . .     . . O O $ ; a ~ *XMXnXiXu.m s e 6 2 2 2 2 1 1 q e r p 6 - = $ $ % % - - ; ; ; ; ; ; , - $ + . . O O & 1 m ).kXjXp.P z e 6 2 2 2 1 1 1 ; % + + + $ 1 v P.0XU.x 7 ; % % $ # + + % 6 } gXT.c 6 ; % + $ - f $X$XH e 2 - + = $ & & + + + + O + + O + + + + + # + $ $ $ + + + + + + + $ $ * , , % + + + + + # + + + + + + + # # + + + + + + + + + + + + + + + $ $ = = & & & $ + + + + + + + + + + + O + + + + + + + + + + $ $ & $ = $ + # # & % - ; 6 s L.GX[ e - $ % % ; 1 d F.<XJ.s ; + O $ 1 6 6 7 7 e r z e.XX,XG.f ; $ O O # : 3 1 1 1 2 4 1 ; ; ; 1 2 6 e s U G.zX<XF.v 2 % + O   . $ ; 2 6 8 2 2 2 2 6 6 7 7 e e e 7 q 6 1 1 1 2 1 1 1 1 2 9 e e e r z P S.iXMXcX#X! r ; $ O . .         O ; 7 6 6 8 2 2 ; ; ; ; 1 2 8 6 9 6 6 6 2 2 1 1 1 1 1 3 3 ; % $ - 2 6 6 6 6 7 e d s s s s s s s a r e 7 6 ",
"- - - ; ; 1 6 p a a s a a e 6 2 1 1 1 1 1 2 6 6 8 1 1 5 1 6 r a s s s s z z s i 5 $ O + $ % % $ % % % % % % - - - - - - - % - - - - % % % % % - - - % * = O .       . . . O $ 1 a ~ *XMXnXiXy.m a e 6 2 2 2 1 1 1 6 e r r 6 - % $ $ % % - - ; ; ; ; ; ; - : $ O . . O + & 1 m S.jX>Xp.P z r 6 2 2 2 1 1 1 > % $ + O + 1 x F.0XU.x 7 ; % % $ # + + % 7 } gXR.c 6 - $ + $ ; c &X*XH 7 1 % $ = % % $ + + + + + + + + + + + # # & $ $ $ $ $ $ + + + + $ $ $ % - % $ $ & & & & & & & + $ + + # # & $ $ $ $ $ $ $ $ $ $ $ $ $ $ $ $ $ $ $ $ $ $ $ $ + + + + + + + + + O O O + + + + + + + $ $ $ $ $ = $ + O O O O + $ - 6 s L.GX[ r ; $ $ % ; 2 d F.<XJ.s ; + O $ 1 6 2 6 7 7 r z _ :X,XF.f ; $ O O # : 3 1 ; 1 2 2 1 ; ; ; 1 2 6 e s U G.zX<XF.v 2 % + O . . $ ; 2 6 2 2 2 2 6 6 6 7 7 e e e 7 9 6 1 1 1 2 1 1 1 1 2 7 e e e r s U G.iXMXcX#X! r ; $ O . . .       O ; 6 2 2 8 2 2 ; ; ; 1 1 2 8 6 9 6 6 6 2 2 1 1 ; ; 1 3 3 ; % $ ; 2 6 6 6 6 7 e r d s s s s s a a r e 7 6 ",
"- - ; ; ; 1 6 e a a s a r e 7 2 2 2 1 1 2 2 6 q 8 1 1 1 1 7 a s s s a a s z c d 4 $ O O + $ % $ $ $ $ % % % % % % % % % % % % % % % % & & & % % % % % * & O .       . . . O $ 1 s { *XNXsXOXu.m a 7 6 2 2 2 2 1 1 6 e r y 7 ; % $ $ % % - - ; 1 ; ; ; ; - , % + . . O & $ 2 m S.jXjXp.P x r 8 1 1 1 3 > ; ; % + O + $ 1 M I.<XQ.M e 1 ; - % $ O . % e ] &X!.c 6 ; % + % 2 v  XjXA 6 % $ % - - - % $ % % % - % % $ $ $ $ $ $ % % % % % % % % % % % % % % - - - % % % % % % % % % % % % % % % % % % % % % % % % % % % % % % % % % % $ $ $ $ $ $ $ $ $ $ $ $ $ $ + + + + $ $ $ % % % $ $ $ $ $ $ $ $ $ $ $ O . # O % 1 c L.-X[ e ; $ $ % ; 1 s P.%XJ.s ; $ + $ ; 2 4 1 1 6 7 s ' >X,XV.f 1 % + O + : > ; ; 1 4 8 2 1 ; ; ; 1 6 e s U S.SXGXV.v 2 % $ + . . $ - 2 2 2 2 2 6 6 6 6 6 7 7 e r e 7 2 1 1 1 1 1 2 2 2 2 7 e e e r a U G.OXsXxX&X^ e - + O . .         O ; 2 2 2 8 8 2 1 1 1 1 2 2 6 9 t t 7 9 8 2 1 ; ; ; ; 5 3 ; - - ; 6 6 6 6 6 7 e r r a a a a a r r r e 7 6 ",
"- - ; ; ; 1 7 e a a s s a e 7 2 2 2 1 1 2 2 6 q 8 2 1 1 1 6 a s s s a a s z c d 4 $ . . O + $ $ $ $ $ $ % % % % % % % % % % % % % % & $ & & & $ % % % = & O           . . O % 2 s ) *XcXxX Xy.m a 7 2 2 2 2 2 1 1 6 e r d 7 ; % $ + $ % - - ; ; 1 ; ; ; - , % + . . O & $ 2 m S.jXjXs.P x r 6 1 1 1 3 > > ; = + O + $ 1 n I.lX!.N r 2 3 ; - & O . % e ] |.!.c 6 1 % $ - 2 v  XjXH 6 % $ ; 1 1 1 2 2 2 6 6 6 6 6 2 2 1 2 2 2 2 6 2 2 2 2 2 2 6 2 2 2 2 2 6 6 6 2 2 2 2 2 2 2 2 2 2 2 2 2 2 2 2 2 2 2 2 2 2 2 2 2 2 2 2 2 2 2 2 2 2 2 2 2 2 2 2 2 1 2 2 2 2 1 1 1 1 1 1 2 2 6 6 6 2 2 2 2 2 2 2 2 1 ; ; ; $ O # # & 1 s J.=X` 7 - $ $ - 1 2 s P.%X=.d ; $ + $ ; 1 1 1 ; 2 6 a ' $X>XV.f 1 % + O + : > ; - ; 2 4 2 1 ; ; ; 1 6 e z U S.SXGXN.v 2 % $ + . . $ - 4 2 1 2 6 6 6 6 6 2 6 7 r r r 7 6 1 1 1 1 1 2 2 1 2 7 e e e r a U G.OXsXxX&X^ e - + O . . .       O ; 2 2 2 6 8 2 2 2 2 2 2 8 6 7 e e 7 7 6 2 1 1 1 1 1 2 1 ; ; ; 1 6 6 6 6 6 6 7 r r r a a a a r r r e 7 6 ",
"- - ; ; ; 1 7 r a s s s a e 7 2 2 2 1 1 2 2 6 q 6 2 1 1 1 6 r s s s a a s z c d 4 $ . . O + $ % $ $ $ $ % % % % % % % % $ $ $ % % % $ $ # + $ $ % % % $ + .           . . O % 2 s ) *XcXxX Xy.m a 7 2 2 2 2 2 1 1 6 e r y 7 ; % $ + $ % - - ; ; ; ; ; ; > , % + . . + & $ 2 m S.jXjXs.P x r 2 ; 1 1 > : ; - = + O + $ 1 n I.1X!.M r 2 3 ; - & O . % e ] |.!.c 6 4 - $ - 2 v |.fXZ 8 % % 6 j ,.Z H F F F ^ ^ ^ ^ ^ F ^ F ^ ^ ^ ^ F F F F F F F F ^ F F S F F F F F F F F F F F F F F F F F F F F ^ ^ F F F F F F F F ^ F F F F ^ ^ ^ ^ ^ ^ ^ ^ ^ ^ ^ F F ^ F F F F F F ^ ^ ^ ^ ^ ^ ^ ^ ^ ^ ^ ^ X.....A C 9 - & + = ; s =.^.] 8 % $ $ - 1 6 s P.8XJ.d ; $ + $ 1 2 1 ; ; 1 6 a _ $X>XV.f ; % + O + : ; ; - ; 1 2 2 1 ; ; ; 1 6 e z U S.SXGXN.c 2 % $ + . . $ - 2 2 1 2 6 6 6 6 6 6 6 7 r r r e 6 1 1 1 1 1 2 2 1 2 7 e e e r a I G.OXsXxX&X^ e - + O . . .       O ; 6 6 6 6 6 2 2 2 2 2 6 6 9 7 7 7 7 7 7 6 6 6 6 6 6 6 2 1 ; ; 1 6 6 6 6 6 6 7 r r r a a a a r r r e 7 6 ",
"- - ; ; ; 1 7 r a a s a a e 7 2 2 1 1 1 1 2 6 9 6 2 1 1 1 6 r s s s a a s z c d 8 $ . . O + $ % $ $ $ $ % % % % % % % % % % % % % % $ $ + + $ $ % % % $ + O           . . O % 2 s ) *XcXxX Xy.m a 7 2 2 2 2 2 1 1 6 e r y 7 ; % $ + $ % - - ; ; ; ; ; ; , , % + . . O & $ 2 m S.jXjXs.P x r 2 ; ; ; ; - ; - $ + O + $ 1 n I.1XQ.M e 2 3 ; - & O . % e [  X!.v 7 4 : $ - 2 v &XhXZ 6 - - y >.ZXZXCXeXeXeXeXeXeXeXCXCXCXeXeXhXhXeXCXCXCXCXCXCXCXCXCXCXCXCXCXCX5X5XCXCXCXCXCXCXCXCXCXCXCXCXCXCXCXCXCXCXCXCXCXCXCXCXCXCXCXCXCXCXCXCXeXeXhXhXhXhXeX^.eXeXeXeXeXeXeXeXeXCXeXhXhXhXhXeXAXCXCXCXCXCXCXCXCXeX!.E.H 6 % O = ; s =./.( 2 $ + $ - 2 6 f I.0XJ.d ; $ + $ 1 2 1 ; ; 1 6 a _ $X>XV.d ; % + O + - ; - - ; 1 2 2 1 ; ; ; 1 6 e z U S.SXGXN.v 2 % $ + . . $ - 2 2 2 2 6 6 6 6 6 6 7 7 r r r e 6 2 2 1 1 1 2 2 2 2 7 e e e r a I G.OXsXxX|.^ e - + O . . .       O ; 6 9 7 q 6 6 6 2 2 6 6 6 7 7 7 7 7 7 7 e e e r e e 7 6 2 ; ; 1 6 6 6 6 6 6 7 r r r a a a a r r r e 7 6 ",
"- - ; ; ; 1 7 r a a s a a e 7 2 2 1 1 1 1 2 6 9 6 2 1 1 1 7 r a s s a a s z x d 4 $ O . O + $ $ $ $ $ % % % % % % % % % % % % % % % $ $ + + $ $ % % % % + O .         . . O % 2 s ) *XcXxX Xy.m a 7 6 2 8 2 2 2 1 6 e r y 7 ; % $ $ $ % - - ; ; ; ; ; - , , % + . . O & $ 2 m S.jXjXs.P x r 2 ; ; ; ; - - - $ O O + $ 1 M I.lX!.M e 1 3 ; % & O O % e @.tX!.v 7 8 > % - 2 c !.=XZ 6 ; ; d -.KXE.E.E.-.;.;.;.;.;.-.-.E.E.E.E.E.-.;.*.-.-.-.-.-.-.-.-.-.-.-.-.;.;.;.;.;.;.;.;.;.;.-.-.-.-.-.-.-.-.-.-.-.-.-.-.-.-.-.-.-.-.-.-.-.-.-.E.E.E.E.-.&.&.-.-.-.-.;.;.;.;.-.-.-.-.-.-.;.;.-.-.-.-.-.-.-.-.E.E.{.hX&.e - + % 1 z J.;X` 6 % + $ - 4 6 c /.GXJ.s ; $ + $ 1 2 1 ; ; 1 6 a ' $X>XV.d ; % + O + - ; - - ; 1 4 2 1 ; ; ; 1 6 e z E S.SXGXN.c 2 % $ + . . $ - 2 2 2 2 6 6 7 6 6 6 7 7 r r r e 6 1 2 2 1 1 2 2 2 2 7 e e e r a I G.OXsXxXR.^ e - + O . . .       O ; q u q 7 7 6 6 6 6 6 6 6 7 7 7 7 7 7 e r a s b s a r e 6 ; - ; 6 6 6 6 6 6 7 e r r a a a a r r r e 7 6 ",
"- - ; ; ; 2 7 r a a s a a e 7 2 2 1 1 1 2 2 6 9 8 2 1 1 2 7 r s z s a a s z x d 4 $ O O + $ % $ $ $ % % % % % % % % % % % % % % % % $ $ + $ $ % - % % % $ O .   .     . . O % 2 s ) *XcXxX Xy.m a 7 6 2 8 2 2 2 1 6 e r y 7 ; % $ $ $ % - - - ; ; ; ; - , - % + . . O & $ 2 m S.jXjXs.P x r 2 ; 1 1 ; ; ; - $ + O + $ 1 M I.lX!.M e 1 > ; - & O O % r @.fX!.v e 8 > % - 1 c !.^.V 6 ; 2 s K.!.~ c f d y r e t y r d d d d d d d r r r r d a r a r a d s d a a r r r r r r r r r r r r r r r r r a a a a a a a a a a a a a a a a d d f d d a r r r r r r r r r r r a r r r r r r r r r r r r r a c N t.#X&.r ; $ % 2 x N.$X` 6 $ + $ - 4 6 f /.DXJ.s ; $ + $ 1 2 1 1 ; 1 6 a ' $X>XV.d ; % + O + : ; - - ; 1 4 2 1 ; ; ; 1 6 e z E S.SXGXN.c 2 % $ + . . $ - 2 6 2 2 6 6 7 7 6 6 7 7 r r r e 6 1 2 2 1 1 2 2 2 2 7 e e r r a U G.+XsXxXR.F e - + O . . .       O 1 q q 7 7 7 6 6 6 6 6 6 6 7 7 7 7 7 7 e a s b b c c g i 7 ; - ; 6 6 6 6 6 6 7 e r a a a a a r r r e 7 6 ",
"- - ; ; ; 2 7 r a a s a a e 7 2 2 1 1 2 2 2 6 7 6 2 1 1 2 7 a s z s s a z z x g 4 % O O + $ % $ $ $ % % % % : : - % - % % % - - % % $ $ $ & % % - - - % $ O .   .     . . O % 2 s ) *XcXxX Xy.m s e 6 2 8 2 2 1 1 6 e r y 7 ; % $ $ $ % - - - ; ; ; - - - - % + . . O & $ 2 m S.jXjXs.P x r 2 1 1 1 3 > ; - % + O + + 1 M G.lX!.M e 1 > ; % & O O % r M.jX!.v e 8 ; $ % 1 c Q.!.V 6 ; 6 c K.Q.N 7 1 ; - % % % % - - ; ; ; - - - - ; ; ; ; ; ; ; ; ; 1 1 1 ; ; ; ; - - - - - - - - - - ; - - - - ; ; ; ; ; ; ; ; ; ; ; ; ; ; ; ; ; ; ; ; ; - - ; - - - - - - - - - - - - - % % % - - - - - - - ; 1 e ! ~.&.e - $ - 2 n A.>X` 6 $ + $ - 4 6 f I.DXJ.s ; $ + $ 1 2 1 1 1 2 6 a ' $X>XB.d ; % + O + : ; - - ; 5 4 2 1 ; ; ; 1 6 e z E S.SXGXN.c 1 $ + + . . $ ; 2 6 2 2 6 7 7 7 6 6 7 e r r r e 6 1 2 2 1 1 2 2 2 2 7 e e r r a U G.+XsXxXT.F e - + O . . .       O 1 q q 7 7 7 6 6 2 2 2 6 6 6 7 7 7 6 7 r r a s c c s g i 9 1 - ; 6 6 6 6 6 6 7 e r d a a a a a r r e 7 6 ",
"- - ; ; ; 2 7 r a a s a a e 7 2 2 2 1 2 2 2 6 7 6 2 1 1 2 7 a s z s a a z z x g 6 % O O + $ % % $ $ % % % % - - - - - - - - - - % % $ $ & & = - - - - - = + .   .     . . O % 2 s { *XNXxX Xy.m s e 6 2 8 8 2 1 1 6 e r y 7 ; % $ $ $ % - - - ; - - - - : * $ O . . O & $ 2 m S.jXjXs.P x r 8 1 1 1 3 > > - = + O + $ 1 M G.lX!.M 7 ; - - % + O O % r M.jX!.v e 4 ; $ % 1 c !.!.H 6 ; 2 c K.!.N 2 % $ + O O . O O + + + + + O O + + $ $ $ $ $ $ $ $ $ $ $ $ $ $ + + + + + + + + + + $ + + + + + + + $ + $ + $ + + + $ + + + + + + $ $ + + + + + + + + + + + + + + + + + O O O + + + + $ $ $ $ $ % 2 N 5X*.e % + % 2 n S.<X` 2 $ + $ - 2 6 s I.DXJ.s ; % + $ 1 2 1 1 1 1 6 a _ $X>XB.d ; $ + O + : ; - - ; 5 8 2 1 ; ; ; 1 2 e z ) S.SXGXN.c 1 $ + O . . $ ; 2 6 2 2 6 7 7 7 6 6 7 e r r r e 6 1 2 2 1 1 2 2 2 2 7 e e r r a U G.+XsXxXT.F e - + O . . .       O 1 6 6 6 6 6 2 2 2 2 2 2 6 6 7 7 7 7 7 e r e r r r r r h q ; - ; 6 6 6 6 6 7 7 r d d a a a a a r r e 7 6 ",
"; - ; ; ; 1 7 r a s s a a e 7 2 2 2 1 2 2 2 6 9 9 2 1 1 2 7 a s z z s s z z x f 6 $ O # + $ % % $ $ $ $ % % - - - - - - - - - - % % % $ + $ % % - - - - = + .   .     . . O % 2 s { -XNXxX Xy.m s e 7 6 8 8 2 2 1 6 e r y 7 ; % $ $ $ % - - > > - ; - - - * $ O . . O & $ 2 m S.jXjXs.P x a 6 1 1 1 3 > > ; = + + + + 1 M G.lXQ.v e 1 - ; % + + O % r @.vXR.v 7 1 - $ % 2 C &X*XC 6 1 2 s -./.M 1 $ + + O O # O O O + O O O . O + + + + + + + + + + + & & + $ + + O + + + O + O + + + + + + + + + O + O + O + O + O + O + O + + + $ $ + & + + + + + # # # + + + + + + O O O O + $ $ $ $ $ $ $ + $ 1 M 5X&.e - + = 2 x N.-X/ 2 + + = - 1 6 c I.8XJ.s 1 $ + $ 5 2 4 1 1 1 6 s ' :X<XB.d ; % + . + > ; - % ; 2 2 1 1 1 > ; 1 6 r z ) G.SX<XM.c 1 $ + + . . $ > 8 6 2 2 6 7 7 7 6 6 6 7 r r r e 6 1 2 2 1 1 2 2 2 6 7 e r r r s U G.OXpXkXR.S e - O . . . .       O ; 6 8 6 q 6 2 2 2 2 2 2 6 6 6 7 7 7 7 p e 7 7 7 7 e 7 9 2 ; - 3 6 6 6 6 6 7 e r r a a a a a a r r e 7 6 ",
"- - ; ; ; 1 7 r a s s a a r 7 2 2 2 1 2 2 2 6 9 9 2 1 1 2 7 a s z z s s z z x f 6 $ O + $ $ % % $ $ $ % % % - - - - - - - - - - % % % $ + $ % % - - - - = + . . .     . . O % 2 s { -XNXxX Xy.m s e 7 6 8 8 2 2 1 6 e r y 7 ; % $ $ % % - , - - - - - - % * $ + . . O & $ 2 m S.jXjXs.P x a 8 1 1 1 3 > 3 ; = + + + + 1 M G.,XQ.v e 1 - - % $ O O % r @.vXR.v 7 1 : $ % 2 C &X*XA 7 1 2 a -.4Xc 1 $ $ + O + + O O O O O O O . . O + + + + + + + + + # # # # # + O O O O O O O O O O O O O O O O O O O O O O O O . . . . . . . O O + + + + + + O + + # # # @ + + # + O O O O O + + $ & & & & & $ + 1 N 6X&.e % O $ 2 z N.9X( 2 $ + = - 2 6 f I.8XJ.s 1 $ + $ 5 2 4 1 1 2 6 s ' :X<XB.d ; $ + . + < ; - % ; 4 4 2 1 1 ; ; 1 6 e z ) _.SXGXM.c 1 $ + + . . $ 3 8 6 2 2 6 7 7 7 6 6 6 e r r r e 6 1 2 2 1 1 2 2 2 6 7 e r r r s U G.OXuXpXT.S e - O . . . .       O ; 8 8 6 9 6 2 2 2 2 2 4 8 6 6 7 7 7 e p 7 6 6 6 6 6 8 8 1 - % ; 8 7 6 6 6 7 e r r a a a a a a r r e 7 6 ",
"- - ; ; ; 1 7 r a a s a a r 7 2 2 2 2 2 2 2 6 7 9 2 1 1 2 7 a s z z s s z z x d 6 % O + + $ % % % $ % % % % - - - - - - - - - - - % % $ + $ % % - - - - = + . . .     . . O % 2 s { <XNXxX Xy.m s e 7 6 8 8 2 2 1 6 e r y 7 - % $ $ % % % - - - - - - % % % $ + . . O & & 2 m S.jXjXs.P x r 8 1 1 1 3 > 3 > = + + + $ 1 n G.1XT.x 7 1 - ; % + + O % r @.vXR.v 7 1 % $ % 2 C &X&XA 6 1 1 a *.4Xc ; + + + + + $ + + + O O O O O O O O O O O O O O O O O + + O O O O O O O O O O O O O O O O O O O . . . . . . . . X X @ @ @ @ @ @ # # # O O O O # O O O . X X @ O O O . .   . . O O + # # O . . . $ 2 I =X=.e % O $ 1 z N.9X` 7 % $ = ; 2 6 c P.8XJ.s 1 $ + $ 5 2 2 1 1 2 6 s ' :X<XB.d ; $ O . + > ; - % ; 2 4 2 1 ; ; ; 1 6 e s E ].DXGXM.c 1 $ + + . . $ 3 8 6 2 8 7 7 7 7 6 6 7 e r r r e 6 1 2 2 2 2 2 2 2 6 7 e r r r s U _.OXuXpXT.S e - O . . . .       O ; 6 6 6 9 9 6 6 2 2 2 4 8 6 9 7 e e e 7 q 6 2 2 2 4 4 5 3 - % ; 8 7 6 6 6 7 e r r a a a a a a r r e 7 6 ",
"- - - ; ; 1 7 r a a s a a r 7 2 2 2 1 2 2 2 6 7 9 2 1 1 2 7 a s z z s s z z x f 8 % O + + $ % % % $ % % % - - - - - - - - - - - - % % $ $ $ % % - - - - % + O . .     . . O % 2 s { <XNXxX Xy.m s e 7 6 6 8 2 2 2 6 r d d 7 ; % $ $ % % % % % - - - % % % % $ O . . O & $ 2 m S.lXlXs.P x r 6 1 1 1 3 3 3 > % + + + $ 1 n G.1XT.x e 1 ; ; - $ + O % r @.vXR.c 6 ; % + % 1 C &X&XC 6 ; 1 r >.4Xs ; + $ % % % % % $ $ + + + $ $ $ + + + + # + + + + + + + $ + + + + + + # + + + + # # + + # # # # + O O O O O O O O O O O O O O O O O O O O O O O + + O O O O O O O O O . . . O O & & & # O . o . + 2 ! =X=.e % O $ 1 z N.8X` e ; $ = ; 2 6 c P.%XJ.s ; $ + % 5 2 2 1 1 2 6 s ' :X<XB.d ; $ O . + : ; - % ; 1 4 2 1 ; ; ; 1 6 e s U ].FXGXM.c 1 $ + + . . $ 1 8 6 6 8 7 7 7 7 6 6 7 e r r r e 6 1 2 2 2 2 2 2 2 6 7 e r r r s U _.OXuXpXT.S e - O O . .         O 1 7 7 7 7 9 6 6 6 2 2 6 6 6 9 e r e e p 7 6 2 2 2 2 4 4 3 - - 3 8 7 6 6 6 7 e r d d a a a a a r r r 7 6 ",
"- - - ; ; 1 7 r a s s s a r 7 2 2 2 2 2 2 2 6 7 9 2 1 1 2 7 a s z z s s z z z f 8 % O + $ $ % % % $ % % % - - - - - - - ; - - - - % % $ $ $ % % - - - - % + O . .     . . O % 2 s { <XNXxX Xy.m s e 7 6 6 8 2 2 1 6 p y y 7 - % $ $ $ % % % % % % % % $ $ $ $ O . . O & % 2 m S.lXlXp.P x r 2 1 1 1 3 3 3 > % + + + $ 1 n G.,XT.v e 1 ; ; - $ + O % r @.vXR.c 6 ; % + % 1 V &X&XC 6 ; 1 r >.4Xc - + % ; ; 1 1 ; ; - % % - - ; ; - % - - - - % % - - - - - - - - % % % % % % % % % % % % % % % % % % % % % % % % % % - % % % % % % % % % % % % % $ $ $ + + + + $ $ $ $ + + + $ $ % % $ + O . o o + 1 ! =X#.r - O $ 2 z L.8X` e 1 % = ; 2 6 c P.%X@.s 1 % + % 5 2 2 1 1 2 6 s ' :X<XB.d ; $ O . + - ; - - ; 1 2 2 1 ; ; ; 1 6 e s U ].FXGXM.c 1 $ + O . . $ 1 8 7 8 8 7 7 7 7 6 6 7 e r r r e 6 1 2 2 2 2 2 2 2 6 7 e r r r s U _.OXuXpXR.S e - O O . . .       + 1 p r e e e 7 6 6 6 6 6 7 7 e e r r e e e 7 6 6 2 2 2 1 1 - % 3 8 7 6 6 6 7 e r d d a a a a a r r r 7 6 ",
"- - - ; ; 1 7 r a s s s a p 7 2 2 2 2 2 2 2 6 7 9 2 1 1 2 7 a z z z s s z x z f 6 % O + $ $ % % % $ % % % - - - - - - - - - - - - % % $ $ $ % - - - - - % + O . .     . . O % 2 s { -XNXxX Xy.L s e 7 6 6 8 2 2 1 6 p y d 9 ; % $ $ $ % % % % % % % % $ % $ $ O . . O & % 2 m S.lXlXp.P x r 6 1 1 1 3 3 > ; % + + + $ 1 n G.,XT.M e 1 > ; - $ + O % r @.vXR.c 6 ; % + % 1 c !.=XV 2 ; 1 a *.4Xx ; % 5 h j V Z Z j j h h j j V V j j j j j j j j j j j j j j j j d j j j j d j d y y y y y y y y y y y y y y y y e e e e e e e e 7 7 7 7 7 7 7 7 t 9 9 9 9 9 9 9 e e 7 9 9 9 9 7 t 9 6 2 ; % O . + 1 ! =X#.r - + % 2 s L.9X/ e ; $ = ; 2 6 c P.%X@.s 1 % + % 1 2 2 1 1 2 7 s ' :X>XB.d ; $ O . + : ; - - ; 1 2 2 1 ; ; ; 1 6 e s E ].DXGXM.c 1 $ + O . . $ 1 8 7 8 8 7 7 7 7 7 7 7 e r r r e 6 1 2 2 2 2 2 2 2 6 7 e r r r s U _.+XpXkX|.S e - O O . . .       + 2 i g r r r e e 7 7 7 7 7 e r r a r e e e e 7 7 6 6 2 2 1 - % 3 8 7 6 6 6 7 e r d d a a a a a r r r e 6 ",
"- - - ; ; 1 6 r a a s s a p 7 2 2 2 2 2 2 2 7 7 9 2 1 1 2 7 a z z z s s z x x f 6 % O + $ $ % % % $ % % % - - - - ; - - - - - - - % % $ $ $ % - - ; - - % + O . .     . . O % 2 s ) *XcXsX Xy.L s e 7 6 6 8 2 2 1 6 p d d 9 ; % $ $ % % % % % % % % % % % = $ O . . + & % 2 m S.zXlXs.P x a 6 1 1 1 3 > ; ; % + + + $ 1 n _.,XT.M e 1 > ; - $ + O % r @.vXW.f 2 1 - + % 1 c ^.^.V 2 ; 1 a -.5Xn 7 9 Z >.~.W.!.!.~.E.E.E.~.~.!.&X!./././././.W./.W.W.W.W.W.W.W.W.W.W.W.W.W.W.W.W.W.W.W.W.W.W.W.W.W.P.W.P.W.P.W.P.W.W.W.P.V.V.V.V.V.V.F.P.W.W.W.W.V.V.V.V.V.V.V.V.V.V.V.V.B.B.B.V.V.B.#.$. .j 6 - $ ; S ^.#.d ; $ - 2 s =.CXJ 2 % $ % ; 2 6 c P.%X[ s 1 % + % 5 2 2 1 1 2 7 s t.:X<XB.d ; $ O . + - ; ; - ; 5 4 2 1 1 ; ; 1 6 e z ) ].SXGXM.c 1 $ + O . . $ 1 8 7 8 6 9 7 e 7 7 6 7 e r r r e 6 1 2 2 1 2 2 2 2 6 7 e r r r s U _.pXpXxX|.F e - O . . . .       + 6 g g r a a a r e e e e e r a a a a r a a r r e e e 7 6 1 - % > 6 7 6 6 6 7 e r r d a s s a a a r r e 6 ",
"- - - ; ; 1 6 p a a s s a p 7 2 2 2 1 2 2 2 6 9 9 2 1 1 2 7 a z z z s s z x x g 6 % + + $ $ % % % $ % % % % - - - - - - - - - - - % % $ $ $ % - - - - - % + O . .     . . O % 1 a ~ *XxXsX Xy.L s e 7 6 6 6 2 2 1 6 p d d 7 ; % % % % * % % - - % - : % * * & + . . + & % 2 m S.cXlXs.P x a 6 1 1 1 ; : ; ; % + O + + 1 M _.,XT.x e 1 ; ; - $ + O % r @.vXR.c 2 1 - + $ 1 c /.^.V 2 ; 1 s -./.N 7 e X.~.!.F.C.C.B.#.:.:.#.B.C.C.M.M.M.M.M.M.M.M.V.V.V.V.V.V.V.V.V.V.V.V.V.P.V.V.P.P.W.P.P.P.P.P.Q.Q.Q.Q.Q.Q.!.!././.!.Q.Q.P.P.F.Q.I.T.I.Q.Q.Q.Q.Q.Q.Q.!.Q.Q.Q.Q.$X$X!./.^.!.!.!.!.!.^.^.~.+.d 1 % ; S ^.#.a ; % - 2 s >.CXJ 2 % + % ; 2 7 c P.%X[ a ; % + % 2 2 2 1 1 2 7 s t.>X<XB.d ; $ O . + % ; ; ; 1 4 6 2 1 1 ; ; 1 6 e s ) G.SX<XM.x 1 $ + O . . $ 1 6 7 6 6 9 7 e 7 7 6 7 e r r r e 6 1 2 2 2 2 2 2 2 6 7 e r r a z E _.pXsXxX&XF e - O . . . .       + 6 g g r a g g g e e e r r r a a g s a s s s a a a d r 7 1 - % 3 6 7 6 6 6 7 e r a a a s s a a a r r e 6 ",
"- - % - - 1 6 e a a s a r e 7 2 2 2 1 2 2 2 6 9 9 2 1 2 2 7 a z x z s s z z x f 6 % + + $ $ % % % $ $ % % % % % - - - - - ; - - % % $ + + $ = * - - - - = + .       . . . O $ 1 a ] fXxXsXiXy.m a e 6 2 6 8 2 1 1 6 r d d 7 ; % % % % % % % - - - - - - , : % + O . + & % 2 m S.cXlXp.T x r 2 ; 1 ; ; - ; - $ + O O + 1 N G.,XG.c 7 1 ; ; - $ + O - r B.fXQ.c 6 1 - + % 1 v /.;XC 6 ; 1 s K.~.M e 7 X.4X^ s r y y t 8 8 8 8 e e e 7 7 7 e e e e e r r r r r r r r r r r r r r r r r r r r r r d d f f f f f f s f f f f c f f s f f f f f f f f f f f f f f f f c c f f f c c c c v A / &XK.e ; % 1 H CX&.r 1 % - 6 z L.KX} 2 % $ % ; 8 7 c U.%X| a ; $ + % 2 6 2 1 1 2 6 s _ :XSX@.r ; $ + O # % > > 1 1 6 6 2 1 1 1 1 2 7 e s E _.cX*Xi.z 1 $ + O . O $ ; 8 7 6 6 7 7 7 7 6 7 7 r a a r 7 2 1 1 2 2 2 2 2 6 6 e e e e a x W ).@XxXxXT.S e - O O . . .     . + 6 r r r r r r e e e e e e r a a s s s s x v b b b b Z k 1 % - 5 8 7 7 6 7 7 e r d s s s s s a a d r e 6 ",
"- - - - ; 1 6 p r a a a r e 7 8 2 1 1 1 1 2 6 9 9 2 1 2 2 7 a z x z s s z z x f 6 % + + $ $ % % % % % % % % % % - - - - - ; ; - % % $ + + $ = * - - - - = + .       . . O O $ 1 a ] jXsXnXiXy.m a e 6 2 6 8 2 1 1 6 r a d 7 ; % % % % % % % - - - ; ; ; > : % + O . + & % 2 m S.FXlXp.T x r 2 ; ; ; ; - - : $ + O O + 1 S T.>XG.c 7 1 ; > - $ + O - r B.*XQ.c 6 1 - + % 2 v /.;XA 7 ; 1 s K.~.M 7 7 X.4XH 7 1 ; ; ; : % % % % - - - - - - - - - - ; ; ; - ; ; - - - - - - - - - - - - - - - - - ; ; ; ; ; ; ; ; ; ; ; ; 1 1 1 1 ; ; ; ; ; ; ; ; ; ; ; ; ; ; ; ; 1 1 ; ; 1 1 1 1 2 6 e v T.V.7 - % 2 H 5X&.r 1 % ; 6 z L.AX] 6 % $ % ; 4 7 x U.qX| a ; $ + % 2 6 2 1 1 2 7 s t.:XSX@.r ; $ + O + % > 3 1 2 6 8 2 1 1 1 1 2 7 e s E _.cXfXi.z 1 % + O . O $ > 6 7 6 6 7 7 9 7 6 7 e r a a r 7 2 1 1 2 6 2 2 2 6 9 e r e e a x W ).OXxXcXT.S 7 % O O . . .     . + 2 e e e e e e e 7 7 7 7 e e r r d a a a s s s s s c V i 4 % ; 4 6 7 6 6 7 7 e r d d s s s a a a d r e 7 ",
"- - - - ; ; 2 7 r a a a r p 7 6 2 1 1 1 2 2 6 9 9 2 1 2 2 7 a z z z s s s z x f 6 % + + $ $ % % % % % % % % % - - - - - ; ; ; - % % $ $ + $ % % - - - , % + .       . . O O $ 1 a ] >XsXsXiXy.m a e 6 2 6 8 6 2 1 6 r d g 7 ; % % % % % % % - - ; ; ; ; > , % + O . + & % 2 m S.FXlXp.P x a 2 1 ; ; ; - - : $ + O O + 1 S T.>XG.c 7 1 ; > : $ + O - r B.*XQ.c 6 1 - + % 2 v /.9XA 7 ; 1 s K.~.A 6 7 %.4XC 6 - $ $ $ + + + + + + + + + + $ $ $ $ $ $ $ $ % % % $ $ + + + + + + + + + + + + + + + + + + + + + $ $ $ $ + + $ $ * * $ $ $ $ + + + + + + + + + + + + $ $ + + + $ $ % $ % ; d W.E.9 - % 2 H 5X&.r ; % ; 6 z L.AX( 6 % $ % ; 2 7 x U.qX| a ; $ + % 2 6 2 1 1 2 7 s t.<XSX@.r ; $ + O + % > ; 1 2 4 6 2 1 1 1 1 2 7 e s E _.cXfXi.z 1 $ + O . O $ > 6 7 6 6 7 7 9 7 6 7 e r a a r e 2 1 1 2 2 2 2 2 6 7 e e e e a x W ).OXxXcX!.S 7 % + O . . .     . + 2 7 e e 7 7 7 7 6 6 7 7 7 e e r r r r r r r e e r a f i 4 ; 1 8 9 7 6 6 7 7 e r d d s s s a a a a r e 7 ",
"- % - - ; 1 2 7 r a a a r e 7 8 2 1 1 1 2 2 6 9 9 2 1 2 2 7 a z z z s a s z c g 6 % + + $ $ % % % % % % % % - - - - - - ; ; ; - - % % $ + $ % : - - - - % + .       . . O O $ 1 a ] *XsXsXOXy.m a e 6 2 6 8 6 2 1 6 r d d 7 ; % - % % % % - - - ; ; ; ; > > % + O . + & % 2 m S.FXlXp.T n a 6 1 ; 1 ; ; ; - $ + O + $ 2 S T.>XG.c 7 ; - ; - $ + O % r K.*XW.s 6 1 - + $ 2 v /.9XC 7 ; 1 s K.~.M 2 6 X.-.V 2 % + + + + + + + + + + + + + # + # + & $ & $ & * * & O O O O O O O O O O O O O O O O + O O O O O O O O O O O + # & = # + + O O O O O O O O O O O O O O O O O O + + + # $ - h rXrX9 - % 2 F 5X&.r 1 % ; 6 z L.9X( 6 % $ % ; 2 7 x U.0X| a ; $ + % 2 6 2 1 1 2 7 s t.<XSX@.r ; $ O O + % ; ; 1 2 6 8 2 1 1 1 1 2 7 e s E _.xXfX[ z 1 $ + O . O $ > 6 7 6 6 7 7 9 7 6 7 e r a a r e 2 1 1 2 2 2 2 2 2 6 e e 7 e a x W ).OXxXcX!.S 7 % + O . . .     . + 2 7 e e 7 7 7 7 7 7 7 7 e e e e r e e e e e 7 6 e r d y 2 ; 1 6 9 7 7 6 7 7 e r a a a s a a a a d r e 6 ",
"- % % - - ; 2 7 r a a a r e 7 6 2 2 1 2 2 2 6 9 9 2 1 2 2 7 a z x z s s s z c g 6 % + + $ $ % % % % % % % - - - - - - - ; ; ; - - % % $ + $ % - - - - - % + .       . . O O $ 1 a ] *XsXsXOXy.m a e 6 2 2 8 2 1 1 7 r d d 7 ; - - - - - - - - ; ; 1 1 ; > > % + O . + & $ 2 m S.FXlXp.T n a 6 1 1 1 1 ; > : % + + + $ 2 S T.>XG.x 6 ; - - % + O O % r K.*XW.s 6 1 - + $ 2 v /.9XC 6 ; 1 s K.5XM 2 6 X.E.V 2 $ O O + + + + + + + + + + + + + + $ + + + + $ % & + + + + + + + + + + + + + + + + + + + O O + + + + + + + + + + + + + + + + + + O + + + + + + + O + + + + + + $ $ + + O $ h rX;.6 - % 2 F 5X*.r 1 % ; 6 x L.9X( 6 % $ % ; 2 7 c /.0X| a ; $ + % 2 8 2 1 1 2 7 z t.<XGX@.r ; $ O O + % ; ; 1 2 6 8 1 1 1 2 2 2 7 e s ) _.xXfX[ z 1 $ O . . O $ > 6 7 6 6 7 7 9 7 6 7 e r a a r 7 2 1 1 2 2 2 2 2 2 6 7 e 7 e a x W ).+XxXcX!.H 7 % O . . . .     . O 4 7 t 7 7 7 e 7 7 6 7 7 7 e e r r r e r e 7 6 6 7 e r e 2 ; 2 6 7 7 7 6 7 7 e r a a a s a a a a a r e 6 ",
"% % % % - ; 2 7 r a a a r e 7 2 2 1 1 1 2 2 6 9 9 2 1 1 2 7 a z x z s a s z c d 8 % O + + + $ $ % % % % % % - - - - - - - - - - - - % $ + $ % - - - - - % + .       . . O O $ 1 a ] *XsXsXOXy.m a e 6 2 2 8 2 2 2 7 r d d 7 ; - - - - - - - - ; ; 1 1 ; ; > % + O . O & $ 2 m S.FXlXp.T n a 6 2 1 1 1 1 3 : % + + + $ 2 S T.>XF.c 6 ; - : % + O O % r #.*XW.s 6 1 - + $ 1 v /.9XC 6 ; 1 s L.5Xv 1 2 X.E.v 2 - % - - ; ; 1 ; ; ; ; ; ; ; ; ; ; ; ; ; ; ; ; 1 1 ; 1 ; ; ; 1 1 1 1 1 1 ; 1 1 1 1 1 ; ; ; ; ; ; ; ; ; ; ; ; ; ; ; ; ; ; ; ; ; ; ; ; ; ; ; - - - - ; ; ; ; - ; - - - $ + $ 9 -.:.7 - % 2 F 5X*.r 1 % ; 6 x L.9X! 6 % $ % ; 2 7 c ;XHX| a ; $ + % 2 8 2 1 1 6 7 s t.<XGX@.r ; $ O O + : ; 1 1 2 6 8 2 1 1 2 2 2 7 e s E _.xXfX[ z 1 $ O . . O $ > 6 7 6 6 7 7 9 7 6 7 e r a a r 7 2 1 1 2 2 2 2 1 2 6 7 7 7 e a x W ).OXxXcXQ.S 7 % O . . . .     . O 5 9 7 7 7 7 e 7 6 6 6 7 7 e e r r r r e e 7 6 2 7 7 e 7 1 ; 1 6 9 7 7 6 7 7 e r a a a s a a a a r r 7 6 ",
"% $ $ % - ; 2 7 r a s a a e 7 6 2 2 1 1 2 2 6 9 9 2 1 1 2 7 a s z z s a s z c f 8 % O + + + $ $ % % % % % % % % - - - - - - - - - % % $ + $ % % - - - - = + .       . . O O $ 1 a ] *XsXsXOXy.m a e 6 2 6 8 2 2 2 7 r d d 7 ; - - - - - - - ; ; ; 1 1 ; ; - % + . . O & $ 2 m S.FXlXs.T n a 7 2 2 1 1 1 3 : % + + + $ 2 S T.>XI.c 6 - - : % + O O % r #.*XW.s 6 1 - + $ 1 v /.9XC 6 ; 1 s L.5XC 1 2 +.~.M e e j Z H A A F F F F A A A A A A A F F F F F F F F A A A A C C C A A C C C C C A A A C C C C C C C C C C C C C C C v C v v c v v C v c c c c c c c c f f s f d d d r 6 ; % 7 E.K.e ; - 2 F CX*.r 1 % ; 6 x L.9X! 6 % $ % ; 2 6 c ;XHX| a ; $ + % 2 6 2 1 1 2 7 s t.<X<X[ e - $ O O # - ; 1 1 2 6 6 2 1 1 2 2 6 7 r s E _.xX*X[ z 1 & O . . O $ 3 q 7 6 6 7 7 9 7 7 7 e r a a r 7 2 1 1 2 2 2 1 1 2 6 7 7 7 e a x W `.XXkXcXQ.S 7 % O . . . .     . + 1 q 7 7 7 e p 7 6 6 6 6 7 e e r d s a a r e 7 q 7 7 7 6 , % ; 2 6 7 7 6 7 7 e r a a a s a a a a r r 7 6 ",
"$ $ $ % % - 2 7 a a s s a r 7 6 2 2 1 2 2 2 6 7 9 2 1 1 2 7 a s z s a a s z x j 8 % O + + + $ $ % $ $ $ % % % % % % % % - - - % % % % + + $ & % - - - * = O .       . . O O $ 1 a ] *XsXsXOXy.m a e 6 2 6 6 6 2 2 7 r d d 7 ; - - - - - - - ; ; ; 1 1 ; ; - % + . . O & $ 2 m S.FXlXs.T n a 7 2 1 1 1 1 3 : % + + + $ 2 S T.>XI.x 6 ; % : % + O O % r #.*XW.s 2 1 - + $ 1 v /.9XC 6 ; 1 s L.5XC 2 6 +./.n r N 4XCXCXZXZXCXCXCXCXZXCXCXCXCXCXCXCXCXCXCXCXCXCXCX5XCXCXCXZX4X~.~.~.~.~.~.~.~.~.~.~.~.4XZXZXZXZX~.~.CX4X~.~.~.~.~.~.~.E.E.E.E.E.E.E.~.~.4X4X4X4X4X4X4X4X4X4X4XE.E.*.f 7 ; e L.L.e ; - 2 F CX*.r 1 % - 6 x L.9X! 6 % $ % ; 2 6 c /.HX| a ; $ + % 2 6 2 1 1 2 7 s t.<X<X[ e - $ O O # , ; 1 1 2 q 6 2 1 1 2 2 6 7 r s E _.xX*X[ s 1 & O . . O $ 3 7 7 6 6 7 7 9 7 7 7 e r a a r 7 2 1 1 2 2 2 1 1 2 6 7 7 7 e a n e.[.XXkXcXQ.A 7 % O . . . .     . + 5 q 9 7 7 e p p 7 6 6 6 7 e r a f c b s s a p p e e e q , = % ; 6 7 7 6 7 7 e r a a a a a a a a r r 7 6 ",
"% % % - - ; 2 u r a s s a r 7 7 8 2 2 2 2 2 7 9 9 2 1 2 2 7 a z z z a a s s s g 8 $ O O + $ + $ $ $ $ $ $ $ $ % $ % % % % % % % % % $ $ + + $ $ % % % = $ O .       . . O O $ ; a ] *XsXsXiXy.m s e 7 6 6 6 6 2 2 7 r d d e ; - - - - - - - ; ; ; 1 ; ; ; - % + O . O & $ 2 m S.zXlXs.T n a 7 2 2 2 1 1 3 : % + + + $ 1 S {.>XP.x 6 ; - - % + O O % r K.*XV.a 2 ; % + $ 1 v 6X/.c 6 ; 1 a K.5Xv 6 7 +.W.M a I CX5X+. . . . . ... .J J J J  .J J J J  . . . .J J ..X.X.X.X.X.X.%.X.X.X.$.$.$.$.%.%.%.$.%.%.%.$.%.%.$.%.%.%.%.%.%.%.%.%.%.%.%.%.%.%.%.%.%.%.%.%.%.%.%.-.&.-.=.n.5X$.7 2 r W.V.e - - 1 S 5X&.r ; % ; 6 x L.9X! 6 % $ % ; 2 7 v I.0X| a ; $ + % 8 6 2 1 1 2 7 z t.:X<X@.r - $ O O + : ; 1 1 6 q 6 2 1 2 2 2 6 7 r z W }.cXfX[ s 1 & O . . O $ 3 q 7 6 6 7 7 7 7 7 7 e r a a r e 8 1 1 2 6 6 2 1 2 6 7 7 7 e a n e.[.,XcXcXQ.H 7 % O . . . .     . + 5 6 6 7 7 e t u 7 7 7 7 e e e r g a a s b b g g a r e 6 - + $ ; 6 7 7 7 7 7 e r a a a s s a a a r e 7 6 ",
"- - - - - ; 6 p a a s s a r e 7 8 2 2 2 2 2 7 t 9 2 1 2 2 7 a z z z s a s s s g 8 $ O O O + + $ $ $ $ $ $ $ $ $ $ $ $ $ $ $ $ $ $ $ $ $ + + + $ % % % = + O         . . O O $ ; a ] *XsXsXOXy.m s e 7 6 6 6 6 2 2 7 r d d e ; - - - - - - - ; ; ; ; ; ; ; , % + O . O & $ 2 m S.lXlXs.T n a 7 2 2 1 1 1 3 : % + + + $ 1 S {.>XF.x 6 ; - - % + O O % r K.*XV.s 6 ; % + $ 1 v 6X/.c 6 ; 1 a =.5Xv 6 7 #./.v a I 9X#.z r 6 1 2 6 6 6 6 6 6 6 6 6 6 2 6 6 6 6 6 6 6 7 7 7 7 7 7 7 7 7 7 e e 7 e e e e e e e e e e e e e 7 7 7 7 7 7 e e e e 7 7 7 7 e e 7 7 7 7 e e e r a r a z I Y.&.e 2 r W.V.e - - 1 H 5X&.r 1 % ; 6 x L.9X! 6 % $ % ; 2 7 c I.0X| a ; $ + % 8 6 2 1 1 2 7 z t.:X<X[ r - $ O O + - 1 1 2 6 7 q 2 1 1 2 2 6 7 r z W }.cXfX[ s 1 & O . . O $ 3 7 7 6 6 7 7 7 7 7 7 e r a a r e 8 1 1 2 6 6 2 2 2 6 7 7 7 e a x W `.OXcXFXQ.A 7 % O . . . .     . + 1 6 6 7 e e e p e 7 7 7 e e e r a r r a s z g g c s d 7 ; $ % 3 6 7 7 7 7 7 e r a a a s s a a a r e 7 6 ",
"- - - - ; 1 6 p a s s s a r e 7 6 2 2 2 2 6 7 9 9 2 1 2 2 7 a z z z s s s z z g 8 $ O . O + + $ $ + $ $ $ $ $ $ $ $ $ $ $ $ $ $ $ $ $ + # + + $ % % $ $ + .         . . O O $ 1 a ] *XsXsXiXy.m s e 7 6 6 6 6 2 2 7 r d d e 1 - - , , , - - - ; ; ; ; ; , : = + O . O & $ 2 m S.lXlXs.T n a 6 1 2 1 1 ; > : % + + + $ 1 S T.>XF.x 6 ; - - % + O O % r K.*XF.s 6 1 % + $ 1 b 9X/.c 6 ; 1 a =.5XC 6 6 +.E.c e I 6X+.a 2 - % % - ; - - - - - - - - - - - - - - - - % % % % % % - - % % - - - - - - - - - - - - - - - - - - % - - - - - - - - - - - - - % % % % % % % - ; ; 1 7 C ZX:.e 2 y ~.Y.e - % 1 H CX*.r 1 % ; 6 x L.9X! 6 % $ % ; 2 7 c U.8X| a ; $ + % 8 6 2 1 2 2 7 z t.:X*X[ r - $ O O + - 1 2 2 6 7 q 2 1 1 2 2 6 7 r z W }.xXfX[ s 1 & O . . O $ 3 7 7 6 6 7 7 7 7 7 7 e r s s a e 8 1 2 2 6 6 2 2 2 6 7 7 7 e a x 2.`.XXFXJXW.A 7 % O . . . .     . + 1 6 6 7 e e e e e e 7 e e e e e p e e r a a a a b c c i 1 % - 5 6 7 7 7 7 7 e r a a a s s a a a r e 7 6 ",
"- - - ; ; 1 6 r a a s s a r e 7 6 2 2 2 2 6 7 9 9 2 1 2 2 7 a z x x s s z z c g 8 % O O O + + $ $ $ $ $ $ $ $ $ $ $ $ $ $ $ $ $ $ % $ $ & + $ $ % % % $ + .         . . O O $ 1 a ]  XsXsXOXy.m s e 6 6 6 8 6 2 2 7 r d d e 1 - - - - - % - - - ; ; ; - - * $ + O . + & $ 2 m S.lX>Xp.P n a 6 1 1 5 3 ; > : % + + + + 1 S T.XXF.c 7 ; - - % + O O % r K.*XF.s 6 1 % + % 1 b 9X;Xc 6 ; 1 a L.5XC 6 7 +.E.g 7 N 5XX.e 1 % $ = % % $ $ $ $ % % % % $ % % % % % % $ $ + + + + + $ $ & & & & & & & & = = = = = = & & $ $ + $ + + $ $ $ $ $ $ $ $ $ $ + + + + + + + + = & * $ % 1 j ZX:.e 2 y rXY.t - % 2 F CX*.a 1 % - 6 z J.9X! 2 % $ % ; 2 7 c U.qX| a ; $ + % 8 6 8 2 2 2 7 z t.:X$X` r - $ O O + - 1 2 2 6 7 q 6 2 2 2 2 6 7 r z _ }.xX*X[ s 1 $ O . . O $ 3 7 e 7 6 7 7 7 7 7 7 e r s s d e 8 1 2 2 6 6 2 2 2 6 7 e 7 e a x 2.`.XXJXJXW.C 7 % O . . . .     . + 1 6 7 7 e e e e e e e e e e e e e 7 7 e a a r r c c V j 4 % - 4 6 7 7 7 7 7 e r a a a s s a a r r t 7 6 ",
"; ; ; ; ; 1 6 r a s s s a r e 7 8 2 2 2 2 6 7 9 9 2 1 2 2 7 a z x x z s z z x f 8 % + O + $ $ $ $ $ & $ $ $ $ $ $ $ $ $ % % % % % % % $ & $ $ % % % % % $ O .       . . O O $ 1 a ]  XsXaXOXy.m s e 6 6 6 8 6 2 2 7 r d d e 1 - : % % % % % % - - - - - % = $ O O . + & % 2 m S.lX>Xp.P x a 6 1 1 5 3 ; > : % + O + + 1 S T.XXF.x 7 ; - - % + + O % r K.*XF.s 6 1 % + % 1 b 9X6Xc 6 ; ; a L.5XA 6 7 #.~.g 7 x 4XJ 6 - $ + + + + + + + + + + + + + + + $ + + + + + O + + + + + + + + + + + + + + + + + + + + + + + + + + + + + + + + + + + + + + + + + + + + + + + + $ $ $ - d IX:.e 2 y rXY.9 % % 2 F CX*.a 1 % - 6 z J.9X! 2 % $ % ; 2 6 c U.qX| a ; $ + % 8 6 8 2 2 6 7 z t.:X$X` e - $ O O + - 1 2 2 6 7 q 2 2 2 2 2 6 7 r z _ }.xX*X{ s 1 $ O . . O $ 3 7 e 7 7 7 7 7 7 7 7 e r s s d e 8 1 2 6 6 6 2 2 2 6 7 e 7 e a n 2.`.,XJXJXW.v 7 % O . . . .       + 2 6 7 7 e r r r e r r r r r r r e 7 e r a r e r a s f i 1 % ; 8 6 7 6 6 7 7 e r a a a s s a a r r p 9 6 ",
"; ; ; ; 1 2 7 r a s s s a r e 7 6 2 2 2 2 6 7 7 9 8 1 2 2 7 a z x x z z z z x g 8 % + + $ $ $ $ $ $ % % % % % % % % % % % % % % % - % % % % % % - - - - $ O .       . . O O $ 1 a ]  XsXaXOXy.m s e 7 6 6 6 6 2 2 7 r d d e ; - % % $ $ % % % % % - - % % = + O O O + & % 2 m S.lX>Xp.P x a 6 ; 1 ; ; ; : : % + O + + 1 S T.>XG.x 7 ; - - % $ O O % r K.*XF.s 6 1 % + $ 1 b 9X9XV 6 ; ; a L.5XA 6 7 #.W.g 7 M 4XJ 7 1 1 ; ; 1 1 1 1 1 1 1 1 1 1 ; ; ; ; ; ; 1 1 ; ; ; ; ; ; ; ; ; ; 1 ; ; ; 1 1 1 ; 1 ; ; ; 1 ; ; ; ; ; ; ; ; ; ; ; ; ; ; ; ; ; ; ; ; ; ; ; ; ; 1 ; ; - % ; d ZX*.r 2 y ~.Y.9 % % 2 F CX*.r 1 % ; 6 z J.9X! 2 % $ % ; 2 6 c U.qX| r ; $ + % 8 6 8 2 2 6 7 z t.:X$X` e - $ O O + ; 1 2 2 6 7 9 2 2 2 2 2 6 7 r z _ }.xX*X{ s 1 & O . . O $ 3 7 e 7 7 7 7 7 7 7 7 e r s s d e 8 1 2 6 7 6 2 2 2 6 7 e 7 e s n 2.`.,XJXJXW.C 7 % O . . . .       + 2 7 7 e r r r r r r r r r a a a r r r a a r e e r r d t 1 % - 2 6 7 6 6 7 7 e r a a a s s a a r r p 7 6 ",
"; ; ; ; 1 2 7 r a s s s a r e 7 6 8 2 2 2 6 7 7 9 8 1 2 2 7 a z x x z z z z x f 9 % + + + $ $ % % % % % % % % % : : % % % : : : - - : % * % % : - - ; , * + .       . . O O $ 1 a ]  XpXaXOXy.m s e 7 6 6 6 6 2 2 7 r d d e ; - % & $ $ $ % % % % % % % & & + O O O + & % 2 m S.lXjXp.P x r 2 ; ; ; ; - - : $ O O + $ 1 S {.>XI.x 7 ; - ; % $ + O % r K.*XF.s 6 1 % + $ 1 b 9X9XV 6 ; ; a =.5XA 6 7 n.Q.c e N 5X^ s f Z F F S ^ F A F A A A A A A A A A A A A A A A A A A A A A A A A A A M A M A A A M A A A A A A C A A C A A A M A M A v A v A v C v C v C C C c c d 6 2 z 4X=.a 6 d W.V.7 % % 2 H 5X&.r 1 % ; 6 z J.9X! 6 % $ % ; 2 6 c U.8X| r - $ + % 8 6 2 2 2 6 7 z y.2X$X` e - + O O + > 2 2 2 7 7 7 6 2 2 2 2 6 7 r z _ }.xX*X{ s 1 & O . . O % 3 7 e 7 6 7 7 7 7 7 7 e r s s d e 8 1 2 6 7 6 2 2 6 6 7 e 7 r z m r.`.,XFXFXW.C 6 % O . . . .     . + 2 7 e r a a a a r r a r a s s s s s s b s r 7 7 7 7 e q ; $ - 4 6 7 6 6 7 7 e r a a s s s a a r r p 7 2 ",
"; ; ; ; 1 2 7 r a s s s s r e 6 6 2 2 6 2 2 6 7 9 8 2 2 2 6 a z x x z z z z x f q % + + + $ $ = % % % % % % % : : : : : - - - - - - - : % % : - ; ; ; > * + .         . O O $ 1 a ]  XpXaXOXy.m s e 7 6 6 6 6 2 2 p a f f e 1 - % & $ $ $ % % % % % % % % = + O O O + & % 2 m S.lXjXs.P x r 2 ; - - - - - : $ O O + $ 1 S #X>XI.x 7 ; - - % + O O % a K.*XF.s 6 1 % + $ 1 b 9X9XV 6 ; 1 a =.5XA 2 7 n.!.c e m /.~ M o.eXCXCXeXeXCXCXZXZXZXZXZXZX4X~.E.E.E.E.4X4X4X5X~.~.~.E.~.~.~.E.~.~.~.~.~.~.~.E.E.E.~.~.5X5X4X4X4X4X~.~.4X4X4X4X4X4XE.E.E.E.E.E.E.E.E.4X4X4X4X4X4X>.K r x 5X=.a 6 a Q.V.7 % % 1 S 5X&.r ; % ; 7 x L.9X! 2 % + % ; 2 7 v I.0X] r - $ + % 4 6 2 1 2 2 7 x y.2X%X` e - + O O + > 4 2 2 7 p 7 6 1 1 2 2 2 7 r z _ }.xX*X{ s ; & O . . O % 3 7 e 7 7 7 7 7 7 7 7 e a s s a e 6 2 2 6 6 6 2 2 6 6 e e e r b I r.'.>XzXlXW.C 6 % O . . . . .   . + 2 7 r g g g a r r r r r a g g c c c b K b a 7 7 7 7 7 0 , $ - 4 6 7 7 7 7 7 e r a a s s s a a a r e 6 2 ",
"; ; ; 1 1 2 7 r a s s s a r e 6 8 2 2 2 2 2 6 9 t 8 2 1 1 6 a c z z z z z z c g 0 % + $ % % $ $ % % % % % % % % % % - - - - - - - - - % % % : - ; ; ; , = + .         . O + $ 1 s { -XxXsXOXr.m s r 7 6 6 6 8 6 6 e g c f r 2 - % $ $ $ = % % - - - - : % = $ O . . + & % 2 m S.lXjXp.P x r 2 - ; ; - - - - $ + + + $ 1 S #X1XG.x 7 ; % % % + O O % r K.gXR.a 2 ; % + $ 1 b ;X;XV 2 ; 1 a >.5XA 6 7 #.~.Z e N 5X( x ` 5Xo.F C Z Z Z Z Z Z Z Z Z Z Z Z Z Z Z Z Z J D H H H H H D G H H H H H H H D D D H H H H H H H H H H H H D Z Z Z D D H H H G H H J J Z K J K J $.4XJ r x 4X$.r 6 d !.V.7 % $ 1 S CX&.r - $ - 6 x P.6XS 2 $ + = - 2 7 v ].0X] e - + + : 2 6 2 1 1 8 e x y.2X%X) e - & O O + > 1 2 2 7 p 7 2 1 1 2 2 2 6 r z _ }.xX|.{ s ; & O . . O % 3 7 7 7 7 7 e 7 7 7 7 e r s s a r 6 2 2 2 2 2 2 2 6 7 7 7 7 a M E r.'.OXcXcXR.C 6 % O . . o o . . . $ q r r r g g g e e r e e r r a a r a a g b g p 7 e 7 7 8 - $ - 1 8 6 6 6 6 7 e r a a s s s a a a r e 6 1 ",
"; ; ; ; 1 2 7 r a s s s a r e 6 6 2 2 6 2 2 6 q t 8 2 1 1 6 a c z z z z x z c d 0 % + $ % % % $ % % % % % % % % % % - - - - - - - - % % % % - - ; ; ; , = O .   .       O + $ 1 z [ -XxXxXOXr.m z r 7 6 6 6 8 6 6 e s c f r 2 - % $ $ % * % % - - ; ; - : * $ O . . + & % 2 I S.lXjXs.T x r 2 ; ; ; ; ; ; : % + + + $ 2 S #X1XF.x 7 ; % % % + O O % r K.gXW.a 2 ; % + $ 1 b ;X=XV 2 ; 1 a =.5XM 6 7 #.~.Z r N 5XG z ) /.M s 7 7 6 6 2 2 2 2 2 6 6 6 6 6 6 2 2 2 6 6 6 6 6 6 6 6 7 7 7 7 7 7 7 7 7 6 6 6 7 7 7 7 7 7 7 7 7 7 7 7 6 6 6 7 7 7 7 7 7 7 7 7 7 6 6 7 7 r M E.} a M 4X%.r 6 d !.Y.7 % $ 1 S CX&.r - + - 6 n P.;XS 2 $ + = - 1 7 v #X<X] e - + + - 2 6 2 1 1 8 e x r.2X%X` e - & O O + > 1 1 2 e r 7 2 1 1 2 2 2 6 r z _ }.xX&X{ a ; & O . O O % 3 q 7 7 7 e e e 7 7 7 e r s s a r 6 2 2 2 2 2 2 2 6 7 7 7 e r x P r.'.OXcXxXR.C 6 % O .     o . . . $ q r e e r r r e 7 7 e e e e r r e e r a s a r e e e 7 8 - $ - 1 8 6 6 6 6 7 e r a s s s s a a a a r 6 1 ",
"; ; ; ; 1 2 7 r a s s s a r e 6 2 2 2 6 2 2 6 9 t 8 2 1 1 6 a c z z z z x x z d 0 % + $ % % $ $ % % % % % % % % % % - - - - - - - - % % % % : - ; ; ; - = O .   .     . O + $ 1 z [ -XxXxXOXy.m z r 7 6 6 8 6 6 6 e s c f e 2 - % $ $ % * % - - ; ; ; - - * $ + . . + & % 2 I S.cXjXs.T n a 6 1 1 1 ; ; ; : % + + + $ 2 S #X1XF.x 7 ; - : % + O O % r K.fXW.a 2 ; % + $ 1 b ;X;XV 2 ; 1 a =.5XN 7 e n.!.C r N 5X} x ` E.x r 6 1 1 1 1 1 ; ; 1 1 1 1 2 1 1 1 1 ; ; ; ; ; ; ; ; ; - ; - - ; ; ; - - - - - - - - - - - - - ; ; ; ; 1 1 ; ; ; - - - - - - - ; ; 1 1 2 7 x E.$.a M -.%.r 6 d !.Y.6 % $ 1 S ^.&.r - + - 7 n P.^.S 2 $ $ = - 1 7 v ].%X] e - + + - 2 6 2 1 2 6 e x y.2X%X` e - & O O + > 1 1 2 e r 7 2 1 1 2 2 2 6 r z _ }.xX&X{ a ; & O . O O % 3 q 7 7 7 e e e 7 7 7 7 r a s a r 6 2 2 2 2 2 2 2 6 7 7 7 e r x L 3.'.OXcXxXR.C 6 % O .     o . . . $ 6 e r e e r e e 6 7 7 7 e e r r e e e r a a e e e e 7 8 - $ - 1 8 6 6 6 6 7 e r a s s s s a a a a r 6 1 ",
"; ; ; 1 1 2 7 r a s s s a r e 6 6 2 6 6 2 2 6 9 t 6 2 1 1 6 a z z z z z x x z d 0 % + $ % % $ $ % % % % % % % % % % - - - - - - - - % % % % - - ; ; - - = O .   .     . O + $ 1 z [ -XxXsXOXy.m z r 7 6 6 8 6 6 6 e s c f e 1 - % $ $ % % - - ; ; ; ; ; , - % + . . + $ % 2 I S.cXjXs.T n a 6 1 1 1 3 ; ; : % + + + $ 2 S &X1XF.x 7 ; - - % + O O % r K.fXF.a 2 ; % + $ 1 b ;X;Xf 2 ; 1 a =.5XM 7 e B.!.C r N 5XG z ` P.x s r e e e 7 7 7 7 7 7 7 7 7 7 7 7 6 6 6 2 2 2 2 6 6 6 6 6 6 6 6 6 9 6 8 6 6 6 6 8 8 8 6 6 6 6 6 6 6 6 7 7 7 7 6 6 2 2 2 2 6 6 6 6 6 6 7 e M E.%.s M -.%.r 6 d !.Y.6 % $ 1 S ^.&.e - $ ; 7 n P.^.S 2 $ $ = - 2 7 v ].%X] e - + $ - 2 6 2 1 2 6 e c y.2X%X` e - & O O $ > 1 1 2 e r 7 2 1 1 2 2 2 6 r z _ }.xX&X{ a ; & O . O O % 3 q 7 7 7 e e e 7 7 7 e r a s a r 6 2 2 2 2 2 2 2 6 6 7 7 e r x L r.`.OXcXxXR.C 6 % O .     o . . . $ 6 r r r r r e 7 6 6 7 7 e e r r r r r a a r e 7 e e 7 6 - $ - 1 8 6 6 6 6 7 e r a s s s s a a a a e 6 1 ",
"; ; ; 1 1 2 7 r a s s s a r e 6 6 2 6 6 6 2 6 q 9 6 2 1 1 6 a z z z z z x x z d 0 % + $ % % % $ % % % % % % % % % % - - - - - - - - % % % % - - ; - - - $ O .           O + $ 1 z [ -XxXsXOXy.m s r 7 6 6 6 6 6 6 e s c s e 1 - % $ % % - - - ; ; 1 1 ; - - % + . . + & % 2 I S.vXjXs.T n a 6 1 1 1 1 ; 1 ; % + + + $ 2 S &X1XF.x 7 ; % : % + O O - a B.*XV.a 2 ; % + $ 1 b ;X;Xf 2 - 1 a =.5XM 2 6 +.~.V e m 5XS z ' Q.U ] *.%.K.Y.K.K.K.-.-.-.B.B.B.Y.B.-.#.&.=.=.=.=.=.=.=.=.+.+.+.+.+.+.+.@.#.#.#.#.#.@.@.@.#.#.#.#.#.#.#.#.#.#.+.+.+.+.+.+./ +.$.+.X.X.( G f r n E.} a n -.%.r 6 d ^.Y.6 % % 1 S ^.+.e - $ ; 7 n P.^.S 2 $ $ = - 1 7 v ].%X] 7 - + $ - 2 6 2 1 2 8 e c u.0X0X{ e - + O O $ > 1 1 2 e r 7 2 1 1 2 2 2 6 r x _ }.xX&X{ a ; & O . O O % 3 7 7 7 7 e e e 7 7 7 e r s s a e 6 2 2 2 2 2 2 2 6 6 7 7 7 r M E s.'.OXcXxXR.C 2 % O .     o . . . $ q g g g r r e 7 6 6 6 6 7 e p i g g g a s a e 7 e 7 7 6 - $ - 1 8 6 6 6 6 7 e r a s s s s a a a a e 6 1 ",
"; ; ; ; 1 2 7 r a s s s a r e 6 6 2 6 6 6 2 6 9 9 6 2 1 1 6 a z z z z z x x z g 0 % + $ % % $ $ % % % % % % % % % % - - - - - - - - % % % % - - ; - - - $ O .   .       O + $ 1 z [ *XxXsXOXr.m s r 7 6 6 6 6 6 6 e s c s e 1 - % % % % - - - ; ; 1 1 ; ; , % + . . + & % 2 I S.lXjXp.T n a 6 1 1 1 1 1 1 ; % + + + $ 2 S &X1XF.x 7 ; % : % + O O - a B.*XV.a 2 ; % + $ 1 b ;X;Xf 2 - ; a =.5XM 2 2 #.E.V e N 5X} x t.;X) K.4X&.#.M.#.#.#.+.#.#.#.#.#.#.#.#.#.#.+.@.#.@.+.@.@.+.K.K.K.K.K.L.K.K.K.V.Y.K.Y.K.Y.K.K.K.K.K.K.K.K.K.K.K.-.-.K.K.K.K.K.K.K.E.K.=.E.4X .s N E.} a M -.$.r 6 d eXY.6 $ $ 1 S ^.+.e - + ; 7 n P.^.S 2 $ $ % - 1 7 v ].<X} 7 - + $ - 2 6 2 1 2 6 e x u.0X0X{ e - + O O $ > 2 1 2 e r 7 2 1 1 2 2 2 6 r x _ }.xX&X{ a ; & O . O O % 3 q 7 7 7 e e e 7 7 7 e r s s a e 6 2 2 2 2 2 2 2 6 6 7 7 7 a M E a.'.OXcXxXF.C 2 % O .     o . . . + u g g r e e e 7 7 6 6 6 6 7 e r i a a a s a r 7 e 7 7 8 - $ - 1 6 6 6 6 7 7 r r a s s s s s a a a e 6 1 ",
"; ; ; ; 1 2 7 r a s s s a r e 6 6 2 2 6 2 2 6 q 9 6 1 1 1 6 a z z z z z x x c g 0 % + $ % % % $ $ % % % % % % % % % - - - - - - - - % % % % - - ; - - - $ O .   .       O + % 1 z ' *XkXsXOXr.m s r 7 6 6 6 6 6 6 e s c s e 1 - % % % % - - ; ; ; 1 1 ; ; - % + . . + & % 2 I S.lXjXs.T n a 2 1 1 1 1 1 1 > % $ + + $ 2 S &X,XF.x 7 ; % % % + O O % a B.*XV.a 2 ; % + $ 1 b ;X;Xf 2 - ; a =.5XM 6 7 #.~.C r I 5X} z _ I.U +.$.z r e 7 7 7 6 6 6 6 6 7 7 7 7 6 6 7 7 7 7 7 7 e e 7 7 7 e e e e e r r r r r r r r e e e e e e e e e 7 7 7 9 9 9 7 t e r d d s C  .>.x I E.} a M -.$.r 6 d eXY.6 $ $ 1 S ^.+.e - + - 6 n P.^.S 2 $ $ % - 1 7 C #X<X} 7 - + $ - 2 7 6 2 2 6 e x u.0X0X] e - + O O $ > 1 1 2 e r 7 2 1 1 2 2 2 6 r x _ }.xX&X{ a ; & O . O O % 3 q 7 7 7 e e e 7 7 7 e r s s a e 6 1 2 2 2 2 2 2 6 7 7 7 e a M E a.XXOXcXxXF.C 2 % O .     o . . . + q p r e e e e 7 6 6 6 6 6 6 7 e r r r a a a e 7 r 7 e 8 % $ - 1 6 6 6 6 7 7 r a a s s s s s a a a e 6 1 ",
"; ; ; ; 1 2 7 r s s s z a r e 6 6 2 2 2 2 2 6 9 9 6 1 1 1 6 a z z z z z x x c g 0 % + $ % % % $ $ % % % % % % % % % - - - - - - - - % % % % - - ; - - - $ O .   .       O + $ 1 z ' *XkXsX Xr.m s e 7 6 6 6 6 6 6 e s c s e 1 - % % % % - - ; ; ; 1 1 ; ; - % + . . + & % 2 I S.lXjXs.T M a 2 1 1 1 1 1 1 3 : $ + + $ 2 S &X,XF.c 7 ; % % % + O O % a B.*XV.a 2 ; % + $ 1 b ;X;XV 2 - ; a =.5XM 6 7 @.W.C r I 5X} z _ ;X) J.+.s 7 2 1 1 ; ; ; ; ; ; ; ; ; ; ; ; ; ; ; ; ; ; ; ; ; ; ; 1 1 1 1 1 1 1 1 1 1 1 1 1 ; ; ; ; ; ; ; ; ; ; ; - - - - - - - ; 2 6 6 d  .%.z m ~.} a N -.X.r 6 d eXY.6 $ $ 1 S ^.&.e - + - 6 n P.^.S 1 $ $ % - 1 7 C #X<X} 7 - + $ ; 8 7 6 2 2 6 e x u.0X0X] e - + O O $ > 1 1 2 e r 7 2 1 1 2 2 2 6 r z _ }.xX&X{ a ; & O . O O % 3 q 7 7 7 7 e e 7 7 7 e a s s a e 6 1 2 2 2 1 2 2 6 7 6 7 e r x P s.XXOXcXxXF.C 2 % O .     o . . . + 6 e e e e e 7 6 6 6 6 6 6 6 9 e r r r r a r e 7 r 7 7 8 - $ - 1 6 6 6 6 7 e r a a s s s s s a a a e 6 1 ",
"; ; ; ; 1 2 7 r a s s s s r e 6 2 2 6 6 2 2 6 q 9 6 2 1 1 6 a z z z z z x x c d 0 % $ $ % % % $ $ % % % % % % % % % - - - - - - - - % % % % - - ; - - - $ O .           O + $ 1 z [ &XiXsXOXr.m s e 7 6 6 6 6 6 6 e s c f e 1 - % % % - - - ; ; ; 1 1 ; ; , % + . . + & % 2 m S.jXlXs.T n d 2 1 1 1 1 1 1 > : $ + + $ 2 ! &X,XG.x 7 ; % % $ + O O - a K.*XV.a 2 ; % + $ 1 b ;XQ.f 2 - 1 a -.5XM 6 e O.Q.C r I E.S z _ ;XW L.~ x r a r 7 7 7 7 7 7 7 7 7 7 7 7 6 2 1 1 1 1 1 1 1 1 1 1 1 1 1 1 1 1 ; ; ; ; ; ; ; ; ; ; - - - - ; 1 1 ; ; - - % % - - - 1 1 1 6 ,.>.z I E.} a M 4X%.a 6 f !.#.6 $ $ 2 S ^.&.e % + - 6 n P.^.S 1 $ $ - : 2 7 C ;X0X} 7 - $ $ ; 6 7 6 2 2 9 e c u.0X0X{ 7 - & O O $ ; 2 1 2 e r 7 2 1 1 2 2 2 6 r x _ }.xX&X{ a ; & O . O O % 3 q 7 6 7 7 e e 7 7 e r a s s a e 6 1 2 2 2 2 2 2 6 6 7 7 7 r x L r.`.OXcXxXF.c 2 % O .       . . . $ 6 e e e e e e 7 6 6 6 2 6 6 7 p r r r r a g p 7 e p e 2 % $ - 2 8 6 6 6 7 7 r a a s s s s s a a d e 6 1 ",
"; ; ; ; 1 2 7 r a s s s s r e 6 2 2 6 6 2 2 2 q 9 6 2 1 1 6 a z z z z z x x z d 0 % $ $ % % % $ $ % % % % % % % % % - - - - - - - - % % % % - - ; - - - $ O .   .       O + $ 1 z ' {.iXpXOXi.m s e 7 6 6 6 6 6 6 e s c f e 1 - % % % - - - - ; ; 1 1 ; ; - % + . . + & % 2 m S.jXlXs.T M d 2 1 1 1 1 1 1 > % $ + + $ 2 ! &X,XF.x 7 ; % % $ + O O - d K.*XV.a 2 ; % + $ 1 b ;XQ.f 2 - 1 a -.5XM 2 7 O.W.C r I E.G z _ #XW A.' U +.&.$.%.%. .J J  . . .......J J Z j j j j j j j j j j j j d j j d i i i i i y t t t t e 7 7 7 7 e e e e 7 6 6 6 6 6 6 7 6 6 7 ,.>.x I E.} a M 4XX.a 6 f !.#.6 $ $ 2 ! ^.&.e % $ - 6 n P.^.A 1 $ $ - : 2 7 C ;X0X} 7 - $ $ ; 2 7 6 2 2 9 e x u.0X0X{ 7 - & O O $ ; 2 1 2 e r 7 2 2 1 2 2 2 6 r x _ }.xX&X{ a ; & O . O O % 3 q 7 6 6 7 e e 7 7 e r a s s a e 6 1 2 2 2 2 2 2 6 6 7 7 7 r M U r.`.OXcXxXF.c 2 % O .       . . . $ 6 e e e e r e 7 7 6 6 6 6 6 7 e r r r r a g p 7 e p e 2 % $ - 2 8 6 6 6 7 7 r a a s s s s s a a a r 6 1 ",
"; ; ; ; 1 2 7 r a s s s s r e 6 2 2 6 6 2 2 2 q 9 6 2 1 1 6 a z z z z z x x z d 0 % + $ % % % $ $ % % % % % % % % % - - - - - - - - % % % % - - ; - - - $ O .   .       O + % 2 z i.<XcXxXOXi.m s e 7 6 6 6 6 6 6 e s c f r 1 - % $ % % - - - ; ; ; ; ; - - % + . . + & % 2 m S.jXlXs.P n d 2 1 1 1 ; ; ; ; % $ + + $ 2 ! &X,XF.x 7 ; % % $ + O O - a K.*XV.a 2 ; % + $ 1 Z ;X!.f 2 - 1 a =.5XM 2 6 o.W.C r N E.G x e.$XR S.p.e.^.E.K.K.-.*.*.>.>.>.-.-.-.-.;.;.-.-.-.-.-.-.-.-.4X4X4XE.-.-.-.K.L.E.E.E.E.E.E.E.E.E.E.K.K.K.K.K.L.L.L.K.K.K.K.K.=.=.+.$.S M z } >.x L E.} a x 4XX.a 6 s !.#.2 $ $ 2 ! ^.&.e - $ - 6 M P./.A 1 $ $ - ; 2 7 A ;X0X} 7 - $ $ ; 8 7 6 2 2 9 e x u.0X0X] 7 % + O O $ ; 2 1 2 e r p 2 2 2 2 2 2 6 r x _ }.xX|.{ a ; & O . O O % 3 q 7 6 6 7 e e e e e r a s s a e 6 1 2 6 2 2 2 2 6 7 7 7 7 a M E s.'.XXkXkXC.c 2 % O . .     . . . $ 6 e r r r r e 7 7 6 6 6 6 7 7 e r r r r a a r 7 e e 7 2 % $ ; 2 8 7 6 6 7 7 r a a s s s s s a a a r 6 1 ",
"; ; ; ; 1 2 7 r a s s s s r e 6 2 2 6 6 2 2 2 q 9 6 2 1 1 6 a z z z z z x x c a 0 % + $ % % % $ $ % % % % % % % % % - - - - - - - - % % % % - - ; - - - $ O .   .       O + % 2 G U.SXxXpX.Xr.L s e 7 6 6 6 7 7 6 e s c c r 1 - % $ $ % * - - ; ; ; ; ; , - % O . . + & % 2 m S.jXlXs.P n a 2 ; 1 ; ; ; ; ; % $ + + $ 6 ! &X,XA.x 7 ; % % $ + O O - a K.*XV.a 2 ; % + $ 1 C ;X;Xj 2 - 1 a -.5XA 2 6 o.~.C r I E.G z t.$XR S.s.y.V.I n x z z s c c x x x x x c c x n M M n n n n N N N N N N N N I ~ ! ~ ~ ~ ~ ~ / / / ` ` ` ` ` ] ] ] ] @.@.@.@.L.L.L.L.K.@.n / -.x L E.} a x >.X.a 7 f !.#.2 $ $ 2 ! !.#.e - $ - 6 n P./.M 1 $ $ - ; 2 7 A #X8X} 7 - $ $ ; 8 7 6 2 2 9 e x u.0X0X] 7 % + O O $ ; 2 2 2 e r p 6 2 2 2 2 2 6 r x _ }.xX|.{ a ; & O . O O % 3 q 7 6 6 7 e e e 7 e r a s s a r 6 1 2 6 2 2 2 2 6 7 7 7 e a B E s.XXOXcXxXF.c 2 % O . .     . . . $ 6 e r r r r e 7 7 7 7 6 7 7 7 e g a r r a a e 7 e e 7 2 % % ; 2 6 7 6 6 7 e r a a s s s s s a a a r 6 1 ",
"; ; ; ; 1 2 7 r a s s s s r e 6 2 2 2 6 2 2 6 9 9 6 2 1 1 6 a z z z z z x x z d 0 % + $ % % % $ % % % % % % % % % % - - - - - - - - % % % % - - ; ; - - = O .   .       O + % 2 x 7XLXLXLXNXi.n s e 6 6 6 6 9 7 6 r s c f e 1 - % $ $ = % % - - ; ; ; - - * $ O . . + & % 2 I S.jXjXp.P n a 2 ; ; ; ; - ; - % + + + $ 6 ! &X,XH.x 7 ; % % $ + O O - d Y.fXV.a 2 ; % + $ 1 C ;X/.f 2 - 1 a =.5XM 6 e O.Q.A a I E.G z ' ;XT A.u.i.E.x s a e e 6 7 7 7 7 e e e e e 7 7 7 7 7 7 7 7 7 7 e e e e e e 7 7 7 7 7 7 7 7 7 7 e e e e e e e 7 7 7 7 e e e r r a v %.;.M X.;.x L E.} a x >.$.a 7 c hXC.6 $ $ 2 ! !.#.r - + - 6 M P./.M 1 $ $ - ; 2 7 A #X8X} 7 - $ $ ; 6 7 6 2 6 9 e x u.0X0X] 7 % + O O $ ; 1 2 2 e r p 6 2 2 2 2 2 6 r x _ }.xX&X{ a ; & O . O + % 3 7 7 6 6 7 e e 7 7 e r a s s a e 6 1 2 2 2 2 2 2 6 7 7 7 e a M U s.XXcXJXNXR.C 6 % O .       . . . $ q e e r r r r e e 7 7 7 7 e e e g a r r a r e 7 7 7 7 2 % % ; 2 6 7 7 7 7 e r a a s s s s s a a d r 6 1 ",
"; ; ; ; 1 2 7 r a s s s a r e 6 2 2 2 6 2 2 6 9 9 6 2 1 1 6 a z z z z z x x c d 0 % + $ % % % $ $ % % % % % % % % % - - - - - - - - % % % % : - ; ; ; - = O .   .       O + % 2 z [ *XiXyX.Xr.m s e 7 6 6 9 9 7 7 r s c f e 1 % % $ $ $ = % % - - ; - - - * $ O . . + & % 2 m S.jXlXp.P n a 2 ; - - - - - - $ + + + $ 6 ! $X,XH.x 7 ; % % % + O O - d Y.fXV.a 2 ; % + $ 1 C ;X!.f 2 - 1 a =.5XM 6 e O.R.A a ! E.G s { ;XT u.y.' =.x v v c K g g j j f f f f f j j j j j j j j j f f f f f f f j j j j j y y y y y y y y d y y y r e e e e e r r d a s s X.-.M +.*.x L E.} a x >.$.a 7 c hXC.6 $ $ 2 ^ Q.+.r - + - 6 M P.6XA 1 $ $ - ; 2 7 A #X%X( 7 % $ $ ; 6 7 6 2 6 9 e x u.0X0X~ 6 % + O O $ ; 1 1 2 e d p 6 2 2 2 2 2 6 r x _ }.xX&X{ a ; & O . O O % 3 q 7 6 6 7 e e 7 e e r a s s a e 6 1 2 2 2 2 2 2 6 7 6 7 7 r x P r.'.jXcXcXR.C 6 % O .       . . . $ 0 e e r r r r e e e e e e e e r g a r a a r 7 7 e 7 7 2 - % ; 2 6 7 7 7 7 e r a a s s s s s a a s r 7 2 ",
"; ; ; ; 1 2 7 r a s s s a r e 6 2 2 2 6 2 2 6 9 9 6 2 1 1 6 a z z z z z x x c d 0 % + $ % % % $ $ % % % % % % % - - - - - - - - - - - % % % : - ; ; - - = O .           O + $ 1 z [ *XxXsXOXu.L s e 7 6 6 9 9 7 7 r s c f e ; % = $ + $ $ $ % % - - - % % = $ O . . + & % 2 m S.jXlXs.P n d 2 ; - - - - - : $ + + + $ 6 ! $X,XH.x 7 ; % : % + O O - d E.fXV.a 2 ; % + $ 1 C ;X!.f 1 - ; a =.5XM 2 7 o.W.C r ! E.G z _ %X2.S.p.r.Q._ W.E.=.>.*.>.>.>.;.-.-.-.-.-.-.-.-.-.-.-.-.-.-.-.-.-.-.-.-.-.E.E.E.E.K.K.K.K.K.K.K.K.K.K.K.J.L.L.J.L.L.L.V.V.N.N.M.) M.L.n ] =.x L E.} a x >.X.a 7 c hXC.6 $ $ 2 ^ Q.+.r - + - 6 n /.6XA 1 $ $ - ; 2 7 A #X%X( 7 % + $ ; 6 7 7 6 6 9 r x u.0XqX~ 6 % $ O O $ ; 2 1 2 e r p 6 2 2 2 2 2 6 r x _ }.xX&X{ a ; & O . O + % 3 q 7 6 6 7 e e 7 e e r a s s a r 6 1 2 2 2 2 2 2 6 6 7 7 7 r M U s.'..XkXkXC.c 2 % O .       . . . $ 0 e e r r r r r r r e e e e r r a r r a a r 7 7 e e 7 1 - % ; 2 6 7 7 7 7 e r a s s s s s s s a d r 7 2 ",
"; ; ; 1 1 2 7 r a s z s a r e 6 2 2 6 6 2 2 6 9 9 6 2 1 1 6 a x z z z z x z z d 0 % + $ $ $ $ $ % % % % % % % % % % % % - - - - - - % % % % % : - - - - = O .           O + $ 1 z ' *XkXsX Xe.m s e 7 6 6 6 6 7 7 r s c s e ; $ = $ $ $ $ $ $ % % % % % % $ + O . . O & $ 2 m S.kXlXs.P M d 2 1 ; ; ; ; ; : & + + + $ 6 ! $X,XA.x 7 ; - - % + O O - d E.gXV.a 2 ; % + $ 1 C ;X!.f 1 - ; r =.~.M 2 6 o.W.C r I E.G z _ %X2.S.s.p.H.e.F.O.m n x x x M M M M M M M n N N N N N N N N N N N I I I I I I U U U U U U ) ) ) ) ) ) ) ) ) ) _ _ _ e.e.e.e.A.G.e.m.P.m @.=.x I L.} a M 4XX.a 7 c !.B.6 $ % 2 ^ W.+.e - + - 7 M /.6XS 1 $ $ : ; 2 7 A #X%X( 7 % + $ ; 6 e 7 6 6 7 r x u.0XqX~ 6 % $ O O $ ; 2 1 6 e r e 6 2 2 2 2 2 7 r x _ }.xX X] a ; & O . . O % 5 q 7 6 6 7 e e 7 7 e e a s s a p 6 1 2 2 2 2 1 2 6 6 7 7 e a M ) p.'.OXcXkXV.c 2 $ O . . o o . . . $ 0 e e r d r r r a r r e e r r r a r r a a r e e e e 6 1 - % ; 1 8 7 7 7 7 e r a s s z z s s s a a r 7 2 ",
"1 1 1 1 1 2 7 r a s z s s r e 6 2 2 6 6 2 2 6 9 9 7 2 1 2 6 a c x x z s z z c d 0 % O O + + + $ % % % % $ $ $ $ $ $ $ $ $ $ $ % % % % & & & % * - - % % & O .   .       . O $ 1 z t.&XxXuXiXe.m s r 7 6 6 6 6 6 6 r a f g 7 - $ % % $ % % % % - % - % % % $ + O O . + # $ 2 I ).cXkXZ.P x a 6 2 1 1 1 1 3 : $ + + + % 6 ~ -X<XN.z 7 1 - - % + O + - f K.gXM.a 2 ; % + $ 1 C ;X;Xf 1 - ; r =.~.A 2 6 ` W.v r I 4XG z ' $X2.S.r.r.A._ V.I x s s s a a a r r r r r r r r r r r r r r r r r r r r r r r a a a a r r r a a a a a a a s s a a s s a s z x M.y.H.A.m +.=.x m E.} s N 4X$.r 7 c eX#.6 % % 2 ^ !.&.e - $ ; 7 M 7X6XA 1 % $ : ; 2 7 M $XGX} 6 % + $ 1 7 e 6 6 6 7 r M u.0X-X/ 7 % + O O % 3 2 2 6 e r e 2 2 2 6 6 2 7 r x t.}.kX X] a ; $ O . . O % 2 q 7 6 6 7 7 7 7 7 7 r r a s d p 2 1 6 6 2 1 1 2 6 6 7 e e a M U r.'.OXcXlXV.d 2 % + O . o   . . . $ 6 e e r r r r r d r r e e e r r r r a a a a r r r p 6 1 - % : > 4 6 7 7 e r a s s s z z z s s a r e 7 2 ",
"1 1 1 1 2 2 7 r s s z s s r e 6 2 2 6 6 2 2 6 9 7 7 2 1 1 6 a c x x z s z z c g 0 $ . . O O + $ % % % % $ $ $ $ + + + $ $ $ $ $ % % & & & & & % % % % % $ O .   . .     . O $ 1 z i.*XxXuXOXe.m s r 7 6 6 6 6 6 6 e a g g 7 - % % % % % % % % - - - - - % = $ O O . O + $ 2 L ).xXkXZ.P x a 6 2 2 2 2 2 4 > & O O + % 7 ~ -X<XN.z 7 1 ; - % + O + - s K.gXM.a 2 ; = + % 1 v ;X/.f 1 - ; r =.~.S 6 7 ` W.M r I 5XG z ' $Xe.S.r.r.S._ P.[ ~ ^ ^ ( G J H Z Z Z Z Z Z Z Z Z Z Z Z Z Z Z Z Z Z Z Z Z Z Z Z Z Z Z Z Z Z Z Z Z Z Z Z Z C Z Z Z Z C c Z C M V.m.H.Z.n ( =.x m E.} s I ~. .e 7 c eX#.6 % % 2 F ~.&.e - $ ; 7 M 7X6XA 1 % $ : ; 2 7 M $XGX( 6 % + $ 1 7 e 6 6 6 7 r M A.1X-X( 6 % + O + $ 3 2 2 6 e d e 2 2 2 6 6 6 7 r x t.}.kX X] r ; $ O . . O % 2 q 7 6 6 7 7 7 7 7 7 e r a a r e 2 1 6 6 2 1 1 1 6 6 7 e e a M U p.'.OXcXlXB.d 2 % + O . o     . . % q e r r r r r r d d r r r r e e r r a a s a a r e e q 2 - % % > 4 6 7 7 e r a s s s z s z s s a r p 6 2 ",
"1 1 1 1 1 2 7 r a s z s s r e 6 6 2 6 6 2 2 6 9 7 7 2 1 1 6 a c x x z z z z x g 0 % . . O O + $ % % % % $ $ $ $ + + + + $ $ $ $ % % & & & & & % % % % % $ O .   .       . O $ 1 z i.*XxXuXOXe.m s e 7 6 6 6 6 2 2 e a f g 7 ; % % % % % % % - - - - - - - * $ O O . O + $ 2 L ).xXkXs.P x a 7 2 2 2 2 2 4 > & O O + % 7 / -X<Xu.c 7 1 ; - % + O + - s K.gXM.a 2 ; % + % 1 v ;X!.j 1 - ; r =.~.A 6 7 o.W.M r I 5XG z ' $X2.S.r.r.).2._.I.W.E.K.K.-.;.;.*.*.*.*.*.*.*.*.*.*.*.*.*.*.>.;.*.*.*.*.*.*.*.*.*.*.*.*.*.*.*.*.*.*.*.*.*.*.>.>.>.>.>.>.>.*.~ F.p.H.F.n ( =.x m E.} s I ~. .e 7 f eX#.6 % % 2 F ~.&.e - $ ; 7 x 7X6XM 1 $ $ - ; 2 e M $XlX( 6 % + $ 1 7 e 7 6 6 7 r M A.1X-X/ 6 % + O + & 3 2 2 6 e d e 2 2 2 6 6 6 7 r x t.}.kX X] r ; $ O . . O % 2 7 7 7 7 7 e e e 7 7 e r a a r e 2 1 6 6 2 1 1 1 6 6 7 e e a M U p.'.XXcXlXV.d 2 $ + O .       . . % 7 r r a d r r r a a r r r r e e r r r a s s a r e e 7 2 ; % - > 4 6 7 7 e r a s s s z s z s s a r p 7 2 ",
"1 1 1 1 1 2 7 r a s z s s r e 6 2 2 6 6 2 2 6 9 7 6 2 1 1 6 a c x x z z z z x g 8 % O O O O + $ $ % % $ $ $ $ $ $ $ $ $ $ $ $ $ % % $ $ $ + $ $ % % % % $ O .   .       . O $ 1 z i.*XxXuXOXe.m s r 7 6 6 6 6 6 6 e a s f 7 ; - % % % % % - - - - ; ; - - * $ + O . O + $ 2 L ).kXkXs.P x a 7 2 2 1 2 2 3 > & O O + % 7 ` <X1Xu.c 7 1 ; - % + O + - s K.gXM.a 2 - % + % 1 v $X!.f 1 - ; r =.~.S 6 7 o.W.v r I 5XG z ' $X2.S.r.r.`.3.)._.Z._ L m n x x x x x x x x x x x x x x x x x x x x x x x x x x x x x x x x x x x x x x x x x x x z M N N L.' G.p.H.F.m } =.x m 4X$.s I ~. .e 7 f eX#.6 % % 2 F ~.&.e - $ ; 7 M E.6XM 1 % $ : ; 2 e M #XlX( 6 % + $ 1 7 e 7 6 6 7 r n A.1X%X! 6 % + O + & 3 2 2 6 r a p 6 2 2 6 6 6 7 r x t.}.kX X] r ; $ O . . O % 2 7 7 7 7 7 e e e 7 7 e r a a a e 2 1 6 6 2 1 1 1 6 6 7 e e a M U p.'.+XcXlXK.d 2 $ + O .       . . % 7 r a a a a r a a d r r r e e e r r r a a a a r r r u 6 ; - - 3 4 6 7 7 e r a s s s s s z s s a r p 7 2 ",
"; ; ; 1 1 2 7 r a s z s d r e 6 2 2 6 6 2 2 6 9 7 7 2 1 1 6 a c x x z z z z x f 8 % O O + + $ $ $ $ $ $ $ $ $ $ $ $ $ $ $ % % % % % $ $ + + $ % - % - % & O . . . .     . + $ 1 z i.*XxXuXiXe.m s r 7 6 6 6 6 6 6 e a s f 7 ; - - - - % - - - - ; ; ; - : * $ + O . O + $ 2 L ).kXpXs.P x a 7 2 2 2 2 1 3 > & O O + - 7 ` <X<Xu.c 7 1 ; - % + O + - s K.gX@.a 2 - $ + $ 2 v ;XQ.f 1 - ; r =.5XS 6 7 o./.v r I 5XG z ' &X2.S.p.p.(.3.(.(.H.e.E L N N N N N N m N n n n n n n n n n n n n n n n n n M n M n M n M n x n n n n n n M z z x x n m n P.e.).a.H.H.n ] =.x m E.X.s I E. .e 7 f eX#.6 % % 2 F ~.&.e - % ; 7 M E.6XA 1 % $ - ; 2 e M #X-X( 6 % + $ 1 e r 7 6 6 7 r n A.SX$X! 6 % + O + & 3 2 2 6 r a p 6 2 2 6 6 6 7 a x t.XXkX X] r ; # O . . O % 2 7 7 7 7 e e e e e e r r s s a e 2 1 6 6 2 1 1 1 6 6 7 e e a M U y.'.+XFXlXL.d 2 $ + O .       . O - e a a s s a a a d a r r e e e e r r r a a a a r r i u 6 1 - ; 5 6 6 7 7 e r a s s s z s s s s a r e 7 2 ",
"; ; ; 1 1 2 7 r a s s s d r 7 6 2 2 6 6 2 2 6 9 7 7 2 1 1 6 a c M x z z z x x f 8 % O + # $ $ $ $ $ $ $ $ $ $ $ $ % % % % % % % % % $ $ + $ $ % - - - - = + . . . .     . + $ 1 z i.*XMXaXiXi.m s r 7 7 9 9 9 6 7 e s s f e ; - - - - - - - - - ; ; ; - - - $ + O O O + $ 2 L ).kXkXs.P x a 7 2 2 1 1 1 3 > & O O + % 7 ` <X2Xu.c 7 1 ; - % + O + - s K.gX@.a 2 - % + % 2 v #XQ.f 1 - ; r =.5XS 6 7 O./.v r I 5XG z ' &X2.S.y.p.v.1.(.`.}.$XQ./.E.E.-.-.E.E.E.E.-.-.-.-.-.=.-.=.-.=.=.-.-.-.-.-.-.-.-.-.-.-.-.-.*.*.-.-.-.-.-.-.-.&.*.-.=.L.V.W S.r.`.a.a.Z.n ( =.x m 4XX.s I ~. .e 7 f eX#.6 % % 2 F ~.&.e - % ; 7 M E.6XM 1 % $ : ; 2 e M #X-X( 6 % + $ 1 e r 7 6 6 7 r n A.SX;X! 6 % + O + % 3 2 2 6 r g p 6 2 2 6 6 6 7 a x t.XXkX}.] r ; & O . . O - 2 7 7 7 7 e e r e e e r a s s d e 6 2 6 6 2 1 1 1 6 6 7 e e a M U y.'.+XFXlXK.d 2 $ + O .       . O - e a s s s a a a d a r r e e e e r r r r a a a r r i u 6 1 ; 1 4 6 6 7 7 e r a s s s z s s s s a r e 7 2 ",
"; ; ; ; 1 2 7 e a s s s a r 7 6 2 2 6 6 2 2 6 9 7 7 2 1 1 6 a c M x b z x x x f 9 % O + & $ $ $ $ $ $ $ $ $ $ $ % % % % % % % % % % $ $ + $ % : - - - - = + . . . .     . + $ 1 z i.*XMXaXiXe.m s r 7 7 9 9 6 6 6 e s c f e ; - - - - - - - ; ; ; ; ; ; - - $ + O . O + $ 2 L ).xXkXs.P x a 7 2 2 2 2 2 3 > & O O + % 7 ` >X2Xu.c 7 1 - - $ + O + - s K.gXO.a 2 - $ + % 2 v #XQ.f ; - ; r =.5XS 6 7 #.^.M r I 5XG z ' &XW A.p.p.].3.(.(.).G.t.! A C C C C A C C C C C v C v C v C C C C C D D D D A D C C C A A H H H H H H H H G A J G ! [ N.2.S.s.`.a.a.A.n ( =.x m 4X$.s I ~. .e 7 f eX#.6 % % 2 F ~.&.e - % ; 7 M L.6XM 1 $ $ : ; 2 e M #X*X( 6 % + $ 1 e r 7 6 6 e r M A.SX%X! 6 % + O + % 3 2 2 6 r d p 6 2 2 8 6 6 7 a x t.XXkX}./ r - # O . . O - 2 7 e 7 7 e e r e e e r a s s d r 6 2 6 6 2 1 1 2 6 6 7 e e a M U y.}.+XFXlXK.d 2 $ + O .       . O - r s s s s a a s a a r r r e e e r e r r r a r e e p p 7 2 1 1 2 8 6 7 7 e r a s s s s s s s s a r e 7 2 ",
"; ; ; ; 1 2 6 e a s s s a r 7 6 2 2 6 6 2 2 6 9 7 7 2 1 1 6 a c x x b z x x x f 9 - + + + $ % % $ $ $ $ $ % % % % % % % % - - % % % $ $ + $ % : ; ; - , = + . . . .     . + $ 1 z i.*XNXaXiXe.m s r 7 6 6 6 6 6 6 e s c c e 1 - - - - - - - ; ; ; ; ; ; ; , % + O . O + $ 2 L ).xXkXs.P x a 7 2 2 2 2 2 4 > = O O + % 7 ` >X2Xu.z 7 1 - - $ + O + - s K.gXO.a 2 - $ + % 2 v #XQ.f 1 % ; r =.5XS 6 7 #.^.M r I 5XG z ' #XW A.y.p.S.2.(.).}.Q.~ z a r e e r r r r e e e e e e e e e e e e e e e e r r r e e e r r e e r r e e r r d r r a s I N.r.).s.`.a.H.A.n } =.x m 4X$.s I E. .e 7 f eX#.6 % % 2 F ~.&.e - % ; 7 n L.5Xv 1 $ $ : ; 2 e M #X*XF 6 % + $ 1 e y 9 6 6 e r M A.SX-X^ 6 $ + O + % 3 2 2 6 r d p 6 2 2 8 6 6 7 a x t.XXkX{.( r - # O . . O - 2 7 e 7 7 e r r e e e r a s s s r 6 2 6 6 2 1 1 2 6 6 7 e e a M U y.}.+XFXlXK.d 2 $ + O .       . O - p s s s s a a s a a r r r p e e p e e e r r e e 7 e 7 7 2 2 2 2 8 6 7 7 e r a s s s s s s s s a r e 7 2 ",
"- - - ; ; 1 6 e a s s s s r e 6 6 2 6 6 2 2 6 6 t 6 2 2 1 6 d c x x z z x x c f 9 - + + & $ % $ $ $ $ $ $ % % % % % % - - - - - % % $ $ + $ % : ; ; ; > = + . . . .     . O $ 1 z i.&XNXaXOXe.m s r 7 6 6 6 6 6 6 r s c c e 1 - - - ; - - - ; ; ; ; ; ; ; , % + O . O + $ 2 L ).kXpXs.P x a 6 2 2 2 2 2 3 > = O O + % 7 ` >X1Xu.c 7 1 ; - % + O + - c E.hXO.a 2 - $ + % 2 C ;XQ.d 1 - ; r =.5XS 6 7 #.W.v r I 6XG z ' #XW G.r.y.u.2.).(.}.I.! a e 6 6 6 6 6 6 6 6 6 6 6 6 6 6 6 6 2 2 2 2 2 2 2 6 6 6 6 6 6 6 6 2 2 2 2 2 2 2 6 6 6 6 7 a n P.2.).a.v.a.S.y.n ] =.x m -.} s I ~. .e 7 V eXo.6 % % 2 F ~.&.e - % 1 7 M E.5Xv 1 $ $ - ; 2 e B #X&XG 6 % + $ 1 e r 7 6 7 e r M S.1X;X! 6 % + O O % 3 2 2 6 r d e 2 2 2 2 6 6 7 a x t.XXxX*X( e - & O . . O - 6 p e e e e r e e e r r s z z s r 7 2 6 6 2 2 1 1 2 6 7 7 e a x U p.}.XXJX>XB.f 1 $ + . . o     . O , e a s s s s s s a d r r r p e e u e 7 7 7 7 7 7 7 7 6 6 6 6 2 2 6 6 7 7 e r a s s s z s s s s a r e 7 6 ",
"- - - ; ; 1 2 7 a a s s a r 7 6 2 2 6 6 6 6 6 9 t 6 2 2 1 6 d c x x z z x x c f 9 - + + & $ % $ % $ $ % % % % % % % - - - - - - % % $ $ + $ % - ; ; ; > * + . . . .     . O $ 1 z i.*XNXsXOXe.m s r 7 6 6 6 6 6 6 r s c f e 1 - - ; ; ; - ; ; ; ; ; ; ; ; , % + O . O + $ 2 L ).kXiXs.P x a 6 2 1 1 1 1 1 ; & O O + % 7 ` >X1Xu.x 7 1 ; - % + O + - c E.hXO.a 2 - $ + % 2 C ;XQ.d 1 - ; r =.5XS 6 7 #./.v a I 6XG z ' #XW G.r.y.u.2.`.(.}.Q.! a 6 2 1 1 1 1 1 1 1 1 1 1 1 1 1 1 1 1 1 1 1 1 1 1 1 1 1 1 1 1 1 1 1 1 1 1 1 1 1 1 2 2 1 2 e x L.2.).a.v.a.S.y.n ] =.x m -.} s I E. .e 7 V eXo.6 % % 2 F ~.&.e - % 1 7 n E.5Xv 1 $ $ : ; 2 e B #X&XG 6 % + $ 1 e r 7 6 7 e r M S.1X;X! 6 % + O O % 3 2 2 6 r d e 6 2 2 2 6 6 7 a x t. XkX X/ e - # O . . O - 6 p e e e e r e e e r r s z z s r 7 2 7 6 2 2 1 1 2 6 7 7 e a x U p.}.OXJX>XB.f 1 $ + . . o o   . O , p a s a a a a a a a r r r e e 7 7 7 7 7 7 7 7 7 7 7 7 6 6 6 6 6 6 6 7 7 e r a s s s z s s s s a d e 7 6 ",
"- - - ; ; 1 2 7 a a s a a e 7 6 2 2 6 6 6 6 6 9 t 6 2 2 1 6 d c x x z z z x c f 9 - + $ & % % % % % % % % % % - - - - - - - - - % % $ $ $ $ : - ; ; ; > % + . . . .     . O $ 1 z t.*XNXsXOXe.m s r 7 6 6 6 6 6 6 r s s f e 1 - - - - - - - ; ; ; 1 ; ; ; - % + O O O # $ 2 L ).pXiXs.P x a 6 2 1 1 1 1 1 ; $ O + + % 7 ` >X1Xu.c 7 1 ; - % + O + - c E.=XO.a 2 - % + % 2 C $XQ.d 1 - ; r =.5XS 6 7 #./.v a I 6XG z ' #XW G.r.y.u.2.`.'.@X{.~ a 6 1 ; ; 1 1 ; ; ; ; ; ; ; ; ; ; ; ; ; ; ; ; ; ; ; ; ; ; ; ; ; ; ; ; ; ; ; ; ; ; 1 ; - ; 7 c L.2.v.a.v.s.S.y.n ] =.n m -.} s I E. .e 7 V eXo.6 % % 2 F ~.&.e - % 1 e n E.5Xv 1 $ $ - ; 2 e M #X&XG 6 % + $ 5 e r 7 6 6 e r M G.1X$X! 6 % + O O & 3 2 2 6 r a e 6 2 2 2 6 6 7 a x y.}.kX}.( e - # O . . O - 6 p e e e e r e e e r r a z z s r 7 6 7 6 2 2 1 2 2 6 7 7 e a x U p.}.+XJX>XB.d 1 % + . . o o   . O - u g a a a r r r r r r e e 7 7 7 7 7 7 7 6 7 7 7 7 7 7 6 6 6 6 6 6 6 7 7 e r a s s s z s s s s a d e 6 6 ",
"- - - > ; 1 2 7 a a a a a e 7 6 2 2 6 6 2 2 8 6 9 6 2 2 1 6 d c x x s s z z x f 9 - + $ & % % % % % % % % % - - - - - - - - - % % = $ $ $ % : - ; ; ; > % + . . . .     . O $ 1 z i.*XNXsXOXe.m s e 7 6 6 6 6 6 6 r s s f e 1 - - - - - - - ; ; ; 1 ; ; > - % + O O O + $ 2 L v.pXiXs.U x a 6 1 1 1 1 1 1 - $ O + + % 7 ` >X2Xu.x 7 1 ; - % + O + - f E.=XO.a 2 - % + % 2 C $XQ.d 1 - ; r =.5XS 6 7 #./.v a I 6X} z ' #XW I.r.y.u.2.'.'.@X}./ a 6 ; ; ; ; ; ; ; ; ; ; ; ; ; ; ; ; ; ; ; ; ; ; ; ; ; ; ; ; ; ; ; ; ; ; ; ; ; ; ; ; ; , - 6 s L.2.v.a.v.s.S.n.n ] =.n m -.} s I E. .e 7 V eXo.6 % % 2 F ~.&.e ; % 1 e n E.6Xv 1 $ $ - ; 2 e M #X&XG 6 % + $ 5 e r 7 6 6 e r M G.1X$X! 6 % + O O & 3 2 2 6 r a e 6 2 2 2 6 6 7 a x y.}.pX{.( e - + . . . O - 6 r e e e e r e e e r r a z z s r 7 6 7 6 6 2 1 2 6 6 7 7 e a x U p.}.,XJXjXB.f 1 $ + O . o     . O - u r r r r r e e e e e e 7 7 7 7 e 7 7 7 7 7 7 7 7 7 7 7 7 7 7 7 6 6 7 7 e r a s s s z s s s s s r e 6 6 ",
"% % % - ; ; 2 7 a a s a r e 7 6 2 2 6 6 2 2 6 6 7 6 2 2 1 6 d c x z s s z z z f 9 % + + & $ % % % % % % % - - - - - - - - - - % % = $ $ + $ : - ; ; ; > % + . . . .     . O $ 1 z i.*XNXsXOXe.m s e 7 6 6 6 6 6 6 r s s s e ; - ; ; - - - - ; ; ; 1 ; ; ; - % + O . O + $ 2 L ).pXiXs.P x a 6 1 1 1 1 1 1 ; & O + + % 7 ` >X2Xi.c 7 1 ; - % + O + - c E.=XO.a 2 - % + $ 2 C #XQ.d 1 - ; r =.5XS 6 7 #.W.v r I CX} z ' &X2.I.r.u.u.2.'.'.@X}.~ a 2 ; ; ; ; ; ; ; ; ; ; ; ; ; ; ; ; ; ; ; ; ; ; ; ; ; ; ; ; ; ; ; ; ; ; ; ; ; ; ; ; - % - 6 s L.2.v.a.).s.S.t.n +.=.n m -.} s I E. .e 7 V eXo.6 % % 2 F ~.&.r ; % 1 e M E.6Xv 1 $ $ - ; 2 e B #X&XF 6 % + $ 5 e y 7 6 7 e a M G.1X#X! 2 $ + O O & 3 2 2 6 r a e 6 2 2 6 6 6 7 a x t.}.+X{.^ e % + . . . O - 6 e r e e e r e e e e r a z z s e 6 6 6 6 2 2 1 2 6 7 7 7 e a x U p.}.,XJXlXB.f 1 % + O . o     . O % 0 e 7 7 7 e e e e 7 7 7 e 7 7 7 e e e e e e e e e e e e 7 7 7 7 6 6 7 7 e r a s s s z s s s s s d e 7 6 ",
"% % % % - ; 2 7 r a s a a r 7 6 2 2 6 6 2 2 6 6 7 6 2 2 1 6 d c z z s s s z z d 6 % + + & $ % % % % % % - - - - - - - - - - - % % $ $ $ $ % : - 1 1 1 > % + . . . .     . O $ 1 z i.*XNXsXOXe.m a e 6 6 6 6 6 2 6 r a s f e ; - - ; - - - - ; ; ; ; ; ; - - % + O . O # = 6 Y [.pXiXs.P x a 6 2 1 1 1 1 1 ; = O + + - 7 ` >X2Xy.c 7 1 ; - % + O + - c E.hXO.a 2 - % + % 2 C #XQ.d 1 - ; r =.5XS 6 7 #.W.v r I CX} z ' &XW I.r.u.u.2.'.'.@X.X/ a 2 ; ; ; ; ; ; ; ; ; ; ; ; ; ; ; ; - ; - ; ; ; - ; ; ; - ; - ; - ; ; ; ; ; - ; ; ; ; - - 6 s L.2.(.a.).p.S.m.m +.=.n m -.} s I ~. .e 7 V eXo.6 % % 2 F ~.&.r ; % 1 e M E.6Xv 1 $ $ - ; 2 e B #X&XG 6 % + $ 5 e y 7 6 7 e a M G.zX#XS 2 $ + O O & 3 2 2 6 r a e 6 2 2 6 6 6 7 a x y.XXkX&X} e - # . . . O - 6 r e e e e e e e e e r a z z a e 6 6 7 6 6 2 1 2 6 7 7 7 e a x I y.}.,XJX>XB.d 1 % + O . o     . O % 2 6 6 6 7 7 7 7 e 7 e e e e e e e r r r r r e e e e e e e e e 7 6 6 7 7 e r a s s s z s s s s s a e 7 6 ",
"% % % % - ; 2 7 r a s a a r 7 6 2 2 6 6 2 2 8 6 7 6 2 1 1 6 d x z z s a s z z d 8 % + + & $ % % % % % % - - - - - - - - - - % % % $ $ + $ % : ; 1 1 1 ; % + . . . .   . . + $ 1 z i.*XNXaXOX_ m a e 6 6 6 6 6 2 6 e d s f e ; - - - - - - - - ; ; ; ; ; - - $ + O . O # & 6 U [.kXpXZ.P x a 7 2 1 1 1 1 1 : = O + + - 7 ` >X2Xy.z 7 1 ; - % + O + - c E.=XO.a 2 - $ + % 2 C ;XQ.f 1 - ; r =.5XS 6 7 @.W.v a I 6X} z ' &X2.I.r.u.i.W `.'.@X.X/ r 2 ; - ; ; ; ; ; ; - ; - ; - ; - ; - ; - ; - ; - ; - - - - - - - - - ; - ; - ; ; 1 ; - ; 6 s E.2.(.a.(.p.S.m.m +.=.x m -.} s I ~. .e 7 V eXo.6 % % 2 F ~.&.r ; % 1 e M 7X6Xv 1 $ $ : ; 2 e B #X&XG 6 % + $ 1 e y 7 6 6 e a M G.zX#XS 2 $ + O O & 3 2 2 6 r d e 2 2 2 2 6 6 7 a x m.>XcXlX$.r - # . . . O - 6 r e e e e e e e e r r a s z a e 6 2 7 9 6 2 1 2 6 7 7 7 e a x I y.}.,XJX>XB.d 1 $ + O . o   . . . $ 1 6 6 6 7 7 7 7 7 e e e e p p e r r r r r r r r r r r r e e e e 7 6 7 7 e r a s s s z s s s s s d e 7 6 ",
", : - - - ; 2 7 r a s s a r 7 6 2 2 6 6 2 2 6 6 7 6 2 2 1 6 d x x z s s s z x d 8 % + + = % % - % % % - - - - - - - - - - - % % % = $ $ $ % : ; 1 1 ; ; % + . . . .   . . + $ 1 z i.*XcXsXOXW n a e 6 6 6 2 2 2 6 e d s f e ; - - - - % % - - - - ; ; - - % $ + O O O # $ 2 L ).kXpXZ.P x a 7 2 1 1 1 1 1 : & O + + - e ` >X2Xt.c 7 1 ; , % + O + ; c E.=X[ a 2 - $ + % 2 C ;XQ.j 1 - ; r =.5XS 6 7 @.W.v a I CX} z ' #X2.].r.u.N.W `.`.@X}.^ r 2 ; - ; ; ; ; ; - - - - - - - - - - - - - - - - - - - - - - - - - - - - - - - ; ; ; ; ; 6 c E.2.(.a.(.p.H.m.m +.=.x m E.} z I ~. .e 7 V ^.o.6 % % 2 F ~.&.r ; % 1 e N 7X6Xv ; $ $ : ; 2 e B #X&XG 6 % + $ 1 e r 7 6 6 e a N G.1XQ.S 2 $ + O O & 1 2 2 6 r d e 6 2 2 2 6 6 7 a x y.>XcXjX] e % + . . . O - 6 p e e e e e e e e r r a s s a e 6 2 6 6 8 2 2 2 6 7 7 7 e r z I u.`.,XJX>XM.d 1 $ + O .       . . $ 1 6 6 7 7 7 7 7 7 e e e e e e e r r r r r r r r r r r r e e e e 7 6 7 7 e r a s s z z z s s s a d r 7 6 ",
"; ; ; ; ; 1 6 e a s s s a r 7 6 2 2 6 6 2 2 6 6 7 6 2 1 1 6 r c x z s s s z z g q % + + $ % % - % - - - - - - - - - - - - - - % % = % $ $ % : ; ; ; ; , = O .   .       . + $ 2 x i.*XcXsXOXe.m a e 7 6 6 2 2 2 6 r s f d 7 ; % % % % % % % % % - - - - % % $ O . . O + $ 2 I ).kXjXA.P x a 7 2 2 2 2 2 1 ; & O O + % 7 ) <X<Xn.c 6 ; - % $ O O + ; c W.-X[ d 2 ; $ + $ 1 D 9XQ.d 1 % ; r =.5XN 6 7 #.^.v r ~ 5XG z t.$X2.G.p.p.u._ _.(.@X}.S e 1 ; - - ; ; ; - % % % % - % % % % % % % % % % % % % % % % % % % % % % % % % % - - ; ; 1 7 c L.2.(.a.(.p.(.y.n $.*.x N E.X.z I 4XJ e 7 C ^.o.6 % % 2 S ~.$.e ; % 1 e N 6X6Xc ; $ $ : ; 6 e N -X-XG 6 % + $ 4 t y 7 2 6 e a B I.1XQ.S 2 $ + O O % 1 1 2 6 r d e 6 2 2 6 6 6 7 a n m.XX+X|.( e ; + O . . O ; 6 e e e e r r r e e e r s s s s e 6 2 2 2 8 2 2 2 6 6 e e e r s n y.XX,XzXjX@.d 1 $ O O .         . $ 4 7 7 7 e e e e e e e e r r r r r r r r r r d r r r r e e e e 7 7 6 6 7 7 e r a s s z z z s s a d r 7 6 ",
"1 1 ; ; ; 1 6 e a s s s a r 7 2 2 6 6 2 2 2 2 6 e 7 2 1 1 6 r c x z s s s z z g q % + + $ % % - % % - - - - - - - - - - - - - - % % % $ $ % : ; ; ; ; , $ O     .       . + $ 2 x i.*XcXpXOXe.m a 7 7 6 8 2 2 2 6 r s f d 7 ; % % $ $ $ $ % % % % % % % % & + . . . O + $ 2 I ).lXjXA.L x a 7 6 2 2 2 2 1 ; * + + + % 7 ) 2X>Xn.f 8 ; % = + O O + ; c P.%X[ d 2 ; $ + $ 1 Z 9XQ.j ; % - r =.5XN 6 7 #.^.C r / 5XG z t.$X2.G.p.p.u.e._.(.@X}.S 7 2 1 ; ; ; ; - - - % - % % % % % % % % % % % % % % % % % % % % % % % % % % % % % - - ; 2 7 c L.2.).p.(.p.(.p.n $.*.x N E.X.z I 4XJ e e v !.o.2 % % 2 S 5X%.e ; % 1 e m 6X6Xc ; $ $ : ; 6 e N -X-XG 6 % + $ 4 e y 9 6 6 e a B S.1XQ.S 1 $ O O + % 1 1 2 6 r d e 6 2 2 6 6 6 7 a M Z.@XoX|.( e - + O . . O ; q 7 e e e r r r e e e r s s s d e 6 2 2 2 8 6 2 2 2 6 e e e r a M t.XX,XzXjX@.d 1 $ O O .       . . $ 4 7 7 7 e e e e e e e r r r r r r r r r r r a a r r r e e e e 7 7 6 6 7 7 e r a s s z z z s a a d r 7 2 ",
"1 1 ; ; ; 1 6 r a s s s a r 7 2 6 6 6 6 2 2 2 6 e 7 2 1 1 6 r c x z s s s z z g q % + + $ % % - % % % % % % % - - - - - - - - - % % % $ $ % - ; ; ; ; , = O .   .       . + $ 2 x i.*XcXpXOX_ n a e 7 6 8 2 2 2 6 r s f d 7 ; - % $ $ $ $ % % % % % % % % & + . . . O + $ 2 I ).jXjXA.L x d 7 6 2 2 2 2 2 ; & O + + - 7 { <X<Xn.f 6 ; - = + O O + ; c P.%X[ d 2 : $ + $ 1 D 9XQ.j ; % - r =.5XN 6 7 #.^.C r ~ 5XG z t.$X2._.p.p.u._ _.(.@X}.S 7 2 1 ; ; ; ; - - - - - - - - - - - - - - - - - - - - - - - - - - - - - - - - - - - - ; 2 7 c E.2.).p.(.p.(.p.n $.*.x N E.X.z I 4XJ e e v !.o.6 % % 2 S 5X%.e ; % 1 e N 6X6Xc ; $ $ : ; 2 e N -X-XG 6 % + % 4 e y 9 6 6 e a N S.1XQ.S 1 $ O O + % 1 2 2 6 r d e 6 2 2 6 6 6 7 a M Z.@X+X|.( e - + O . . O ; 6 p e e e r r r r e e r a s s d e 6 2 2 2 6 6 2 2 6 7 e e e r a M t.XX,XzXlX@.d 1 $ O O .         . $ 4 7 7 7 e e e e e e e r r r r r r r r r r a a r r r r e e e e 7 7 6 6 7 7 e r a s s z z z s a a d r 7 2 ",
"1 1 ; ; 1 1 6 r a s s s a r 7 2 6 6 6 6 2 2 2 6 e 7 2 2 1 6 r c x z s s s z z g 0 % + + $ * % - % % % % % % % % % % - - - - - % % % % $ $ % - ; 1 ; ; > % + .   .       . + $ 2 x i.*XcXpXOX_ n a 7 7 7 8 2 2 2 6 r s f d 7 ; - % $ $ $ = % % - - - : - % = $ O . . O + $ 2 L ).jXjXA.L x a 7 6 2 2 2 2 1 ; & O O + - 7 ' 1XzXV.V 6 ; - % $ O O + ; c P.%X[ d 2 : % + $ 1 D 9XQ.j ; % - r =.5XN 6 7 #.^.C r ~ 5XG z t.$X2._.p.p.u._ _.(.@X}.S e 2 1 ; ; ; - - - ; ; ; ; ; ; ; ; ; ; ; - ; ; - - - - - - - - - ; ; ; ; ; ; ; ; ; - - ; 2 7 x L.2.).a.(.p.(.p.n $.*.x N E.X.z I 4XJ e e v !.o.2 % % 2 ^ CX&.e ; % 1 e N 6X6Xc ; $ $ : ; 2 e N -X-XF 6 % + % 4 e y 9 6 6 e a N S.1XQ.S 1 $ O O + % 1 2 2 6 r a e 6 2 2 6 6 6 7 a M m.@XpX|.( 7 - O O . . O ; q p e e e r r r r e e r a s s d e 2 2 2 2 6 6 2 2 6 7 e e e r a x t.XX,XzXlX@.d 1 $ O O .       . . $ 4 7 7 e e e e e e e e r r r r r r r r r r r r r r r r e e e e 7 7 6 6 7 7 e r a s z z z z s a a d r 7 2 ",
"1 1 1 ; 1 1 6 r a s z s a r 7 2 6 6 6 6 2 2 2 6 e 7 2 2 1 6 r c x x s s z z c g 0 % + + $ = % % % % % % % % % % % % % % - - - % % % % $ $ % - ; 1 1 ; ; % + . . .       . + $ 2 x u.*XcXpX X_ n a 7 7 6 8 2 2 2 6 r s f d 7 ; - % % % % % * - - - - - : - * & O . . O + $ 2 L v.OXjXA.L x a e 6 2 2 2 1 1 > = O O + % 7 { <XlXC.V 9 1 ; - $ O O $ ; c P.%X[ r 1 ; % + % 1 D 9XW.d ; % - r =.6XN 6 7 M.^.C r ! 4XG s _ #X2._.p.p.u._ _.(.@X}.S 7 2 ; ; - ; - : : ; ; ; ; ; ; ; - - - - - - - - - - - - - - - - - - - ; ; ; ; ; ; , - 1 2 7 c E.2.).a.).p.(.y.n $.$.z m E.X.z I 4XJ e e v &Xo.2 % % 2 ^ CX&.e ; % 1 e N 6X6Xv ; $ $ - ; 2 e N -X-XF 6 % + % 4 e y 9 6 6 e a N U.1XQ.S 1 $ O O + % 5 2 2 6 r d e 6 2 6 6 6 6 7 a M m.@XpX|.( 7 : + O . . + ; q p e e e r r r e e e r a s s d e 2 2 2 2 6 6 2 2 6 7 e e e r a x t.:X,XzXjX@.d ; $ O O .       . . $ 4 7 7 7 e e e e e e e r r r r r r r r r r r r r r r r e e e e 7 7 6 6 6 7 e r a s s z z z s a s d r 7 2 ",
"1 1 ; ; 1 1 6 r a s z s a r 7 2 2 2 2 2 2 2 2 6 e 7 2 2 1 6 r c x x s s z z c g 0 % + + + = $ % % $ $ % % % % % % % % % % % % % % % % $ $ % - ; ; ; ; ; % + . . .       . + $ 2 x u.*XcXpX X_ n a 7 7 6 8 2 2 2 7 r s c d 7 ; - % $ $ $ = % - - - - - : - * $ O . . O + $ 2 L v.OXjXA.P x a 7 2 1 1 1 1 1 > & O O + % 7 ) :X>Xn.V 7 1 ; - $ + O $ ; c P.%X' r 1 ; $ + % 1 b ;XP.d ; % - r =.6XN 6 7 #.^.C r ! 4XG s _ #X2._.p.Z.u.W _.(.@X}.S 7 2 ; ; - , , : : , - - - - - - - , , , , - - , - - - - - - - - - - - - - , , > > , - ; 2 7 c E.2.).a.).p.(.y.n $.$.x m E.X.z I 4XJ e e v &Xo.2 % % 2 S 5X%.e ; % 1 e N 6X6Xv ; $ $ - ; 2 e N -X-XF 6 % + % 4 e r 9 6 6 e a N S.1XQ.A 1 $ O O + % 5 2 2 6 r d e 6 6 6 6 6 6 e a M m.XXpX X^ 7 : + O . . O ; 6 p e e e r r r e e e r a s s d e 2 1 2 8 6 6 2 2 6 7 e e e r a x t.$X,XzXjX@.d ; $ O O .       . . $ 6 7 7 7 e e e e e e e r r r r r r r r r r r r r r r r e e e 7 7 7 6 6 6 7 e r a s s z z z s a s d r 7 2 ",
"1 1 ; ; ; 1 6 r a s z s a r 7 2 2 2 2 2 2 2 2 6 e 7 2 1 1 6 r c x x s s z z c g 0 $ + O + = $ % $ $ $ $ % % % % % % % % % % % % % % % $ $ % : - ; ; ; > % + . . .       . + $ 2 x u.>XcXpX X_ n a 7 7 6 8 2 2 2 7 r z c d 7 ; - % $ $ $ % % - - - ; ; - : * $ O . . O # $ 2 L v.jXjXu.P x a 7 2 1 1 1 1 1 ; & O O + - 7 ) :X>Xn.V 7 1 ; - $ O O $ ; c P.%X[ r 1 ; $ + $ 1 b ;XP.d ; % - r =.6XN 6 7 M.^.C r ! E.D s _ #X2._.p.Z.y._ _.(.@X}.S 7 2 ; - - - % % % % % * * * * * * * * * * * * = = = = = = * * * * * * * * * * : : % - ; 1 7 c E.2.(.a.(.p.(.y.n $.$.x m E.X.z I 4XJ e e v !.o.2 % % 2 S 5X%.e ; % 1 e N 6X6Xv ; $ $ : 1 2 e N -X-XS 6 % + $ 5 e r 9 6 6 e a B S.0XQ.A 1 + O O + % 5 2 2 6 r a e 6 2 6 6 7 6 7 a M m.XXpX X^ 7 - + O . . O ; q p e e e r r r e e e r a s s d e 2 2 2 2 6 6 2 2 6 7 e e e e a x t.$X,XzXlX@.d ; $ O O .       . . $ 6 7 7 e e e e e e e e r r r r r r r r r r r r r r r r e e e 7 7 7 6 7 7 7 e r s s s z z z s a a d r 7 2 ",
"1 1 ; ; ; 1 6 e a s z s a r 7 2 2 2 2 2 2 1 2 6 7 7 2 1 1 6 r c x x s s s z c g 0 $ O O + = $ % $ $ $ $ % % % % % % % % % % % % % = $ + + $ * - ; ; ; , = O .   .       . + $ 2 x u.>XcXpX X_ n a 7 7 6 8 2 2 2 7 a z c d 7 ; - % $ $ % % % - - ; ; ; ; - - $ O . . O + $ 2 L v.,XjXu.P x a 7 2 1 1 1 1 1 ; & O O + - 7 { <X<Xn.V 7 1 ; - % O O $ ; c P.%X[ r 1 - $ + $ 1 b ;XP.d ; % - r -.6XN 6 7 M.^.C r ! E.H s _ #X2._.p.Z.y._ _.(.@X}.S 7 1 ; - % % $ $ + + + + + $ + $ + $ $ $ + + + + + $ $ $ $ $ $ $ $ $ $ $ $ $ $ $ % % % - 1 7 c E.2.(.a.(.p.(.y.n $.$.z m E.X.z I 4XJ e e v !.o.2 % % 2 S ~.$.e ; % 1 e N 6X6Xv ; $ $ : 1 2 e N -X-XF 6 % + $ 5 e r 9 6 6 e a B S.0XQ.A 1 + O O + % 5 2 2 6 r a e 6 6 6 6 7 6 e a M m.XXpX&X^ 7 - + O . . + ; 6 e e e e r r r e e e r a s s d e 2 2 2 2 6 6 2 2 6 7 e e e r a x t.$X,XzXlX@.d ; $ O O .       . . $ 6 7 7 7 e e e e e e e r r r r r r r r r r r r r r r r e e e 7 7 7 6 7 7 7 e r s s z z z z s a a d r 7 2 ",
"1 1 ; ; ; 1 6 r a s s s a r 7 2 6 2 6 2 2 1 2 6 7 7 2 1 1 6 r c x x z s z s s d 6 $ O O + + $ $ $ $ $ $ $ $ $ % % % % % % % % % % $ + + + $ = % - - - % $ O .   .       . + $ 2 x u.*XcXpXOX_ n r 7 7 6 2 2 2 2 7 d c c f 7 1 - % $ $ % % % - - ; ; ; ; , - % + . . O + $ 2 L ).kXjXp.L n a 7 2 1 1 1 ; ; - & O O + % 7 [ <X>Xn.V 7 1 ; - $ O O + ; c W.%X' r 1 - $ + $ 1 b ;XP.d 1 % ; r =.6XS 6 7 @.^.C r ! E.D z _ _.2.G.r.A.e.e._.(.@X}.A 7 1 ; - $ $ $ $ + + + + + + + + + + + + + + + + + + + + + + + + + + + $ $ $ $ $ $ $ $ - 1 7 c L.W (.a.(.s.(.y.x $.$.z m E.X.z I 4XJ 7 e v !.o.2 % % 2 S ~.%.e - % 1 e N 6X6Xv ; + $ - ; 2 e N 8X=XG 6 % + % 5 t r 9 6 7 e a B S.<XQ.A 1 + O O + % 5 2 2 7 r d e 6 6 6 6 6 6 7 a M Z.XXpX{.! 7 - + . . . + ; 6 e e e e r r r r e e r a s s d e 2 1 2 8 6 6 2 2 6 7 7 e e r a M y.:X,XzX>Xo.y ; $ + O O     . . . $ 4 7 7 7 7 7 e e e e r r r r r r r e r r r r r r r r e e e e e 7 7 6 7 7 7 e a s s z z z z s s a a r 6 2 ",
"1 1 ; ; ; 1 6 r a s z s a r 7 2 6 2 6 2 2 1 2 6 e 7 2 1 1 6 r c x x s s z s s d 8 $ . . O + $ $ $ $ $ $ $ $ $ $ $ $ % % % % % % $ $ + + + + $ % % % % % + O     .       . + $ 2 x u.*XcXpXOX_ n r 7 7 6 2 2 2 2 7 a c c f 7 1 - % $ $ % % - - ; ; ; ; ; - , % + . . O + $ 2 L ).kXjXp.L n a 7 6 1 1 1 1 1 ; & O O + % 7 [ <X>Xn.V 7 1 ; - $ O O + ; c W.%X[ r 1 - $ + $ 1 Z ;XP.d 1 % ; r =.6XS 6 7 @.^.C r ! E.D z _ _.2.G.r.A.e.W _.(.@X}.A 7 1 ; - $ $ $ + + + $ $ $ $ $ $ $ $ $ $ $ $ $ $ $ $ $ $ $ $ $ $ $ $ $ $ $ % % % % $ $ - 1 7 c L.2.(.a.).s.(.y.x %.$.z m E.X.z I 4XJ 7 e v !.o.2 $ % 2 S ~.&.e - % 1 e I 6X6Xv ; $ $ : ; 6 e S GXgXF 6 % + % 5 y r 9 6 7 e a B S.1XQ.A 1 + O O + % 1 2 2 7 r d e 6 6 6 6 6 6 7 a M m.XXpX{.S 7 - + O . . + ; 6 e e e e r r r r e e r a s s d e 2 1 2 8 6 6 2 2 6 7 e e e r a n y.:X,XSX>Xo.y ; $ O O O     . . . $ 4 7 7 7 7 7 e e e e r r r r r r r r r r r r r r r r e e e e 7 7 7 6 7 7 7 e r s s z z z z s s s d r 6 2 ",
"1 1 ; ; ; 1 6 r a s z s a r 7 2 6 2 2 2 2 1 2 6 7 7 2 1 1 6 r c x x s s s s s d 4 $ . . O O + $ $ $ $ $ $ $ $ $ $ $ $ $ $ $ $ $ $ $ $ + + + $ $ % $ $ $ + .     .       . + $ 2 x u.*XNXpX X_ n r 7 7 6 2 2 2 2 7 a s c g 7 1 - % $ $ % - - - ; 1 1 1 ; > - % + O . O + $ 2 L v.kXlXu.P n a 7 6 2 1 2 2 1 ; & O + $ % 7 [ <X>Xn.V 7 1 ; - $ + O + ; c W.%X' r 1 ; $ + $ 2 D 9XI.d 1 % ; r =.6XN 6 7 @.^.C r ! E.H z _ _.2.G.r.A.e.W _.(.@X}.A 7 1 ; - $ $ $ # + $ % % % % % % % % % : % % % % % % % % % % % % % - - : : : : : % % % - 1 7 c L.2.(.a.(.p.(.y.x %.$.z m E.X.z I 4XJ 7 e M !.o.2 $ % 2 S ~.*.e - % 2 e I 9X5Xv ; $ $ > ; 6 e G GXAXF 6 % + % 5 y r 9 6 7 e a B ].0XQ.A 1 + O O + % 1 2 2 6 r d e 6 6 6 6 7 6 7 a M m.}.pX{.S 7 % + O . . + ; 6 e e e e r r r r e e r a s s d e 2 1 2 6 6 6 6 6 6 7 e e e r a n y.XX,XSXlXo.y ; $ O O O     . . . $ 4 7 7 7 7 7 e e e e r r r r r r r r r r r r r r r r e e e e 7 7 7 7 7 7 7 e a s z z z z z s s s d r 6 2 ",
"1 1 ; ; 1 1 6 r a s z s a r 7 2 6 2 2 2 2 1 2 6 e 7 2 1 1 6 r c x z s s s s s d 4 $ . . O O + $ $ $ $ $ $ $ $ $ $ $ $ $ $ $ $ $ $ $ $ $ $ + $ $ % % % $ + .     .       . + $ 2 x u.>XNXpX XW n r 7 7 6 2 2 2 2 7 a c c f 7 1 - % $ $ % - - ; ; 1 1 1 ; ; - % + O . O + $ 2 P v.kXkXp.P n a 7 6 2 2 2 2 2 1 * O + $ % 7 [ <X>Xn.V 9 1 - - $ O O + ; c W.%X' r 1 ; $ + $ 2 D 9XW.d 1 % ; r =.6XS 6 7 @.^.C r ! 4XH z _ #X2.G.r.A.e.W G.(.@X}.A 7 1 ; % $ $ & # # % % % % % % % % - : : : - - : : : : : : : : : : - : : - - - - : = % - 1 7 c L.2.(.a.(.s.(.y.x %.$.z m E.X.z I 4XJ 7 e M !.o.2 $ % 2 S 5X*.e - % 1 e I 6X6Xc ; $ $ > ; 6 e B GX-XF 6 % + % 4 y r 9 6 7 e a I ].SXQ.A 1 + O O + % 1 2 2 6 r d e 6 6 6 7 7 6 e a n m.}.pX{.G 7 % + O . . + ; 7 e e e e r r r r e e r a s s d e 2 1 2 6 6 6 2 6 6 7 e r r r s N p.XX,XFXlXo.y ; $ O O O     . . . $ 4 7 7 7 e e e e e e r r r r r r r r r r r r r r r e e e e e 7 7 7 7 7 7 7 e a s z z z z z z s s a r 6 2 ",
"1 1 ; ; 1 1 6 r a s z s a r 7 2 6 2 2 2 2 1 2 6 e 7 2 1 1 6 r c x z s g s s s y 4 $ . O + + + $ $ $ $ $ $ $ $ $ % % $ $ % % % % % % % % & $ $ % % % % = $ O     .       . + $ 2 x u.>XNXsX XW n r 7 7 6 6 6 2 2 7 a c c f e 1 - % $ $ % - - ; ; 1 1 1 1 ; - % + O . O + $ 2 P v.kXkXu.P n s e 6 2 8 6 6 2 1 * + + $ % 7 [ <X>Xn.f 6 ; - = + O O + ; c P.%X' r 1 ; $ + $ 1 D 9XW.d 1 % - r =.6XS 6 7 @.^.C r ! 4XH z _ ].2.G.r.S.e.W G.(.@X}.A 7 1 ; % $ + # # # $ % % % % % % % % : : : : : : : : : - - - : : : - : : - - - - : = % - 1 7 c E.2.(.v.).p.(.y.n %.$.z m E.X.z I 4XJ 7 e M !.o.2 $ % 2 S 5X*.e - % 1 e I 6X7Xc ; + $ > ; 6 e N 8X&XF 6 % + % 5 y y 9 6 7 e a ! [.SXI.A 1 $ O O + % 1 2 2 7 r d r 6 6 6 6 7 6 e s n m.}.pX{.S 7 % + O . . + ; 7 p e e e r r r r e r r a s s d e 2 2 2 6 6 6 6 6 6 7 r r r a z I Z.@X,XFXlXo.y ; $ + O .     . . . % 4 7 7 e e e e e e e e r r r r r e e r r r r r r r e e e e e 7 7 7 7 7 7 e e a s s z z z z z s a d r 6 2 ",
"1 1 1 ; 1 1 6 r a s z s a r 7 6 6 2 2 2 2 1 2 6 e 7 2 1 2 6 r c x z s g s s s y 4 $ O # # + $ $ $ $ $ $ $ $ % % % % % % % % % % - - - % % % % % - - - % $ O     .       . + $ 2 x u.>XNXsX XW n r 7 7 6 8 6 2 2 7 d c c f e 1 - % $ % % - - ; 1 1 2 1 1 ; ; % + O . O + $ 6 P v.zXkXp.P M s e 7 8 8 6 6 2 1 * + + $ - 7 [ <X>Xn.f 6 ; % % + O O + ; c U.%X' r 1 - $ + $ 2 D 9XI.d 1 % - r =.6XS 6 7 @.^.C r ~ 5XG z _ ].2.G.r.A.e.W G.(.@X}.A 7 1 - % $ + # # + $ $ $ $ $ $ % % % % % % % % % % % % % % % % % % % % % % : : % % $ $ - 1 7 c E.2.(.v.).p.(.y.n %.$.z m E.X.z I 4XJ 7 e M !.o.2 $ % 2 S ~.*.e - % 1 e I 7XL.x ; + $ : ; 6 e S GX-XS 6 % + % 5 t y 9 6 7 e a ! [.SXI.A 1 + O O + % 1 2 2 7 d a r 6 6 6 6 7 7 e s n m.}.kX{.S 7 % + O . . + ; 7 p e e e r r r r e e r a s s d e 2 2 2 6 6 6 6 6 6 7 r r r a x I H.@X,XFXlXo.y ; $ + O .     . . . $ 4 7 7 e e e e e e e r r r r r r e e r r r r r r r e e e e e e 7 7 7 7 7 e e a s s z z z z z s a d r 6 2 ",
"1 1 1 ; 1 1 6 r a s z s a r 7 6 6 2 2 2 2 1 2 6 e 7 2 1 2 6 r c x z s g s s s y 4 $ . O # + $ $ % % % % % % % % % % % % % % % - - ; - - : % : - ; - - % $ O .   .       . + $ 2 x u.<XNXsX XW n r 7 7 6 6 6 2 2 7 a c c f e 1 - % $ % % - - ; 1 1 2 1 1 3 ; % + O O O + $ 6 P v.zXkXp.P M s e 7 6 6 7 6 6 1 % + + $ - 7 [ <X>XO.f 6 ; % % + . O + ; c U.%X' r 1 - $ + $ 1 Z ;XP.d 1 % - r =.6XS 6 7 @.^.C r ~ 5XG z _ #X2.G.r.A.e.W G.(.@X}.A 7 1 - % $ + + O O + + + + + + + + + $ $ $ + $ $ $ + + + + + $ $ $ $ $ $ $ $ $ $ $ $ $ - 1 7 c E.2.(.v.).p.(.y.x %.$.z m E.X.z I 4XJ 7 e M !.o.2 $ % 2 S ~.&.e - % 1 e I 7XE.x ; $ $ : ; 6 e S GX-XS 6 % + $ 5 t y 9 6 7 e a ! ].0XI.A 1 + O O + % 1 2 6 7 d s r 7 6 6 9 7 7 e s n m. XkX{.S 7 % + O . . + ; 7 p e e e r r r r e e r a s s d e 2 2 2 2 6 6 6 6 7 e r a a s x U H.@X,XFXlXo.y ; $ + O O     . . . % 4 7 7 e e e e e e e r r r r r r r e r r r r r r r e e e e e 7 7 7 9 7 7 e e a s s z z z z z s a a r 6 2 ",
"1 1 1 ; ; 1 6 r a s z s a r 7 6 2 2 2 2 2 1 2 6 e 7 2 2 2 6 r c x z s s s s s d 4 $ . O + + $ % % % % % % % % % % % % % % % % % - ; - - : : - ; ; ; - - $ + . .         . O % 2 x u.lXJXsX XW n r 7 7 6 6 2 2 2 7 a s c g 7 ; - % $ $ % - - ; ; 1 1 1 1 > , % + O . O + $ 6 P ).zXlXu.P M s e 7 6 6 7 6 2 1 % + + $ - 7 [ <X$X' f 6 ; - = + O O + ; x U.%X' r 1 - $ + $ 1 b ;XP.y 1 % - r =.6XS 6 7 @.!.v r ~ 5XG z _ #X2.G.r.S._ W G.(.@X{.A 7 1 ; % $ + + O O O O O O + + O + O O + + + + + + + O + + + + + + + + + + + + + + $ $ % ; 7 c E.2.).v.).p.(.y.x %.$.z N E.X.z I 4XJ 7 e M !.o.2 $ % 2 S ~.&.e - % 1 r I 7XE.x ; $ $ > ; 6 r N -X#XA 6 % + $ 4 t y 9 6 7 e a I ].SXI.A 1 + O O + : 1 2 2 7 d s r 6 6 6 9 6 7 e a n m.}.pX{.S 7 % + O . . + ; q p e e e r r r r r r r s s s d e 2 2 2 2 6 6 2 6 6 e r a a s x U H.@X1XFX<Xo.y ; $ + O .     . . . % 8 7 7 e e e e e e e r r r r r r r r r r r r r r r e e e e e 7 7 7 7 7 7 7 e a s s z z z z z s a a e 6 2 ",
"1 1 ; ; ; 1 6 r a s z s a r 7 2 2 6 6 6 2 2 2 6 e 7 6 2 1 6 d f x z s s s s s d 6 % . O $ % % % % % % % % % % % % % % % % % % % - - - - : : - - ; ; - , $ + . .       . . O % 6 x u.<XJXsXOXW n r 7 7 6 6 2 2 2 7 d c c d 6 - % % % $ % % % - - - - - - : * $ + . . O # % 6 U ].zXlXp.P m z e 6 6 6 6 8 8 3 % + + $ % 7 @.0X%Xt.c 7 1 - % $ O O + ; z E.8X' r 1 - $ + $ 1 D ;XF.y ; $ - r =.6XS 6 7 M.Q.c r ~ 5XD z t.}.2.S.r.S._ W _.(.@X{.A 6 2 ; % $ + O + # + + + + + + + + O O O O O O O O O O + O O O O O O O + + + + + + $ $ % ; 7 c E.R ).a.`.s.).t.n %.%.z N E.} z I E.J 7 e A ^.o.2 $ % 2 S ~.*.e - % 1 e N 6X6Xc ; + + , ; 6 a ! 8X/.V 2 % $ % 5 t r 6 6 7 r s U #XlXI.x 1 + O O + : 2 2 2 7 d f r 6 7 9 6 2 7 e a n Z.XXpX{.S 7 % + O O . + 1 7 e r r r r r r r r a a s s a d e 2 2 2 2 6 6 2 2 6 e r s a s x U (.@XzXJX*X` t - $ O . .     . . O % 6 7 7 e e e e e e e e e r r r e r r r r e r r e e e e e e e 7 7 e 7 7 7 e r r s s z z z z z s s d e 6 2 ",
"1 1 ; ; ; 1 6 r a s z s a r 7 6 6 6 6 6 2 2 6 6 e 7 6 2 1 6 y f x z z z s s z d 6 % . O $ % % % % % % % % % % % - - - % % % % % % % - - : : - - ; ; - - $ + . .     . . . O % 6 n u.-XJXsXOXW x r 7 7 6 6 2 2 2 7 a f f d 6 - % % $ $ $ $ % % % % - - - % = $ O . . O + % 6 U ].SX<Xp.P L z 7 6 2 2 8 8 8 3 $ O O $ % 7 @.0X%Xe.c 7 1 ; % $ O O + ; z U.8X' r 1 - $ + $ 1 Z ;XF.y ; $ - r =.6XN 6 e C.Q.x e ) 5XD s t.}.2.S.r.S.W E _.(.@X{.C 6 2 ; - $ + O # + + + + + + + + + + + + + + + + + + + + + + + O O + + + + + + + + $ $ % ; e c E.R ).a.`.s._.t.n %.%.z N E.} z L L.J 7 e A ^.o.2 $ % 2 S ~.*.e - % 1 e N 6X6Xs ; + $ : ; 6 a U 8X/.Z 1 - $ % 5 r r 6 6 7 r s U &XlXI.x ; + O O $ ; 2 2 2 7 d f p 6 7 9 2 2 7 e a n Z.XXpX{.S 6 % + O O O + 1 7 e r r r r r r r d a a s s a r 7 2 2 2 2 6 2 2 2 6 e r s a s x U D.XXzXJX%X` p - $ O . . .     . O % 6 7 7 e e e e e e e e e r r r r r r r r e r e e e e e e e e 7 e e 7 7 7 e r r s s z z z z z s s d e 6 2 ",
"1 1 ; ; ; 1 6 r a s z z s r 7 6 6 6 6 6 2 2 6 7 e 7 6 2 1 6 y f x z z s s s c d 6 % . O $ % % % % % % % % % % % - - % % % % % % % % % % : : - - ; - - - $ O . .     . . . O % 6 n u.-XJXsXOXW x r 7 7 6 6 2 2 2 7 a s f d 6 - % % $ $ $ $ $ % % % - - % % = + O . . O $ % 7 U ].SX<XZ.P m z 7 2 2 2 8 8 4 > & O O + % 7 [ 0X%Xe.c 7 1 - % $ O O + ; x U.8X' r 1 - $ + $ 1 Z ;XF.y ; % - r =.6XN 6 e M.Q.x e ~ 5XH s t.}.2.S.r.s.W E _.(.@X{.C 6 2 ; - $ + O # + $ $ + + + + + + + + + + + + + + + + + + + + + + + + + + + $ $ $ $ $ % ; e c E.R ).a.`.s._.t.n %.%.z N K.} z I 7XJ 7 e A ^.o.2 $ % 2 S ~.*.e - % 1 e N 6X6Xc ; + $ : ; 6 a U 8X/.Z 1 % $ % 5 r r 7 6 7 r s U &XlXI.x ; + O O + - 2 2 2 7 d f e 6 6 9 2 2 7 e a M Z.XXpX{.S 6 % + O O . + 1 7 e r r r r r e r a a a s s a r 7 2 2 2 2 6 2 2 2 6 e r s a s x I D.XXzXHX$X` e - $ O . .       . O % 6 7 7 e e e e e e e e r r r r r r r r r r r e e e e e e e e e e e 7 7 7 e r r s s z z z z z s s d e 6 2 ",
"1 1 ; ; ; 1 6 r a z z z s r e 6 6 6 6 6 2 2 6 7 e 7 6 2 1 6 d f c z z s s s c d 6 % . O $ % % % % % % % % % % % - - % % % % % % % % % % % - : - - - - - $ O . .     . . . O % 6 n u.-XJXsXOXW x r 7 7 6 6 2 2 2 7 r s s y 6 - % % % $ $ $ % % % % - - % % % $ O . . O $ % 7 U ].SX<XZ.P m z 7 2 2 2 2 4 4 > % + O + % 7 [ 1X3Xe.c 7 1 - % $ O O + ; x U.8X' r 1 - $ + $ 1 Z ;XP.y ; % - e $.5XN 6 e M.Q.x e ~ 5XH s t.}.2.).r.S.W E _.(.@X{.C 6 2 ; - $ + O # $ $ $ $ $ $ $ $ $ $ $ + + + + + + $ $ + + + + + + $ $ $ $ $ $ $ $ $ % % ; e c E.R ).a.`.s._.t.n %.%.z N K.} z L 4XJ 7 7 A ^.o.2 $ % 2 S ~.*.e - % 1 e N 9X6Xc ; + $ : ; 6 a ~ GX6XZ 1 % $ % 5 p r 6 6 7 r s U &XlXP.x ; + O O + - 2 2 2 7 d f p 6 6 9 2 2 7 e a M Z.XXpX{.S 6 % + O O . + 1 7 e r r r r r e r r a a s s a r 7 2 2 2 2 6 2 2 2 6 e r s a s x U D.XXzXHX$X` e - $ O . .       . O % 6 7 7 e e e e e e e e r r r r r r r r r r r r e e e e e e e e e e 7 7 7 e r r s s z z z z z s s d e 6 2 ",
"1 1 1 ; ; 1 6 r a z z z s a e 6 6 6 6 6 2 2 6 7 e 7 6 2 1 6 d c x z z s s s c f 8 % . O $ % % % $ $ % % % % % % - - % % % % % % % % % % % % : - - - - % $ O .       . . . O % 6 n u.-XNXuXOXW x r 7 7 6 6 2 2 2 7 r s s y 6 - % % % % % % % % % - - - - % = $ O O . + & % 7 U ].SXlXm.P m z 6 1 2 2 2 2 4 > & + O + % 7 [ 1X3Xe.c 7 1 - - & O O + ; x U.9X` r 1 - $ + $ 1 Z ;XF.y ; % - e $.5XN 6 7 n.Q.c r ~ /.D s t.}.2.).s.S.W E _.v.@X{.C 6 2 ; - $ + O # $ & $ $ $ $ $ $ $ & & & & & & $ $ = = & & % & % % $ $ $ $ % % % % $ % % ; e c E.R S.a.`.s._.t.n %.%.z N K.} z L 5XJ 7 7 A ^.o.2 $ % 2 ! ~.*.e - % 1 e N 9X6Xc ; + $ : ; 6 a ( GX9XZ 1 % $ % 5 t r 6 2 7 r z U &XzXP.c ; + O O + - 2 6 2 7 s s p 2 6 9 2 2 7 e a n Z.XXpX{.S 6 % O . O . + 1 7 e r r r r r e e r a a s s a a e 6 2 2 2 6 2 2 2 6 e r s a s x U D.XXzXHX$X` e - $ + . .       . O % 6 7 7 e e e e e e e e e e e e r r r r r r r r r e e e e e e 7 e e 7 7 7 e r a s s z z z z s s a d e 6 2 ",
"1 1 1 1 ; 1 7 r a z z z s d e 6 6 2 6 2 2 2 6 7 e 7 6 2 1 6 d c x z z s s s c g 8 % O O $ % % $ $ $ % % % % % % - - % % % % % % % % % % % % % - - - - = $ O .       . . . O % 6 n u.-XNXuXOXE x r 7 7 6 6 6 2 2 7 r s s y 6 - % % % % % % % % - - - - - : * $ + O . + & % 7 U ].SXlXm.P m s 6 1 1 1 1 1 1 ; $ O O + % 7 [ 1X3Xe.c 7 1 - - & @ O + ; x /.9X` r 1 - $ + $ 1 Z ;XF.y ; % - e $.6XN 6 7 n.Q.c r ~ E.D s t.}.2.).s.S.W W _.v.@X{.C 6 2 ; - $ + + # $ & % % % % % % % % % % % % % & & & & % % % % % % % % % % % % * * $ % % ; e c E.R S.a.`.s._.t.n %.%.z N K.} z I 5XJ 7 e A ^.o.2 $ % 2 ! ~.*.e - % 1 e N 9X6Xc ; + $ > ; 6 a { DX9XZ 1 - $ % 5 t r 6 2 7 r z U &XzXP.c ; + O O + - 2 6 2 7 d s e 2 6 6 2 2 7 e a n Z.XXpX{.A 6 % O . O . + 1 q e r r r r r e e r a a s s a a e 6 2 2 2 6 2 2 2 6 e r s a s x U D.XXzXHX$X` e - $ + . .       . O % 6 7 7 e e e e e e e e e e e e r r r r r r r r r e e e e e e 7 e e e 7 7 e r a s s z z z z s s a a e 6 2 ",
"1 1 1 1 1 1 7 r s z z z s d e 6 2 2 6 2 2 2 6 6 e 7 2 2 1 6 d f x z z s s s c d 8 % O O $ % % $ % % % % % % % % - - % % % % % % % % % % % % - - - - % = $ O .       . . . O % 6 n u.-XcXuX XE x r 7 7 6 6 6 2 2 7 a s s d 7 ; - % % % % % % - - - - - - : * $ + O O + & % 7 U ].SXGXm.P m s 6 1 1 1 1 1 1 - $ O O + % 7 @.1X3Xe.c 7 1 ; - $ O O + ; c /.qX{ r 1 - $ + $ 1 Z ;XF.y > % ; r $.6XN 6 7 n.Q.c r U L.D s t.}.2.).s.S.W W _.v.@X{.C 6 2 ; - $ + O # $ & & & $ % % % % $ $ $ $ $ $ $ $ $ $ $ $ $ $ $ % % % % % % % % % % % % ; e c E.R S.a.`.s._.t.n %.$.z N K.} z I 5XJ 7 e A ^.o.1 $ % 2 ! ~.*.e - % 1 e N 6X6Xz ; + $ > ; 6 a ( GX9XZ 2 % $ $ 5 t r 6 2 7 r z U &XzXI.x ; + . O + ; 2 6 2 7 d s e 2 6 6 2 2 7 e a n H.XXkX{.A 6 % O O O . + 1 q e e r r e e e r r a a s s a d e 6 2 2 2 6 2 2 2 6 e r s a s x U D.@XzXHX$X` t - $ O . .       . O % 6 7 7 e e e e e e e e e e e r r r r r r e r r r e e e e e e 7 e e e 7 7 e r a s s z z z z z s a a e 6 2 ",
"1 1 1 1 1 1 7 r s z z z s d e 6 2 2 6 2 2 2 6 6 e 7 2 2 1 6 d f x z z s a s s d 9 % O O $ % % $ % $ % % % % % % - % % % % % % % % % % % % % % - - % % = + O         . . . O % 6 n u.-XcXuX XE x r 7 7 6 6 6 2 2 7 a s f d 7 ; - % % % % % % - - - - - - : * % + O O + & % 7 U ].SXGXm.P m s 6 1 1 1 1 1 1 - $ O O + % e @.1X3Xe.c 7 1 ; - $ O O + ; x /.qX{ r 1 - $ + $ 1 Z ;XF.y > % ; r $.6XN 6 7 n.Q.c r U E.D s t.}.2.).s.S.W W _.v.@X{.C 6 2 ; - $ + O # $ & $ $ $ $ & & & $ $ $ $ $ $ $ $ $ $ $ $ & & % % $ $ $ $ $ $ $ $ % % % ; e c E.R S.a.`.s._.t.n %.$.z N E.} z I 5XJ 7 e A ^.o.1 $ % 2 ! ~.*.e - % 1 e N 6X6Xs ; + $ > ; 6 a ~ GX^.Z 2 % $ $ 5 e r 6 2 7 r z U &XzXI.x ; O . O + : 2 6 2 7 s s 7 2 6 6 2 2 7 r a n H.XXkX{.A 6 % O O O . + 1 7 e e r e e e e e r a a s s a d e 6 2 2 2 6 2 2 2 6 e r s a s x U D.@XzXHX$X` t - $ O . .       . O % 6 7 7 7 e e e e e e e e r r r r r r r r e r e e e e e e e e 7 e e e 7 7 e r a s s z z z z z s a a e 6 2 ",
"1 1 ; 1 1 2 7 r s z z z s a e 6 2 2 6 2 2 2 6 7 e 7 2 2 1 6 r f x z z s s s s d 8 % O O $ % % $ % % % % % % % % - - % % % % % % % % $ $ % % % - - - % = + .         . . . O % 6 n A.-XcXuX XE x r 7 7 6 6 6 2 6 7 d c s d 7 ; - - % % % % - - - - ; ; - , - % + O O + & % 7 U ].SX-Xm.U n s 6 1 1 1 1 2 3 : $ O + $ % e @.1X3Xe.z 6 ; - % $ O O + ; x U.;X{ r 1 - $ + $ 1 D =XV.y ; $ - r $.6XS 6 e C./.c e ~ /.D s t.}.2.).s.s.W W _.v.@X{.v 6 2 ; - $ + O + + + + + $ $ + + + + + + $ + + + + + + + + + $ $ $ $ $ $ $ $ $ $ & $ $ % 1 7 D J.R ).a.`.a._._ n %.%.z N =.( z U 6XD e 7 H !.o.1 $ % 2 ^ CX;.e - % 1 e N 6X6Xs ; + $ : ; 6 a ] 8X/.c 2 % $ % 5 e r 6 6 7 r z { *XlXP.z ; + O O + : 2 6 2 7 d s 7 2 6 6 6 6 6 e s n Z.@XkX{.A 6 % O . O . + 1 7 e e e e e e e e r a s s s a r e 6 2 2 2 6 6 2 2 6 e r a a z x ~ _.XXSXFX-X/ e - $ O . . .       O % 6 7 e e e e e e e e e e r r r r r r r r r r e e e e e e e e e e e 7 7 7 e r r s s z z z z z s s d e 6 2 ",
"1 1 ; ; 1 2 7 r a z z z s r e 6 2 2 6 2 2 2 6 7 e 7 2 2 1 6 r f c z z s s s s d 8 % O O $ % % $ $ % % % % % % % - - % % % % % % % % $ $ % % : - - - % = + .         . . . O % 6 n A.-XNXuX XE x r 7 7 6 8 6 2 6 7 d c s d 7 ; - - - % % - % - - ; ; ; ; - : % + O O + & % 7 U ].SX<Xm.U n s 7 1 1 1 2 2 4 ; $ O + $ % e @.<X3Xt.c 7 1 - - $ O O + ; v U.;X{ r 1 - $ + $ 1 D 8XF.y ; % - r $.6XN 6 e M.Q.c e ~ /.D s t.}.2._.s.s.W W _.v.@X{.v 6 2 ; - $ + O + + + + + + + + + + + + + + + + + + + + + + + + + $ $ $ $ + + + + $ $ $ % 1 7 A J.R ).a.`.a._._ n %.%.z N =.( z U 5XD e 7 H !.o.1 $ % 2 ^ 5X*.e - % 1 e N 6X6Xs ; + $ : ; 6 a { 8X/.c 2 % $ % 5 e r 6 6 7 r z { *XlXP.z ; + O O + : 2 6 2 7 d s 7 2 6 6 6 6 7 e s n Z.@XkX{.A 6 % O . O . + 1 7 e e e e e e e e r a a s s a r e 6 2 2 2 6 6 2 2 6 e r a a z x ~ _.XXSXDX-X/ e - $ O . . .       O % 6 7 e e e e e e e e e e r r r r r r r r r r e e e e e e e e e e e 7 7 7 e r r s s z z z z z s s d e 6 2 ",
"1 1 ; ; ; 1 6 r a s z z s r 7 6 2 2 6 2 2 2 2 6 e 7 2 2 1 6 r f x z z s s s z d 8 % O O $ % % $ $ $ % % % % % % - - % - % % % % % $ $ $ % % : - - - % = + O         . . . O % 6 n A.lXNXuXOXE x r 7 7 6 8 6 2 6 7 d c s d 7 ; - - - - - - - - - ; ; ; ; - , % + O . + & % 7 U ].SX<Xm.P m s 7 2 2 2 2 2 4 ; $ O + $ - e M.1X:Xt.c 7 1 ; - $ O O + ; v U.;X{ r 1 - $ + $ 1 D 9XP.y > % - r $.6XN 6 e M.Q.x e ~ /.D s t.}.2.].s.S.W E _.v.@X{.v 6 2 ; - $ + O + + O O + O + + O O + + + + + + + + O O O + + + + + + + + + + + + + $ $ % 1 7 D J.R ).a.`.a._._ n %.%.z N -.( z U 5XD e 7 H !.o.2 $ % 2 S ~.*.e - % 1 e N 9X6Xs ; + $ : ; 6 a { 9XW.c 1 % $ % 5 e r 6 6 7 r z { *XlXP.z ; + O O + : 2 6 2 7 d s 7 2 6 6 2 2 6 e s n Z.XXkX{.A 6 % O . . . + 1 6 e e e e e e e e r a a s s a r e 6 2 2 2 6 6 2 2 6 e r a a z x ~ _.XXzXSX$X/ e - $ O . . .       O % 8 7 e e e e e e e e e e r r e e r r r r r r r r e e e e e e 7 e e 7 7 7 e r r s s z z z z z s s d e 6 2 ",
"1 ; ; ; ; 1 6 r a s z z a r 7 2 2 2 6 2 2 2 2 6 e 7 2 2 1 6 r f x z z s s s z d 8 % O O $ % % $ $ $ % % % % % % - - % % % % % % % $ $ $ % % : - - - % = $ O         . . . O % 6 n A.lXNXuXOXW x r 7 7 6 8 6 2 6 7 d c c d 7 ; - - - - - - - - ; ; ; ; ; ; , % + O . + & % 7 U ].SX<Xm.U m s 7 2 2 2 2 2 4 3 % + + $ - e M.1X:Xe.c 7 1 ; - $ O O + ; v U.;X{ r 1 - $ + $ 1 J 9XP.y > % - r $.6XN 6 7 M.Q.x e ~ 5XD s t.}.2.].s.S.W E _.v.@X{.v 6 2 ; - $ + O + + O O O O O O O O + + + + + + + + O O O + + + + + $ + + + + + + + $ $ % 1 7 D J.R S.a.`.a._._ n %.%.z N -.( z U 5XD e 7 H W.o.2 $ % 2 S ~.%.e - % 1 e N 9X6Xs ; + $ : 1 6 s { -XP.c 1 % $ % 5 e y 6 6 7 r z { *XjXN.z ; + O O + : 8 6 6 7 d s 7 2 6 6 2 2 7 e s n H.XXkXT.A 6 % O . . . + 1 6 e e e e e e e e r a a s s a r e 6 2 2 2 6 6 2 2 6 e r a a z x ~ _.XX1XSX$X~ e - $ + . . .       O % 8 7 7 7 e e e e e e e e e e e e r r r r r r r r e e e e e e e e e 7 7 7 e r r s s z z z z z s s d e 6 2 ",
"1 ; ; ; ; 1 6 r a s z s a r 7 2 2 6 6 6 2 2 6 6 e 7 2 2 1 6 r c x z z s s s c d 8 % O O $ % % $ % % % % % % % % - - % % % % % $ % % % % % % : - - - % = $ O .       . . . O % 6 n N.lXNXuXOXW x r 7 7 6 8 6 2 6 7 d c c d 7 1 - - : - - - - - ; ; ; ; ; ; , % + O . O $ % 7 U ].SX<XZ.T m s 7 2 2 6 6 8 8 3 % + + $ - e M.<XXXe.c 7 1 - - $ O O + ; v U.;X{ r 1 - $ + $ 1 J 9XP.y ; % - e $.6XN 6 e M.Q.c e ~ 7XC s t.}.r.].s.S.E E _.v.@X_.v 6 2 ; - $ + O + + O O O O + + + + + + + + + + + + O O O + + + $ $ $ $ $ $ + + + + $ $ % 1 7 D J.R S.a.`.a._._ n %.%.z N K.( z U 5XD e 7 H !.o.1 $ % 2 S ~.%.e - % 1 e N 9X6Xs ; + $ - 1 6 s { -XP.c 2 % $ % 5 e y 6 6 7 r z { *XjXN.s ; + O O + : 8 6 6 7 d s 7 2 6 8 2 2 7 r s n A.:XkXT.A 6 % O . . . + 1 6 7 e e e e e 7 e r a a s s a r e 6 2 2 2 6 6 2 2 6 e r a a z x ~ _.XX1XSX$X~ 7 - $ O . . .       O % 8 7 7 e e e e e e e e e r r r e r r r r e r r r e e e e e e 7 e e 7 7 7 e r a s s z z z z z s s d e 6 2 ",
"1 ; ; ; ; 1 6 r a s s s a r 7 2 2 2 6 2 2 2 6 6 e 7 2 2 1 6 r c x z z s s s z d 8 % O O $ % % $ % % % % % % % % % - % % % % $ $ % % % % % % - - - - - = $ O .       . . . O % 6 n N.lXJXuXOXW x r 7 7 6 8 6 2 6 7 d x c d 7 1 - - - - - - - - ; ; 1 ; ; ; > % + O . O $ % 7 U ].SX-XZ.T m z 7 2 6 6 6 6 8 1 % + + $ - e M.1XXX_ c 6 1 - % $ O O + ; v U.;X) r 1 - $ + $ 1 J 9XP.y ; $ - e $.6XN 6 7 M.Q.c e ~ 5XC s t.}.2.].a.S.E E _.v.@X_.v 6 2 ; - $ + O + + + O + + + + + + + + + + + + $ + O O + + $ $ $ $ $ & & = & + + + $ $ % 1 7 D J.R S.a.`.a._._ n *.%.z N K.( z U 5XD e 7 H W.o.1 $ % 2 S ~.%.e - % 1 e N 9X6Xs ; + $ - 1 7 s ] 9XW.c 1 % $ % 5 e y 6 6 7 r z { *XjXN.s ; + O O + : 8 6 6 7 d g 7 2 6 8 2 2 7 r s N G.,XkXT.M 6 % O . . . + 1 6 7 e e e e 7 7 e r a a s s a r e 6 2 2 2 6 6 2 2 6 e r a a z x ~ _.XX1XSX$X~ 7 - $ O . . .       O % 6 7 e e 7 e e e e e e e r r e e r r r r e r r r e e e e e e 7 e e e 7 7 e r a s s z z z z z s s d e 6 2 ",
"; ; - ; ; 1 6 r a s s s a e 7 2 2 6 6 6 2 2 6 7 e 7 2 2 2 6 r c z z z s s s s d 8 % O O $ % % $ % % % % % % % % % % % % % % $ $ % % % % % % : - - - - % $ O .       . . . O % 6 n N.lXJXuXOXW x r 7 7 6 8 6 6 6 7 d x c f 7 1 - - - - - - - ; ; ; 1 1 ; > > % + O . O + % 6 U ].SX<Xp.T m z 7 2 6 6 6 6 8 1 % + + $ - e M.lX:X_ c 6 1 - % $ O O + ; v U.;X) r 1 - $ + $ 1 D =XV.y ; % - r =.6XN 6 7 n.Q.c r ~ 5XC s t.}.r.].a.S.E E _.v.@X_.c 6 2 ; - $ + O + + + + + + + + + + + + + + + $ $ $ O O + + & & % % % % % = = $ + + $ $ % 1 7 D J.R a.a.`.a._._ n *.%.z N K.} z U 5XD 7 7 H W.o.1 $ % 2 S ~.*.e - % ; e N 9X6Xs ; + $ : 1 7 s ] 8X/.f 1 % $ % 5 e y 6 6 7 r z { &XjXN.s ; + O O + : 8 6 6 7 d s 7 2 6 8 8 6 7 e s N G.,XkXT.M 6 % O . . . + 1 6 7 e e e e 7 7 e r r a s s a r e 6 2 2 2 6 6 2 2 6 e r a a z x ~ _.XX1X0X#X~ 7 - $ O . . .       O % 6 7 e e 7 7 e e e e e e r r r e r r r r e r e e e e e e e e 7 e e 7 7 7 e r a s z z z z z z s s d e 6 2 ",
"; - - - - ; 6 e a s s a r r 7 6 2 6 6 6 2 2 6 7 e 7 2 2 2 6 r c z z z s s s s d 8 % O O $ $ $ $ $ % % % % % % % % % % % % % $ $ % % % % % % % - - - - % $ O .       . . . O % 6 n N.lXNXuXOXW x r 7 7 6 8 6 6 6 e d x c g 7 1 - - - - - - - ; ; ; ; ; ; > , % + . . O + % 7 U ].SX-Xu.P m z e 6 6 6 6 6 8 1 $ O + $ - y M.lX$X_ f 6 ; - - $ O O + ; v U.%X) e 1 : $ + $ 1 D =XV.y ; $ - e =.6XS 6 7 n./.c r ~ 5Xv s t.}.r.].a.).E E G.a.@XG.c 6 2 ; - $ + O + + + + + + + + + + + + + + + $ $ $ O O + $ & % % % % % % % & $ + + $ $ % 1 7 D J.R a.v.`.a._.E n *.%.z N E.} z I 5XD 7 7 H W.o.1 $ % 2 F 5X*.e - % 1 e I 9X6Xs ; + $ - ; 7 s ] 0X/.f 1 % $ % 4 e y 6 6 7 r z { *XjXM.s ; + O O $ ; 2 6 2 7 d s 7 2 6 8 2 6 7 r s N G.,XkXT.M 6 % O . . . + 1 6 7 e r e e 7 7 e r r a s s a r e 6 2 2 2 6 2 2 6 7 e r a a s x ~ _.XX,XzX#X~ 7 - $ O . .       . O % 6 7 e e e e e e e e e e r r r r r r r r e r e e e e e e e e 7 e e 7 7 7 e r a s z z z z z z s s d e 6 2 ",
"% % % % % - 1 7 r s s s a e 7 2 2 2 6 2 2 2 6 7 7 7 2 1 1 2 r s z z s a s s s d 8 $ O O + $ $ $ $ $ $ $ $ $ $ $ $ $ % $ $ $ $ $ $ $ $ $ + $ & $ % % % % + .         . . . + % 6 n A.<XJXsXOXE x r 7 6 6 6 6 2 2 7 d c c d 7 ; - - - - - - - - ; ; ; ; ; , - % + . . O & % 7 U ].0X%Xu.P m z e 2 2 2 6 8 4 > $ O O $ - y C.1X$X` d 2 1 ; - $ O O + ; M /.%X) e ; : $ + $ 2 D 9XV.y ; $ - e *.6X! 6 e M.^.c e ~ /.v s ' #Xe.].a.).E ) _.a.@XT.c 6 2 ; - $ + + + + + + + + + + + + + + + + $ $ $ + O O O + $ % % % % % % % & $ + + + $ - 1 7 D J.T ).v.`.a.S.E n *.X.z n E.G s ) 5XK 7 7 G ~./ 1 $ % 2 S ~.&.e - $ ; e ~ 9X5Xs ; $ $ - ; 6 s @.SXQ.f ; $ $ - 6 e r 7 6 6 e z [ >X>XM.a - + . O $ : 2 2 2 7 d s 7 2 2 8 2 2 7 r s N S.XXkXT.H 6 $ O . . . + 3 q 7 r r r e e 7 e e r a s s s r 7 2 2 2 2 2 2 2 6 7 e r a r s n ~ {.@X,X1X{./ 7 % $ O .       . . O - 6 7 7 7 e e e e e e e e e r r r r r r r r r e r e e e e e e 7 7 9 7 7 e e r a s z z z z z z z s d e 6 2 ",
"% % % % - ; 2 7 a s s s a r 7 6 2 2 6 2 2 2 6 7 e 7 2 2 1 6 r f z z s s s z c g 8 $ O . O + + $ $ $ $ $ $ $ $ $ $ $ $ $ $ $ $ $ $ $ $ + + # $ $ % % % $ + .     o   . . O + - 6 n A.<XJXsXOXE x r 7 6 6 8 6 2 2 7 a s s d 6 ; - - : : - % - - - - ; ; - - * $ O . . O & % 7 U ].0X%Xi.P m z 7 2 1 1 2 8 4 > $ O O $ ; y C.1X#X` d 2 ; ; - $ O O + ; M /.%X) e ; : $ + $ 1 D 9XV.y - $ % e *.6X! 6 e M.^.j e ) ~.M s ' #Xe.#Xv.).E ) G.a.@XT.c 6 1 ; - $ + + + + + + + + + + + + + + + + $ $ $ + + O O + $ % % % % % % % % $ + + + $ - 1 7 D =.T ).v.`.a.G.E n =.X.z n E.G s ) 5XZ 7 7 G ~./ 2 $ % 6 S ~.&.r - $ ; e ~ 9X7Xs ; $ $ - ; 6 s @.SXQ.d ; $ $ - 6 r a 7 6 6 7 z i.>XjXK.a - + . O $ : 2 2 2 7 s s 7 2 2 8 2 2 7 r s N S.:X,XT.A 6 $ O . . . + 3 6 7 r a a r e 7 7 e r a s s s r 7 2 2 2 2 2 2 6 6 e r r r r s n E {.@XkXlX}./ 7 % $ O .       . . O - 6 7 7 7 e e e e e e e e e r r r r r r r r r e r e e e e e e e 7 7 7 7 e e r a s z z z z z z z s d e 6 2 ",
"- % % - - ; 2 7 a s z z s r e 6 2 2 6 6 2 2 6 7 p 7 6 2 2 6 r c x x s s z z x f 0 $ O . O + + $ $ % % $ $ $ $ $ $ $ $ $ $ $ $ $ $ % $ + + + $ $ % % % $ + .   o o   . . O + - 6 N A.<XJXsXOXE x r 7 6 6 8 6 2 2 7 r s s d 6 ; - : : - - % - - - - - - - : * $ O . . O & % 7 U ].GX8Xi.P m z 7 2 1 1 2 2 2 ; + O O $ ; y C.1X#X` d 2 ; ; - $ O . + ; M I.$X) e ; : $ + $ 1 H 9XV.t - $ % e =.6X! 7 e B.~.f e ) ~.M s ' #Xe.#Xv.`.E ) G.a.@X{.c 6 2 ; - $ + + + + + + + + + + + + + + + + $ % $ $ + O + $ $ % % % - % % % % $ + + + $ - 1 7 D J.T ).v.'.a.G.E n =.X.z n E.G s ) 5XZ 7 7 G ~./ 1 $ % 2 S ~.&.r - $ ; e ~ 9X7Xs ; $ $ - ; 6 s [ zXQ.d ; $ $ - 6 r a 7 6 6 e x i.>XjXK.a - + . O $ : 2 2 2 7 s s 7 2 2 8 2 2 7 r s N S.:XkXT.A 6 $ O . . . + 3 6 7 r r r r e 7 7 e r a s s a r 7 2 2 2 6 2 2 6 6 e r r r r s n ) {.@XkXlX}./ 9 % $ O .       . . O - 6 7 7 7 7 e e e e e e e e r e e r r r r r r e e e e e e e e 7 7 7 7 7 e e r s s z z z z z z z s d e 6 2 ",
"- % % - - ; 2 7 a s z z s r e 6 6 6 6 6 2 2 6 7 p e 6 2 2 6 d c x x z s z z x f q % O O O + + $ % $ % % $ $ % % $ $ $ $ $ $ $ $ % % $ + + + $ $ % % % % + .   o     . . O + - 6 n A.<XNXuX XE x r 7 6 6 8 2 2 2 7 r s s d 6 ; % - : - % % % - - - ; - - - % $ O . . O & % 7 ) ].DX8Xi.P m s 7 2 1 ; 1 2 1 ; + . O + ; d V.1X#X) d 2 ; ; - $ O . + ; M I.%X) e ; - $ + $ 1 H 9XV.t - $ % e =.6X! 7 e B.~.f e ) ^.M s ' #Xe.#Xv.`.E ) G.a.@XT.c 6 2 ; - % + + + + + + + + + + + + + + + $ $ % % $ + + + $ % % % - - - - % % $ $ $ + $ - 1 7 D J.T ).v.'.a.S.E n =.X.z n E.G s ) 5XZ 7 7 G ~./ 1 $ % 6 S ~.&.r - $ ; e ~ 9X7Xa ; + % - ; 6 s [ lXW.d ; $ $ - 6 r a 7 6 6 e x i.>XjXJ.a - + . O $ : 2 2 2 7 d s 7 2 2 8 2 2 7 r s N S.,XzX#XA 6 % O . . . $ 3 6 7 r r r r e 7 7 e r a s s a r 7 2 2 2 2 2 2 6 6 e r r r r s n E {.@XkXlX}./ 9 % $ O         . . O - 6 7 7 7 e e e e e e e e e r e e r r r r r r e e e e e e e e 7 7 7 7 7 e e r s s z z z z z z z s d e 6 2 ",
"- % % - - ; 2 7 a s z z s d e 6 6 6 6 6 6 6 6 7 e e 6 2 2 6 d c x x s s z z x f q % + O + $ $ % % % % $ $ $ % % % % % % % % % % % % $ + + + $ $ % % % $ + .   o     . . O + - 6 N A.<XNXuX XE x r 7 6 6 8 2 2 2 7 a c s d 6 ; - - - % % % % - - - ; - - - % $ O . . O & % 7 ) [.HX8Xi.P m z 7 2 1 ; 1 2 2 ; + . O $ ; d V.zX].) y 2 ; ; - $ O . + ; M I.#X) e ; - $ O $ 2 H 9XV.t - $ % e =.6X! 7 e B.~.V e ) ^.M s ' #Xe.].v.`.E ) G.a.@XT.c 6 1 ; - % + + + + O O O + + + + + + + $ $ % % % $ + + + $ % % % - - - - : % $ $ $ + $ - 1 7 D J.T ).v.'.a.G.E n =.$.z n E.G s ) 5XZ 7 7 G ~.^ 1 $ % 2 S ~.&.r - $ ; e ~ 9XL.a ; + % - ; 6 s [ <XR.d ; $ $ - 6 r d 7 7 6 e x i.>XjXJ.a - + O O $ > 2 2 2 7 s s 7 2 2 8 2 2 7 r z N S.,XzX#XA 6 % O . . O $ 5 q e r r r r e 7 7 e r a s s a r 7 2 2 2 6 2 2 6 6 e e r r r z n ) {.OXzXlX}./ 9 % $ O         . . O - 6 7 7 7 7 7 e e e e e e e e e e r r r r r r r e e e e e e e e 7 7 7 7 7 e r s s z z z z z z z s d e 6 2 ",
"- - - - - ; 2 e a s z z s d e 6 6 6 6 6 6 6 6 7 r e 6 2 2 6 d c x x z s z x x f 9 % + + $ $ $ % % % $ % % % % % % % % % % % % % % % % + + + $ $ % % % % + O   o     . . . O % 6 N A.<XNXuX XE x r 7 6 6 8 2 2 2 7 d c s d 6 ; - - - % % % - - - ; ; ; - - - $ + . . O & % 7 ) [.HX8Xi.P m z 7 2 1 1 2 2 2 ; $ O O $ ; d V.zX].~ d 2 ; ; - $ O . + ; v I.#X) e ; % $ O $ 2 H 8XV.t - + % e =.6X! 7 e M.~.V r ` ^.M s ' #X2.].v.`.E ) G.a.@XT.c 6 1 ; - $ + + + + O O O + + + + + + + $ $ % % % % + + + $ % % % - - - - % % $ $ $ + $ - 1 7 D J.T ).v.'.a.G.E n *.$.s n E.G s ) 5XZ 7 7 G ~.^ 1 $ % 6 S ~.&.r - $ ; e ~ 6XL.a ; + $ - ; 6 s [ <XR.d ; $ $ - 6 r d e 7 6 e x i.>XlX@.r - + O O $ > 2 2 2 7 s s 7 2 2 8 2 2 7 r s N S.,XzXQ.A 6 % O . . O $ 5 q e r r r r e 7 7 e r a s s a r 7 2 2 6 6 2 2 6 6 e e r r r s n ) {.OXzXlX{./ 9 % $ O         . . O - 6 7 7 7 7 7 e e e e e e e r e e r r r r r r r r e e e e e e e e 7 7 7 7 e r s s z z z z z z z s d e 6 2 ",
"; ; - ; ; 1 6 r s z z z s a e 7 6 6 7 6 6 6 6 7 e e 6 2 2 7 d c x x z z z x c f 9 % + + $ $ $ % % % % % % % % % % % : : : : % % % % % $ + $ $ % % % % % + O   o     . . O O % 6 n A.-XNXuX XE x r 7 6 6 8 2 2 2 7 a c s d 7 ; - - - % % - - - ; ; ; ; ; , - $ + . . O & % 7 ) [.HX8Xi.P m z 7 2 2 2 6 6 8 > $ O O $ ; d V.1X}.) d 2 ; ; ; % O O + ; v P.#X) e ; % $ + $ 2 J 8XW.t - + % e $.6XI 7 e M.^.V r ` 6XM s ' #X2.].v.`.E ) G.a.@XT.c 6 1 ; - $ + + + + O O O + + + + + + + $ $ % % : % + + + $ = % % % - % % % % $ $ & + $ - 2 7 D J.T ).v.`.a.G.E n =.} s n 4XG s ) 5XZ 7 7 G ~./ 1 $ % 6 S ~.&.r - $ ; e ~ 6XJ.a ; + $ - ; 6 s [ <XR.d ; $ $ - 6 r d e 7 7 e x i.jXlX@.r - + O O $ > 2 2 2 7 s s 7 2 2 8 2 2 7 r s N A.1XzXQ.C 2 % O . . O $ 5 9 e r r r e e 7 7 e r a s s s r 7 2 2 2 2 2 2 6 6 e r r r r s n ) {.+XzXlX{./ 6 % $ O .       . . O , 6 7 7 7 e e e e e e e e e e r r r r r r r r r r e e e e e e e e 7 7 7 7 e r s s z z z z z z z s d e 6 2 ",
"3 ; ; ; ; 1 7 r s z x z s a e 7 6 6 7 6 6 6 6 7 r e 6 2 2 7 d c x x s s z x x f 9 % + + $ $ $ % % % % % % % % % % % % : : - - - % % % $ + $ $ % - - - % $ O . o     . . O O % 6 n A.-XNXuX XE x r 7 6 6 6 2 2 2 7 r s s d 6 ; - % - % - - - ; ; ; 1 1 ; > - % + . . O + % 7 ) [.HX8Xi.L m z 7 2 2 2 6 6 8 1 $ O O $ ; d V.1X}.) d 2 1 ; ; % O O + ; v P.#X) e ; % $ + $ 2 J 8XW.t - + % e $.6XI 7 e M./.V r ` 9XM s ' #X2.].v.`.U ) G.a.@XT.c 6 1 ; - $ + + + + O O O O + + + + + + $ % % : : % + O + $ = = % % - % % * = $ + + + % - 2 7 D J.T (.v.`.a.G.U n *.G s n 4XG s ) ~.Z 7 7 G ~.^ 1 $ % 6 S ~.&.r - $ ; e ~ 6XJ.a ; + $ - ; 6 s [ <XR.d ; $ $ - 6 r d e 7 7 e x i.jXlX@.r - + O O $ > 2 2 2 7 s s 7 2 2 8 2 2 7 r s N A.1XcXQ.C 2 % O . . . $ 1 9 e r r r r e 7 7 e r a s s s r 7 2 2 2 2 2 2 6 6 e r r r r s n ) }.OXzXzX{./ 6 % + O         . . O , 6 7 7 7 e e e e e e e e e r r r r r r r e r r r e e e e e e e e 7 7 7 7 e r s s z z z z z z z s d e 6 2 ",
"1 1 ; ; 1 1 7 r s z x z c d e 7 6 6 7 7 6 6 6 7 r e 6 6 2 6 d c x x s s z x x f 9 % + + $ % % % % % % % % % - - : : - - - - - - % % % $ + $ % % - - - * & O .       . . O + - 6 n U.<XcXuXOXE z r 7 6 6 8 2 2 2 7 a s s d 7 ; - - % % - - - ; ; 1 1 1 ; > , % + . . O & % 7 ) [.DX8Xi.P m s 7 8 2 2 6 6 8 3 $ O O $ ; d V.zX].~ d 2 ; ; - $ O O + ; A I.#X) e ; : $ + $ 2 H 8XV.y ; $ % e $.6XI 6 e B./.f r ` 6XM s ' _.r._.(.(.P ' G.a.+XT.c 6 2 ; - $ + + + + + O + + O O + + $ + $ % % - : % + + + + $ $ $ $ $ $ $ $ + + + + + $ - 2 e D J.T (.v.`.a.G.P n *.G s n E.G s ) E.c 7 7 G ~.^ 1 $ % 2 S 5X=.r - $ ; e ! 6XK.a ; $ $ - ; 6 s J.zXR.d ; % $ - 6 r d e 7 7 e x u.lXlX@.r - + O O $ 3 2 2 2 7 s s 7 2 6 2 2 2 7 r z N A.,XzXQ.C 6 $ O . X O + 1 7 e r r r e 7 7 7 e r a s s s a 7 2 2 2 2 2 2 6 7 e e r r r s n ) {.OXzX<X{.! 6 % + O         . . O , 6 7 7 e e e e e e e e e e e r e r r r r r r e e e e e e e e 7 7 7 7 7 e r a a s z z z z z z z s d e 6 2 ",
"1 1 1 1 1 2 7 r s z x z s d e 7 6 6 7 7 6 6 6 7 r e 6 6 2 6 d c x x s s z x x f 9 % $ + $ % % % % % % % % % - - : : : : - - - - - % % $ $ $ % % - - - * & O .       . . O + - 6 n U.-XcXuXOXE x r 7 6 6 8 2 2 2 7 a s s d 7 ; - - % % - - ; ; ; 1 1 1 ; > , % + . . O & % 7 ) [.DX8Xi.P m s 7 8 2 2 6 9 8 3 $ O O $ ; d V.zX].~ d 2 1 ; - $ O O + 1 A Q.#X) e ; : $ + $ 2 H 8XV.y ; $ % e $.6XI 6 e B./.c r ` 6XM s ' _.r._.(.(.P ' G.a.+XT.c 6 2 ; - $ + + + + + O + + + + + + $ + $ % % - > % + + + + + + $ $ $ $ $ + + + + + $ % ; 2 e D J.T (.v.`.a.G.P n *.G s n E.G s ) ~.c 7 7 G ~.^ 1 $ % 2 S 5X&.r - $ 1 e ! 6XK.a ; $ $ - ; 6 s J.SXR.d ; % $ - 6 r d e e 7 e n u.lXlX+.r - + O O $ 3 2 2 2 7 s s 7 2 6 2 2 2 7 r z N S.>XzXQ.A 6 $ O . X O + 1 7 e r r r e 7 7 7 e r a s s s a e 2 2 6 2 2 2 6 7 e e r r r z n ) {.OXlX<XT.! 6 % + O         . . O , 6 7 7 e e e e e e e e e e e e e r r r r r r e e e e e e e e 7 7 7 7 7 e r a a s z z z z z z z s d e 6 2 ",
"2 1 1 1 1 2 7 r s z x z s a e 7 6 6 6 7 6 2 6 7 r e 6 6 2 6 d c x x s s z z x f 9 % $ + $ * % % % % % % % % % % - - - - - - - - - - % $ $ $ % % - - - - $ O . .   . . . O + % 6 n U.-XxXuXOXE x r 7 6 6 6 2 2 2 7 r s s d 7 ; - - % % - - ; ; 1 1 1 1 1 > > % + . . O & % 7 ) [.DX8Xi.P m z 7 8 2 2 6 9 9 3 $ O O $ ; d V.1X].U d 2 1 ; ; $ O O + 1 A Q.#X) e ; : $ + $ 2 D 8XV.y : $ % e } 6XI 7 e C.!.c r ` 6XM s ' _.r._.`.(.P ' G.a.+XT.c 6 2 ; - $ + + + + + + + + + + + + $ + $ % % - > % + O + + + + + + + + + + + + + + $ % ; 2 e H J.T (.v.`.a.G.P n *.G s n E.G s ) ~.c 7 7 G ~.^ 1 $ % 6 G 5X*.r - $ 1 e ~ 6XK.a ; $ $ - ; 6 s J.SXW.d ; % $ - 0 r a e e 7 r n i.lXjX@.r - + O O $ 3 2 2 2 7 s s 7 2 6 2 2 2 7 e z N F.>XzXT.C 2 $ O . O O + 1 9 e r r r e e 7 7 e r a s s s a e 2 2 6 2 2 2 6 7 e e r r r s n ) {.OXlX<XT.! 6 % + O         . . O , 6 7 e e e e e e e e e e e r e e r r r r r r e e e e e e e e e 7 7 7 7 e r a a s z z z z z z z s d e 6 2 ",
"2 1 1 1 1 2 7 r s z x z s a e 7 6 6 6 6 6 2 6 7 r 7 6 6 2 6 d c x z s s z x x f 9 % + + $ * % % % % % % % % % % - - - - - - - - - - % $ $ $ * - - - - - $ O . .   . . . . O % 6 n U.*XxXuXOXE x r 7 6 6 8 2 2 2 7 r s s d 7 ; - - % % - - ; ; 1 1 1 1 1 ; > % + . . O & % 7 ) [.DX9Xi.P m z 7 8 2 2 7 9 9 1 % O + $ ; d V.1X].U y 2 1 ; ; % O O + 1 A Q.#X) e ; : $ + $ 2 D =XV.t - $ - e $.6XI 7 e M.!.c r ` ^.M s ' _.r.).`.`.P ' G.a.+XT.c 6 2 ; - $ + + + + + + + + + + + + $ $ $ % % : , % + + + + + + + + $ $ + + + + + + $ % ; 2 e H J.T (.v.`.a.G.P n *.G s n E.G s ) /.c 7 e G ~.^ 1 $ % 6 G CX-.r - $ ; e ~ 9XL.a ; + $ - ; 6 z J.SXW.d ; $ $ - 0 r d e e 7 r x i.>XjX@.r - O O O $ 3 2 2 2 7 s s 7 2 6 2 2 2 7 r z N A.>XzXT.C 2 $ O . O O $ 1 9 e r r r e e 7 7 e r a s s s a e 6 6 6 2 2 2 6 7 e e r r r s n ) {.OXlX<XT.! 6 % + O         . . O , 6 7 e e e e e e e e e e e e e e r r r r r r r e e e e e e e e 7 7 7 7 e r a s s z z z z z z z s d e 6 2 ",
"2 1 1 1 1 2 7 r s z z z s a e 7 6 6 6 6 6 2 6 7 r 7 6 6 2 6 d c x z s s z z x f 9 % + + & = % % % % % % % % % % - - - - - - - - - - % $ $ % * - - - - - $ O . .     . . O + % 6 n A.*XxXuX XE x r 7 6 6 6 2 2 2 7 a s s d 7 ; - - % % - ; ; ; 1 1 2 1 1 ; > % + . . @ & % 7 ) [.DX9Xi.P m z 7 8 6 6 7 9 9 1 % O + $ ; d F.1X].U d 2 1 ; ; % O O + 1 A I.#X~ 7 ; : $ + $ 2 D =XV.t - $ % e $.6X! 7 e M.!.c r ` ^.M s ' _.r._.`.`.P ' G.a.+XT.c 6 2 ; - $ + + + + $ + + + $ $ $ $ $ $ % % % : : % $ & $ $ $ $ $ $ % % $ $ $ $ + $ $ % ; 2 e H J.T (.v.`.a.G.U n *.J s n E.G z _ ~.c 7 e G ~.^ 1 $ % 6 G CX-.r - $ ; e ~ 9XL.a ; + $ - ; 6 z J.SXW.d ; $ $ - 0 r d e e 7 r n i.>XjX+.r - O O O $ 3 2 2 2 7 s s 7 2 8 2 2 2 7 r z N A.2XzXG.C 2 $ O . O O $ 1 t r r r r e 7 7 7 e r a s s s a e 6 6 6 2 2 2 2 7 e e r r r s n ) {.OXlX<XT.! 6 % + O         . . O , 6 7 7 7 e e e e e e e e e r e e r r r r r r r r e e e e e e e 7 7 7 7 e r a s s z z z z z z z s d e 6 2 ",
"2 1 1 1 1 2 7 a s z z z s r e 6 6 6 6 6 2 2 6 7 r 7 6 6 2 6 d c x z s s z z x g 8 % + + & = % % % % % % % % % % - - - - - - - - - - % $ $ % * - - - - - $ O . .     . . O + % 6 n A.*XxXuX XE x r 7 6 6 8 2 2 2 7 a s s d 7 ; - % % % - ; ; ; 1 1 2 1 1 ; > % + . . # & - 7 ) [.HX9Xi.L m z 7 8 6 6 7 9 9 2 % O + $ ; d F.1X].U d 2 1 ; ; $ O O + 1 A /.#X~ 7 ; % $ O $ 2 D =XV.t - $ % e $.6X! 7 e n.W.c r ' ^.M s ' _.r._.`.`.P ' G.a.+XT.c 6 2 ; - $ + + + + + $ $ $ $ $ $ $ = $ % % % : : % % = = = * * % % * % * % % & & & % % ; 2 e H J.T (.v.`.a.G.U n =.G s n E.G z _ 5Xc 7 e G ~.^ ; $ % 6 G 5X*.r - $ ; e ~ 9XL.a ; + $ - ; 6 z J.SXF.d ; $ $ - 0 r d r e e r n i.>XjX] r - O O O $ 3 2 2 2 7 s s 7 2 8 2 2 2 7 r z N A.2XzXG.C 2 $ O . O O $ 2 t e r r r e 7 7 7 e r a s z s a e 6 6 6 2 2 2 6 7 e e r r r s n ) {.OXlX<XT.! 6 $ + O         . . + , 6 7 7 7 e e e e e e e e e r e e r r r r r r r r e e e e e e e 7 7 7 7 e r a s s z z z z z z z s d e 2 2 ",
"2 2 1 1 1 2 7 a s z z z s r e 6 6 6 6 6 2 2 6 7 r 7 6 2 2 6 d c x z s s z z x g 8 % + + & * % % % % % % % % % % % % - - - - - - - - % $ $ $ % % - - - - $ O . .     . . O + - 6 n U.*XxXuX XE z r 7 6 6 8 2 2 2 7 d s s d 6 ; - % % % - > ; ; 1 2 2 1 1 ; > % + O . # & - 7 ) [.HX8Xi.L n z 7 2 6 6 7 7 9 1 % O + $ ; d F.1X].U d 2 1 ; - $ O O + 1 A Q.$X) 7 ; % $ O $ 1 D =XV.t - $ % e $.6X! 7 e n.W.c r ' /.M s ' _.r.).`.`.P ' G.a.+XG.c 6 2 ; - $ + + + + $ $ $ $ $ $ $ $ $ $ $ % % - - % % % % % % - % % % % % % % % % % % % ; 2 e H J.T v.v.`.a.G.P n =.G s n E.G z _ 5Xc 7 e G ~.^ ; $ % 2 S 5X&.r - $ ; e / 9XL.a - + $ - ; 6 z J.zXF.d ; $ $ - 0 y d r e e r n u.>XjX] r - O O O $ > 2 2 2 7 s s 7 2 8 2 2 2 7 r z N A.2XzXF.v 2 $ O . O O $ 2 t r r r r e 7 7 7 e r a s z s a e 6 6 6 2 2 2 6 6 e e r r r z n ) {.OXlX-XT.! 6 $ + .         . . O , 6 7 7 7 e e e e e e e e e r e e r r r r r r r r e e e e e e 7 7 7 7 7 e r a s s z z z z z z z s d e 6 2 ",
"2 1 1 1 1 2 7 a s z z z s r e 6 6 6 6 6 2 2 6 p y 7 6 2 2 6 d c x z s s z z x g 8 % + $ & * % % % % % % % % % % % - - - - - - - - - % $ $ $ % % - - - - $ O .       . . O + - 6 n S.-XcXuX XU z r 7 6 6 8 2 2 2 7 d s s d 6 ; - % % - - > ; ; 1 2 2 2 1 1 > % + O . + & - 7 ) [.HXqXi.L n s 7 2 2 6 6 9 8 1 $ O + $ 1 d A.1X].U d 2 ; - - $ O O + 1 S /.%X~ 7 ; % $ O $ 1 D =XV.t - + % e $.6X! 7 e n.W.c r ` /.M s ' _.r.).`.`.P [ G.p.+XG.c 6 1 ; - $ + + + + + + + + + + + + $ + $ % % - , % $ $ $ $ $ % % % $ $ $ $ $ $ $ $ % % ; 2 e H J.T v.v.'.a.I.P n =.J s n E.} z ' 5Xc 7 7 G ~.^ 1 $ % 6 S 5X&.r - $ ; e / 9X7Xa - + $ - ; 6 z J.<XV.y ; $ $ - 0 r d r e e a m u.>XfX] e - + O + $ > 2 2 2 7 s s 7 2 8 2 2 2 7 r s N G.,XzXF.v 2 $ O . O O $ 2 t e r r r e 7 7 7 e r r s s s d e 2 2 6 2 2 2 6 6 e e r r r z n ) {.OXlXjXR.S 2 $ + .         . . + > 6 7 7 7 e e e e e e e e e r e e r r r r r r e e e e e e e e e 7 7 7 7 e r a s z z z z z z z z s d e 2 2 ",
"1 1 1 1 1 2 7 r s z z z s r e 7 6 2 6 6 2 2 6 7 e e 6 2 2 6 a c x z s s z x x g 8 % + $ % % % % % $ $ % % % % % % % - % - - - - - - % $ $ $ * - - - - % $ O         . . O + - 7 m S.<XcXyX X) z r 7 6 6 2 2 2 2 7 a s s d 6 ; - - % - 1 3 1 ; 1 1 2 2 2 1 > % + O O O $ - 7 ~ 0XHXqXi.L n a 6 1 1 1 2 2 1 - # O O $ 1 s A.1X#X~ f 7 ; - - % O O + 1 N ;X;X! 7 ; % & + $ 2 J AXV.e - $ % 7 %.6X! 7 e B.W.f r O.^.v s _ _.r._.'.`.P [ F.p.@XD.v 6 1 - % $ + O O O + + + + + O O O + + $ % % , > % + + + + + + + + + + + + + + + + $ % ; 2 r G L.T v.'.'.a.P.n m =.G a M 4XG z t.5Xc 7 7 G ~.^ 1 $ % 6 F 5X*.r ; % ; 7 / 9X7Xa - + $ , 1 7 x u.0XV.r - $ $ - 6 r a e e r a m u.>X*X( e % + O + $ > 2 2 2 7 d s 7 1 2 2 2 2 7 r s I G.,XzXG.C 2 $ O . O O $ 4 9 e r r r r e 7 7 7 e r a s s d e 2 2 6 6 2 2 6 7 e r r r r s n _  XOXxXjXF.M 2 $ + .         o   + ; 6 7 e e 7 7 e e e e e e e e e r r r r r e e r e e e e e e e e 7 6 7 7 e r a s z z z z x x z z s r 7 2 2 ",
"1 1 1 1 1 2 7 r s s z z s r e 7 6 2 6 6 2 2 6 7 e e 6 2 2 6 a c c z s z x x c d 2 % $ % : % % % % % % % % % % % % % - - - - - - - - - $ $ $ % - - - - % $ O         . . O # - 7 m d.<XcXyX X) z e 7 6 6 2 2 2 2 7 a c f d 6 ; - % % - 1 3 1 ; 3 1 1 2 2 4 3 % + O O O $ - 7 ~ 8XHXqX4.L M a 6 1 1 ; 1 1 1 - O . O $ 1 s A.1X#X) c 7 ; - - % O O + 1 N ;X;X! 7 ; * # + $ 1 H AXV.e - $ % 7 %.6X! 7 e B.W.f r O.^.v s _ _.r._.'.`.P [ F.y.@XD.v 7 1 - % $ + + O O + + + + O O O O + + $ % % ; > - + + + + + + + + + # + + # + + + $ % - 2 r G L.T v.'.'.s.L.n m K.G a M 4XG z t.5Xc 7 7 G ~.^ 1 % % 6 ^ 5X*.e ; % ; 7 { AX4Xa - + $ , 1 7 x u.0XV.e - $ $ - q r a e e r s L p.>X*X( 7 % + O + $ > 2 2 2 7 d s 7 1 2 2 2 2 7 e s I G.,XzXG.C 2 $ O . O O $ 4 9 e r r r r e e 7 7 7 r a s s d e 2 2 6 6 2 2 6 7 e r r r r z n _  X+XxXjXF.v 2 $ O .     . o o   + ; 6 7 e e 7 7 e e e e e e e e e r r r r r r r r e e e e e e e e 7 6 7 7 7 r s s z z x x x x z z s r 7 2 2 ",
"1 1 1 1 1 2 7 r s s z z s r e 6 6 2 6 6 2 2 6 7 e e 6 2 2 6 a c c z s z x x c d 2 % $ % : % % % % % % % % % % % - - - - - - - - ; ; - % $ $ * - - - - - $ O .       . . O + - 7 m d.<XFXyX X) z e 7 6 6 2 2 2 2 7 a c f d 6 ; - % $ - ; 3 ; ; > ; 1 1 2 3 > % + O O + $ - 7 ) 0XHXqXi.L n a 6 1 1 1 1 2 1 - + . O $ 1 s A.1X#X~ c 7 ; - - % + O + 1 N ;X/.I 7 ; * # O $ 1 H hXV.e - $ % 7 %.6X! 7 e B.W.f r O.^.v s _ _.r._.'.`.P [ P.y.@XD.v 7 1 - % $ $ + O O + + # # + + + + + + $ % - ; 1 - $ + + + + + $ $ & & & & $ $ $ $ $ % - 2 e G L.T v.'.'.s.L.n m K.G a M 4XG z t.5Xc 7 7 G ~.^ 1 $ % 6 ^ 5X*.e ; % ; 7 ] AX4Xa - + $ - 1 7 x N.0XV.e - $ $ ; q r a e e r s L s.>X*X( 7 - + O + $ > 2 2 2 7 d s 7 2 2 2 1 2 7 e s I G.,XzXG.V 2 $ O . O O $ 4 9 e r r r r e e 7 7 7 r a s s d 7 2 2 6 6 2 2 6 7 e r r r r z n _  X+XMXjXV.v 1 $ O .     . o o   + ; 6 7 7 e 7 7 e e e e e e e e e r e r r r r e e e e e e e e e e 7 6 7 7 7 r s c z z x x x x z z s r 7 2 2 ",
"1 1 1 1 1 2 7 r s s z z s r e 6 6 2 6 6 2 2 6 7 e e 6 2 2 6 a c c z s s z z c d 4 % + $ % % % % % % % % % - - - - - - - - - - ; ; ; - % $ % % - - - - - $ O .       . . O + - 7 m d.0XFXyX X) z e 7 6 6 2 2 2 2 7 a c f d 6 ; - % $ % - ; ; - - - ; 1 1 1 > $ O . O + $ - 7 ) 0XHXqX4.L n s 6 1 2 2 2 2 2 ; # . O $ 1 s U.0X#X~ f 7 ; - - % + O $ 1 N ;X/.! 7 ; * & O $ 1 H =XV.e - $ % 7 %.6X! 7 e B.W.f r O.^.v s _ _.r._.'.`.P [ P.y.@XD.v 7 1 ; - % $ + + + + + + + + + + + + + $ % - ; 1 - $ + + + $ $ $ $ $ $ $ $ $ $ $ $ $ % - 2 e H L.T v.'.'.s.L.n m L.H a M E.G z t.5Xc 7 7 G ~.^ 1 $ % 6 ^ 5X*.e ; % ; 7 ] AX4Xa - + $ - 1 e n N.0XV.e - $ $ ; q r a e e r s L S.,X*X( 7 - + O + $ > 2 2 2 7 s s 7 2 2 2 2 2 7 e s I G.,XzXF.c 2 $ . . O O $ 4 9 e r r r r e e 7 7 7 r a s s a 7 2 2 2 6 2 2 6 7 e r r r r z n _  X+XxXjXV.v 1 $ O . .   . o o   + ; 6 7 7 e 7 7 e e e e e e e e e r e r r r r r e e e e e e e e e 7 6 7 7 7 r s s z z x x x x z z s r 7 2 2 ",
"1 1 1 1 1 2 7 r s s z z s r e 7 6 2 6 6 2 2 6 7 e e 6 2 2 6 a c z s s s z z c d 4 % + & % % % % % % % - - - - - - - - - ; ; ; ; ; ; - % $ % % - - - ; - $ O .       . . O # - 7 m S.0XFXyX XE z e 7 6 6 8 2 2 2 7 a c s r 6 - % = $ % - - - - - - - ; ; ; , $ O . O + $ - 7 ) %XHXqX4.L n s 7 2 4 4 6 6 2 ; # O + % 1 s U.0X#X~ f 7 ; - - % O O $ 2 N ;X;X! 7 ; * # O $ 1 H =XV.e - $ % 7 %.6X! 7 e B.W.f r [ ^.v s ' _.r._.'.`.P ] V.y.@XD.v 7 1 ; - % $ $ + + + + + + + O O O + + $ % % - ; % $ + + + + + + + $ $ $ + $ + $ $ $ % - 2 e H J.T v.'.'.a.L.n m K.H a n E.G z t./.c 7 e G ~.^ 1 $ % 6 ^ 5X*.e ; % ; 7 ] KX4Xa - $ $ - 1 e x N.0XV.e - $ $ ; q r a e e r s L S.lX*X( 7 % + O + $ > 2 2 2 7 s s 7 2 2 2 1 2 7 e s I G.,XzXF.c 1 $ . . . O $ 5 9 e r r r r e e 7 7 7 r a s s d 7 2 2 6 6 2 2 6 7 e r r r r s n _  X+XsXjXV.v 1 $ + .     . o o   + ; 6 7 e e e e e e e e e e e e e r e r r r r r e e e e e e e e e 7 7 7 7 e r s s z z x x x x z z s r 7 2 2 ",
"1 1 1 1 1 2 7 r s z z z s r e 7 6 2 2 6 2 2 6 7 e e 6 2 2 6 a c z s s s z z s y 4 % + & % % $ $ % % % - - - - - - - - ; ; ; ; ; ; ; - % $ % % - - - - - $ O .       . . O # - 7 m U.0XFXyX.XE z e 7 6 6 8 2 2 2 7 d s s r 6 - % = % - - - - % % - - ; ; ; - $ O . O + $ - 7 ) %XHXqX2.P N c 7 8 2 2 6 6 2 ; & O # % 1 s U.0X].~ f 6 ; - - $ O O $ 2 N qX;X! 7 ; * # + $ 1 H gXV.e - $ % 7 %.6X! 7 e B.W.f r [ ^.v s ' _.r._.'.`.L ] V.r.XXG.v 6 1 ; - % $ $ + + + + + + + + O O + + $ $ % - ; % + + + + + + + + $ + + + + + + $ $ % - 2 e H J.T (.'.'.a.J.n m K.H a n E.G z ' /.c 7 e  .~.^ 1 $ % 6 ^ 5X*.e ; % ; 7 ] AX7Xr - $ $ - 1 e x N.0XV.e - $ $ ; q r a e e r s L S.lX*X( 7 - + O + $ > 2 2 1 7 d s 7 2 2 2 1 2 7 e s I G.,XkXF.c 1 $ O . . O $ 5 9 e r r r r e e 7 7 7 r a s s d 7 2 2 6 6 2 2 6 7 e r r r r s n )  X+XsXjXV.v 1 $ + .     . o o   + ; 6 7 e e e e e e e e e e e e e r e r r r r r e e e e e e e e e 7 7 7 7 e r s s z z x x x x z z s r 7 2 2 ",
"1 1 1 1 1 2 7 r s z z z s r e 7 6 2 6 6 2 2 6 7 e e 6 2 2 6 a c s s s s z z s y 4 % + & % $ $ $ % % % % - - - - - - - - - - ; ; ; ; - % $ $ % - - - - - $ O .       . . O # - 7 m U.SXJXuX.X) z e 7 6 6 8 2 2 2 7 a s s d 6 ; - % % - - - - - - - ; ; ; ; - $ O . O + $ - 7 ) %XHXqX2.P m c 7 6 2 2 6 6 2 ; $ O # % 1 s U.0X].U f 6 ; , - $ O O $ 2 N ;X;X! 7 ; * # + $ 2 J AXV.e ; $ % 7 %.6X! 7 e B.W.f r [ ^.v s ' _.r._.'.`.L ] V.y.XXG.v 6 1 ; % % $ + + + + + + + + + O + + + $ % % - - % $ + + + + + + + $ $ $ $ $ $ $ $ $ % - 2 e H J.T (.'.'.a.J.n m K.H a n E.G z ' 5Xc 7 e  .~.^ 1 $ % 6 ^ 5X*.e ; % - 7 ] 9XE.r - $ $ - 1 7 x u.0XM.t - $ $ ; q r a e e e a L S.lX*X( 7 % + O + $ > 4 1 1 6 d s 7 2 2 6 2 2 7 r s I G.,XkXF.c 1 $ O . . O $ 5 9 e e r r r e e 7 7 7 r a s s d 7 2 2 6 6 2 2 6 7 e r r r r s n '  XoXsXjXV.c 1 $ + .       o o   + ; 6 7 e e e e e e e e e e e e e r r r r r r r r e e e e e e 7 7 7 6 7 7 e r s s z z x x x x z z s r 7 2 2 ",
"1 1 1 1 1 2 7 r s z z z s r e 7 6 2 6 6 2 2 6 7 e e 6 2 2 6 a c s s s s z z s p 5 $ + & % $ $ $ % % % % % % % % - - - - - - - - ; , - % $ $ % - - - - % $ O         . . O # - 7 m U.SXJXuX.X) z e 7 6 6 6 2 2 2 7 d c s d 6 ; - % - ; ; ; ; - - - ; 1 1 ; - $ O . O + $ - 7 ) %XHXqX4.P N c 7 2 2 2 6 6 6 ; $ O # % 1 s U.0X].U f 6 ; , - $ O O $ 2 N ;X/.I 7 ; % & + $ 2 J AXW.r ; $ % e %.6X! 7 e B.W.f r [ ^.v s ' _.r._.'.`.P ] N.r.XXD.c 6 1 - % $ $ + O O + $ $ $ + + + + $ $ $ % % - ; % $ $ $ $ $ $ $ $ $ $ $ $ $ $ $ $ $ % - 2 e H J.P `.'.'.a.L.n m K.H a n E.G z ' /.c 7 7 ..~.^ 1 $ % 6 ^ 5X*.e ; % - 7 ] 9XE.r - $ $ - 1 7 x u.<XM.t - $ $ ; q r a e e e a m A.lX-X( 7 % + O + $ > 5 1 1 6 d s 7 2 2 6 2 2 7 r s I G.,XkXF.c 1 $ O . . O $ 5 9 e e r r r e e 7 7 7 r a s s d e 2 2 6 6 2 2 6 7 e r r r r z n '  X+XsXjXV.c 1 $ + .         o   + ; 6 7 7 e e e e e e e e e e e e r r r r r r e r e e e e e e e 7 7 7 7 7 e r s s z z x x x x z z s r 7 2 2 ",
"1 1 1 1 1 2 e a s z z z s r e 7 6 2 6 6 2 2 6 7 e e 6 2 2 6 a c c s s s z z s i 5 $ + + + $ + $ $ $ $ $ $ $ % % % % % - - - - - - - % $ $ $ $ % % % % $ + .         . . O # - 7 m U.SXJXpX X) z e 7 6 6 6 2 2 2 7 a s s d 7 ; - - - ; ; 1 ; ; ; ; 1 1 1 1 > $ O . . + $ - 7 ` 3XHXqX2.P m c 7 6 2 2 6 6 2 ; $ O + % 1 s U.0X].~ f 6 - = - % + # $ 2 ! qXI.! 7 ; * + O $ 2 J GXW.y - $ - 7 %.CXI 7 e C.W.f r O.^.c s t.#Xr.}.'.v.L [ P.r.+XT.c 7 1 - = $ + + O # $ % $ $ $ $ & & % % % % - ; ; - : % % % % % % % % % % % % % % % - - ; 2 r G J.P (.'.`.S.J.x m K.H a n E.G z t./.c 7 e  .~.^ 1 $ % 6 ^ 5X&.e ; $ ; 7 ] AX=.r - + $ % 1 7 x N.2XM.7 - $ $ ; 6 a a r e e a L S.lX&X( 7 % O O + $ > 1 1 ; 6 g d 6 2 6 6 2 2 7 r s I G.,X,XH.c 1 $ . . . . $ 5 9 7 e r r r e e 7 7 7 r a s s d e 2 2 6 6 6 2 6 7 e e r r a s n ' }.+XMXjXV.z 2 + + .       o o   + ; 6 7 7 e e e e e e e e e e e e e r r r r e e e e e e e e e e e 7 7 7 7 e r a c z x x x x x z z s r 7 2 2 ",
"1 1 1 1 1 2 7 a s z z z s r e 7 6 2 6 6 2 2 6 7 e e 6 2 2 6 a c c s s s z z s i 5 $ + O + $ + $ $ $ $ $ $ $ $ % % % % % % % % % % % = $ $ + $ $ % % % $ + .         . . O # - 7 m U.SXJXpX X) z e 7 6 6 6 2 2 2 e d s s d 7 ; - - ; ; 1 1 1 ; ; ; 1 2 2 1 ; % O . . + $ - 7 ` 3XHXqX2.P N c 7 2 2 2 6 6 2 ; $ O + % 1 s U.0X].~ d 6 - = % $ O O $ 2 ! qXI.I 7 - * + + $ 2 G GXW.y - $ - e %.CXI 7 e C.W.f r O.^.c s t.#Xr.}.'.v.P [ A.r.@XG.c 6 5 , % $ $ + # # $ $ $ $ $ $ & & $ % % % - - ; - % % % % % % % % % % * * % % % % % - ; 2 r G K.T v.v.`.S.J.x m K.H a n E.G z t./.c 7 e  .~.^ 1 $ % 6 ^ 5X&.e ; $ ; 7 ] AX=.r - + + % 1 7 x N.%XM.7 - $ $ ; 6 a a e e e a L S.lX&X( 7 % O O + $ > ; ; ; 6 g d 7 2 6 6 2 2 7 r s I G.,X,XC.c 1 + . . . . $ 3 9 7 e r r r e e 7 7 7 r a s s d e 2 2 6 6 6 2 6 7 e e r r a s n ' }.+XMXiXV.z 2 + + .       o o   + ; 6 7 7 7 e e e e e e e e e e e e r r r r e e e e e e 7 e e e e 7 7 7 7 e r a c z x x x x x z z s r 7 6 2 ",
"1 1 1 1 1 2 7 a s z z z s r e 7 6 2 6 6 2 2 6 7 e e 6 2 2 6 a c c z s s z z s g 4 $ O O + $ + $ $ $ $ $ $ $ $ % $ % % % % % % % % % % $ $ $ $ $ $ $ $ $ O .         . . O # - 7 m U.0XFXpX XE z r 7 6 6 8 2 2 2 e d s s d 7 ; - ; ; 1 1 1 1 1 ; 1 1 2 2 2 ; % O O . + $ - 7 ` 3XHXqX4.P N s 7 2 2 2 2 6 2 ; $ O + % 1 s U.0XI.! d 2 % = % $ O O $ 1 ! qX/.I 7 ; * + + $ 2  .GXF.y ; $ - 7 %.CXI 7 e C.W.f r O.^.c s t.#Xr.}.'.v.P [ N.r.XXD.c 7 1 ; % $ $ + + + $ $ $ $ & & & & & & % % % : , * $ $ $ $ $ $ $ $ $ $ & & & & $ % % - ; 2 r G J.T v.v.`.s.J.x m K.H a n E.G z t./.c 6 e $.~.^ 1 $ % 8 F ~.&.e ; % ; 7 ] AX=.r - + + % ; 6 x N.%X@.e - $ $ ; 6 a a e 7 e a m S.lX&X( 7 % O O + $ , ; ; ; 2 g d 7 2 6 6 2 2 7 r s I G.,X,XH.c 1 + . . . O $ 5 9 7 e r r r e e 7 7 7 r a z s d e 2 2 6 6 6 2 6 7 e e r r a s n ' }.+XMXiXV.z 2 + + .     . o o   + 1 6 7 7 7 7 7 e e e e e e e e e e r r e e e e e e e e e e 7 7 e 7 6 7 7 e r a c z x x x x x z z s r 7 6 2 ",
"1 1 1 1 1 2 7 r s s z z s r e 7 6 2 6 6 2 2 6 7 e e 6 2 2 6 a c z z s s z z c g 4 $ + O + $ + $ $ $ $ $ $ $ % % % % % % % % % % % % % = $ $ $ $ % % % $ + .         . . O # - 7 m U.0XFXpX X) z r 7 7 6 8 6 2 6 e d s s d 7 ; - ; ; 1 1 2 1 1 1 1 1 2 2 2 3 % + O . + $ - 7 ` 3XHXqX4.P N s 7 2 1 1 2 2 2 ; + O # % 1 s U.0XI.I d 2 - = % $ O O $ 2 ! qXI.N 7 ; * + + % 2 J GXV.y ; $ - 7 %.CX! 7 e C.!.f r O.^.c s t.#Xr.}.'.v.P [ N.r.@XD.x 7 2 ; - % % $ $ + + + + + + + + + + $ $ $ $ = = % $ $ + + $ $ $ + + + $ $ $ $ $ $ - - ; 6 r G J.P v.v.`.Z.J.x m K.H a n E.G z t./.c 6 e %.~.^ 1 $ % 6 F ~.&.e ; % ; 7 ] AX=.r - + + % ; 6 x N.%X@.e - $ $ ; 6 a a e 7 e a m S.<X&X! 7 % O O + $ < > ; ; 2 d d 6 2 6 6 2 2 7 r s I G.,XkXF.c 1 $ . . . . $ 5 9 7 e r r r e e 7 7 7 r a z s d e 2 2 6 6 6 2 6 7 e e r r a s n ' }.+XxXiXV.z 2 + + .     . o o   + ; 6 7 7 7 7 7 e e e e e e e e e e e r e e e e e e e e e e 7 7 e 7 6 7 7 e r a c z z x x x x z z s r 7 6 2 ",
"1 ; 1 1 1 2 7 r s s z z s a e 7 6 2 6 6 2 2 6 7 e e 6 2 2 6 a c z z s z x z s d 4 $ + + + $ + $ $ $ $ % % % % % % % % % % % % % % - % % % % % % - - - % + .         . . @ # - 7 m U.0XFXpX XE z r 7 7 6 8 6 2 6 e d s s d 7 ; ; ; ; 1 1 2 1 1 1 1 1 2 2 2 > % + O . + $ - 7 ` [.HXqX2.L N s 7 1 5 5 2 2 1 ; & O # % 1 s P.1XI.I d 2 - = - $ O + $ 2 ~ qX/.N 7 ; : $ + % 2 J AXV.d ; $ - 7 %.AX! 7 e C.!.s r O./.c s t.#Xr.}.'.v.L [ N.r.@X(.x e 6 2 1 ; ; - - % % $ $ $ $ $ $ $ $ $ $ $ % % - % $ $ $ $ $ $ $ $ $ $ $ $ $ $ $ % - ; 1 7 a ( L.T `.'.`.s.@.x m E.H a M E.G z t.5Xc 6 e $.~.^ 1 $ % 6 F ~.&.e ; % - 7 ] AX=.r - + + $ ; 6 x J.%X@.7 % $ $ ; 6 a a e e e a L S.<X&X! 7 % O O + $ , > ; - 2 d d 6 2 6 6 2 2 7 r s I G.,XkXF.c 1 + . . . . $ 3 9 7 e r r r r e 7 7 7 e a s s d e 2 2 6 6 6 2 6 7 e e r r a z n ' }.iXsXiXV.z 2 + + .   . . o o   + 1 6 7 e e 7 7 e e e e e e e e e e e e e e e e e e e 7 e 7 7 7 7 7 6 7 7 e r a c z z x x x x z z s r 7 6 6 ",
"1 ; 1 1 1 2 7 r s s z z s a e 7 6 2 6 6 2 2 6 7 e e 6 2 2 6 a c z z s z x x c d 4 $ $ + $ = + $ $ % % % % % % % % % - % - - % - - - - % % % - , - - - % $ O .       . . O # - 7 m U.0XFXpX XE z r 7 6 6 8 6 2 6 e d c s d 7 ; ; ; ; 1 2 2 1 1 ; 1 1 2 2 2 > % + O . + $ - 7 ` [.0XqX4.L n s 6 1 ; ; 1 2 1 - # O # % 1 c P.1XI.N d 2 - = % $ O O $ 2 ~ qX/.N 7 > : & + % 2 J AXV.d ; $ - e %.AX! 7 e C.!.f r O./.c s t.#Xr.}.'.(.L [ N.r.@X(.M r 7 2 2 1 1 1 ; ; ; - - - - - - - - - - - ; ; ; ; - % % % % % % % % % - - - - - - ; ; 1 7 a ( J.T `.'.`.Z.@.x m E.H a n E.G z t.5Xc 6 e $.~.^ 1 $ % 6 F ~.&.e ; % - 7 ] AX=.r - + + $ ; 6 x L.%X@.7 % $ $ ; 6 a a r e e a L S.<X&XS 7 % O O + $ : ; - - 2 d d 7 6 6 6 2 2 7 r s I G.,XkXF.c 1 + . . . . $ 3 9 7 e r r r r e 7 7 7 e a s s d e 2 2 6 6 2 2 6 7 e e r r a z n ' }.iXsX XV.z 2 + + .     . o o   + 1 6 7 e e 7 e e e e e e e e e e e e e e e e e e e 7 7 7 7 7 7 7 7 7 7 7 e r a c z z x x x x z z s r 7 6 2 ",
"1 ; ; 1 1 2 7 r s s z z s a e 7 6 2 6 6 2 2 6 7 e e 6 2 2 6 a c c z z z x x c d 4 $ $ + $ = $ $ % % % % % % % % - - - : - - - - ; ; - - % : - > ; ; ; - $ O . .     . . @ # - 7 m U.SXJXpX X) z r 7 6 6 8 6 2 6 e d c s d 7 ; ; - ; 1 1 1 1 1 ; 1 1 2 2 2 > = O . . + $ - 7 ` [.HXqXQ L n d 6 1 ; ; 1 1 1 - # O # % 1 c P.1XG.N r 2 - = % $ O O $ 2 ! 9X/.N 7 > : & + % 2 J AXV.d ; $ - 7 &.AX! 7 e C.W.f r O./.v s t.#Xr.}.'.(.L ] N.2.@X`.N a e 7 7 7 7 7 6 6 6 6 6 6 6 2 6 6 2 6 2 2 6 6 6 6 6 2 2 2 2 2 6 6 6 6 6 6 6 6 6 2 2 2 2 e s ( J.T `.'.`.Z.@.x m E.H a n E.G z t.5Xs 6 e $.~.^ 1 $ % 6 F ~.&.e ; % - 7 ] AX=.r - + + $ ; 6 x L.%XM.7 % $ $ ; 6 a a e e e a L U.lX&XS 7 % O O O $ - - - - 2 d d 7 2 6 6 2 2 7 r s I G.,XkXV.c 1 + . . . . $ 3 9 7 e r r r r e 7 7 7 e a s s a e 2 2 2 6 2 2 6 7 e e r r a z n ' }.iXpX XV.z 2 + + .     . o o   + 1 6 7 e e e e e e e e e e e e e e e e e e e e e e e e 7 7 7 7 7 7 7 7 7 e r a c z z x x x x z z s r 7 6 2 ",
"1 1 ; 1 1 2 7 r s z z z s r e 7 6 2 6 6 2 2 6 7 e 7 6 2 2 7 a c c z s z x x c d 4 $ $ + $ % $ $ % % % % % % - - - - - - - - - - ; ; ; ; - : - ; ; ; ; - $ O . .     . . O # - 7 m U.SXJXpX X) z r 7 6 6 6 6 2 2 7 a s s d 7 ; ; ; ; 1 1 1 1 1 ; 1 1 2 2 2 > = O . . + $ % 7 ` %XHX[.2.L x a 2 ; - - ; ; ; - + O + % 1 c I.1XF.N r 2 - , - % O O $ 2 ~ 8X/.N 7 > : & + % 2 G AXV.d ; $ - 7 %.AX~ 7 r C.W.s r O./.v s t.$Xr.}.'.(.L ] N.2.@XXX) S D Z Z Z b v C v v v v v v v C C v C v c c v M c c c c c c c c c c c c c c c c f f d d c n [ L.T `.'.'.a.@.z m E.H a n E.D z t.6Xf 6 e $.~.^ 1 $ % 6 ^ ~.%.e - % ; 7 ] AX=.r - + + $ ; 6 x U.8X@.7 - $ $ ; 7 y r 7 7 e a I U.lX&XS 7 % O . O $ - - ; ; 2 d d 7 2 6 6 2 2 7 r s I G.,XkXC.f 1 + . . . . $ 3 9 7 e r r r e e 7 7 e r a s s a e 2 2 6 6 2 2 6 7 e e r r a z n ' }.pXuX XV.x 2 + O . . .   o o   + 1 6 7 7 e e e e e e e e e e e e e e e e e e e e e e e 7 7 7 7 7 7 7 7 7 e r a c z z x x x x z z s r 7 6 2 ",
"1 1 1 1 1 2 7 d s z z z s r 7 6 6 6 2 2 2 2 7 p p 6 2 2 2 7 d f s z s s z z c i 4 $ $ $ $ % $ $ % % % % % % % - - - - - - - - ; ; ; ; ; ; ; ; ; ; ; - % $ O .       . O O + - 7 L d.SXFXoX XU z e 7 6 6 6 6 2 2 7 r s s r 7 1 1 ; ; 1 2 2 1 1 ; ; 1 2 2 2 3 % + O . + $ % 7 ` 2XDX3Xe.I b r 6 1 ; - - - ; - + O O $ ; V I.1XP.n e 2 1 ; - % + O + 1 ~ %XU.n 7 3 : $ O $ 6 } -XN.r ; % - 7 %.AXU e r B.W.d r n./.x s t.}.p.'.`.(.L [ N.y.`.}.S.A.P.V.L.L.V.F.F.G.F.P.P.P.G.I.I.I.G.G.G.G.I.I.I.G.I.I.I.I.I.I.I.I.F.F.F.F.F.F.F.F.P.P.N.u.].%XN.R v.'.'.(.| s m J.A a N L.B z t.W.f 6 e } ~.^ 1 $ % 6 ^ /.%.e - $ ; e [ AX=.e - + + % ; 7 n P.8X] 7 - $ $ 1 7 e e 6 6 7 a I I.1X&XS 6 $ . . O $ - - ; 1 7 d d e 6 6 2 2 6 e r z I &X+X+XF.f ; + . . . . $ 2 e 7 e r r r e e e e e r a a a r 7 2 2 6 6 8 2 6 7 e e r r a s n t. XyXuXiXC.x 2 $ .   . .     o   $ 3 6 7 7 7 7 e e e e e e e e e e e e e e e e e e e 7 e 7 7 7 e e 7 7 7 7 e r a c z x x x x x z z s r 7 6 6 ",
"1 1 1 1 1 2 7 r s z z z s r 7 6 6 6 2 2 2 2 7 p p 6 2 2 6 7 d f s s s s z z s g 4 $ + $ $ % $ $ % % % % % % % - - - - - - - - ; ; ; ; ; ; ; ; ; ; - : * & O         . . O + - 7 L d.DXFXoX XU z e 7 6 6 6 6 2 2 7 r s a r 7 1 1 ; ; 1 2 2 1 ; ; ; 1 2 2 2 3 % O O . + $ $ 7 ` 2XHX2Xr.I b r 6 1 ; - - - ; - $ O O $ ; V Q.1XU.x 7 2 1 1 ; % + O + 1 ~ 0XU.M 7 2 > % O $ 6 } -XN.r ; % - 7 %.9XU e d C.E.d r n.^.z a e.}.a.'.'.(.L [ m.e.H.`.(.(.a.p.p.p.a.a.v.v.(.a.a.a.a.a.(.v.v.v.v.v.v.v.v.(.(.H.H.H.H.H.H.H.(.(.(.(.(.(.(.H.a.a.a.a.v.).i.W `.'.'.v.| s L E.Z r N L.B z t.W.f 6 e } ~.F 1 $ % 6 ! /.%.7 - $ ; r [ AX=.e - + + - ; 7 n P.qX] 7 ; $ % 2 7 e 7 6 6 7 a I I.1X$XF 6 $ . . O $ ; ; 1 2 7 g d e 7 6 2 1 2 e r z I {.+XpXR.f - + . . . . $ 2 e 7 e e r e e e e e r a a a a r 7 2 6 6 6 8 2 6 7 e e r r a s m t.OXuXuXiXM.c 2 $ .   . .     o . $ 3 6 7 7 7 7 e e e e e e e e e e 7 e e e e e e e e 7 7 7 7 7 7 e 7 7 7 7 e r a c z x x x x z z z s r 7 6 6 ",
"1 1 ; ; 1 1 7 r s z z z s r 7 6 6 6 2 2 2 2 7 p p 6 2 2 2 7 d f s s s s z z s y 4 $ + $ $ % $ $ % % % % % % - - - - - - - - - ; ; ; ; ; ; ; ; ; ; - : * & O         . . O + - 7 I d.DXFXyX XU z e 7 6 6 6 6 2 2 7 r s s d 7 1 3 ; ; 1 1 1 1 ; ; ; 1 2 2 2 3 % + . . + + % 6 ` 2XDX2Xe.m c r 6 2 ; - - - ; - $ O O $ ; V Q.1XU.x 7 2 1 1 ; % + O + 1 ~ 0XU.M 7 2 > % O $ 6 } -XN.r ; % - 7 %.9XU e d B.E.d r n.^.z a e.`.a.XX'.(.P @.M.t.Z.H.a.H.H.H.A.A.H.(.(.(.H.H.S.S.S.S.S.S.G.G.S.S.S.S.H.S.G.G.G.G.G.G.G.G.S.A.S.A.S.A.F.S._._.G.S.(.S.L.N.(.'.'.`.=.s m K.Z r N L.B z y.W.f 6 e } ~.F 1 $ % 6 ! /.%.7 - $ ; r [ AX=.e - + $ - 3 e N U.qX] 7 ; $ % 2 7 e 9 2 2 7 a I ].zX&XF 6 $ . . O $ ; ; 1 2 7 g d e 6 6 2 1 2 e r z I {.OX+XF.d - + . . . . $ 4 e 7 e e r e e e 7 e r a a a a r 7 2 2 6 6 8 2 6 7 e e r r a s m t.OXuXuXiXM.c 2 $ .   . .     o . $ 3 6 7 7 7 7 e e e e e e e e e 7 7 e e e e e e e e e 7 7 7 7 e e 7 7 7 7 e r a c z x x x x x z z s r 7 6 6 ",
"1 ; ; ; ; 1 6 r s z z z s r 7 6 6 6 2 2 2 2 7 p u 6 2 6 2 7 d g s s s s z z s y 4 $ + $ $ % $ $ % % % % % % - - - - - - - - - ; ; ; ; ; ; ; ; ; ; - : * & O         . . O + - 7 I d.DXFXoX XU z e 7 7 7 6 6 2 2 7 r s s r 7 1 ; > > 1 2 1 1 ; ; ; 1 2 2 4 > % O . . + $ % 7 ` %XDX2Xi.m b r 6 2 ; - - - ; - + O O $ ; V Q.1XP.x 7 2 2 1 ; % + O + 1 ) 8X/.M 7 1 > % O $ 6 } -XN.r ; % - 7 %.9XU e d B.E.d a n./.x s e.}.a.XX`.(.L ] J.m.H.Z.y.y.y.t.t.t.y.y.p.p.e.e.e.e.e.e.e.e.W W 2.e.e.2.2.2.W W W W W E E E W _ _ _ _ _ _ _ e.2.2.e.2.W U ) r.v.'._.=.s m =.Z r n L.B z n.!.f 6 e } ~.F 1 $ % 6 ! /.%.e - $ ; r [ AX=.e - + $ , 3 e N U.qX] 7 - $ % 2 7 7 6 2 2 7 a I I.zX&XF 2 $ . . O $ > ; 1 2 7 i r 7 6 6 2 1 2 e r z ! {.OX+XF.d - + . . . . $ 4 e 7 7 e r e e e 7 e r a a a a r 7 2 2 6 6 8 2 6 7 e e r r a s m t.OXuXyXiXM.c 2 $ .   . .     o . $ 3 6 7 7 7 7 e e e e e e e e e e 7 e e e e e e e e e e 7 7 7 e e 7 7 7 7 e r a c z x x x x x z z s r 7 6 6 ",
"; ; ; > ; 1 6 r s s z z a r 7 6 6 2 2 2 2 2 6 7 p 6 2 2 2 6 y g s s a s z z s r 4 $ + $ $ % $ $ % % % % % % - - - - - - - - - ; ; ; ; ; ; ; ; ; ; - : * & O         . . O + - 7 m d.DXFXoX XU z r 7 7 6 6 6 2 2 7 r a a r 7 ; ; - ; ; 1 1 ; ; - ; ; 1 1 1 > % O . . + $ % 7 ` :XSX3Xi.m z r 6 1 1 ; ; ; ; - + O O $ 1 V Q.1XP.x 7 2 2 2 ; % O O + 1 ) 0XU.M 7 1 > % O $ 6 } -XN.r ; % - 9 %.6XU e r B.E.d a n./.x s t.$Xp.XX'.H.n S ] @.M.m.n.M.N.J.K.J.J.N.A.A.F.P.P.P.P.P.P.P.P.P.P.P.P.I.I.G.I.G.G.G.G.G.G.G.F.F.F.F.G.F.G.G.G.F.F.G._.F.B.V.D.`.`._.&.s N E.Z r n L.B z n./.f 6 e } ~.^ 1 $ % 6 ! /.%.7 - $ ; r [ AX*.e - + $ - 1 e N U.qX( 7 - $ % 1 7 7 6 2 2 6 r I G.1X#XF 2 $ . . + % ; 3 1 2 7 i r 7 6 2 2 1 2 e r z I {.@X+XF.d - + . . . . $ 4 e 7 e e e e e e e e r a a a a r 7 2 2 6 6 8 2 6 7 e e r r a z m t.OXuXyXtXn.c 1 $ .   . .     o . $ 1 6 7 7 7 7 e e e e e e e e e e 7 e e e e e e 7 7 e e 7 7 7 e e 7 7 7 7 e r a c z x x x x z z z s r 7 6 6 ",
"- - - , ; ; 6 p d s s s a r 7 2 6 2 1 1 1 2 6 7 7 2 1 1 1 6 r d s s a s z z s y 4 $ + $ $ % $ $ % % % % % % - - - - - - - ; ; ; ; ; ; ; ; ; ; ; ; - : * & O         . . O + - 7 m d.DXFXoX XU z r 7 7 7 6 6 2 2 6 r a a r 6 ; - - - ; ; ; - - - - - ; ; ; - $ O . . + $ % 7 ) :X0X3Xe.m c r 6 2 1 1 ; > ; - + O O % 1 V #X1XP.x 7 2 2 2 ; $ O O + 1 ) 0X/.M 7 1 > % O $ 6 ( -XN.r ; % - 9 %.6XU e r B.E.d a n./.z a t.}.p.$X`.G.n x m m L L P P L m m m L L L P P P T T T T T T E E E E W W W W _ e._ _ _ _ _ _ e.e.e.e.e.e.e.t.t.t.' t.m.t.` ` m.H.(.H.+.s N E.Z r n L.D z n.^.f 6 e } /.^ 1 $ % 6 ! /.%.7 - $ 1 r [ AX*.e - + + - 1 e N U.qX( 7 - $ % 1 7 9 6 2 2 6 r I G.1X#XF 2 $ . . + % ; 1 2 2 7 i i 7 6 2 2 1 2 e r z I {.@XoXF.d - + . . . . $ 4 e 7 7 e e e e e 7 e r a s a a r 7 2 2 6 6 8 2 6 7 e e r r a z m t.OXuXaXtXn.s 1 $ .   . .     o . $ 1 6 7 7 7 7 e e e e e e e e e e 7 e e e e e e 7 7 e 7 7 7 7 e e 7 7 7 7 e r a c x x x x x z z z s r 7 6 6 ",
"- % % - - ; 2 e a s s s a r 7 2 2 2 1 1 1 1 6 7 q 2 1 1 1 6 r d a s a s z z s y 4 $ + $ $ % $ $ % % % % % % - - - - - - - ; ; ; ; ; ; ; ; ; ; ; ; - - * & O         . . O # - 7 L d.DXFXoX XU z r 7 7 7 6 6 2 2 7 p a d r 6 - - % % - - - - % % % - ; ; ; : $ . . . + $ % 7 ) [.0X3X' n s r 7 6 2 1 3 > ; : + O O % 1 C #X1XP.z 7 1 2 4 3 % O O $ 2 ` 0X/.M 7 1 > % O $ 6 ( -XN.r ; % - 9 %.6XU e r B.W.d a n./.z a ' #Xp.#X(.H.L.@.M.m.t.y.m.m.t.t.t.t.t.t.y.y.t.e.e.e.e._ e.e._ _ _ _ _ _ W W E E E E E E U U P P P P P P P P I I I m L I n n L P W n.$.a N 4XZ r n L.D z m.^.f 6 e } /.! 1 $ % 6 ! /.%.7 - $ 1 r [ 8X&.e - + $ - 1 e N U.qX( 7 - $ $ 1 7 9 6 2 2 7 a I I.1X#XA 2 $ . . + % 3 1 2 6 7 i u 6 2 2 1 1 2 e r z U {.@XoXH.d - + . . . . $ 2 e 7 7 e e e e e 7 e e a a a a r 7 2 2 6 6 8 2 2 7 e e r r a s m t.OXuXdXtX@.s 1 $ .   . .     o . $ 1 6 7 7 7 7 e e e e e e e e e e 7 e e e e e e 7 7 7 7 7 7 7 7 e 7 6 7 7 e r a s z x x x x z z z s y 7 6 6 ",
"% % % % % - 2 7 a s s s a e 6 2 2 2 1 1 1 1 6 7 7 2 1 1 2 6 e d a s a s z z s i 5 $ $ $ $ % $ $ % % % % % % - - - - - - - ; ; ; ; ; ; ; ; ; ; ; ; - - * & O         . . O # - 7 L d.DXFXoX XU z r 7 7 7 6 6 2 2 7 p a d r 2 - % % % - - - - % % % - ; ; ; : & O . . + $ % 7 ) [.0X3X{ n s r e 7 2 1 1 ; ; - + O O % 1 V #X1XN.z 6 1 2 5 3 % O O $ 2 ` 0X7XM 7 1 > % O $ 6 ( -XN.r ; % - 7 %.6XU e r B.W.d a n./.x a ' ].y.G.H.Z.N.t.n.N.Z.Z.H.Z.F.F.N.V.A.A.A.A.F.F.F.F.F.F.F.F.I.G.G.F.I.I.I.P.P.P.P.P.P.P.F.F.P.P.P.P.P.P.P.V.V.V.P.M.m.V.L.J.F.G.H.P.=.s m 4XZ r n L.D z n.^.d 6 e } /.! 1 % % 6 ! /.%.7 - $ 1 r [ 8X&.e - + $ - 1 e N U.qX] 7 - + $ 1 6 6 6 2 6 7 a I I.zX&XA 2 $ . . + % 1 1 2 6 7 i u 6 2 5 5 1 2 e r z U {.@XoXH.d - + . . . . $ 2 e 7 7 e e e 7 7 7 e e a a a a r 7 2 2 6 6 8 2 2 7 e e r r a s m t.OXuXdXtX@.s 1 $ .     .     o . $ 5 6 7 7 7 7 e e e e e e e e e e 7 e e e e e e e e 7 7 7 7 7 7 e 7 6 6 7 e r a s z z x x x z z z s y 7 6 6 ",
"- % - - - ; 2 7 a s z s d e 6 2 2 2 1 1 1 1 6 9 9 2 1 1 2 6 r d a s a s s z s i 4 $ + $ % % $ $ % % % % % % - - - - - - - - - - ; ; ; ; ; ; ; ; ; - - * & O         . O O + - 7 m U.HXzXpX}.U z r 7 7 7 6 6 2 2 7 r a a r 6 ; - % % - - ; - - % - - > ; : : & . . . + $ - 7 ) [.0X[.{ n a r p 7 6 2 1 3 3 - + O + % 1 C #X>XN.z 7 1 2 2 3 % + + + 2 ` 0X/.x 7 1 : % O $ 6 } -XN.r ; % - 7 %.6XU e r K.~.a a M./.s a ) #Xm.Q.t.P L I L P P P P P U U U U U U U U U U U U U U U U E E E E ) ) ) ) _ _ _ _ _ _ _ _ t.t.t.t.t.t.t.t.y.y.y.y.p.Z.m.m.p.a.H.p.E m E E.C a N 7Xb s F.W.d 6 e } /.! 1 % % 6 ^ ^.$.7 - $ ; r [ 8X$.e - + $ - 1 e N ;XqX] 7 - + $ 1 6 6 6 6 6 7 a I I.,XQ.A 6 + . . O - 1 2 2 6 7 u 7 2 1 1 1 1 2 e r z U {.OX+XZ.d - + . . . . $ 4 e 7 7 e e e 7 7 7 e e a a a a r 7 2 6 6 6 2 2 6 7 e e r r a s m t.OXuXuXtXO.a 1 + .   .     o o . $ 1 6 7 7 7 7 e e e e e e e e e e e e e e e e e e e e 7 7 7 7 7 7 7 6 6 7 7 r a c z z x x x z z z s g 6 6 6 ",
", - - - - ; 2 7 a s z s d e 6 2 2 2 1 1 1 2 6 q q 2 1 1 2 6 r d a a a a s z s i 4 $ + $ % % $ $ % % % % % % - - - - - - - - - - ; ; ; ; ; ; ; ; ; - - * & O         . . O + - 7 I U.DXzXpX}.U z r 7 7 6 6 6 2 2 6 r a a p 6 ; - % % - - ; - % % - - > ; : : & . . . + $ - 7 ) [.0X[.{ x a r e 7 6 2 1 1 ; % + O + % 1 C #X>XN.z 7 1 2 2 3 % + + + 2 ` 0X/.x 7 1 : % O $ 6 ( -XN.r ; % - 9 %.6XU e r K.~.a a M./.x a ` I.' P.Q.W.K.K.K.L.J.J.J.J.J.K.K.K.K.K.J.J.K.K.K.K.K.K.K.J.M.M.B.M.B.B.B.B.C.V.V.V.V.C.V.V.V.V.V.V.V.V.V.V.m.m.m.m.Z.Z.m.m.Z.Z.H.A.t.) t.E.C r n 7XB z F.~.d 6 e } /.! 1 % % 6 ^ ^.$.7 - $ ; r [ 8X$.e - + $ - 1 e I ;X0X] 7 - + $ 1 6 8 8 8 6 7 a I I.>XQ.A 6 + . . O - 1 2 6 7 7 7 6 1 1 ; ; 1 2 e r s U {.OX+XZ.d - + . . . . $ 4 e 7 7 e e e 7 7 7 e e a a a a r 7 2 6 6 6 2 2 6 7 e e r r a s m y.OXuXuXtXO.a 1 $ .   .     o o . $ 1 6 7 7 7 7 e e e e e e e e e e e e e e e e e e e 7 7 7 7 7 7 7 7 6 6 7 7 r a s z z x x z z z z s g 6 6 6 ",
"- - % - - ; 2 e a s z s a e 6 2 2 2 1 1 1 2 6 9 9 2 1 1 2 6 r d a a a a s s s i 4 $ + $ % % $ $ % % % % % % - - - - - - - - - - ; ; ; ; ; ; ; ; ; - - * & O         . O O + - 7 L U.DXzXpX.XU z e 7 7 6 6 6 2 2 6 r d d r 6 ; - % % - ; ; - - % - - ; ; : : & . . . + % - e ) $XDX[.) x s r e 7 6 2 1 ; ; % + O + % 2 C &X>XN.z 7 1 2 2 5 % + + $ 2 ` 0X/.x 6 ; : % O $ 6 } -XN.r ; % - 9 %.6XU e r K.~.a a N./.s r ] /.~ ` O.#.X.X.X.X.$.$.$.$.$.$.$.$.$.$.$.$.$.$.$.$.$.$.+.+.&.+.&.&.&.&.&.=.&.&.&.&.&.&.&.&.&.&.&.&.&.&.&.&.=.=.=.K.K.K.=.=.K.K.L.L.-.=.E.>.V a N 7XD z V.W.d 2 e } ~.S 1 % % 6 ^ ^.$.7 - $ ; r [ 8X$.7 - + $ ; 2 e I ;XqX( 7 - + $ 1 2 8 8 8 6 7 a U I.1XQ.A 6 + . O + - 1 8 6 7 7 6 2 1 ; ; ; 1 2 e r s I {.+X+XZ.d - + . . O . $ 4 e 7 7 e e 7 7 7 7 e e a a a a r 7 2 6 6 2 2 2 6 7 e e r r a z m y.OXuXuXtXo.a ; + .         o o . $ 1 6 7 7 7 7 e e e e e e e e e 7 7 e e e e e e 7 7 7 7 7 7 7 7 7 7 6 6 7 7 e a s z z x x z z z z s g 6 6 6 ",
"- % % - - ; 2 e a s z s a e 7 2 2 2 1 1 2 2 6 9 9 2 1 1 2 6 r d a a a a s s s i 4 $ + $ % % $ $ % % % % % % - - - - - - - - - - ; ; ; ; ; ; ; ; ; - - * & O         . . O + - 7 L U.DXzXpX.XU z e 7 6 6 8 8 2 2 6 r d a r 6 ; - % % ; ; ; - - - - ; ; ; > : & O . . # % - e ` :XDX[.E x s r e 7 e 6 2 1 ; % + O + % 2 Z &X>XN.z 7 1 2 2 3 % + + $ 2 ` 0X7Xx 6 1 > % O $ 6 } -XN.r ; % - 9 %.6XU e r Y.~.a a N./.s e ] /.m x x z s a a a a a a a s s s s s s s s s s s s s s s s s s s z z z z z s s s s s s s s s s s s s s s s s s s s z s s s s s s s s z s a d r N 7XD s m.~.d 2 e } ~.S 1 % % 6 ^ ^.$.7 - $ ; r [ 8X$.7 - + $ ; 2 e I ;X8X( 6 % + $ ; 2 8 8 8 6 7 a U I.1X!.A 6 + . O + - 2 6 6 7 7 6 2 ; ; ; ; 1 2 e r s I {.+X+XZ.d - + . . O . $ 4 e 7 7 e e 7 7 7 7 7 e r a a a r 7 2 6 6 2 2 2 6 7 e e r r a z m y.OXuXuXtXo.a ; + .         o o . $ 1 6 7 7 7 7 e e e e e e e e e 7 7 e e e e e e 7 7 7 7 7 7 7 7 7 7 6 6 7 7 e a s z z x x z z s z s g 6 6 6 ",
"- - - - - 1 6 e a s z s a e 7 2 2 2 1 1 2 2 6 9 q 6 2 2 2 6 y d a a a a s s s i 5 $ + $ % % $ $ % % % % % % - - - - - - - - - ; ; ; ; ; ; ; ; ; ; - : * & O         . . O + - 7 L U.DXzXpX.XU z e 6 6 6 6 2 2 2 6 r d d r 6 ; - - - ; ; ; ; - - - ; 1 1 ; - $ O . . + % - e ' 2XHX[.E x a r r e y 9 2 3 ; % + O + % 2 H &X>XM.z 7 1 2 2 5 % + + $ 6 ` 0X7Xx 6 ; > % O $ 6 } -XN.r ; % - 7 %.6XU e r Y.W.a a M./.f e } E.! x M x z z z z z z z z z z z z z z z z s s s s s s s s s s s s s s s s s s s s s s s s s s s s s s s s s s s s s s s s s s s a s s s a r a I 7XB z m.~.d 2 e } ~.S 1 $ % 6 ^ ^.$.7 - $ ; r [ 8X$.7 - + $ ; 2 e I /.qX( 6 % + $ ; 2 2 8 8 6 7 a U I.1X#XA 6 + O O + : 4 6 6 7 7 6 2 ; - - ; ; 2 e r s I {.+X+XC.d - + . . . . $ 4 e 7 7 7 7 7 7 7 7 7 e r a a a r 7 2 6 6 2 2 2 2 7 e e r r a z m y.OXuXuXtXo.a 1 + .         o o . $ 1 6 7 7 7 7 e e e e e e e e 7 7 7 e e e e e e 7 7 e e 7 7 7 7 e 7 6 6 7 7 e a s z z z z z z s s s g 6 6 6 ",
"; ; ; ; ; 1 6 r s z z z a r 7 2 2 2 1 1 1 2 6 7 t 6 2 2 2 6 y d d a a a s s s i 5 $ + $ % % $ $ % % % % % % - - - - - - - - - ; ; ; ; ; ; ; ; ; ; - : * & O         . O O + - 7 L U.DXzXiX.XU z e 6 6 6 8 2 2 2 6 r d d r 6 ; - - - ; ; ; ; - - - ; 1 1 ; - $ O . . + % - e ' 2XHX[.E x a r r y i 7 2 1 ; % + O + % 2 H &X,XL.z 7 1 2 2 5 - + + $ 6 ` 0X7Xx 6 ; > % O $ 6 } -XN.r ; % - 7 %.9X) e a Y.W.a a M./.s e } E.-.&.*.;.*.*.*.*.*.*.;.;.*.&.;.;.&.&.*.*.%.%.%.%.%.%.%.%.*.*.*.*.%.*.*.*.*.*.*.*.*.*.*.*.;.;.;.;.;.;.;.;.%.%.$.$.$.$.%.%.%.%.%.%.%.%.%.%. .%.L.6X} z C./.d 2 7 } E.S 1 $ % 6 ^ ^.$.7 - $ ; r [ 8X$.7 - + $ ; 2 e I /.qX( 6 % + $ ; 2 2 8 8 7 e s ~ ].zX#XA 6 + O O + - 4 9 7 7 7 6 2 ; - - ; ; 2 e r s I {.+X+XZ.d - + . . . . $ 4 e 7 7 7 7 7 7 6 7 7 e r a a a r 7 2 6 6 2 2 2 2 6 e e r r a z m y.+XuXdXtXo.a 1 + .         o o . $ 1 6 7 7 7 7 7 e e e e e e e e 7 7 e e e e e e 7 7 e e 7 7 7 7 e 7 6 6 7 7 e a s z z z z z z s s s g 6 6 6 ",
"1 ; ; ; 1 2 7 r s z z z a r 7 6 2 2 1 1 1 2 6 9 9 6 2 1 2 6 r d d a a a s s s i 5 $ + $ % % $ $ % % % % % % - - - - - - - - - ; ; ; ; ; ; ; ; ; ; ; - * & O         . O O + - 7 L U.DXzXyX.XU z e 6 6 2 2 2 2 2 6 r d d r 6 ; - - - ; ; ; ; - - - ; 1 1 ; - $ O . . + % - e ' 2XHX;X{ x a e r y i 7 2 1 ; % + O + % 2 H &X,XJ.z 7 1 2 2 5 - + + $ 6 ` 0X7Xx 6 ; > $ O $ 6 } -XN.r ; % - 7 %.6XU e a Y.W.a a M./.a e S / *.$.%.%.%.&.%.%.%.%.%.%.&.=.=.=.=.&.&.&.*.*.*.*.*.*.*.*.%.%.&.&.%.%.&.&.&.&.&.&.&.&.&.&.-.;.-.;.-.;.-.-.-.-.-.-.;.-.-.-.-.;.;.;.-.-.-.>.>.>.L.7XB z C.W.d 2 7 } E.S ; $ % 2 ! ^.$.7 - % ; r [ 8X$.e - + $ ; 2 r I ;XqX( 6 % + $ ; 1 2 8 8 7 e s ~ #XzX#XA 2 $ O O + - 4 9 e 7 7 6 1 ; ; - ; ; 2 e r s I #X+X+XZ.d - + . . . . $ 8 e 7 7 7 7 7 7 6 7 7 e a a a a r 7 2 6 6 2 2 2 2 6 7 e r r a z m u.+XuXdXtXo.a ; + .         o o . $ 1 6 7 7 7 7 e e e e e e e e e e e e e e e e e 7 7 e e 7 7 7 e e 7 6 6 7 7 r a s z z z z z z s s s g 6 2 6 ",
"1 ; ; ; 1 2 7 r s z z s a e 7 6 6 2 1 1 1 1 6 9 9 6 2 2 2 6 r d d a a a s s s i 4 $ + + $ $ $ $ % % % % % % % % % - - - - - - - ; ; ; ; ; ; ; ; ; - : = & O       . . O O + - 7 I U.DX1X+X.XU z e 6 6 2 2 2 1 2 7 r g d r 6 1 ; - ; ; ; ; ; ; ; ; ; 1 1 ; - $ O . . + $ - e ` 2XDX;X{ x a e e r d e 2 1 ; % + O + - 6 F *X,XJ.z 7 1 1 2 5 - + + $ 6 ` 0X/.x 6 ; > % O $ 6 } -XN.e ; $ % 7 %.6X~ e r Y.W.s a C.^.x r x z x s s z z z z z z z z z x x x x x x x z z z z z z z x x x x x x x x x x x x x x x x x x x x x x x x x x M v v x x v M M v c c v M M v c f c m I z z N.W.d 2 7 J E.S 1 $ % 2 ! ^.$.7 - $ ; r t.9X+.e - + $ ; 2 r I ;X8X( 6 % + + - 1 2 8 6 7 e s ~ #X1X/.C 2 $ O O + ; 8 t e 7 6 2 ; ; > - ; 1 2 7 r s ~ {.+X+XC.r - + . O O . $ 2 e 7 7 7 7 7 7 7 7 7 e r a a a r 7 2 2 6 2 2 2 2 6 7 e r r a z m u.+XuXyXtX` a ; + .   .       o . $ 1 6 7 7 7 7 e e e e e e e e e e e e e e e e e 7 7 e 7 7 7 7 e e 7 6 6 7 7 r a s z z z z z s s s s i 6 2 2 ",
"; ; ; ; 1 2 p d s z z s a r 7 2 6 2 1 1 ; 1 2 6 7 6 2 2 2 6 r d a a r a s s z d 2 $ O O + $ & $ $ $ $ % % % % % % % % % $ $ $ % % % % % % % - - - % % = + .     o . . O O + - 7 I U.DX0XOX{.! s e 6 2 1 1 1 1 2 7 e r r e 6 2 1 ; ; ; ; ; ; ; ; 1 1 1 1 ; - $ O O . O $ - e ] %XHXqX_ n s r r a a r 6 1 - % + O + % 6 S *X1XJ.s 6 1 1 2 1 - + + $ 6 ` 8XP.x 6 ; : % + % 6 } 9XM.e - $ % 7 $.CX/ 7 e W.!.s s V.AX` ~ ) ~ ! S S M S N N N N N N N N N N N N n n M M v v x x x x x M M v v v x x x x x x x x x x x x x x x x x x z z z z z z s z z s s s s s s s s a s x n x m m./.s 6 2 ,.4XA 2 % % 2 / !.&.e % + - y M.GX+.7 % O $ - 1 e U %X;X( 6 % + + - 1 4 8 6 7 e f ) _.SXU.v 2 + @ . + ; 6 r r 7 2 2 1 1 ; 5 1 4 2 7 r s ) }.pX+Xt.r - + O O O O $ 2 7 7 7 7 7 7 7 6 6 7 e a a a d r 7 2 2 6 6 4 1 2 6 e e r d a z I u.OXsXpX{.( r ; + @ . .       o . % 5 6 7 7 7 7 7 e e e 7 e e 7 7 e e e e e e 7 7 7 7 7 7 7 7 e e e 7 6 6 7 7 e a s s z z z z z s s a i 6 2 2 ",
"; ; ; ; 1 2 t d s z z s a r 7 2 6 2 1 1 ; ; 2 6 7 6 2 2 2 6 p r d a a a s z z d 2 $ . . O + $ $ $ $ $ $ % % % % $ $ $ + + + + + $ $ $ $ $ $ % % % $ $ $ + .     o . . O O + ; 7 I U.HX0XOX{.! s e 8 2 1 1 1 1 2 6 e r y e 7 2 2 1 1 ; ; : > > 1 1 2 2 1 > > % + O . O $ - e ] %XHXqX_ n a e r a a r 7 1 , = + O O % 6 S *X<XJ.s 6 1 1 2 1 % + + $ 6 [ <XI.v 6 ; ; % + $ 6 } 9XM.9 % $ % 6 } CX/ e r Q.&Xz s -.CXCXCXeX~.ZXZXZX4XZX5X5X5X5X5X5X5X4X4X4X4XE.E.E.E.E.E.E.E.E.E.E.4XE.E.-.-.-.-.E.E.-.-.-.-.-.-.-.-.;.;.;.;.&.&.&.&.&.*.*.*.&.&.%.%.&.&.&.&.&.&.&.%.%.%.+.#.] @.6X5Xa 6 6 ,.4XA 2 % $ 2 / !.+.e % + - t M.GX+.7 % O $ - 1 e U %X=X( 6 % + + - 3 4 6 6 7 7 f ) }.0XU.v 2 + O . + ; 7 r r 6 2 2 1 1 1 1 1 2 2 6 r z ) .XpX+Xt.r - + O # O O $ 2 7 9 7 7 7 7 6 6 6 7 e r a d d r 7 2 2 6 6 4 4 2 6 7 e r d a z L m.OXsXpX}.( r ; $ @ @ .         . % 5 6 7 7 7 7 7 e 7 7 7 7 7 7 7 e e e e e e 7 7 7 7 7 7 7 7 e 7 e 7 6 6 7 7 e a s s z z z z z s s a i 6 2 2 ",
"- ; ; ; 1 2 e g s z z s a r 7 2 6 2 1 1 ; ; 2 6 7 6 2 2 2 6 p r d a a a s z z d 2 $ .   . O $ $ $ $ $ $ % % % % $ $ $ $ + + + + $ $ $ $ $ $ $ $ $ $ $ $ + .     o . . O O + - 7 I U.HX0XOX{.! s 7 8 2 1 1 1 1 2 2 7 e r p 7 6 2 1 1 1 > > > ; 1 1 2 2 1 3 > % + O O O $ - e ] %XHXqX_ n a e e d a a 7 1 , & + O O % 6 F *X<XJ.s 6 1 1 2 1 - + + $ 6 [ 0XW.v 6 ; - % + $ 6 } 9XM.9 % $ % 6 } CX/ e e F.G.a 7 j K ,.J G ^ X.$.$.X.} } } } } } } } } } $.$.$.$.$.$.$.$.$.&.&.&.&.*.=.*.*.*.-.-.-.-.>.>.>.>.>.>.>.>.>.>.-.-.-.-.-.-.E.E.E.4XE.E.E.E.E.4XE.4XE.4XE.4XZX4X~.~.4X4XZX4Xr 6 7  .~.S 2 % $ 2 / !.$.7 % + - y M.GX+.7 % O $ - 1 e U $X;X^ 6 % + + - 3 2 6 6 7 9 f ) }.SXU.v 2 + O . + 1 7 r r 6 1 1 1 1 5 1 1 2 2 6 e z )  XpX+Xt.r - + O # O O $ 2 7 7 7 7 7 7 6 6 6 7 e r d d d r 7 2 2 6 6 4 4 2 6 7 e r d a x L m.OXsXxX}.( r ; $ @ O .         . % 5 6 7 7 7 7 e e 7 7 7 e e 7 7 e e e e e e 7 7 7 7 7 7 7 7 e e e 7 6 6 7 7 e a s s z z z z z s s a i 6 2 6 ",
"- - ; ; 1 8 e d s s z s a r 7 2 2 2 1 ; ; ; 2 6 7 6 2 2 2 6 e r d a r a s z z d 2 $ . . O + $ $ $ $ $ $ $ % % % % % $ $ $ + + $ $ % % $ $ % % % % $ $ $ O .     o . . O O $ - 7 I U.HXSXOXT.! s 7 6 1 1 ; ; 1 1 2 6 7 e p 7 6 6 1 1 ; ; ; ; ; ; 1 2 1 1 ; > % + O O O $ - e ] %XDX%X_ n a e e a a a 7 1 , & + O O % 6 F *X<XJ.s 9 1 1 2 1 - + + $ 6 [ 0XW.x 6 ; - $ O $ 6 } 9XM.9 : + % 6 G ^.~ e r W.Q.a 2 6 2 1 2 7 e r r e e 7 7 e e e e e e e e e e e e e r r r r r r r a a r r r r r a a a r r r r a a r r a a a a a a a a s s z z s s z z z z z z z z z c c f c v s s f r 7 6 e %.~.F 1 $ $ 2 ^ !.$.7 % + - r M.GX+.7 % O $ - 1 e U %X;X! 2 % + + - 3 2 6 6 6 7 f ) }.SXU.c 2 $ O . + 1 7 d r 6 1 2 2 4 3 3 1 6 6 7 e z )  XpX,Xt.r - + O # O . $ 2 9 7 7 7 7 7 7 6 6 7 e r r d y p 6 2 2 6 6 4 4 2 6 7 e r d a z L u.OXsXxX$X( r ; $ @ . .         . % 5 6 7 7 7 7 e e e 7 7 e e 7 7 e e e e e e 7 7 7 7 7 7 7 7 e e e 7 6 6 7 7 e a s s z z x z z s s s i 6 2 6 ",
"- - ; ; 1 2 e d s s z s a e 7 2 2 2 1 ; ; ; 2 6 7 6 2 2 2 6 e r d a a a s z z d 2 $ . . O + $ $ $ $ $ $ $ $ $ $ $ $ $ $ $ + $ $ $ % % $ $ $ % $ % % $ & + .     o . . O O + - 7 I [.HXDX+XD.! s e 8 2 ; ; ; 1 1 2 6 7 7 7 7 6 2 1 ; ; ; - - ; ; 1 1 1 1 ; - % + O O O $ - e ] %XDX%X_ n a e e r a a 7 1 , $ + + O % 6 F $X>XJ.s 9 1 1 2 1 - + + $ 6 [ 0XW.x 6 > - $ O $ 6 } 9XM.9 : $ % 6 J ^.! 7 e E.W.s 2 1 - - - 1 2 1 1 - - - - - - ; - ; - ; - - - - - - - ; ; ; ; ; ; ; ; 1 1 1 1 1 1 1 ; 1 1 1 1 1 1 1 1 ; ; ; ; ; 1 1 1 1 1 1 1 2 2 2 2 2 2 2 2 2 2 2 2 1 ; 2 2 ; ; 1 1 ; 1 e X.rXF 1 + $ 2 ^ /.$.7 % + ; r n.0X+.7 % O $ - 1 e U %X;X! 2 % + + - 3 2 6 6 6 7 f ) [.DXU.c 2 $ O O + 1 p r e 6 2 2 2 2 1 5 4 6 6 6 e z )  XkX,Xt.r - + O # O . $ 1 7 7 7 7 7 7 7 6 6 7 7 r r r r 7 6 1 1 2 6 4 3 2 6 7 e r d a z L u.OXsXcX&X( r ; $ @ . .         . % 5 6 7 7 7 7 e e e 7 7 e e e e e e e e 7 7 7 7 7 7 7 7 7 7 e e e 7 6 6 7 7 e a s s z z x z z s s s i 6 2 6 ",
"- - ; ; 1 2 7 d s s z s a e 7 2 2 2 1 ; ; ; 2 6 7 6 2 2 2 6 e r d a a a s s z g 2 $ . . O + + + $ $ $ $ $ $ $ $ % % $ $ $ $ = = % % % % % % % % % % % = + .     o . . O O + - 7 I [.HXDXOXD.! s t 8 2 1 ; ; 1 1 2 2 6 6 7 6 6 2 1 1 ; ; - - ; ; 1 1 1 1 ; > % + O O O $ - e ] %XDX%X_ n a e e r a a 7 1 - $ + + O % 6 F &X>XJ.s 9 1 1 2 1 - + + $ 6 O.0XP.x 6 > - $ O $ 6 } 8XM.9 : + % 6 G 5X^ 7 r K.R.v r r e 6 7 e e e 6 2 2 2 8 8 8 8 8 8 8 8 8 8 8 8 8 8 8 8 8 8 8 2 2 8 2 2 2 2 2 2 2 2 2 2 2 2 2 2 2 2 2 2 2 2 2 2 2 2 2 2 2 2 2 2 2 2 2 2 2 2 2 2 2 2 2 1 1 6 2 ; ; 1 2 2 7 a #.W.A ; O $ 2 ^ ~.%.7 % $ ; r n.0X+.7 % O $ - 1 e U %X;X! 2 % + + - 3 2 2 6 6 7 f ) [.DXU.x 2 $ O O + 2 t r e 2 1 2 2 1 1 5 1 6 6 6 e z )  XpX+Xt.e - + O # O . $ 1 9 7 7 7 7 7 7 7 6 7 7 e e e e 6 1 ; 1 2 2 3 3 1 6 7 e r d a z L u.OXxXcX&X( e - + @ . .         . % 5 6 7 7 7 7 e e e 7 7 e e e e e e e e e e 7 7 7 7 7 7 7 7 e e e 7 6 6 7 7 e a s s z z x z z s s s i 6 2 6 ",
"- - - ; ; 2 7 r s s z s a e 7 2 2 2 1 ; ; ; 2 6 7 6 2 2 2 6 e r d a a a s z z g 2 $ O O O + + + $ $ $ $ $ $ % % % % % % = = = = * - % % % % % % % % % = + .     o . . O O + ; 7 I [.HXDXOXD.! s t 8 2 1 ; ; ; 1 1 2 2 6 6 6 2 2 1 1 ; ; - - ; ; 1 1 1 1 3 > % + O O O $ - e ] %XDX%X_ n a e e r a a 7 1 - $ + + O % 7 F &X:XM.s 7 1 1 2 1 - + + $ 6 @.0XP.x 6 > - $ O $ 6 } 8XM.9 % $ % 6 J CX/ r f R. XC.#.B.#.#.#.C.C.#.&.%.%.#.#.#.#.#.#.#.#.o.o.o.o.o.o.o.o.o.o.o.o.o.o.o.o.o.o.o.o.o.o.o.o./ / / / / / / / / / / / / / / / ^ ^ ^ ^ ^ ^ ^ ^ ^ F F F F F ^ ^ X.^ X.^ A A F S F ^ X.Y.E.V - O $ 2 ! E.$.6 % $ ; d t.<X] 7 % O $ - ; e ~ %X=X! 2 % + + - 3 2 2 6 6 6 d ) %X0XU.x 2 $ O O $ 2 i r e 2 1 2 2 1 ; 1 1 2 2 6 e z )  XpX+Xt.e % + O # O . $ 1 9 7 7 7 7 7 7 7 7 7 7 7 7 7 7 6 1 ; ; 1 1 3 ; 1 6 7 e r d a z L N.>XxXcX$X( e - + @ . .         . % 5 6 7 7 7 7 7 e e 7 7 e e e 7 e e e e e e 7 7 7 7 7 7 7 7 7 e e 7 6 6 7 7 e a s s z z z z z s s a i 6 2 2 ",
"- - - ; ; 2 7 r s s z s a e 7 2 2 2 1 ; ; ; 2 6 7 6 2 2 2 6 e r d a a a s z z g 4 $ O O O + $ $ $ $ $ $ % % % % % % $ $ $ $ $ $ % % % % % % % % % % % = + .     o o . O O + ; 7 I [.HXDXOXD.! s e 6 2 1 ; ; ; ; ; 1 2 6 6 6 2 1 1 1 ; ; ; - ; ; 1 1 1 1 ; > % + O O O $ - e ` %XDX%X_ n a e e r a a 7 1 - $ + + O % 7 F &X:XM.s 9 1 1 2 1 - + + $ 6 @.0XP.x 6 > : $ O $ 6 } 8XM.9 % $ % 6 J CX/ 7 r #.eXE.ZX~.W.eXeXhXhXeXCXZXZXeX^.^.^.eXeXhXeX!.^.^.^.^.^.^.^.^.^.^.^.^.^.eXeX^.^.^.^.^.eXeXeX^.^.^.^.^.^.^.^.^.^.^.^.^.^.^.^.~.5X5X~.~.~.~.~.~.~.~.E.~.E.~.~.eXrXeXeXZXZXeX~.rXrXrXZXIXj % O % 6 ! ~.$.6 % $ 1 d t.-X] 7 % O $ - ; e ~ %X=X^ 2 % + + - ; 2 2 6 6 6 d ) ].0XU.c 2 $ O O $ 2 i r e 2 1 2 2 1 1 1 1 2 2 6 e s )  XpX@X' e % + O @ O . $ 1 9 9 7 7 7 7 7 7 7 7 7 7 7 6 6 2 ; - - 1 1 1 ; 1 6 7 e r d a z L u.>XxXcX$X( e - + @ . .         O % 4 6 7 7 7 7 7 e e 7 7 e e e e e e e e e e 7 7 7 7 7 7 7 7 7 7 e 7 6 6 7 7 e a s s z z z z z s s a i 6 2 2 ",
"- - - ; ; 2 7 y s s s s r e 7 2 2 2 1 ; ; ; 2 6 7 6 2 2 2 6 e r a a a a s z z a 2 $ . . O + $ $ $ $ $ $ $ $ % % % % $ $ $ $ $ $ % % % % % % % % % % $ $ + .     o o . O O $ ; e I [.HX0X+XD.N s 7 6 2 1 1 ; ; ; ; 1 4 6 6 6 2 2 2 2 1 ; - ; ; ; 1 1 1 1 ; > % + O O O $ - e ` %X0X%X_ n a e e r a a 7 1 , $ + O O % 7 ^ $X<X[ s 6 1 2 2 1 - + + $ 6 @.<XV.x 2 ; : $ O $ 6 } 8XM.9 % $ - 6 G 5X^ 2 1 e y y h j j f j V V V C C C V V c c c c V V V V V V C V C C C C C C A Z A Z H H H H H H H H H H H J J H H J J J J J J J J J J J J J .............. ... . . .%.%. . . . .%.%.X.X. . .l 9 % + - 7 ! E. .6 % $ 1 d V.8X} 7 $ O + % 1 e ) %X;X! 2 % + + : 3 2 2 2 6 6 d ~ %XDXU.z 2 $ + O $ 8 y r 7 2 1 2 2 1 1 5 1 6 6 6 e s ` *X+XXXt.e % + O @ O . + 2 7 6 7 7 7 7 7 7 7 7 7 p 7 6 2 1 ; - ; 1 1 ; ; 1 6 7 e r r s z L A.OXxXcX$X! e - + @ @ .         O % 5 6 7 7 7 7 7 7 7 7 e e e 7 7 7 7 e e e 7 7 7 7 7 7 7 7 7 e e e 7 6 6 7 7 e a s s z z z z z s s a p 6 6 2 ",
"- - - ; ; 2 7 r s s s s a e 7 2 2 2 1 ; ; ; 2 6 7 6 2 2 2 6 e r d a a a s z z d 2 $ . . O + & $ $ $ $ $ % % % % % % % % $ $ $ % % % % % % % % % % % % & + . .   o o . O O $ ; e I [.HX0XOXD.N s 7 6 2 1 1 ; ; ; ; ; 1 4 6 6 6 6 6 6 2 1 ; ; ; ; 1 1 1 1 ; > % + O O O $ - e { %X0X%Xe.n a e 7 e a a 7 1 , $ + O + % 7 ^ *X<X@.s 6 1 2 2 1 - $ + $ 6 @.<XV.x 2 ; : $ O $ 6 } 8XM.t % + % 2 H 5X^ 2 - 1 ; - - ; 1 1 1 ; 1 1 2 6 6 2 2 2 2 2 2 2 2 2 2 2 2 2 2 2 2 2 2 2 2 2 6 6 2 2 2 2 2 2 2 2 2 2 2 2 2 2 2 2 2 2 2 2 2 2 2 2 2 2 6 6 6 2 6 6 6 6 2 2 2 2 2 2 6 6 6 6 2 2 6 7 e e 7 6 8 1 - + + ; e / ~.%.6 % $ 1 d N.8X} 7 $ O + % ; e ) %X;X! 2 % + + - 3 2 2 2 6 6 d ~ %X0XN.z 2 $ O O $ 8 p r 7 2 1 2 2 1 1 1 1 6 2 6 e s `  X+X@Xt.e % + O O O . + 2 7 6 7 7 7 7 7 7 7 7 7 7 6 2 1 ; ; - - ; 1 ; ; 1 6 7 e r r s z L A.OXxXcX$X( e - + @ @ .         O % 5 6 7 7 7 7 7 7 7 7 e e e 7 7 7 7 e e e 7 7 7 7 7 7 7 7 7 e e e 7 6 6 7 7 e a s s z z z z z s s s r 6 2 2 ",
"- - - - ; 2 7 r s s s s a e 6 2 2 2 1 ; ; ; 2 6 7 6 2 2 2 6 e r d a a a s z z d 2 $ . . O + = $ $ $ = = % % % % % % % % $ $ $ % % % % % % % % % % % $ $ + .     o o . O O $ ; e I [.HX0XOXD.N a 7 6 2 1 1 ; ; - ; ; ; 1 2 6 6 7 7 7 6 1 ; ; ; ; 1 1 1 1 ; , % + O . O $ - e { %X0X%Xe.n a e 7 e a a 7 1 , $ + O + % 7 ^ *X<X@.z 7 2 2 2 1 - $ + $ 6 @.-XP.x 2 ; : $ O $ 6 } 8XM.9 % + % 2 J CXX.6 ; ; - $ $ % % % $ $ $ $ % ; ; - % % % % % % - % % % % % % % % % % % % % % % % - - - - - - - - - - - - - - - - - - - - - - - - ; ; ; ; ; ; ; ; ; ; ; - - - - ; 1 ; - - % - ; 1 ; - % % % $ $ - 1 r ` /. .2 $ $ 1 a V.8X} 7 % O + % ; e ) %X=X! 2 % + + - ; 2 2 2 6 6 d ~ ].0Xu.s 1 $ O O $ 6 r r 7 2 1 2 2 1 1 1 1 2 2 6 e s `  X+X@Xt.e % + O @ O . + 1 6 6 9 7 7 7 7 7 7 7 7 7 6 2 1 ; - - ; ; ; : - ; 4 7 r r r s z L A.OXxXNX$X( e ; + @ @ . .       O % 4 6 7 7 7 7 7 7 7 7 7 e e 7 7 e e e e 7 7 7 7 7 7 7 7 7 7 e e e 7 6 6 7 7 e a s s z z z z z s s s r 6 2 2 ",
"- - - ; ; 2 7 r s s s s a e 6 2 2 2 1 ; ; 1 2 6 7 6 2 2 2 6 e d a s a a s z z d 2 $ O O O + & $ $ $ & & % % % % % % % % $ $ $ % % % % % % % % % % % $ $ + .     o o . O O + ; e I [.HX0XOXG.N a e 6 6 2 1 ; ; ; ; ; ; ; 1 6 q 7 7 7 6 2 1 ; ; ; 1 1 1 1 ; , % + O . O $ - e ` %X0X%Xe.n a 7 7 e a a 7 1 , $ + O O % 7 ^ *X<X@.s 7 2 2 2 1 - $ + $ 6 @.-XN.z 2 ; % + O $ 6 } 8Xn.9 : $ % 6  .CXo.r 6 2 1 1 1 1 1 ; - - - - ; 2 2 2 1 2 1 1 1 1 1 1 1 1 1 1 1 1 1 1 1 1 1 1 1 1 1 ; ; ; ; ; ; ; ; ; ; ; ; ; ; ; ; - - ; ; ; ; ; ; 1 1 1 1 1 1 1 ; ; ; ; ; ; - ; ; 1 1 - - % - - ; ; - % % % % - ; 6 s ' ^.%.2 % % 1 d V.8X} 7 % + + % ; 7 ~ -X=X! 2 % + + - ; 2 2 2 6 6 d ~ #X0Xu.s 1 $ O O $ 6 r r 7 1 1 2 2 1 1 1 1 2 2 6 e s /  X+XXXt.e % + O @ O . + 1 6 6 9 7 7 7 7 7 7 7 7 7 q 6 2 ; - - ; ; ; : : ; 2 7 e r r s z L A.OXxXNX$X( e - + @ X . .       O % 4 6 7 7 7 7 7 7 7 7 7 e e e 7 e e e e 7 e e 7 7 7 7 7 7 7 e e e 7 6 6 7 7 e a s s z z z z z s s s r 6 2 2 ",
"- - - - ; 2 7 r a s s s r e 6 2 2 2 1 ; ; 1 2 6 7 6 2 2 2 6 e d d s a a s z z d 6 % O O O + $ $ $ $ $ $ $ $ $ % % % % % % $ % % % % % % % % % % % % % & + . .   o o . O O + ; e I ).HX1XOXT.N a e 9 6 6 2 1 ; ; > > ; ; 1 6 q u e e 7 2 1 1 1 ; 1 1 1 1 ; , $ + O . O $ ; e ` %XDX%Xe.n a 7 7 e a a 7 1 , $ + O O % 7 ^ *X<X[ s 7 2 2 2 1 - $ + $ 8 @.-XN.z 2 - % + O $ 6 } 8Xt.t : + $ 6 J CX@.c f d d d f s s a a r r d a s s s s s s s s s s s s s s a a a a a r r r r r r r a a a a a a a a a a a r r r a a r r a a r r r a a a a a a a a a a r r r r r e r r r e e 7 7 7 7 7 7 7 7 7 7 e r d c t./.$.2 $ % 1 d L.9X} 7 % + + % ; 7 ~ -X;X! 2 % + + - ; 2 2 6 6 6 d ) %XDXN.s 1 $ O O $ 2 r r 7 1 1 2 2 1 1 1 1 2 2 6 e s /  X+X@X[ e % + O @ O . + 1 6 6 7 7 7 7 7 e 7 7 7 7 6 0 5 1 ; - - ; ; : : ; 2 7 e r r s z L N.OXxXcX&X( e - + @ X . .       O - 2 6 7 7 7 7 7 7 7 7 7 e e e e e e e e e e e 7 7 7 7 7 7 7 e e e 7 6 6 7 7 e a s s z z z z z s s a r 6 2 2 ",
"- - - - ; 2 7 r a s s s r e 6 2 2 2 1 ; ; 1 2 6 7 6 2 2 2 6 e d d s a a s z z d 0 % O O + + $ $ $ $ $ $ $ % % % % % % % % % % % % % % % % % % % : % % = # O .   o o . O O + ; e I ).DX1XOXG.N a e 7 9 8 2 1 ; > ; - ; ; 1 2 6 e e e 7 6 1 1 1 1 1 1 1 1 ; , $ O O . O $ ; e ' %XDX%Xe.n r 7 7 e a a 7 1 , $ + O O $ 7 ^ *X<X[ s 7 2 2 2 1 - $ + $ 6 @.-XN.z 2 - % + O $ 6 } 8Xt.t : + $ 6 J CX/.-.;.;.-.E.K.K.=.E.E.-.-.-.K.K.K.@.=.=.=.J.=.=.=.=.=.@.@.[ @.@.=.+.+.+.+.+.+.+.+.] ] ] ] ] ] ] ] ] ] ] ] ] ] ] ] / / / / / ] ] ] ] ] ] / ] ] ( ( ( ( ( ( ! ! ! ( ^ ^ ^ G H G J G A F ( G G G ..X.X.#.D.=XG 2 $ + 1 a L.9X} 7 % + + % - 7 ~ 8X;XS 2 $ + + - ; 2 6 6 7 9 f ` %XDXN.s 1 $ O O $ 2 p r 7 1 1 2 2 1 1 1 1 2 2 6 e s /  X+XXX[ e % + O @ O . + 1 6 6 7 7 7 7 e e e e 7 7 6 4 4 ; - - - ; - : % ; 2 7 e r r s z L u.OXxXcX#XG e - + @ X .         O - 2 6 7 7 7 7 7 7 7 7 7 e e e e e e e e e e e 7 7 7 7 7 7 7 e e e 7 6 6 7 7 e a s s z z z z z s s a r 6 2 2 ",
"- - - ; ; 2 7 r a s s s r e 6 2 2 2 1 ; ; 1 2 6 7 6 2 2 2 6 e r d s a a z z z d 0 % O O + + $ $ $ $ $ $ % % % % % % % % % % % : % % % % % % % % : % % = # O .   o o . O O $ ; e I ).DX1XOXG.M a e 7 7 6 2 1 ; ; - - - ; 1 2 6 7 r r e 6 2 1 1 1 1 1 1 1 ; , % + O . O $ ; r ` %XDX%Xe.n r 7 7 e a a 7 1 , $ + O O % 7 ^ *X<X[ s 7 2 2 2 1 - $ + $ 6 @.-XN.z 2 - % + O $ 6 } 8X[ t : + $ 6 v E.W.CXCXCXCXAXAXAXCX6X6X6X6X6X6X6X6X9X9XAXAXAXAXAX9X9X9X9X9X9X9X9XAXAXAXAXAXAXAXAXAXhXhXhXhXhXhXhXhXhXhXhXhXhXhX=X=X=X=X=X=X=X=XhXhXhXhX=X=XhX=X=X=X^.^.^.^.^.^.^.^.^.;X=X=X=X^.5X5XhXAXvXgXAXAXCXCXZXeX*X-X .6 % $ 1 d J.9XJ 6 % + + % - 7 ~ 8X^.S 2 $ + + : 3 2 6 7 7 7 f ) %XDXN.s 1 + O O $ 2 p r 7 1 1 2 2 1 1 1 1 2 2 6 e s / *X+XXX[ e % + O @ O . + 1 6 6 7 7 7 7 e e e e 7 7 6 2 1 ; ; ; - ; - : : ; 2 7 e r r s z L u.OXxXcX{.S e - + @ X . .       O - 2 6 7 7 7 7 7 7 7 7 e e e e e 7 e e e e e e e 7 7 7 7 7 7 e e e 7 6 6 7 7 e a s s s z z z z s s a r 6 2 2 ",
"- - - ; 1 2 7 r a s s s r e 6 2 2 2 5 ; ; 1 2 6 q 6 2 1 2 6 e r a a a s z z z d 6 - + + + $ % $ $ $ $ $ $ $ $ % % % % % % % % % % % % % % % % % - % % & + .     o   . O O $ ; e I ].DX1XXXG.M r e 7 7 6 2 1 ; ; ; ; ; ; 1 6 7 e r r e 6 2 1 1 1 1 1 1 1 ; , % + O O O $ - e ' %XDX%X_ n r 7 7 r a a 7 1 , $ + O O % e ( -X<X[ s 7 2 2 2 1 - + + % 9 @.-XJ.z 2 - % + O $ 6 } 8X[ t - + $ ; e C A A A A A ! ! S A A A S S ! S S S S S F ^ ^ ^ ^ ! F F F ^ ^ ^ ^ ^ X.X.o.o.o.X.X.o.X.X.X.X.X.X.X.o.o.o.o.o.o.X.o.X.o.o.o.o.o.o.o.o.o.o.o.o.o.o.o.o.#.#.#.#.#.#.#.#.+.+.o.o.o.o.+.+.o.@.n.O.o.X.X.X. . .o.X.j ; $ + 1 a J.6XG 6 % + $ % ; 7 ~ 8X^.S 2 $ + $ - 3 8 6 7 7 e s ) %XDXL.a ; + O O $ 2 p r 7 1 1 2 2 1 1 1 1 2 2 2 7 s / *X+XXX[ e % + O O O . $ 5 8 6 7 7 7 7 e r r e 7 9 6 1 ; ; ; ; ; ; ; ; ; ; 4 q e r r s z L A.OXxXxX{.S e - + O . . .       O - 4 6 7 7 7 7 7 7 7 7 e e e e 7 7 e e e e e e e 7 7 7 7 7 7 7 7 7 7 6 6 7 7 e a s z z z z z z s s a p 6 2 2 ",
"- - - - ; 2 7 r a s s s a e 7 6 2 2 1 ; ; 1 2 6 6 6 1 1 2 6 e r a a s s z z c a 7 ; % % $ $ % % $ $ $ $ % $ % % % % % % % % % % - - % % - - - - - % % = + .         . . O + ; e ~ ].0X1XXXT.M r 7 7 e 7 6 2 1 1 1 2 1 1 1 6 t e r r e 7 2 1 ; ; ; 1 1 1 1 > $ O O O O + - e [ 2XDX%X) x r 7 e r s a 7 1 ; $ O O O % e +.gXGX] s 7 2 2 2 ; % + $ - e M.-X=.s 2 - $ + . % 7 X.gXK.r ; O O $ : > 3 1 1 ; 1 1 1 ; ; ; 1 1 1 1 2 2 1 ; ; ; ; 1 1 1 1 1 ; ; ; ; 1 1 1 1 1 1 1 1 1 1 1 1 1 1 1 1 1 1 1 2 2 2 2 1 1 1 1 1 1 1 1 1 1 2 2 2 2 2 2 2 4 8 8 8 4 4 4 4 4 4 2 2 2 2 2 2 2 2 2 2 2 2 2 1 1 1 ; ; ; ; ; % + O $ 2 a J.6XG 6 $ O $ - 1 e ) -X;XS 2 % + % > 4 9 7 7 e r x W 2XDXN.r ; $ O . $ 2 e e 7 1 1 2 2 1 1 3 ; 1 1 2 7 s `  X+XXX` e - + O O O O & 3 8 6 7 7 7 7 e e e e 7 6 2 1 1 3 > ; ; - ; 1 1 1 1 6 e e r a x P _.XXkXkX{.F 7 - + O . .       . O - 4 6 7 7 7 7 7 7 7 7 7 7 7 7 7 7 7 e e e e e 7 7 7 7 7 7 7 7 7 7 7 6 6 6 7 r a s z z z z z z s s a p 2 2 2 ",
"- - - - ; 2 7 r a s s s a e 7 6 2 2 1 1 ; 1 2 6 6 2 1 1 2 6 e r r a s z z z s a 7 ; - % % $ % % % $ % % % % % % % % % % % % % - - - - - - - - - - - % = + .         . . O + ; e / #XSX1XXXG.v r 7 7 e e 6 2 1 1 1 2 2 1 1 0 p r r e e 7 2 1 ; ; ; ; 1 1 1 > $ O O O O + - e [ 2XDX%X) x r 7 e a s a 7 1 ; $ O O O % e +.gXGX] s 9 2 2 2 ; % + $ - t M.-X=.d 2 - $ O . % 7 X.hXM.a 1 + . + # & & & $ $ $ $ + $ $ $ $ $ $ $ $ % $ $ + $ $ % % $ $ $ $ $ $ $ $ % % $ $ $ $ $ $ $ $ $ $ $ $ $ $ $ $ $ % $ $ $ $ $ + $ $ $ $ $ % % % $ $ $ $ % % % % % % % % & & & $ $ $ $ $ $ $ $ $ $ $ $ $ $ $ $ + + + + O O . O $ 6 s J.6X( 7 $ + % ; 1 r ) -X;XS 2 $ + $ > 2 9 e 7 e r x 2.2XDXN.e - $ O . $ 2 t t 7 1 1 2 2 1 1 3 ; 1 1 2 7 s { }.+XOXo.e - + O O O O & 3 2 6 6 6 7 e e r e e 7 6 2 1 ; ; ; ; ; - ; 1 2 1 1 6 7 e r a x U {.XXkXkX|.F 7 - + O . . o     . O - 5 6 7 7 7 7 7 7 7 7 7 7 7 e e 7 7 e e e e e 7 7 7 7 7 7 7 7 7 7 6 2 6 6 7 r a c z z z z z z s s a p 2 1 1 ",
"- - - - ; 2 7 r a s s s a e 7 6 2 2 1 ; ; 1 2 6 6 2 1 1 2 6 e r r a s z z z s r 7 ; % % % $ % % % % % % % % % % % - - - - - - - - - - - - - - - - - % = & O         . . O + ; e / #XzX1XXXG.v r 7 7 p t 6 2 1 1 1 2 2 1 1 6 t r e e e 7 2 1 ; ; ; ; 1 1 1 > $ O O O O + - e [ 2XSX%X) x r 7 e a s d 7 1 - % O O O % e +.gXAX] a 9 1 1 1 ; % + $ - t M.-X=.d 2 : + O . $ 7 $.AXM.a 2 $ + + $ $ $ $ $ $ + $ + $ $ $ $ $ $ $ $ % % % - - ; 1 1 ; ; - - % % - - - - - - - - - - - - - - - - - - - - - - - - - % % % % % % - - - - - % % % % % % % % % % $ $ $ $ + $ $ $ % % % % % % % % % % $ $ $ $ $ $ $ $ + + $ - 7 z J.6X( 7 % # % ; 1 r ) -X^.S 2 $ + $ : 2 9 7 7 e r x 2.%XDXM.e - $ O O $ 2 t t 7 1 1 2 2 2 1 5 ; 1 1 2 7 s { }.+XOX` e - + O O O O & 3 2 6 6 6 7 e r y r e 7 6 1 1 ; ; ; ; - - ; 1 1 1 1 6 7 e r a x U {.XXkXkX{.F 7 - + O . . o     . O - 5 6 7 7 7 7 7 7 7 7 7 7 7 e e e e e e e e e e 7 7 7 7 7 7 7 7 7 6 6 6 6 7 r a s z z z z z s s s a p 2 2 2 ",
"- - - - ; 2 7 r s s s s a e 7 6 2 2 1 ; 1 1 2 6 6 6 1 1 2 6 e r r a s z z c s r 7 1 - % $ $ = % % % % % % % % % - - - - - - - - - - - - - - - - - - - = # O         . . O + ; e ~ #XzX1XXXG.v r 6 7 t e 6 1 1 1 1 2 1 1 1 6 e r e e e 9 6 1 ; ; ; ; 1 1 1 > $ O O O O + - e [ 2XDX[.) x r 7 e d s d 7 1 - $ O O O % r +.gXgX] a 6 1 1 1 , % + $ - t M.8X=.d 2 : # O   + 6 %.AXt.z e 1 ; ; 1 1 1 ; ; ; ; ; ; ; ; ; ; ; 1 1 1 2 2 6 7 e r d a r e p u 7 7 7 7 7 7 7 7 7 7 7 7 7 7 7 7 7 7 7 7 7 7 q q 7 7 7 6 6 6 6 6 6 6 7 7 7 7 0 0 0 0 6 6 6 2 2 5 5 1 1 1 , ; ; ; ; ; ; ; ; ; ; > ; ; ; - - - - - : : : : - 1 e x L.6XX.7 % + % ; 2 r ` -X^.S 1 $ + $ > 5 9 7 7 p a n e.%XSXM.e - + + O $ 2 t t 7 1 1 2 2 2 1 5 1 1 2 6 e s { }.+X X` e - + O O O O & > 2 6 6 6 7 e r y y p p 6 2 1 ; ; ; ; ; ; ; 2 2 1 1 6 7 e r a x U {.XXkXkX{.F 7 - + O . .       . O - 5 6 7 7 7 7 7 7 7 7 7 7 7 e e e e e e e e e 7 7 7 7 7 7 7 7 7 7 6 6 6 6 7 e a s z z z z z s s s r p 2 1 2 ",
"- - - - ; 2 7 r s s s s a e 7 2 2 2 1 ; ; 1 2 6 6 2 1 1 2 6 e y a a s s z s d y q ; % % $ $ = & % % % % % % % % % % - - - - - - - - - - - - - - ; - - = & O         . . O + ; e ~ {.zX1X`.G.v r 7 7 e 7 6 1 1 1 1 1 1 1 1 2 7 e e e e 9 8 1 ; ; ; ; 1 1 1 > $ O O O O + - e ' 2XSX[.) z r 7 e d s a 6 ; - $ O O O % r +.-X-X] a 6 1 1 1 , $ + $ - t M.-X=.a 2 : & @   + 2 X.8Xp.m x s r a a a a r r r r r r r e e r r r a a a s z x x n N N n n x x z z s s s s s z z z z z z z z z z z z z z s s a a a a a a a a a a a a a a a s s s s s s a a a r r r e e 7 7 2 2 2 2 2 2 8 8 2 2 2 2 2 2 2 2 2 2 4 4 3 4 2 6 r x L.CX .6 $ + % ; 2 r ` -X^.A 1 $ + $ > 5 6 7 q p r M e.%XSXM.e - + + O $ 2 t t 7 1 1 2 2 2 1 5 1 2 2 6 e s { }.,X*X` e - + O O O O & > 4 6 6 6 7 e e r r p u 9 2 1 1 1 ; ; ; ; 1 2 2 1 1 6 7 e r a x E _.XXkXkX{.F 7 - + O . .       . O - 4 6 7 7 7 7 7 7 7 7 7 7 7 7 7 7 e e e e e e e 7 7 7 7 7 7 7 7 7 6 6 6 6 7 e a s s z z z z s s a r p 2 1 2 ",
"- - - - ; 2 7 y s s s s a e 7 2 2 2 1 1 ; 1 2 6 9 2 1 1 2 6 e y a a s s c s d p 6 ; % % $ + & & % % % % % % % % % % % % % % % - - - - - - - - - - - : * & O         . . O + ; e ~ {.1X1X}.G.v r 7 6 7 7 2 1 ; ; 1 1 1 ; ; 1 7 e e e e 7 8 1 ; ; ; ; 1 1 1 > $ O O O O + - e ' 2XSX[.) z r 7 e d a a 6 ; : $ O O O % r +.-X-X] a 6 1 1 1 , $ + $ - t M.-X=.a 1 - & O . $ 6 %.AX].u.u.| | [ [ ] ] ] +.+.+.] ] ] ] / / / ` ] ] ] ` ' e.e.e.y.y.e.e.W E ) U U U U U U U E E E E E E E E E E E U U U I m m I I I I I L I I I I m m m I I I I I I N N n n n n x x x z s d d d d d f f f f d d d d d d d d d d y y e r s m L.6XJ 2 $ + % ; 1 r ` -X/.A 1 $ + $ : 5 8 7 6 7 r M e.%XSXM.e - + O O $ 2 t t 7 1 1 6 6 2 1 4 1 2 2 6 e z [ $X,X*X` e - + O O O O & > 4 6 6 7 7 e e r r p u q 2 1 1 3 1 ; ; 1 1 2 2 1 1 6 7 e r a x E _.XXkXkX{.F 7 - + O . .       . O - 4 6 7 7 7 7 7 7 7 7 7 7 7 7 7 7 7 e e e e e e 7 7 7 7 7 7 7 7 7 6 6 6 6 7 e a s s s s z z s s a r p 2 2 2 ",
"- - - ; ; 2 7 y s s s s a e 6 2 2 2 1 1 ; 1 2 6 9 2 1 1 2 6 e y a a s s s s g i 6 ; % % + + # # $ % % % % % % % % % % % % % - % - - - - - - - - - - % = + .         . . O + ; e ~ {.1X1X`.G.v r 7 6 7 7 6 2 ; ; 1 1 1 1 ; 1 7 e e e e 9 6 1 ; ; ; ; 1 1 1 > $ O O O O + - e ' 2XSX[.) z r 7 e d a r 6 ; - $ O O O % r ] =X=X/ a 8 1 1 1 - + O + - t M.9X=.a 2 ; - $ + - 7 ..AX{.-X0X8X9X%X-X8X-X*XjXjXgXgXgXgXgXgX-X-X-X<X<X<X<X:X2X:X,X,X,X:X:X>X<X<X<X<X<X<X<X-X-X=X*X*X*X*X*X&X&X&X&X&X&X&X&XQ.Q.#X{.{.{.}.}.{.{.}.{.{.{.D.D._.)._._._._.].I.U.I.I.I.I.F.A.A.M.M.M.M.M.M.M.M.M.n.n.n.n.t.n.[ ` ] ] +.+.$.} } { i.qXKXJ 6 $ + % ; 1 r ) -X/.M 1 $ + $ : ; 2 6 6 7 e x _ [.0X@.e - $ + O $ 8 y y 7 1 1 6 6 2 2 2 1 2 2 6 e z [ :X,X*X` e - + O O O O & > 4 6 6 7 e e e e e e 7 q 2 1 1 1 1 1 ; 1 1 2 2 1 1 6 7 e r a x U {. XkX,X#XF 7 - + O . .       . O - 4 6 7 7 7 7 7 7 7 7 7 7 7 7 7 7 7 e e e e 7 7 7 7 7 7 7 7 7 7 7 6 6 6 7 7 e a s s s s s s s a a r p 2 2 2 ",
"- - - ; ; 2 7 y s s s s r e 6 2 2 2 1 ; ; 1 2 6 6 2 1 1 2 2 e r a a s s s s d i 6 ; % % $ + # # $ $ $ $ % % % % % % % % % % % - - - - - - - - - - - % % + .         . . . + ; e ~ _.1X1X`.G.v r 6 6 7 7 6 4 1 ; 1 2 2 1 1 1 7 r e e e 7 2 1 ; ; ; 1 1 1 1 > $ O O O O + - e [ 2XSX[.E z r 7 r g a r 2 - % $ O O O % r ] =X;X/ a 6 ; 1 ; - + O + - t M.9X=.a 2 ; > % + % ; y %./ / ] ] ` [ O.@.O.B.C.C.C.C.V.V.V.V.V.V.V.Y.P.W.P.P.P.F.G.G.G.G.G.Q.W.W././.^.^.^.^.eXeXeXeX^.^.^.hXhXhXeXeXeXeXeX^.^.^.=XhXhXhXhXfXgXgXgXhX=X^.!.-X*XgX-XgXgX8X8XAXAXAXGXGXGXGXAX8X9X9X9X8X8XAXAXAXAXAXAXAXAXAX8X9XAXKXKXKXKXKXKXqXqXPXPX,.6 % $ $ - 1 e ) -X/.v 1 $ O + % ; 2 2 2 6 e x _ [.0X@.e - $ + O $ 8 y y 7 1 1 6 6 2 2 2 1 8 6 6 e z [ :XkX*X` e - + O O O O & > 4 6 6 e e e e e e 7 7 7 2 1 1 1 1 1 1 1 1 2 2 1 1 6 7 e r a x U {. XkXkX#XF 7 - + O . .       . O - 4 6 7 7 7 7 7 7 7 7 7 7 7 7 7 7 7 e e e e e e 7 7 7 7 7 7 7 7 7 6 6 6 6 7 e a d s s s s s s a a r t 2 2 2 ",
"- - - - ; 2 7 y a s s a r e 6 2 2 2 5 1 1 1 2 6 6 2 1 1 2 6 e r a s s s s a r p 6 1 - % % & & = % % % % % % % % - - - - - - - - - - - - - - - ; - - : * & O .         . O + - e ~ {.<X1XXXH.v e 6 2 7 7 8 2 1 1 1 2 1 1 1 1 7 e 7 e e 9 6 1 ; ; ; 1 1 1 1 > $ O O O O + - e [ 2XDX%X) z r 7 e d a r 2 - % + O O O % r +.8X=X( a 2 ; ; ; % $ O + % t M.;X] a 2 ; : & O . + % ; 1 2 2 2 2 6 6 6 6 6 9 9 9 7 9 7 7 7 7 7 e e e e e 7 7 e e r r r y y y i i i i y d d f f f f f c c c c c c V V V V K K K Z Z Z Z Z V V Z Z Z Z Z Z ................G G G X.X.X.X...} } } } } } } } } } $.$.$.$.$.$.=.=.=.=.=.*.*.*.=.=.>.%.l 2 $ + % ; 1 r [ -XP.v 1 $ O + - 1 2 2 2 2 e z e.%X2X@.e % + + O $ 2 t t 7 2 2 6 6 2 2 4 2 8 6 6 e z [ $XkX>X` e - + O O O O = > 2 2 6 7 r r r r e e 7 6 2 2 1 1 1 1 1 ; 1 2 2 1 1 6 7 e e a z ) G. XzXzXG.S 7 - + O . .         O - 4 6 7 7 6 7 7 7 7 7 7 7 7 7 7 7 7 7 e 7 e e e e 7 7 7 7 7 7 7 7 6 6 2 6 7 e r a a s s s s a a a r 7 2 2 1 ",
"- - - - ; 2 9 y d s s a r e 6 2 2 2 3 ; ; 1 2 6 6 2 1 1 2 6 7 r a a a a a a r p 7 1 ; - % $ & = % % % % % % % % - - - - - - - - - - - - - - - ; - - : * & O           . O + - e ~ #X<X1XXXF.v r 6 2 7 7 9 2 1 1 1 2 2 1 1 1 7 e e e e 9 6 1 ; ; ; 1 1 1 1 > $ O O O O + - e [ 2XSX%X) z r 7 e d d r 2 - % + O O O % r +.8X=X( a 2 ; ; ; % + O + % t M.;X@.s 6 ; : + .     . O + + + + $ $ $ $ $ $ $ $ $ $ $ $ $ $ $ $ % % % % % $ $ $ $ % % % % % % % % % % - - ; ; ; ; 1 1 1 1 1 1 1 1 ; ; ; ; ; ; ; ; ; ; 1 1 1 1 1 1 1 1 ; 1 2 2 2 2 2 6 6 6 6 6 6 6 6 6 6 6 7 7 7 7 7 7 7 7 7 7 7 7 7 7 7 e e e r r r r r r r e r e 2 % O O % ; 1 r [ -XP.M 1 $ O $ : 3 2 6 2 6 e z e.%X2X@.e - + + O $ 2 t t 7 2 1 6 6 2 2 4 2 8 6 6 e x [ $XkX*X` e - + O + O O = > 4 2 6 e r r r r e e 7 6 2 2 2 1 1 1 1 ; 1 2 2 1 1 6 7 e e a z ) G. XzXzXG.S 7 % + O . .         O - 4 6 7 7 6 7 7 7 7 7 7 7 7 7 7 7 7 7 e e e e e e 7 7 7 7 7 7 7 7 6 6 2 6 7 e r a a s s s s a a a r 7 2 1 1 ",
"% - : - ; 1 9 p d s s a r 7 6 1 1 1 1 ; ; 1 2 8 6 2 1 1 1 2 7 r r a a a a r r r 7 2 ; ; - % % $ % % % % % % % % - - - - - - - - - - - - - - - ; - - : * $ O .       . . O + - e ~ #X<XzXXXF.v r 6 2 7 7 9 2 1 1 1 2 2 1 1 1 7 e e e e 9 6 1 ; ; ; ; 1 1 1 ; $ O O O O + - e [ 2XSX[.) z r 7 e d d r 2 - % $ O O + - r +.8X=X( a 6 ; ; ; % + O + % t M.%X[ s 6 1 - $ O . . . . . . . O O O O O O O O O O . O . . O + + + + + $ + + + + $ $ $ $ $ + + + + + $ $ $ + O + + + + $ $ $ $ $ $ $ $ $ $ $ $ $ $ % % % * % % % % % % % % % $ $ $ % % % % % % % % $ $ $ $ % - - % - % % % % % % % % - - % % $ % % % % - - - - % % & + . O $ ; 1 r [ -XP.M 1 $ O $ , 5 6 6 2 6 e z e.%X<X@.e - + O O $ 2 t t 7 2 1 6 6 2 2 4 2 8 6 6 r x [ $XkX>X` e - + O + O O & > 4 2 6 7 r r r r r e 7 6 6 2 2 2 1 2 1 ; 1 2 2 1 1 6 7 e e a z ) D. XcXzXI.A 7 % O O . .       . + - 4 6 7 7 7 7 7 7 7 7 7 7 7 7 7 7 7 e e e e e e 7 7 7 7 7 7 7 7 7 6 6 6 6 7 e r a a s s s a a a r r q 2 1 1 ",
"% % : - ; 1 6 p a a a a e 7 2 1 1 1 ; ; ; 1 2 8 8 2 1 ; 1 2 9 r r a a a a a r r e 7 2 1 ; - - % % % % % % % % - - - - - - - - - - - - - - - - ; - - : * $ O .       . . O + - e / &X1XzXXXF.M r 6 2 7 7 9 2 1 1 2 2 2 1 1 1 7 e e e e 9 6 1 ; ; ; ; 1 1 1 ; $ O O O O + - e [ 2XSX[.) z r 7 e d d r 2 - - $ O O + - a +.-X;X( a 8 1 ; ; % + O + % e M.%X[ s 6 1 ; - $ + + O O O O + + # # & & # O O O O O O O + + + $ $ $ % % % $ $ $ % - - - % - % % % % % - % $ $ $ $ $ % % % % % $ $ $ $ $ $ $ % $ $ $ $ $ $ $ $ $ $ % % % % % % % % % - - % - % % $ $ $ $ $ $ $ $ $ $ + + + + + + + + + $ + O O O O + + + + & + + + O O . . $ ; 1 e [ -XP.M 1 $ + $ , 4 6 7 6 6 e z e.%X<X@.e % + O . $ 2 t t 7 2 1 6 6 2 2 4 1 8 6 6 r x [ $XkX*X` e - + O + O O & > 5 2 6 7 r r r r r e 7 6 6 2 2 2 2 2 1 1 1 2 2 1 1 6 7 e e a z ) _.OXcXzXI.A 6 % O O . .       . + - 4 6 7 7 7 7 7 7 7 7 7 7 7 7 7 7 7 e e e e e e 7 7 7 7 7 7 7 7 7 6 6 6 6 7 e r r a d a s a a r r e q 1 1 1 ",
"% % % - ; 1 8 p a a a r e 7 2 1 1 1 ; ; ; ; 2 2 2 1 ; ; ; 2 9 t a a a r r r r r e e 7 2 1 ; - - - % % % % % - - - - - - - - - - - - - - - - - ; ; - : * + O .       . . O + - e / &X1XzXXXF.M r 6 2 7 e 9 6 1 1 2 2 2 1 1 2 7 e e e e 9 6 1 ; ; ; ; 1 1 1 - $ O O O O + - r [ 2XSX[.) z r 7 e d a r 2 ; : $ + + + - a +.-X%X/ a 8 1 ; ; % + O + - t M.%X[ z 7 2 1 ; ; - - * * * % % : : : : : : % % % % * * : - - ; ; 1 2 2 8 6 t r d g j j j f r e e 7 7 e e e 7 7 7 e e e r r r r r r r r e e 7 7 7 6 6 6 2 2 8 8 6 7 7 e e e 7 e e e r a a r e e 7 6 2 1 1 ; % % % $ $ $ $ $ + + + + + + $ + + O + + + + $ $ $ + + # # + # & % ; 1 e [ -XP.M 1 $ + $ > 5 6 7 9 7 r x t.0X<X@.7 % + O . + 2 t t 6 1 1 2 2 2 2 1 1 2 2 6 e x [ $XzX*X` e - + O O O O = > 5 2 6 7 r r r r r e 7 6 6 6 6 2 2 2 2 1 1 2 2 1 1 6 7 7 e a z ) G.*XcXFXI.A 6 % O . . .       . + - 4 6 6 6 6 7 7 7 7 7 7 7 7 7 7 7 7 e e e e e e 7 7 7 7 7 7 7 7 7 6 6 6 6 7 e r r r a a a a a r r r 6 1 1 1 ",
"% % % - - 1 6 7 r a a r e 6 2 1 ; ; ; - - ; 1 2 4 1 ; ; ; 1 6 t r a r r r r e r e e p 7 2 1 ; - - % % % % % - - % % - - - - - - - - - - - - - ; ; - - * $ O .       . . O + - e / &X1XzXXXF.M r 6 2 7 e 9 2 1 1 2 2 2 1 1 2 7 e e e e 9 6 1 ; ; ; ; 1 1 1 - $ O O O O + - r [ 2X0X[.) z r 7 e r a r 2 ; : & + + + - a @.-X%X/ a 6 3 1 ; % + O + - y M.%X[ z 7 2 1 1 1 2 1 1 1 1 ; ; ; ; ; ; ; ; - - - ; ; ; 1 1 2 8 9 p t p i g x x M B N S S B v c c f f c c c b b b b M B B B m B N B n n n x z s s a a r r r r a a s z b x n B ( Y Y { | | { I B x c d r p 9 5 3 > > - , - - * * * * * * - * * * * * - - - : % * * * * * : : - ; 1 r [ -XP.M 2 $ + $ > 2 6 7 9 7 r x t.0X1X@.7 % + O . + 2 t 9 6 1 1 2 2 2 1 1 1 2 2 6 e z [ $XzX*X/ e - + O O O O & > 5 2 6 7 r r r r r e 7 6 6 6 2 2 2 2 2 1 1 2 2 1 1 6 7 7 e a z ) _.*XFXSXI.M 6 % O . . .       . + - 4 6 6 6 6 7 7 7 7 7 7 7 7 7 7 7 7 7 e e e e e 7 7 7 7 7 7 7 7 6 6 6 6 6 7 e e r r a a a a r r r p 6 1 1 1 ",
"$ % % % - ; 2 7 r r r e 7 6 1 ; ; ; - - - ; 1 2 4 1 ; - ; 1 6 e r r r r r r r r r r r p q 6 1 - - % % % % % - - - % - - - - - - - - - - - - - ; ; - - * & O         . . O + - e / #X1XzXXXF.v e 6 2 7 e 9 6 2 1 2 2 2 1 1 2 7 e e e e 9 6 1 ; ; ; ; 1 1 1 - $ O O O O + - r [ 2XSX[.) z r 7 e r a r 6 ; : % + + + - a +.-X%X` a 6 3 ; ; % + O + - y M.%XJ.z e 6 2 2 6 7 7 7 6 6 6 2 2 1 ; ; ; ; ; 1 1 1 2 2 2 6 6 7 e r a a s z n m L L Y Y L m n x z s s s z z n m m L L P P P Q Q Q Q T T P Y L B B x x z z z c c v B B Y Y P P R 2.<.1.0.0.<.<.T L n x s a r 7 6 2 2 1 1 1 ; ; ; ; ; ; ; ; ; 1 1 1 1 1 1 1 ; ; - - = % % - - - > 1 r [ <XP.v 2 $ + $ > 4 9 7 9 7 r x t.0X<X@.7 % + O . + 5 t 9 6 1 1 2 2 2 1 1 1 2 2 6 r z [ *XzX*X/ e - + O + O O = > 5 2 6 7 r r r e e e 7 6 6 2 2 2 2 2 2 1 1 2 2 1 1 6 7 7 e a z ) G.*XFXFXI.M 6 % O .   .       . + - 4 6 6 6 6 7 7 7 6 7 7 7 7 7 7 7 7 7 e 7 7 e e 7 7 7 7 6 7 7 7 7 6 6 6 6 6 7 e r r a a r r r r r p 6 1 ; ; ",
"$ $ % % % ; 1 6 e e e e 7 6 2 1 ; ; ; - - - ; 1 4 1 ; - ; 1 2 7 e r r e r r r a a r r p q 0 1 - - % % % % % % - - - - - - - - - - - - - - - - ; ; - : * & O         . . O + - e / $X1XzXXXF.v e 6 2 7 e 7 6 2 2 2 2 2 1 1 2 7 e e e e 9 2 1 ; ; ; 1 1 1 1 - $ O O O O + - e [ 2X0X[.) z r e e r a r 6 ; : % + O + - a @.<X%X( a 8 1 1 ; % + O + - t B.-XN.N s d r a a s s s a a a r r e 7 6 6 6 7 e e e e e r r a s z z x M n m P P T T R R T P P L m n n n m m L P T T R R 2.<.3.1.<.<.<.<.R R P L L m n n n n n n m m L P T R <.1.5.5.6.x.9.5.1.R P L n x z s a r e e 7 6 6 6 2 2 2 2 2 2 2 6 6 6 6 6 6 6 6 2 2 1 ; ; ; ; 1 1 1 2 2 r [ 9XP.v 1 $ + % 3 8 7 7 9 7 r x t.0X<X` 9 % + O . $ 4 t t 6 1 1 2 6 2 2 1 1 2 2 6 r x [ $XzX*X/ 7 - + O O O O = > 5 2 6 e r r e e e 7 6 2 2 2 2 2 2 6 2 2 1 2 2 1 1 6 7 7 e a z ) _.>XFXFXI.M 6 % O .   .         O - 4 6 6 7 7 7 7 7 6 7 7 7 7 7 7 7 7 7 7 7 7 e e e 7 7 7 7 6 7 7 6 6 6 6 6 6 7 e r r r r r r r r r p 8 1 ; 1 ",
"$ $ $ $ % - ; 2 q 7 e 7 7 6 6 2 1 ; ; - - - ; ; ; 5 5 ; ; ; ; 2 7 e e r r a s s s a i u 8 1 - % % % % % % % % % - - - - - - % - - - - - - - - - - - % % + . .       . . . + ; e / {.zXzXXXF.c e 2 2 7 e 7 6 2 2 2 2 2 1 1 2 7 e e e e 6 1 ; ; ; 1 1 ; ; ; , $ O O O + + % e ' ,XSX[.) z a e r d a r 6 1 > % O O + - a @.GX-X! r 2 ; 1 ; - + . O $ h ;.=X{.Z.' ` ` ` ` ` ' ) ) ) ) ) ) ~ ~ ~ ! ! ! I I I I I I I U U E E W _ _ 2.2.<.1.1.3.3.3.3.2.2.2.R 2.2.R 2.<.1.1.1.1.3.8.8.8.8.9.9.8.8.8.5.1.2.R R R T T T T R R 2.3.3.8.8.9.6.6.g.g.6.9.8.1.<.R P P L L m x c c s a a r r r r e r e e e e e e e e e e e 7 7 7 7 7 7 7 7 7 6 7 e r Y qX6Xx ; $ + % 1 6 6 6 6 7 a n y.2X>XO.9 % + O . $ 2 e e 6 2 1 6 6 6 2 2 1 2 2 6 e z [ 2XkX&X( 7 % + O O O O = ; 2 2 6 e r r r e 7 7 6 6 2 2 6 6 6 6 6 6 2 2 2 1 1 6 7 7 e a x W }.}.FXFXI.b 6 % + .             O : 4 6 7 7 7 7 7 6 6 6 7 7 7 7 7 7 e 7 e e e e e e e 7 7 6 6 6 6 7 6 7 7 7 7 7 7 e e r r r r r r r e 6 1 ; ; ",
"$ $ $ $ % - ; 1 8 9 7 7 7 7 6 2 1 1 ; ; ; - - ; ; 1 1 1 ; ; ; ; 6 7 e r d s s s a d e 6 1 ; % % % % % % % % % % - - - - - - % % - - - - - - - - - - : = + .         . . . + ; e ` {.zXzXXXF.c e 2 2 9 e 7 6 2 2 2 2 2 1 1 2 7 e e e e 6 ; - ; 1 1 1 ; ; ; > $ O . O + $ % e t.,XSX[.) z a e e r r r 6 2 1 % + O O - a @.SX-X! r 2 ; 1 1 - + . O $ u :.AXlXlX-XAX-X-X-X-X-X-X-X-X-X-X-X-X=X=X=X=X;X;X;X;XQ.Q.I.I.I.].#X#X#X%X$X$X[.[.[.3X}.`.`.`.).`.`.).`.).).).).v.).v.[.[.3X3X).v.v.v.v.v.'.).v.v.s.a.a.S.s.s.s.a.a.v.v.v.v.v.v.v.v.v.v.v.v.v.s.s.r.r.2.2.2.e._ ` ` ] / ~ ! S ! S S S S S S A A M M A A A A C v c v v c c c c c c z x i.qX7Xs 1 $ + % 1 6 6 6 6 7 a M y.2X>X` 9 % + O . $ 8 e e 6 1 1 6 6 6 2 2 2 8 2 6 e z [ :X,X&X^ 9 % + O O O O = 1 2 2 6 e r r r e 7 7 6 2 2 6 6 6 6 6 6 6 6 2 1 1 1 6 7 7 e r x W }.$XFXFXI.b 2 - + . .           O : 4 6 7 7 7 7 7 6 6 6 7 7 7 7 7 e e 7 7 e e e e e e 7 7 6 6 6 6 6 6 7 7 7 7 7 7 e e r r r r r r r r 8 1 ; ; ",
"$ $ $ $ % - - ; 2 8 9 7 7 7 6 6 2 1 ; ; ; - - - ; ; 1 5 1 ; ; ; 2 6 p r d a a a r e 7 2 ; - % % % % % % % % % % - - - - - - % % - - - - - - - - - - : = + .         . . . + ; e ` }.zXzXXXF.x e 2 2 9 e 7 6 2 2 2 2 1 1 1 2 7 r r r e 6 1 - ; 1 1 1 1 ; 1 ; $ O . O + $ % e t.,X1X].~ z r e e r r r 6 2 1 % O O O - d @.SX-X! r 6 1 1 1 ; $ O O % 9  .E.!.&X^.6X=X=X=X=X*X*X*X*XgX-XgX-XgX=XgX-X-X-X-X-X-X=X=X=X=X-X-X-X-X-X-X<X<X<X<X>X>X>X*X X>X>X>X>X<X<X<X<X<X<X<X<X1X1XzX0XSX0X1X1X1XSXSXDXSXSXSXSXSXFXFXSXzXzX1X1X1X1X1X1X,X,X,XkXkXkXkXkXzXlXjX>X*X*X*X>X<X<X1X0X0X<X%X$X%X$X$X$X$X$X$X$X{.{.{.#X#X#X#X|.|.|.&X&X&X|.|.|.T.G.P.U.0XLX9Xx 1 $ + % 2 6 6 6 6 7 a M y.2X:X` 9 % + O . $ 8 t e 6 1 1 2 6 6 2 2 2 9 6 7 r x i.:X,X#X^ 9 % + O O O O = 1 2 2 6 7 r r e e 7 7 6 2 2 2 6 6 6 6 6 6 6 2 1 1 1 6 7 7 e r x W }.$XJXFXI.C 6 - + O .           O : 4 6 7 7 7 7 7 7 6 6 7 7 7 7 7 e e 7 7 e e e e e e 7 6 6 6 6 6 6 6 7 7 7 7 7 7 7 e e r r r r r r p 2 1 ; ; ",
"$ $ % % % - - ; 2 2 6 9 7 7 7 6 4 5 ; ; - - - - ; ; 3 5 5 3 ; ; 1 6 7 p e e r r r e 6 2 ; - % % - - % % % % % - - - - - - - % % - - - - - - ; ; - - : = + .         . . . + ; e `  XcXzXXXF.x e 2 2 7 e 7 6 2 2 2 2 1 1 1 2 7 r r r r 7 3 ; ; 1 2 2 1 ; 1 ; % O O O + $ % e t.2X0X].~ z r 7 7 e r r 6 2 1 % O O O - a @.SX-X! r 6 1 1 1 ; $ O O $ 1 d C S S M C A S S S S S ! ! ^ ^ ^ ^ ^ ^ ^ ^ / / ` / / / ^ / / X./ / o./ / / o.o.o.o.o.o.o.o.#.#.#.#.+.#.#.#.#.B.B.B.B.Y.K.K.V.B.B.V.V.W.W.~.E.P.E.W.~.~.~.~.~.~.!.W.!./.^.=X&X&X&X*X*XhXhX&XhXhXhXeXeXeXeX=X-X-X0X8X8X8X9X-X9X-X-X-X-X-X-X<X<X<X<X<XlXlXlXlX*X*X*X*X*X*XfXjXvXzXAXGXHXLX6Xc ; $ + % 2 6 6 6 6 7 a M y.2X$X` 9 % O . . $ 8 t e 7 1 1 2 6 2 2 2 2 9 7 e a n i.'.,X#X^ 7 % + O O O O = 1 2 2 2 e r r e e 7 7 6 2 2 2 6 6 6 6 6 6 6 2 1 ; 1 2 7 7 e r x W }.:XJXFXQ.C 6 - + . .           O : 4 6 7 7 7 7 7 6 6 6 6 7 7 7 7 7 e 7 7 e e e e e e 7 6 6 2 6 6 6 6 t t 7 7 7 7 7 7 e e r r r e p 9 4 ; ; ; ",
"% % = = % - - ; 1 2 6 9 7 7 7 0 0 5 > - % % % - - ; 3 3 3 3 ; ; 1 6 7 7 7 7 e e e e 6 2 1 ; - - - - % % % % % % - - - - - - - - - - - - - - ; ; - - : = + O         . . . + ; e `  XcXcXXXF.x 7 2 2 7 e 7 6 2 2 2 2 1 1 1 2 7 r r r r 7 5 ; ; 1 2 2 1 1 1 ; $ O O O + $ - e t.2X0X].~ z r 7 7 7 r e 6 1 ; % O O O - s M.SX-X! r 6 2 2 2 > $ . . O $ ; 2 6 6 1 ; 1 1 1 1 1 1 1 1 2 2 1 1 1 1 1 2 6 7 7 7 6 6 6 6 6 6 6 6 6 6 6 6 8 8 4 8 4 8 8 8 4 4 4 4 8 8 8 8 9 t t t t t t t t t t t t t y y y y y y y y y y j d d d j j f V c v v v v C C C A C C C C C C C A D D D D D D D D G G G G } } ( ( { { { { { { { @.@.@.@.@.=.=.J.C.C.=.=.L.4X%.e % O O $ 1 6 7 7 7 7 r M y.2X$X` 9 % O . . $ 8 e e 6 1 1 2 2 2 2 1 2 h p r s m u.XX,X#X^ 7 % + O O O O = 1 2 2 2 e r r e 7 7 7 6 2 2 2 6 6 6 6 6 6 6 2 1 ; 1 2 7 7 e r x W }.:XJXJXQ.Z 6 - + .             O : 4 6 7 6 7 6 6 6 6 6 6 7 7 7 7 7 e 7 7 e e e e e 7 6 6 2 2 6 6 6 6 9 9 7 7 7 e e e e e r e e 7 7 6 ; - - - ",
"% % = = * - - ; ; 2 6 9 7 7 q 0 5 > - % $ $ % % % - ; > ; ; - ; 2 6 6 7 7 e e r e 7 7 6 2 1 ; - ; - - - % % % % - - - - - - - - - - - - - - ; ; - - : = + .         . . . + ; e `  XcXzXXXF.c e 2 2 7 e 7 6 2 2 2 2 1 1 1 2 7 r r r r 7 1 ; ; 1 2 2 1 1 1 > % O O O + $ - e t.2X0X].~ s e 6 6 7 e 7 2 1 > % O O O - s M.zX-X! a 7 2 2 4 > $ .   . O $ % % $ + O + + + + + + + + $ + + + + + + $ % % % % % % % % $ $ $ $ $ $ $ $ $ $ $ $ $ $ & & $ $ $ $ $ $ $ $ % % % % - % % % - - - - - - - - ; ; ; - ; ; - - - - - - ; ; ; ; 1 1 1 1 1 2 2 2 2 2 2 2 2 2 2 2 2 2 2 2 2 2 2 6 2 6 6 6 6 7 7 7 e e e e e e e e e e e e e e e r f s r r r r p ; O     + 3 6 7 7 6 7 r x i.<X:X` 6 $ O . . $ 2 e e 6 1 1 2 2 1 1 1 2 9 e r z L s.3X,X#X^ 9 - + O O O O = 1 2 2 6 e r r e 7 7 7 6 2 2 2 6 6 6 6 6 6 2 2 1 ; 1 2 7 6 e r x W }.:XJXJXQ.C 2 % + .       .     O - 4 6 7 6 7 7 6 6 6 6 6 7 7 7 7 7 e 7 7 e e e e e 7 6 6 2 2 2 2 2 6 6 6 7 7 7 e e r e e e e 7 6 2 1 - % % - ",
"% % = % % % - ; ; 1 2 6 7 7 6 2 ; - % $ $ $ $ $ $ % : - - - - ; 2 6 7 7 e e e e e 7 7 6 6 6 2 1 ; ; - - % % % % % - - - - - - - - - - - - - ; ; - - : = + O         . . . + ; e / {.zXzXXXF.c e 2 2 7 e 7 6 2 2 2 2 1 1 1 2 7 r r r e 6 ; - ; ; 1 1 1 ; 1 : $ O O O + $ - p M.,XSX[.! s 7 2 2 6 7 7 2 ; ; % O O O ; s M.zX$X! a 7 2 2 4 > $ .   . . O + O O o o O + + + + + O O + + + + + O O O + + O O O O O O O O O O + + + + $ $ $ $ $ $ $ $ $ + $ + $ + $ + + + $ $ $ $ $ + + + + + + + + + $ $ + + + + + + $ $ $ $ $ % % $ $ + + + $ $ $ % % % % % % % $ % % - - - - - - - % % % - - - - - - % % % % % % % - - - - - - - - ; - % % % - % + o o   O > 2 6 6 6 6 r x i.<X>X` 6 $ O . . + 2 7 7 6 1 ; 1 1 ; ; ; 1 9 e r z L s.:X,X&X^ 9 % + O O O O = 1 2 2 6 e r r e 7 7 6 6 2 2 2 6 6 6 6 6 6 2 2 1 ; 1 6 7 6 e r x _ }.:XJXFXP.c 2 % + .             O - 4 6 6 7 7 7 7 6 6 6 6 7 7 7 7 7 e 7 7 e e e e 7 7 6 2 2 2 2 2 2 6 6 6 6 6 7 e e r r r e e 6 2 1 ; - % - ; ",
"% % $ $ % % - - ; 1 2 6 6 6 2 1 - % $ $ + + + + $ % : - % % - ; 6 9 7 7 p e 7 7 7 7 7 7 7 q 6 6 1 ; ; - - % % % % - - - - - - - - ; - - - - ; ; - - : = + O         . . . + ; e / {.zXzXXXF.c e 2 2 6 7 7 6 2 2 2 2 1 1 1 2 7 r r r e 6 ; - - ; 1 1 ; ; 3 : & O O O + $ - e M.,XSX[.! a 7 2 2 6 7 6 1 ; ; % O O O ; s M.zX$X! a 7 2 2 4 1 % + O . O + + + O . . + + + + + + + + $ + + + + + + + O O O O O O O O + + $ $ $ $ $ % - - - - - - - % % % % % % % % % $ $ $ $ $ $ $ $ $ $ $ $ $ $ $ $ $ $ $ $ $ $ $ $ + + $ $ $ % % $ $ + + + $ $ $ % % % % % % $ $ $ $ $ $ $ $ $ $ $ $ $ $ $ $ $ $ + + + + + + + + + + + + + + + # + $ + + # + + + . o o   O , 1 2 2 2 6 e x y.<X-X` 6 $ O . . + 1 7 6 2 ; - ; ; - - ; 1 8 7 r z L s.:X1X&X^ 9 % + O O O O % 1 2 2 6 e r r e 7 7 6 6 2 2 2 2 6 6 6 6 2 2 2 1 ; 1 6 7 6 e r x _ }.:XFXFXP.c 2 % + . .           O - 4 6 7 7 6 7 7 6 6 6 6 7 7 7 7 7 e 7 7 e e e e 7 7 6 2 2 2 2 2 2 6 6 6 6 6 7 7 7 e r r p 7 6 1 ; - - - ; 5 ",
"$ $ $ $ $ $ % - - ; 2 6 6 6 2 1 % $ $ $ + + + + = % % % % % - 3 6 9 7 7 7 e 7 7 e e 7 7 7 7 7 7 0 4 ; - % % % % % - - - - - - - - - - - - - - ; - - : = + .         . . . + ; e ` &X>XkXOXF.c e 2 1 6 7 7 6 1 1 2 2 1 1 1 2 7 e e r p 6 - = - - ; ; ; > > - $ O O O O $ - e t.1XDX[.! a 6 2 2 2 6 2 1 ; - $ O O + - s M.>X#X~ a 6 1 1 1 1 ; - % % : ; ; ; ; - - - ; - - - - - ; - - - - - - - - - - - ; ; ; 1 1 1 2 6 6 6 7 7 e r r r e e e 7 7 7 7 7 6 7 6 6 6 2 2 2 2 2 2 2 2 2 2 2 2 1 1 1 1 1 1 1 1 1 ; ; ; ; ; 1 1 1 1 2 2 1 1 2 2 2 2 6 6 7 7 7 6 2 2 ; ; ; - - - - - % % $ $ $ $ $ $ $ + + # # # # # # + & & & & $ & & $ $ $ + + $ $ $ + . . . + ; 1 2 2 2 6 r x u.1X<X` 6 $ O . . $ 2 7 9 2 ; - ; - - % - ; 2 7 r s L s.XXzX=XS 6 % + O O . O % 1 2 2 2 e r r e 7 6 6 2 2 2 2 2 2 6 6 6 2 2 1 1 ; 1 6 7 7 7 a x e.}.:XSXSXF.c 2 % + .       .     O ; 4 6 7 6 6 6 6 6 6 6 6 7 7 7 7 7 7 7 7 7 e e e 7 7 6 2 2 2 2 2 6 6 6 6 q 7 7 7 e e e 7 7 7 6 1 - - ; 1 4 0 ",
"$ $ $ $ $ $ % % - 1 2 6 8 6 2 ; - $ $ + + + + + = = % % % % % ; 6 7 7 7 7 7 7 7 e e e e e r r p q 4 1 - - % % % % % - - - - - - - - - - - - ; ; - - : = + O         . . . + ; e / *X>XkXOXF.c 7 2 1 6 7 7 6 2 1 2 2 1 1 1 2 7 e e r 7 2 - $ % - - - - - - % + . . O O $ - e t.1XSXI.I r 6 1 1 1 2 2 1 ; - $ O O + - s M.>X#X~ a 6 1 1 1 1 1 1 ; 1 1 2 2 2 2 2 1 2 2 1 1 1 1 1 5 1 1 1 1 1 1 1 1 2 2 4 4 8 8 7 e i j j Z b v D B m L Y Y } } } B M B B B B B B B b b b b x x x x x b b b b b b b b b b b b K K K K K K K K K b B D G G D B B Y } Y | { Y B b z g y t t t 9 9 8 8 4 3 3 > > , , - - : - - - - - - - - - - ; ; ; - - - - - - ; - - % % % , 5 5 4 4 6 7 r M u.1X:X` 6 $ O . . $ 2 7 9 2 ; - ; ; - % - - 2 6 e s m s.:XzX=XS 6 % + O O . O % 1 8 2 6 7 r r e 7 7 6 2 2 2 2 2 6 6 6 2 2 2 1 1 ; 1 6 7 7 7 a x e.}.>XzXzXF.c 2 % + .       . .   O ; 4 6 7 6 6 6 6 6 6 6 6 6 7 7 7 7 7 7 7 e e e e 7 6 6 2 2 2 2 2 6 6 6 6 6 q q 7 p e e 7 7 7 2 1 - - - 1 2 0 ",
"$ & $ $ $ $ % % ; 1 2 6 6 2 2 1 - % $ $ + + + $ = * : : - % % - 2 6 6 7 7 7 7 e e e r r r r r r q 2 1 ; - % % % % % : - - - - - - - - - - - ; ; - - : = + O         . . . + ; e `  X>XkXOXF.c 7 2 1 6 e 7 6 1 1 2 2 1 1 1 2 7 e e e 7 2 % $ $ % % % % % - % + . O O + $ - e t.1XSX;X! a 6 2 1 1 6 2 1 > : $ + O + - s M.>X{.~ a 6 2 2 2 2 2 2 2 2 8 6 6 6 6 6 8 8 8 8 8 8 8 8 2 8 8 8 8 6 6 8 6 8 6 6 7 7 e r r a s x M N I ~ Q 4.0.f.f.f.f.f.| Q Q Q Q Q Q Q i.i.4.i.i.4.4.3.3.3.3.4.4.4.4.4.4.i.| { | { { { ~ U ~ { { | | Q 2.r.3.f.4.f.f.q.b.l.b.b.b.d.4.T P ! B B M b v b g a r p q 6 6 2 2 2 5 5 5 0 6 6 q q q q q q q q q 6 4 6 8 6 6 8 8 2 1 1 1 2 8 6 2 6 7 r M u.1X>X` 6 $ O . . $ 6 e 7 2 ; - ; ; - % - - 1 2 7 a n u.:XzX=XF 9 - + O O . O % 1 8 2 6 7 e r e 7 6 6 2 2 2 2 2 2 2 2 2 2 2 1 1 ; 1 8 6 7 7 a x t.XX>XzXzXV.c 2 - + .       . .   O ; 4 6 6 6 6 6 6 6 6 6 6 6 7 7 7 7 7 7 7 7 e e e 7 6 6 2 2 2 2 6 6 6 6 6 6 6 7 7 7 7 e 7 7 6 2 1 - % % - ; > ",
"$ $ $ $ $ $ % % > 5 4 6 6 2 2 1 ; - % $ $ + $ $ = * - - - - - - 1 2 6 6 7 7 e e r r a a a r r e 7 2 1 ; - % % % % % : - - - - - - - - - - - - ; - - : = + O         . . . + ; e /  X>XkXOXF.c 7 2 1 6 e 7 6 1 1 2 2 1 1 1 2 7 e e e 7 1 % + $ $ % % $ % % % + . O O + $ - e t.1XDX;X( a 6 2 2 2 8 2 3 > : % + + + ; c M.>X_.! a 7 6 6 6 6 6 6 6 6 6 8 8 8 8 6 6 6 6 6 6 6 2 2 2 2 2 6 6 6 6 6 6 6 6 7 7 e r a a s x n L P T W 2.1.5.5.1.1.<.<.T T T T T T T R R <.1.1.1.8.8.9.9.9.6.9.5.5.1.1.1.<.R R T T P P P L P P T T R R <.1.1.1.1.5.6.g.h.h.c.c.c.k.6.1.<.R P P L L m n x z s a r e 7 7 6 6 6 6 6 6 6 7 7 e e e e e e e e 6 6 6 6 7 7 7 6 6 6 2 2 2 2 2 2 2 6 r x u.1X>X` 6 $ O . . $ 8 e 7 6 1 ; 1 1 ; - - - 1 2 6 r n u.:XzX=XF 9 - + O O O O % 1 8 2 6 7 e r 7 7 6 6 2 1 2 2 2 2 2 2 2 2 2 1 1 ; 1 2 6 6 7 a x t.XX>XzXzXV.c 2 % + .       . . . + ; 8 6 6 6 6 6 6 6 6 6 6 6 6 7 7 7 7 7 7 7 e e e 7 6 6 6 2 6 6 6 6 6 7 6 6 6 6 6 6 7 p 7 7 q 6 4 1 - $ $ % % ",
"$ $ $ $ $ $ % % > 3 4 4 2 2 2 2 1 ; ; - % % % % % - - ; ; ; ; ; ; 1 2 6 6 7 p r r r r r r r e 7 7 2 1 ; - % % % % % - - - - - - - - - - - - ; - - - : = + .         . . . + ; e /  X>XjXOXF.c 7 2 1 7 e 7 2 1 1 1 2 1 1 ; 2 7 e e e 7 1 % + $ $ % % % % - % + . . . + $ - e t.1XSX].! a 6 2 2 1 2 1 ; - : $ O O + ; c N.>X_.~ s e 7 7 7 7 7 6 6 2 2 2 2 2 1 2 2 2 2 2 2 2 1 1 1 1 1 2 2 2 2 2 6 7 e e r a a s z n m L P T R <.<.<.<.<.R T T T P P P P P P P P P T T R R <.<.1.1.w.1.1.1.<.<.R R T P P L L m m n m m m L L P P T <.3.1.1.5.9.x.c.h.c.c.c.c.g.5.1.R T P P L L m n x z s a e e 7 7 7 7 7 7 7 e e e r r r r r r r r 7 7 7 7 9 9 9 9 9 9 6 6 6 2 2 2 2 7 r M u.1X:X` 6 $ O . . $ 8 e e 7 2 1 2 2 1 ; ; - 1 2 6 r x i.:XzX=XF 9 % + O . . O % 1 8 2 2 7 e e 7 7 6 6 2 1 1 2 2 4 2 2 2 2 2 1 ; ; 1 2 7 6 7 a x t.XXOXzXzXV.V 2 % + .       .     + ; 8 6 6 6 6 6 6 6 6 6 6 6 6 7 7 7 7 7 7 7 e e 7 7 6 6 6 6 6 q 7 7 7 7 7 6 6 6 6 6 6 7 7 7 6 0 0 4 ; $ $ $ $ ",
"$ $ $ $ $ $ % % ; ; 1 2 2 2 2 2 2 2 1 ; ; - % - - - ; ; 1 1 1 1 ; ; 1 2 6 7 p r r r r r r e e e e 6 2 ; - % % % % % - - - - - - - - - - - - ; ; - - : = + .         . . . + ; e `  XjXjXOXF.c 7 2 1 9 e 7 2 1 1 1 2 1 1 ; 2 7 e r r 7 1 % $ $ % - - % - - % + O . . + $ - e t.1XSX;X! a 6 2 2 1 2 1 ; - % $ O O + ; c V.>X{.~ s r e e e e e 7 7 7 6 6 2 2 2 6 6 6 6 6 2 2 2 2 2 2 2 2 2 6 6 6 7 r r a a s z x n m L P T R <.3.3.w.w.<.R R T T P L L P P P P P T T T R R R <.4.1.1.1.1.<.<.<.R R T P Y L L m m n n m m m L L P Q 2.3.3.3.3.9.x.k.c.c.c.c.c.x.5.1.R T T P P L m m x z s a r e e e e e t e e r y y d d d d d d s d r r p p t 9 9 9 6 6 6 6 2 2 2 2 6 7 a M u.1X$X~ 6 % + . . $ 8 e e e 6 2 6 6 2 1 1 ; 2 2 6 e x i.:XzX=XS 6 % + O . . + % 4 8 2 6 7 e e 7 6 6 6 2 1 1 2 2 2 2 2 2 2 2 1 ; ; 1 8 7 7 7 a x t.XX>XcXzXV.f 2 % + .       . .   + ; 8 6 6 6 6 6 6 6 6 6 6 6 6 7 7 7 7 7 7 7 e e 7 7 6 6 6 6 q 7 e e 7 7 7 6 6 6 6 6 6 6 6 6 6 6 8 4 ; $ $ $ $ ",
"& & & $ $ $ $ % - ; 1 1 2 2 2 2 6 8 2 4 3 ; - - ; ; ; 1 1 2 4 1 ; ; ; 1 6 7 e e e e e e r r r r p 7 2 ; - % % % % % - - - - - - - ; - - - - - - - - : = + .         . . . + ; e /  XjXjXOXF.c 7 1 1 9 e 7 2 1 1 1 2 1 1 ; 2 7 e r r e 2 - $ % - ; ; - , > : & O . . + $ - r t.1XFX;X( a 7 2 2 2 2 1 > : : $ O O + ; c V.>X{.~ s a r e e r r r e r e 7 7 7 e e e 7 9 7 7 6 6 6 6 6 6 6 9 7 7 9 e r a a s z x n n L P T R 4.w.0.0.0.f.4.R T T P L L L L L L L Y P T Q R R R 2.<.<.1.1.1.<.<.<.R R P P P L m m m n n n n m m L L P R R R R <.1.6.h.h.c.c.c.c.g.5.1.R T T P P L m m n x c d a r e 7 6 6 6 6 6 6 7 7 7 e e e r r r r e r r e 7 6 2 2 2 2 2 2 1 1 1 1 6 7 a M u.1X$X~ 6 % + O . = 6 e r e 6 6 7 9 8 4 5 1 2 2 6 e z [ $XzX=XS 6 % + O . . + * 4 8 8 6 7 e e 7 6 6 6 2 2 1 2 2 2 2 2 2 2 2 1 ; ; 1 2 6 7 e a x t.XX>XcXzXV.f 2 % + .       .     + ; 8 6 6 6 6 6 6 6 6 6 6 6 6 7 7 7 7 7 7 7 7 e 7 7 7 6 6 6 6 7 e e e 7 7 7 7 6 6 6 6 2 6 6 6 2 8 2 1 % % % % ",
"% & $ $ $ $ $ % % - ; 1 1 2 2 6 6 6 8 0 5 1 ; - ; ; ; ; 1 4 4 1 ; - - 1 6 7 7 7 e r r r r r r r p 7 2 ; - % % % % % - - - - - - - - - - - - - - - - : % + .         . . . + - e /  XOXkXOXF.c 7 1 1 9 e 7 2 1 1 1 2 1 1 ; 1 7 e e r e 2 - - - ; ; ; ; > 3 - & O . . O $ - r t.1XSX#X! a 6 2 2 1 1 1 ; - % $ O O + 1 c L.<X#X~ z a a r r r r a r e e e e e e r e e e 7 7 7 7 7 7 7 7 7 e e e e r s s z z x n N m L P T T R <.<.<.R R R T T P L m m m m m m L L L P P P T R R <.<.1.1.1.<.<.R R R P P L L m m n n m m m L L L P P T R R R <.1.5.g.h.c.c.c.c.k.6.5.<.R R T T P L m n M v s d r e e 7 6 6 6 6 7 7 e e e e e r r r a a a r r e 9 6 6 2 6 6 2 2 1 2 2 2 7 a n u.1X$X/ 6 $ O O O - 8 y r e 7 6 7 7 6 8 0 2 8 2 6 e x i.:XzX!.S 6 % + O . O + , 8 9 9 7 e e e 7 6 6 6 2 2 1 2 2 2 2 2 2 2 2 1 1 ; 1 8 9 7 e a x e.XX>XcXzXV.f 2 % + .       . .   + ; 8 6 6 6 6 6 6 6 6 6 6 6 6 7 7 7 7 7 7 7 e e 7 7 6 6 2 2 6 6 7 e e e e 7 7 7 7 6 6 6 6 6 8 2 1 1 ; ; ; ; - ",
"% % $ $ $ % % % % % % - ; 1 7 e 7 6 6 0 4 ; - - - % - - ; 1 1 ; % % - ; 6 e e e r r r r a a a a r 7 2 ; - % % % % - - - - - - - - - - - - - ; ; ; - : % + O     o . . . . O - e /  XOXpXOXF.c 6 1 1 7 7 6 2 1 1 2 2 2 1 ; 1 6 7 7 7 7 6 2 1 ; ; 1 1 1 1 1 , $ O . . O $ ; r n.,XFX].! r 6 2 1 ; ; ; 1 > - $ O O $ 1 c K.AXQ.U x s a a a a a a a r r r r r r r e e e e e e e e e e e r r r d d s z x n n n m I L E T R R <.<.1.w.1.1.<.<.R T P L L L L P P T T T <.<.<.1.1.5.5.5.6.6.5.5.1.1.1.<.<.R R R T T T P P P P P P T T R 4.w.w.7.7.j.k.c.c.c.c.c.c.c.c.k.j.5.<.<.R T P L m n x x s s a r e 7 7 7 e e p p r r r r r r r r d d d d r r p t p p 7 q 6 6 6 6 6 e a N A.<XgX^ 2 $ O O $ ; 9 t e e 7 7 7 7 7 6 9 6 9 6 7 r x i.:XzX!.S 6 % + O . O $ ; 9 e r r r e e 7 7 7 6 2 2 2 2 2 2 2 2 2 2 2 1 1 ; 1 8 7 7 7 a x t.}.>XFXzXN.f 2 % + .   o o .   . + ; 4 6 6 6 6 6 6 6 6 6 6 6 6 6 6 7 7 e e e e 7 7 6 6 2 2 2 2 6 2 6 7 r r r p r e r e e 6 2 5 3 ; - ; ; ; ; 1 ",
"% % $ $ % % % % % % & % - 1 9 e 7 7 6 2 1 ; - % % $ % % - ; 1 ; % % - 1 6 e r r r r r r a a a a r e 6 ; - % % % % - - - - - - - - - - - - - - ; ; - : % + .   o . . . . . O - e /  XOXpXOXF.c 6 1 1 7 9 6 2 1 1 2 2 2 1 ; 1 6 9 7 7 7 6 2 1 1 ; 1 1 2 2 1 , $ O . . O + ; r n.,XFX%X! r 7 2 1 ; ; ; 3 3 - + . O % 1 c K.8XI.W L n x x x x x z z z z z z z s s s a a a a a a a a c c x x x v M n m m m L L P P T T R R <.1.w.w.q.8.8.3.1.<.R R T T T T R R <.4.1.w.w.w.5.6.g.g.h.h.g.g.6.6.5.5.1.4.<.<.R R R T T P P P P P P T T 1.5.5.6.g.h.c.c.c.c.c.c.c.c.c.c.j.5.1.1.<.R T P L m n x z z s a r r r r r r r r a a d s s s s s s s s s d d d d r e e e e 7 7 7 e r s I H.lX=XF 2 $ . O $ ; 8 9 7 7 7 7 7 7 7 7 7 7 9 7 7 a n u.:XzX&XS 2 $ + + . O $ 1 7 r r r r e e e 7 9 8 2 2 2 2 2 2 2 2 2 2 1 1 1 ; 1 8 7 7 e a x t.}.>XFXlXN.f 2 % + .   o o .   . O ; 4 6 6 6 6 6 6 6 6 6 6 6 6 6 6 7 7 e e e e 7 6 6 2 2 2 2 6 6 6 6 7 e e e e r r d d e 6 1 ; - - - ; 1 1 1 1 ",
"% % $ $ $ % % % % % & % - 1 7 e 7 7 6 2 1 ; - % % % % % - 1 1 1 % = - 1 6 e r r r r r r a a a a r e 6 1 - - % % % - - - - - - - - - - - - - - ; ; - - % + O   o . . . . . O - e `  XOX+XOXF.c 6 1 2 9 9 6 2 1 1 2 2 2 1 ; 1 6 7 7 7 7 7 6 1 ; ; 1 1 2 2 1 - $ O . O O + ; r M.,XSX].! r 6 2 1 ; 1 ; 1 1 % O   . $ 1 c V.<X,Xv.r.e._ _ _ _ _ _ ) _ ) ) ) ) ) ) U U I L I L L L L L L P P P P T T T T T T R R R 2.2.<.1.1.5.5.5.5.8.8.8.1.1.<.<.R R R R R <.<.<.1.<.1.1.5.5.6.6.g.g.6.6.5.5.1.1.<.R R T T P P P P P P P P P P T T R <.1.1.5.6.g.g.h.h.c.c.c.c.c.h.j.5.1.1.<.R T P P L I m n x x z z s s s s s s z s z z z z z x z x z z s s s s s s a a a a r r r a s z I H.<X=XF 2 $ O O $ ; 6 9 6 7 7 7 7 7 7 7 7 7 9 7 e a n u.:XzX#XS 2 $ + O . . $ 1 q r r r e e e e 7 q 8 2 2 2 2 2 1 2 2 2 2 1 1 ; ; 1 8 7 7 e a x t.}.>XFX1XN.f 2 % + .   o o .   . O ; 2 6 6 6 6 6 6 6 6 6 6 6 6 6 6 7 7 e e e 7 7 6 6 6 2 6 6 q p 7 e e e e e 7 e r d d p 6 ; - % % - ; 1 1 1 1 ",
"% % $ $ $ % % % % $ $ $ - 1 7 e 7 7 6 6 2 ; - - * % % - ; 1 2 5 - % - 1 6 p p r r r r r a r a a r e 6 1 - - % % % - - - - - - - - - - - - - ; ; ; - - % + O   o o . . . . O - e `  XOX+XOXF.c 6 1 2 7 9 6 2 1 1 2 2 1 1 ; 1 2 7 7 7 7 7 6 2 1 ; 1 1 2 2 2 > $ O . . O + - r M.,XSX].N r 6 2 1 1 1 2 2 1 % +   . $ 1 C Y.zXkX,XXX:X:X$X$X$X$X}.}.}.}._._._._._._.I.U.U.S.S.S.S.S.S.S.S.S.S.S.).S.d.d.d.d.S.S.s.a.s.a.v.v.x.x.x.x.v.v.v.a.a.a.s.s.s.s.s.s.s.s.a.a.s.s.s.a.v.v.v.v.v.v.v.v.v.a.a.a.p.p.y.r.r.e.e.e.e.e.e.e.e.e.r.r.3.3.8.8.9.9.x.x.z.c.c.b.c.c.c.c.v.v.v.v.a.s.r.r.e._ _ ) ) ~ ~ ~ I I I I I I I L U U U U U U E U U U I I I I I N N N N M M M M M x M m _ (.>X!.S 2 $ . O $ ; 8 q 9 7 e e 7 7 7 7 7 7 q 7 e a m u.:XzX#XS 2 $ + O . . $ ; 8 p r r e e e 7 9 6 8 2 2 2 2 1 1 1 2 2 1 1 1 ; ; 1 8 7 7 7 a x y.}.>XFX1XN.f 2 % + .   o o .     O ; 2 6 6 6 6 6 6 6 6 6 6 6 6 6 6 7 7 7 7 7 7 6 6 6 6 6 6 7 p p r r r r r e 7 7 e r r t 6 ; - % % - 3 5 1 ; ; ",
"% $ $ $ $ $ % % $ $ $ $ - 1 6 e e e 7 q 6 1 - - % = % - ; 1 2 4 - % - ; 2 p p r r r r r r r a r r e 7 2 ; - % % % - - - - - % % , , , - - ; ; ; ; - : % + O   o o o . . . O - e `  XOX+XOXF.c 7 1 2 6 7 6 2 1 1 1 2 1 1 ; 1 6 7 7 7 7 7 6 2 1 ; 1 2 2 2 4 > $ O . . O + - r O.,XSX}.! a 7 2 2 2 6 6 6 2 ; $ O O + 1 V C.lXkX,X,X,XkXkXzXzXzXzXzX,X,X,X,X,X,X,X,XzX1XlXlXlXzXzXzXzXzXzXzXzXzXzXzXlXlXlXlXlXlXkXkXjX+X,X+X,X,X,X1X1X1X2X2X2X2X1X1X1X1X2X2X2X2X2X<XjXvXvXvXxXxXxXxXkXkXxXxXvXxXxXxXkXkXjXjXjXjXjXjX>X>XOXOXOXOXOX>X&X=X=XgX*X*X>X>XOX+X+X+X+X+X+X@X+X@X@X+X+X@XXX X}.}.{.{.{.{.T.T.F.A.A.A.S.S.S.S.G.S.).).).).).).S.S.S.S.S.S.S.S.A.A.A.A.Z.Z.A.N.[ M.Z.(.'.@XT.A 2 $ . . + % 5 4 0 7 7 7 7 7 7 7 7 6 9 7 e s m u.:XzX#XS 2 $ + O . . + ; 6 7 e e e e 7 7 7 6 8 2 1 4 4 1 1 1 2 1 1 1 ; ; ; 1 8 7 7 7 a x y.XX>XFX,Xm.f 2 % + .   o   .   . O ; 2 6 6 6 6 6 6 6 6 6 6 6 6 6 6 6 7 7 7 7 7 6 6 6 6 6 6 7 r y a a a a r e 7 7 e e e p 2 ; % % % - ; 5 3 ; ; ",
"% $ $ $ $ $ % % % $ $ $ - 1 6 e e e e t 6 1 - % % % % - ; 1 2 2 - % - ; 2 7 p r r r r r r r r r r r 7 2 ; - % % % - - - - - % % - - - - - - ; ; ; - : % + O   o o o . . . O - e `  XOX+X@XF.c 7 1 2 6 9 6 2 1 1 1 2 1 1 ; 1 6 7 7 7 7 7 6 2 1 1 1 2 2 2 2 ; $ O . . O + - r O.>XzX].! a 6 2 2 2 6 6 6 2 - $ . O + ; y F B.V.V.V.F.T.T.T.T.R.R.R.R.T.T.T.T.T.T.T.&X!.!.!.&X&X=X=X!.!.=X!.=X&X&X=XhXhXhXhXhXfXfXfXtXhXtX*XfXfXvXlXAXAX8X8X8X8XAXGX-X-X-X-X-X8X8XAXVXVXVXVXVXVXVXVXVXVXVXVXVXVXVXBXcXvXvXzXvXzXzXzXcXzXcXcXcXcXcXFXGXAXVXGXGXvXvXvXvXvXvXvXvXvXvXkXjX,X,XkXkXkXkXkXcXcXcXcXzXzXlXlX<X<X<X1X0X0XSX0X1X,X,X,X,X,X,X2X2X,X,X,X,X,X2X2X1X1X1X1X1X<X<X<XgXGXlXzX+XXXW.A 2 $ .   O $ , 1 2 2 6 6 6 6 6 6 7 6 9 7 e s m u.:XzX#XS 2 $ + O . . + - 2 q 7 e e e 7 7 6 6 2 2 1 1 1 1 1 1 1 1 1 ; ; ; ; 3 8 7 7 7 a x y.XX>XFX,Xm.f 2 % + .   o . .   . + ; 2 6 6 6 6 6 6 6 6 6 6 6 6 6 6 6 6 7 7 7 6 6 6 6 6 6 6 e r d a a a d r e e e e e e 7 2 - % $ $ % - 3 3 ; ; ",
": % % $ % % - - % % $ % - 1 7 e r r r t 6 1 - % % = % - ; 1 6 8 - % - ; 2 7 t r r r r r r r r r d r 7 2 ; - % % % % - - - % % % % - - - - - - ; ; - : % + O   o . . . . . O - e o. XOX+X@XF.c 7 2 2 6 7 6 2 1 1 2 2 2 1 ; 1 6 7 7 7 7 7 6 2 1 1 1 1 2 2 1 ; $ O . . O + - r [ >X1X_.! r 6 2 2 1 1 1 1 ; % O     . + ; 9 y d y y f f f f V V V V V V V V V V V C C C v C C C C C Z J H H H H H H F ............X.X.X.......F ....X.X.X.( X.X.X.+.+.+.+.+.+.&.&.&.+.+.@.@.@.@.@.@.=.=.J.J.K.K.L.L.J.J.J.J.J.J.L.J.J.J.J.J.J.L.L.L.L.L.E./.P.P.I.I.I.I.].I.I.I.I.I.I.I.I.].].].].].].]._._._._._.].Q.Q.#X#X#X$X&X$X*X$X$X$X$X$X*X*X*X:X$X:X>X:X>X>X>X>X>X>X>X*X*X*X=XgX*X>X}.{.E.H 1 + . . O $ > 1 2 2 6 6 6 6 6 6 7 6 6 6 e s m u.:XzX&XS 2 $ + O . . O % 1 8 7 7 e e 7 7 6 2 2 1 1 1 1 1 ; 1 1 ; 1 ; ; ; - 3 8 9 7 7 a x y.XX>XFX>XM.f 2 % + .   o . .   . + ; 8 6 6 6 6 6 6 6 6 6 6 6 6 6 6 6 6 6 6 6 6 6 6 6 6 6 6 7 r r r r a r r r r r r r r e 2 ; % % % % ; ; ; ; ; ",
": - - % - - - - - % % % - 1 7 r d r r t 6 1 - - $ $ % - ; 1 6 4 ; - - ; 2 q u p r r r r r r e r d a p 2 ; - % % % % - - - % % % % % % - - - - - ; - : % + O     . . . . . O - e o. XOX+X@XF.c 7 2 2 7 7 6 2 1 2 2 2 2 2 1 2 6 7 7 7 7 7 6 2 1 1 1 1 2 2 1 ; $ O . . O + - r [ 2XzX].! a 7 2 2 2 1 1 1 ; % + .     . + % - - % % ; ; ; ; ; ; ; ; ; 1 1 1 1 1 1 1 2 2 2 2 2 2 2 2 1 1 1 2 2 2 2 2 2 6 6 6 6 6 6 7 7 7 7 7 7 9 6 6 9 7 7 7 e e e e e e e e e e 7 e r r r r r r r r r r r a a a a a a a a a a a a a a a a s s s s s z z z x x x x x x x n x x x x x x v v v M M M M N N N N I I I ! S S F ^ ^ ^ ^ ^ ^ ^ ^ ^ ^ ^ X.o./ / / ` ` ` o.o.O.o.o.o.o.o.o.o.X.+.` O.@.#.%.j ; + . . O % 3 4 6 6 6 7 6 6 6 6 7 6 6 6 e s m u.:XzX&XS 2 $ + O .   O % 1 2 6 7 e e 7 7 6 2 2 1 ; ; ; ; ; ; ; ; ; ; ; ; - > 8 9 7 e a x y.XX>XFX>Xn.f 1 % + .   o . . . . + ; 8 6 6 6 6 6 6 6 6 6 6 6 6 6 6 6 6 6 6 6 6 6 6 6 6 6 6 7 p r r r r r r r r r r r r p 6 ; - % % - ; ; ; - ; ",
"; - : - - - ; ; - : % : ; 2 e d r r r e 6 1 - % % % % % ; 1 6 8 - - - ; 2 q p 7 e e r r r r r r a r p 6 1 - % % % % - - - % % % % % - - - - ; ; ; - : % + .     . . . . . O - e /  XOX+X@XF.c 7 2 2 9 9 9 2 1 2 2 6 2 1 1 2 6 7 7 7 7 6 8 2 1 1 1 1 2 8 2 ; $ O . . O + - r [ 1XSX].N r 7 6 6 8 7 7 6 8 3 $ O . . . O + + + O O + + + + $ $ $ $ $ $ $ $ $ $ $ $ % % % % % % $ $ % % % % % % % % % % % % % % % - % % % % % % % $ $ $ $ % % % % - % % % % % % % % - - - - - % % % % - - - - - - - - - - - - - - - - - - - - ; - - ; ; ; ; ; ; ; ; 1 1 ; ; ; ; ; - ; ; - - - ; ; ; ; ; ; ; 1 1 1 1 1 1 1 1 1 1 1 1 1 2 2 2 2 2 2 2 2 2 6 6 6 6 6 6 6 6 9 9 9 9 9 9 6 9 e r r e 8 1 $ + . O $ - 4 8 2 2 6 6 6 6 6 6 9 9 9 7 e s m u.:XzX!.A 2 $ + O     O % ; 2 2 6 7 e e 7 6 6 2 1 ; ; ; ; ; ; ; - ; ; ; ; > 3 8 6 7 e r n y.XXzXFX1XM.f 1 % O .   X   . .   + ; 2 6 6 6 6 6 6 6 6 6 6 6 6 6 6 7 7 6 6 6 6 6 6 6 2 6 6 6 7 7 e r r r r r r r r d g p 6 1 ; - - 1 4 3 1 ; ; ",
"; ; - - - ; ; ; ; - : - ; 2 e d r r r e 6 1 ; % % % % - ; 1 6 8 ; - - ; 2 0 7 7 e e r r r r r r a r e 6 1 - % % - - - - - % % % % - - - - - - ; ; - : * + .     . . . . . O - e /  X+X+X@XF.c 7 2 2 9 9 9 2 1 2 2 6 2 1 1 2 6 7 7 7 7 7 8 2 1 ; 1 1 2 2 1 ; $ O . . O + - r @.1XSX[.I a 7 6 6 2 7 7 6 8 1 % O . . . . . O O . . O O O O O O O O O O O O O O O O O + O O O O O O O O O O + + + + O O O O O + + + + + + O O O O O . . . . O O O O O O O O O O O O + + + + + + + + + + + + + # + + + + + + + O + + + + + + + + + + + + + + + + + + + + + + + + + + O O O O O + + + + + + + + + + + $ $ $ $ $ $ + + + + $ $ $ $ $ & $ $ $ $ $ $ % % % % % % % $ $ $ $ % - ; ; - % + O O . . + : 4 8 2 2 2 6 2 2 2 2 6 6 6 6 e s m A.:XzX!.A 2 $ + O     O % ; 1 2 6 7 e e 7 6 6 2 1 ; ; ; ; ; ; ; ; ; ; ; ; > 3 8 7 7 e r n y.XXkXFX1XM.f 1 % O .   X   . .   + ; 2 6 6 6 6 6 6 6 6 6 6 6 6 6 6 7 7 7 7 7 6 6 6 6 2 6 6 6 6 6 7 7 e r d r r r r d d p 6 1 ; ; ; 1 4 4 1 1 1 ",
"; ; - - - ; ; ; ; - : - ; 2 e r r r e 7 6 1 ; - % % % - ; 1 2 8 ; - ; ; 2 6 7 7 e r r a r r r r a r e 6 1 - - % - - - - - - % % % - - - - - - ; ; - : % + .     .   . . . O - e `  X+XpX@XF.c 7 2 2 9 9 9 2 1 2 2 6 2 1 1 2 6 7 7 7 7 7 6 2 1 ; ; 1 1 1 ; - $ O . . O $ - r [ 1XSX[.I r 7 6 2 2 6 6 2 2 ; $ O .     . . . O O O . . . . . . . . O . . . . . . . . o o . . . . . . . O O @ # # @ O . . O O O O O O O O O O O O O O O O O O O + + + + + + + + O O . . . . . O O O O O O O O O O O + + + + + + O O O O O O O O + + + + + + + + + + O O O O O O O O O O O O O O O O O O O O O O O O + $ + + + + + + O O O O + + + + O O O O O + + + + + + + + + O O . . O + + O .   . . o   O & ; 2 1 1 2 2 2 2 2 6 9 6 9 7 e s m A.:XzX!.A 2 $ + O     O % ; 1 1 2 7 7 7 7 6 6 2 1 1 1 3 3 1 1 ; ; 1 1 ; ; ; 3 8 7 7 e a n y.XXkXFX<XM.f 1 % O .   X   . .   + 1 2 6 6 6 6 6 6 6 6 6 6 6 6 6 6 7 7 7 7 7 6 6 6 6 2 6 6 6 6 6 6 6 7 r r y y y y d d r 6 1 ; ; ; 1 4 2 1 1 1 ",
"; ; - - ; ; ; ; ; - : - ; 2 e r r r e 7 2 1 ; - % % % - ; 1 2 2 ; ; - ; 1 6 q e r r a a a r r r r r p 6 1 - % % : : - - - - - % % - - - - - - ; ; - : % + .     .   . . . O - e ` OX+XkX@XF.c 7 2 2 9 9 9 2 1 2 2 6 2 1 1 2 6 7 7 7 7 7 8 2 1 ; 1 1 1 1 1 - + O O O O $ - r @.1XSX].I a 7 7 6 6 7 7 6 2 1 % $ + O O + + $ $ % $ $ + + + + + + + + + + + + + + + O O O O O O O O O + + + + $ $ $ + + + + + $ $ % $ % $ $ $ $ $ $ $ $ $ $ $ $ $ $ $ $ $ $ $ $ $ $ $ $ $ $ $ $ $ $ $ $ $ % $ $ $ $ $ + + + + + + + + + + + + + + + + + + + + + + + $ $ $ $ $ $ $ $ % $ $ $ $ $ + + + + O O O O O O + $ + + + O O O O O O O O O O O . . . . O O O O O O O O O O O .   . O O O .             . & > 3 5 4 8 6 6 6 6 8 9 9 q q r s m A.:XzXQ.A 2 $ + O     O % ; 1 1 2 6 7 7 6 6 6 2 1 1 5 5 5 1 1 1 1 1 1 ; ; ; 1 8 7 7 e a M y.XXkXFX<XM.f 1 % + .   o   . . . + 1 8 6 6 6 6 6 6 6 6 6 6 6 6 6 6 7 7 7 7 7 6 6 6 6 2 6 6 6 6 6 6 6 7 e e e e r y d d e 6 1 ; ; ; 2 8 4 1 1 1 ",
"; - - - - - ; ; - : * % - 1 7 r e 7 6 2 2 1 ; ; - % % - ; ; 1 2 1 ; ; ; 1 6 7 p r a a a a r r r r r e 6 ; - - - : : - - - - - - - - - - - - - ; ; - : % + .     . . . . . O - e ` >XkXkX@XV.c 7 2 2 9 t 9 2 1 2 2 6 2 1 1 2 6 7 7 6 7 6 8 2 3 > 5 1 2 4 3 , $ O . O O + - r @.1XSX[.! s e p 9 9 p t t t 8 2 2 3 3 3 3 3 3 2 8 8 4 3 3 3 3 3 3 3 ; ; ; ; ; ; ; ; - - - - - ; ; ; ; 1 1 1 2 2 2 6 6 6 6 6 7 e e e r r r r r r e e 6 6 6 2 2 2 2 2 2 2 2 6 6 6 7 7 2 2 2 2 6 6 6 6 6 6 6 6 2 2 2 1 1 ; ; ; - - - - - - - - - - - - - - - - - - ; ; ; 1 1 1 1 1 1 1 1 ; ; ; ; - % % % % $ $ + + + + $ $ + + + O O . O O O O O O O O . . . . O O O O O O O O O . . . O O $ $ + O . . . O . . . # , > 3 4 2 6 6 6 6 8 9 9 9 7 e s m A.:XzX!.A 2 $ + O     O % > 1 1 2 6 7 7 6 6 2 2 1 1 1 5 5 1 1 1 1 1 1 1 ; ; 1 6 7 7 e a n y.XXkXFX>XM.f 1 % O .   o   . .   + 1 8 6 6 6 6 6 6 6 6 6 6 6 6 6 6 6 6 6 6 6 6 6 6 6 6 q q q 7 7 7 7 7 e e 7 7 7 e r r e 6 1 ; ; ; 2 8 4 1 1 1 ",
"- - - - - - ; ; - % = % - 1 7 e 7 6 2 2 2 2 1 1 - - - - ; ; 2 4 0 1 ; ; 1 2 7 p r a a a a r r r r r e 6 ; - - - : - - - - - - - - - - - - - ; ; ; - : % + .     . . . . . O ; e ` >XkXkX@XF.c 7 2 2 9 t 9 2 1 2 2 6 2 1 1 2 6 7 6 6 7 6 8 2 3 > 1 1 2 2 1 - + . . O O + - r M.1XSX[.! a e 7 q 7 7 e p p 7 7 9 9 9 9 9 9 9 9 t 9 9 8 8 8 8 8 8 8 2 2 2 1 1 1 1 1 1 2 2 2 2 2 6 6 q q r p i g g g b b z b b B B B B B Y Y Y B B n c c f g g a a a a a g g g b b b K K K D D D G ( } } G D D b b b j h h h t t t 9 9 9 9 9 9 9 9 9 t p p p r r g g b b b B B B B B D D D J K g g j e 9 8 8 2 1 1 1 ; ; ; - - % = $ $ $ $ $ $ $ & & $ $ $ $ % % % % - - % % % $ $ $ $ % - - % $ + + $ $ & + + $ - ; ; 1 2 2 2 1 2 2 6 6 8 6 e a m u.:XzX!.A 2 $ + O   . + : 3 4 2 2 6 7 7 6 6 2 2 1 1 1 1 1 1 1 1 1 2 2 1 1 ; 1 6 e 7 e a n y.XXkXFX>XM.s 1 % O .   o   . .   + 1 8 6 6 6 6 6 6 6 6 6 6 6 6 6 6 6 6 6 6 6 6 6 6 6 6 9 7 7 7 e e e e e e 7 6 6 7 e e p 2 ; ; ; ; 1 8 4 1 1 1 ",
"- : % % % - - - % % $ $ - ; 6 e 6 2 2 2 8 8 4 1 ; ; - - ; ; 2 4 0 2 ; ; 1 2 6 r r a s a a r r r r r e 6 ; - - - - - - - - - - - - - - - - - - ; ; - - % + .     . . . . . O - e ` >XkXkX@Xm.c 7 2 2 7 e 9 2 1 2 2 6 2 1 1 2 9 7 6 6 6 6 2 1 ; ; ; ; 1 1 ; % + . . O O + - r M.0XSX].I a 7 6 6 2 2 2 6 6 7 e r r r e e 7 6 6 6 6 2 2 2 2 2 2 1 1 1 1 1 1 1 1 1 1 1 2 2 2 6 6 6 7 7 e e r a s s z v x x n m m L L L L P P L L L m n M x x z z s s s s s z x x M n n m m L P T T R R R Q T P L m m n x x z z z s s b b b b b b b b b b v v n B Y L P T R <.4.3.w.w.0.5.w.0.4.R P P L B B b v z s s y u u 9 8 6 4 5 1 1 1 1 1 1 3 1 2 2 8 8 6 9 9 7 t t t 7 9 6 6 2 1 1 6 2 1 ; - - 1 3 3 ; - ; 1 2 1 ; 1 1 1 1 2 2 6 2 6 6 e s m u.:XzXQ.A 2 $ + O . . + : 3 4 2 2 7 7 7 6 6 2 2 1 1 1 1 1 1 1 1 1 2 2 2 2 1 2 6 7 7 e a n m.XXkXFX>XM.d 1 % O .   o   . . . + 1 8 6 6 6 6 6 6 6 6 6 6 6 6 6 6 6 6 6 6 6 6 6 6 6 6 7 7 e e e e r e e 7 6 6 6 6 7 7 7 2 ; - - - 1 4 4 1 1 1 ",
"- - % % % - - - % % $ % % ; 6 7 6 6 6 7 9 8 2 ; ; ; - - ; ; 1 4 4 1 ; ; 1 1 6 p r a a a a r r r r r 7 2 ; - % - - - - - - - - - - - - - - - - - ; - : = + .         . . . + - e ` >XkXkXXXm.c 7 2 2 7 7 6 2 1 2 2 6 2 2 1 2 9 7 6 6 6 6 2 1 ; - ; ; 1 1 ; - + O O O O + - r M.0XSX[.! a e 7 6 6 2 2 6 7 7 e r a a r e 7 6 6 6 6 6 2 2 2 2 2 2 1 1 1 1 1 1 1 1 1 2 6 6 6 6 6 7 7 r r a s z z x x n N m I L P T R R R R R R R T T L L L m m m n n n n m m m L L P T T R R <.1.1.1.1.1.1.<.<.R R T T P P L L m m m n n n n n n n m L L L P T R <.1.0.q.j.x.k.k.c.k.c.h.c.c.k.6.1.<.R T P L m m m n c s d a r e 7 7 6 6 6 6 6 6 6 9 e r r r d d d d d d d d r r r r 9 t e e 7 6 6 8 6 9 9 8 2 6 7 6 2 2 2 2 2 6 2 6 9 6 9 7 e s L S.:XzXQ.A 2 $ + O . . + : 5 8 4 2 7 7 7 6 6 6 2 1 1 1 1 1 1 1 1 1 2 6 9 9 8 6 7 7 7 e a n m.XX,XFX>Xn.d 1 % O .   o   . . . + 1 8 6 6 6 6 6 6 6 6 6 6 6 6 6 6 7 6 6 6 6 6 6 6 6 6 7 e e r r r r e 7 7 7 6 6 7 7 6 6 1 - - - - 1 4 5 ; ; ; ",
"% % % % % % % % % % % - - ; 1 6 7 e e 7 7 9 2 1 ; - - ; ; ; 1 2 8 2 ; ; ; 1 6 t r a a a r r r r r e 7 2 ; % % % % - - - - - - - - - - - - - - - - - % = + .           . . + ; r O.}.zX,XXXm.c e 6 6 6 6 6 2 2 2 2 8 8 2 6 6 7 7 6 6 8 2 4 3 > > ; 1 2 2 1 - $ O O O O $ - r M.0XSX[.B a r e 7 e p p e 7 e e e e e e e e 7 7 7 7 7 7 6 6 6 6 6 6 2 2 6 6 6 6 6 6 7 7 e e p r p r r a s z x x n n m m L P T R 4.q.5.6.6.7.7.7.6.6.1.<.<.<.<.<.R R 2.2.2.2.2.2.r.3.1.1.1.1.1.1.1.1.5.5.5.5.5.5.w.3.3.2.2.2.2.W W T T T P P P P P T R <.1.5.5.w.j.k.k.k.c.c.c.h.h.c.k.h.h.k.z.g.5.5.<.R P L m m m n x x x c s s a r r r r e e t t r d a a a a d d d d d d d d r r r d d d a r r r r r r r e e e e e 7 7 7 7 e e 7 7 t e r e r s L G.>XlXI.M 1 $ + O . O $ ; 4 8 8 8 9 7 7 7 7 6 2 2 1 1 1 1 1 1 1 1 2 6 e r r e r e 7 e r M Z.XX,XzX>Xt.d 1 % O .   o   . . . + 3 8 6 6 6 6 6 6 6 6 6 6 6 6 6 7 7 7 6 6 6 6 6 6 6 7 7 e e r e e e e e 7 6 7 7 e 7 6 1 ; - - ; 1 1 1 ; ; - - ",
"% % - - - - - % % % % - - ; 1 8 7 e e e 7 9 2 1 ; - - ; ; ; 1 2 6 2 ; ; ; 1 8 t d a a r r r r r e e q 2 ; % % % % - - - - - - - - - - - - - - - - - % = + .           . . + ; r O.}.zX,XXXm.c 7 6 6 6 6 2 2 2 2 2 2 2 2 6 6 9 6 6 2 2 4 3 > ; - > 1 2 2 1 - $ O O O O $ - r M.0XSX[.I a r e 7 t e e e 7 7 7 7 7 7 7 7 7 7 7 7 7 7 7 7 7 7 7 6 6 q q q q 7 7 7 e e e e e p p r r r a s x x M n N I L L P T R 3.q.7.j.j.k.k.k.k.k.l.l.q.q.l.l.l.q.9.8.8.8.8.3.3.8.8.w.w.w.3.3.1.1.<.<.1.1.1.1.1.1.8.8.8.8.8.3.3.3.4.4.4.4.4.<.<.4.3.w.9.q.7.j.z.z.c.c.c.c.c.k.h.k.z.j.x.z.b.l.l.d.<.R P L L m m m n x x z z s s a d d r r y p p r r a a a r r r r r r r r y r r r r r r r r r r r r e e e e e e e p 7 7 7 e e 9 9 7 7 p e r s I G.>XlXI.M 1 $ + O . O $ ; 2 2 4 4 6 6 6 6 6 6 2 2 2 2 1 1 1 1 1 1 2 6 r a a a a r e e a M Z.XX,XFX>Xt.d 1 % O .       . .   + 3 8 6 6 6 6 6 6 6 6 6 6 6 6 7 7 7 7 6 6 6 6 6 6 6 6 7 e e e e e e e e 7 7 7 e e 7 6 ; , , - 1 2 2 1 ; - - - ",
"- - - - - - - % % % % - - ; 1 2 7 e e e 7 9 2 1 ; - - ; ; ; 1 2 6 2 ; - ; 1 8 y r a a r r r r r r e 7 2 ; - % % - - - ; ; - - - - - - - - - - - - - % = + .           . . + ; r O.}.zX,XXXm.c 7 6 6 6 6 6 2 1 1 1 2 2 2 2 6 6 6 2 2 2 1 1 ; - - , ; 1 1 1 - $ O O O O $ ; r M.0XSX[.I a e 7 6 6 9 6 6 6 2 2 6 2 2 6 6 6 6 6 6 6 7 7 7 7 9 7 7 7 9 9 9 9 7 7 7 7 7 7 7 7 7 e e e r a s s z x M n m m L P T T <.3.w.5.w.7.7.7.q.7.7.w.w.w.7.7.7.w.5.5.1.1.<.<.<.<.<.<.<.2.<.R R R R R R <.<.<.<.4.<.<.<.<.<.<.<.R R R R R R <.<.<.<.<.3.1.1.1.5.7.w.6.6.7.6.6.6.6.w.5.5.7.q.8.0.d.R T P L m m m n x x x z s s a a r r e e e e e 7 7 7 7 7 7 7 7 7 7 6 6 6 6 6 6 6 6 6 6 6 6 2 2 2 2 2 2 2 2 2 4 2 6 2 2 2 6 6 2 2 2 2 6 6 6 r n F.>XlXI.M 1 $ + O X . + - ; 1 1 1 2 2 2 2 4 2 2 2 1 1 1 5 1 ; ; 1 2 6 r d a a a a r r a N Z.@XlXFX>Xt.s 1 % + .   o   . . . + 3 8 6 6 6 6 6 6 6 6 6 6 6 6 7 7 7 7 6 6 6 6 6 6 6 6 7 e e r e e e e e 7 7 7 e e e 6 1 > , ; 1 2 2 1 ; ; - - ",
"- - - - - - : % % % % % - - ; 2 7 e e e 7 9 2 1 ; - - ; ; ; 1 2 6 2 ; - ; 1 6 t r a a r r r r r r r 7 6 ; - % * - - ; ; ; - - - ; ; - - - - ; ; - - : = + .         . . . + ; r O.}.SX,XXXm.c 7 6 6 6 6 8 2 1 1 1 5 1 1 1 2 4 2 1 1 1 1 ; - % % - - ; ; ; % + . . O O $ ; r M.1X1X].I r e 6 2 2 2 2 2 2 1 1 1 1 1 1 1 1 2 2 2 2 6 6 6 6 6 6 6 6 2 2 2 2 6 6 6 6 6 6 6 6 6 7 7 7 e r a a s z x x n n m L L P T R R R <.<.<.R R R R R R R R R R R R T T T T T T P T P P P P L L L m m m m L L L L L P P P P L L L L L L P P P P P P P P P P P T T R R R R R R <.<.R R R <.<.R R R P L m m m N n n x z s s s a r r e e 7 7 6 6 6 6 6 2 6 2 6 2 2 2 2 2 2 2 2 2 1 1 1 1 1 1 1 1 1 1 ; ; ; ; ; ; 1 1 1 1 ; ; 1 1 ; ; 1 1 1 1 2 e x N.jXlXI.M 1 $ + O X . O $ - ; - ; ; ; 1 1 1 1 1 1 1 1 1 3 ; ; ; ; 1 2 7 r r a a a r a s N Z.@XlXcX:X' d 1 % O . . o   . .   + 3 8 6 6 6 6 6 6 6 6 6 6 6 6 7 7 7 7 6 6 6 6 6 6 6 6 7 e e r e e e e e e 7 7 e e e 6 ; > , ; 1 8 2 1 ; ; - - ",
"- - - - - - - % % % % % % - ; 2 7 r e e 7 7 2 1 ; - - ; ; ; 1 2 6 2 ; - ; 1 6 t r a r r r r r r r r 7 6 ; - % % - - - ; - - - - - - - - - - - ; ; - : % + O .       . . . + ; r O.}.SX,XXXm.c 7 7 6 6 6 2 1 1 1 3 3 > ; ; 3 3 1 ; ; ; ; - - % % % % - ; - $ O . . O O $ ; r M.,X,X_.N r 7 2 1 1 1 1 ; ; ; ; ; ; ; ; ; ; 1 1 1 1 1 2 1 1 1 1 1 1 1 1 1 1 1 1 1 1 1 2 2 2 2 2 6 6 7 e r a a s c x b z x n m m L P P P P P P P P L L L L L L L L m m m m m m m m m m n n n n n x x z z x z z z z z z x x x x x x x x x x n n n m m m m m m m m m L L L L L L P P P P T T R T T P P L m m n M n x x z s s a a r r e e 7 7 6 6 6 2 2 2 1 2 1 2 1 1 1 1 1 1 1 1 1 1 1 1 1 1 1 1 1 1 1 1 1 1 1 1 1 1 5 ; ; ; ; 1 1 ; ; ; ; 1 1 2 7 x V.,XkXG.M 1 $ + . o   O $ % - % - - - ; ; ; 1 ; ; ; ; ; ; - - - - ; 1 7 e r a a a a s x I H.+XkXcX>X' d 1 % O .   o   . .   + 3 8 6 6 6 6 6 6 2 2 6 6 6 6 7 7 7 7 7 6 6 6 6 6 6 6 7 e e r e e e e e e 7 7 e e e 6 ; - - ; 2 8 2 1 ; ; ; ; ",
"- - - - - - - % % % % % % - ; 2 7 r e e 7 7 2 1 ; - - ; ; ; 1 2 6 2 ; ; ; 1 8 t r a r r r r r r r r 7 2 ; % % % % - - - - - : : - - - - - - - - ; - : % # O . . . . . . . + ; r O.$XSX1XXXm.s 7 6 6 6 8 2 1 1 ; ; > > - - ; > ; ; ; ; ; - % % % % % - - - $ O . . O O + ; d n.,X,X}.! r 7 2 1 1 ; ; ; ; ; ; - - - ; ; ; ; ; ; ; ; ; ; ; ; ; ; ; ; ; ; ; ; ; 1 1 1 1 1 2 2 2 6 6 7 e r r d s s z z z b x n m m L L P P P P P P L m m m m m n m m n n n n n n n n x x x x x x z z b b b z c c z z s z z z z z z z z z x x x n M M M n n m m m m m L L L L L L L L L P T R R T T T L m m n n M x x c s s a a r r r 7 7 6 6 6 2 2 2 1 1 1 1 1 1 1 1 1 1 1 1 1 1 1 1 1 1 1 1 1 2 2 1 1 1 1 1 1 1 1 1 ; ; ; ; 1 1 ; ; ; ; 1 1 2 e M F.>XjXG.M 1 $ + . o   . + % - % % - - - - ; ; ; ; - - - - - % % % - ; 6 7 e r a s a s x U (.oXkXcX:X' d 1 % O . . o   . .   + 3 8 6 6 6 6 6 6 2 2 6 6 6 6 7 7 7 7 6 6 6 6 6 6 6 6 7 e r r e e e e e e 7 7 e e e 6 ; - - ; 2 8 2 1 ; ; ; ; ",
"- - - - - - - % % % % % % - ; 2 7 r e e 7 7 2 1 ; - - - ; ; 1 2 6 2 ; ; - ; 8 t r a r r r r r r r e 7 2 ; % $ % % % - - - % % % - - - % - - - - - - % = # .   . . . . . . + ; r O.$XFX1X}.m.s 7 6 6 8 2 1 ; ; - ; - - % % - ; - - - ; - - % % % % - ; ; - $ O . . . O + ; d n.@X+X}.! r 6 2 1 ; ; ; ; ; ; ; - - ; ; ; ; ; ; ; ; ; ; ; - - - ; ; - - - ; ; ; ; ; 1 1 1 1 2 2 6 6 7 e e r d d s s z z z x m m L P P P P P T P P P L m m m m m m m m m n n n n n n n x x x x x z z z z s s s s s s z z x x b z z z z z x x n M n n m m m L L L L L P P P L L P L L L P T R R R R R P L m n n x x x z s s a a r r e 7 7 6 2 2 2 2 1 1 1 1 1 ; ; ; ; ; ; 1 1 1 ; ; 1 1 1 1 1 1 1 1 1 1 1 1 1 1 1 1 1 1 1 1 1 2 1 1 ; 1 1 2 2 2 e n F.OXjXG.M 1 + + . o   O $ - - - - - - - ; ; ; ; ; - - - - % % % % % - 2 7 e r a s a s x U (.+XjXcX$X' d 1 % O . .     . .   + 3 8 6 6 6 6 6 6 2 2 6 6 6 6 7 7 7 7 6 6 6 6 6 6 6 6 7 e r e e e e e e e 7 e r r e 9 ; - - ; 2 6 6 1 ; ; ; ; ",
"- - ; ; - - - % % % % % % - ; 2 7 r e e 7 7 2 1 ; - - - ; ; 1 2 6 2 ; ; - ; 8 t r a r r r r r r e e 6 2 - $ $ & $ % % % % % % % % % % % % % - - : : % = # .       . . . O + ; r ` $XFX1XXXm.s 7 2 2 2 1 ; - - - - : - % % - - - - - ; ; - - % % - - ; ; - $ O . . . O + ; d n.@X+X_.! r 6 2 1 ; ; ; ; ; ; ; ; ; ; ; ; ; ; ; 1 ; ; ; ; ; ; ; ; ; ; ; ; ; ; ; 1 1 1 1 1 1 2 2 6 6 7 7 e r r a d s z z x n m L P T R R R R R R R T T T T P P P P P P L L L L L L L L L L m m m m n n n x x x x x x n m m m n x x n n n n n m m m L L L L P T T T T T T R T R R T P P T R R R R <.R T P m n n x x z z s s a a r r e 7 7 6 6 2 2 2 2 1 1 1 1 1 1 1 1 1 1 2 2 1 1 1 2 2 2 2 2 2 2 2 2 2 2 2 2 2 2 2 2 6 2 2 2 2 2 2 1 2 2 6 6 7 a I D.OXjXG.M 1 + + . o   O % ; ; ; ; ; ; ; ; ; ; ; ; - - - % % % % $ $ - 1 6 7 e a a a s x U (.+XjXcX$X' d 1 % O .       . .   + 3 8 6 6 6 6 6 6 2 2 6 6 6 6 7 7 7 7 7 6 6 6 6 6 6 6 7 e r e e e e e e e 7 e r r e 9 ; - - ; 2 6 6 1 ; ; ; ; ",
"- - ; ; - - - % % % % % - - ; 1 7 e e e 7 6 2 1 ; - ; ; ; ; 1 2 6 2 ; - - ; 8 e r r r r e e r r r 7 0 5 % + + + + + $ $ $ $ + + + $ $ $ $ $ % % % % % & O .       . . . O + ; r O.}.SX1XXXn.s 6 2 1 1 ; - - % % % % % - - ; ; ; ; ; ; ; ; - - - > ; 1 1 ; % O . . . O $ - d n.XX@X`.! a 7 6 2 5 2 2 1 1 1 1 1 1 1 1 1 2 2 2 2 2 2 2 2 2 2 2 1 1 2 2 2 2 2 2 6 2 2 1 1 2 2 6 6 6 7 e e r r a a s x M N m L T 2.d.9.9.g.g.l.j.j.7.l.l.l.l.l.l.l.q.7.7.7.7.q.q.q.q.0.0.0.0.0.3.1.<.R R R T T T T R <.1.1.1.<.<.<.R R R R R R <.2.2.<.<.1.1.1.5.5.6.6.6.6.6.9.9.9.5.5.5.5.7.j.7.7.0.<.T m m n x x z s s s s a a r r e e 7 7 7 6 6 q 6 7 7 6 6 6 7 7 7 7 e 7 7 7 7 7 7 7 7 7 7 7 7 7 7 6 7 6 7 7 9 9 7 6 6 6 9 9 8 8 8 9 9 e e a U D.OXjXF.M 1 + + @ X . + - 5 2 2 4 6 2 2 2 2 2 1 1 ; - - % % $ $ $ $ % ; 2 6 7 r a a z x U (.@XkXFX>X) r 1 $ O .   o   . .   + 3 2 6 6 6 6 6 6 2 2 2 6 6 6 6 6 7 7 6 6 6 6 6 6 6 6 7 e e e e e e e e e 7 e r r e 9 ; - ; ; 2 8 2 1 ; ; ; ; ",
"- - ; - - - - % % % % % - - ; 2 7 e e e 7 6 2 1 ; - - ; ; ; 1 2 6 2 ; - - ; 8 e r r r r e e r r e 7 6 3 $ + + O O + + + + + + + + + + + $ $ $ $ $ & & # O .       . . . O + ; r O.}.SX1XXXn.s 6 1 ; ; ; - - - - - - - - ; ; ; 1 ; 1 1 3 > : , , > 1 2 2 3 - + . . . O $ ; d n.@X@X_.! a e 6 4 4 6 6 6 6 6 6 6 2 6 6 6 6 6 6 6 q 9 9 6 6 6 8 8 8 8 6 6 6 9 9 9 9 6 2 6 6 6 6 7 7 e e r r a a s z z x m L P R 8.b.b.b.b.b.b.b.b.b.b.b.c.b.b.b.b.b.b.z.z.z.k.k.x.x.z.z.z.z.b.z.l.l.8.8.8.8.8.0.s.q.g.x.g.j.l.q.q.q.q.q.0.0.0.f.0.0.0.0.0.q.l.z.b.b.b.c.b.b.b.z.z.z.z.j.j.k.z.k.z.b.w.R P L m m n x z z z z s s a a r r e e 7 7 7 7 e e e e e e e r e e e r r r r r e e e e e e e e e e e e e e e e t 9 9 6 9 8 4 2 8 9 9 7 p a U D.>XjXF.v 1 + + @ . . $ ; 6 6 8 8 9 9 7 6 6 8 2 2 1 ; - - % % $ $ $ % ; 1 2 6 e r r s x U (.@XkXFX:X) r 1 $ O .   o   . . . $ 5 2 6 6 6 6 6 6 2 2 2 6 6 6 6 6 7 7 6 6 6 6 6 6 6 6 7 e e e e e e e e e 7 e r r e 9 ; - ; ; 2 8 2 1 ; ; ; ; ",
"- - - - - - - % % % % % - - ; 2 7 e e e 7 6 2 1 ; - - ; ; ; 1 2 6 2 ; - - ; 8 t r r r r e e r r e 7 6 > $ O O O O O O + + O O O O O O + + + $ $ $ $ & + O .         . . O + ; r O.}.SX1XXXm.s 6 1 ; ; ; - - - - : - ; ; ; ; 1 3 3 1 1 3 > ; - - ; 1 2 4 3 : $ . . . O $ - d n.@X+X`.~ s r 7 6 q 7 7 7 7 7 6 6 6 7 7 7 7 7 7 7 7 6 6 6 6 6 6 6 6 6 6 9 9 7 7 e 7 q q q 7 7 e e r e r a a a s s z z x n I P R f.d.b.l.z.k.k.j.j.j.6.6.6.6.6.7.7.7.6.6.6.6.6.6.7.7.g.x.x.x.g.g.g.g.6.6.6.9.9.9.9.9.l.l.q.q.0.w.3.4.<.R R R T T T T R <.<.1.w.7.j.k.k.k.k.k.k.k.k.k.b.k.c.c.c.c.c.b.7.1.R T P L m m n n x x x z z s a a r r e e 7 7 7 e e e e e e e r r r r a a d a a r a r r r r r r r r r r e e e 7 6 6 6 8 2 1 1 1 2 2 6 6 r I F.>XjXF.v 1 + + @ . O $ 1 q 7 9 t e 7 7 7 7 9 6 8 2 1 ; ; - - % $ $ % ; 1 1 2 7 e r a x ~ (.@X,XSX*X) r 1 $ O .   o   . .   + 5 2 6 6 6 6 6 6 6 2 2 6 6 6 7 6 7 7 6 6 6 6 6 6 6 6 e e e e e e e e e e 7 7 e r e 6 ; - - ; 2 8 2 1 ; ; ; ; ",
"- - - - - - - % % % % % - - ; 2 7 e e e 7 6 2 1 ; - ; ; ; ; 1 2 6 2 ; - - ; 8 t r r r r e e r r e 7 6 ; $ O O . O O O O O O O O O O O O O + + $ $ $ & # O .         . . O + ; r @.}.SX1XXXm.s 7 1 ; ; ; ; > > > > > > ; ; 1 1 1 ; ; ; ; ; ; - - ; ; 1 2 1 : + . . . O $ - d n.@X+X}./ s r p e p e e e 7 7 7 7 7 7 7 7 7 7 7 7 7 6 6 2 2 2 2 2 2 6 6 6 6 9 7 7 7 7 7 e e e r r a a a s s z z z z x x M m P T <.0.5.1.1.1.1.1.<.R R R R R R R R R R R R R <.<.<.<.5.6.6.6.6.6.6.g.l.l.9.9.w.w.5.5.1.<.<.R T T P L L m m m m m n m L L P T R <.1.1.6.7.g.g.g.6.6.6.h.h.h.h.c.c.h.k.j.5.R T T P L L m n n n x x z z s s a r e e e 7 7 6 6 6 7 7 7 7 7 e e e r r r r r a a a r r r r e e e e e 7 e 7 6 2 2 2 2 2 1 ; 1 1 2 2 6 e N F.>XjXF.v 1 + + @ @ O % 1 q e 7 t e e e e e 7 9 6 2 2 2 5 ; - - % % - ; ; ; 1 6 7 e a x ~ (.@X1XSX$X) r 1 $ O .       . . . $ 5 2 6 6 6 6 6 6 6 6 2 6 6 6 6 6 7 7 6 6 6 6 6 6 6 6 e e r e e e e e e e 7 7 e r e 6 ; - - ; 2 8 2 1 ; ; ; ; ",
"- - - - - - - % % % % % - - ; 2 e r e e 7 6 2 1 ; - ; ; ; ; 1 2 6 2 ; - - ; 8 t r r r r e e r r e 7 6 3 $ O O . O O O O O O O O O O O O O + + $ $ $ & # O .         . . . + ; r @.}.zX,XXXm.c 7 2 2 1 1 3 > > > - - - - ; ; ; ; - - ; ; ; - - - - ; 1 1 ; % + . . . O $ - y M.XX+X}./ z a r e e r e e e 7 7 7 7 7 7 7 7 7 7 7 7 6 2 2 2 2 2 2 2 2 2 2 2 6 6 6 7 e e e r r a a s s z z z x x x n n n n m L P T R R R R R R T T P P P P L L L L L P L L L L L L L T R <.<.<.1.w.0.3.1.1.<.<.R R T L L L m m n n x x x x x x v v x n m m L P T R R <.<.1.1.1.1.1.1.6.6.g.h.c.h.h.h.6.1.<.R T P P L m m m n n n x z z s a a r e e 7 2 5 1 2 2 2 2 2 2 2 2 2 6 6 6 7 e e e r r e 7 7 6 6 6 6 6 6 2 2 6 6 2 2 6 2 1 1 1 1 2 2 6 e N F.jXjXF.v 1 $ + @ X . $ ; 6 7 7 7 e e e e e 7 7 7 6 6 2 2 1 1 ; ; - - ; ; ; 1 2 6 7 r c U H.XX1XDX%X) r ; $ O .       . . . + 5 2 6 6 6 6 6 6 6 6 2 6 6 6 7 6 7 7 6 6 6 6 6 6 6 6 e e e e e e e e e 7 7 7 e e e 6 ; - - ; 1 6 2 1 ; ; ; ; ",
"- - - - - - % % % % % - - ; 1 2 7 r e e 7 7 2 1 ; ; ; ; ; ; ; 2 6 1 ; - - ; 8 t r r r r e e r r e 7 6 3 $ O O . O O O O + O O O O O O O O + + $ % % * & O .           . . + ; r @.}.zX,XXXm.c e 6 2 1 1 ; ; ; - - - - - - - - - - - - ; ; - : - - ; 1 1 ; % + . . . O + - r C.:X+X}.~ z a r r r e e e 7 7 7 6 6 6 6 6 6 6 6 6 6 6 6 6 6 6 6 6 6 2 2 6 6 6 7 7 7 e r r r a s s z x x x n n n m m m m m L P T T R R R R T T T P P P L L L L L L L L L L L L L L L P P T T T T R R R T T T P P P L L m m m n n n x x z z z x x v v n n m m L P T R R <.<.1.1.<.1.1.5.6.g.h.h.h.h.h.6.1.<.R R T P P L m m m n n x x z z s a r e e 7 6 2 2 2 2 2 2 2 6 6 6 6 7 7 7 7 r r r r r e e e e 7 7 7 6 6 6 6 7 7 6 6 6 6 1 1 2 2 2 2 6 r N G.iXjXF.M 1 $ + @ X . $ ; 2 6 6 9 7 7 7 7 7 7 7 7 7 6 6 6 2 2 2 1 ; ; ; ; ; ; 1 2 6 e s I H.:X0XDX%X) r ; $ O .   o   . .   $ 5 6 6 6 6 6 6 6 6 6 2 6 6 6 7 6 7 7 6 6 6 6 6 6 6 6 e e e e e e e e e 7 7 7 e e e 6 ; - - ; 1 2 2 1 ; ; ; ; ",
"% - - - - - % % % % % - - ; 1 2 7 e e e 7 7 2 1 ; ; ; ; ; ; ; 1 6 1 ; - - ; 8 t r r r r e e r r e e 6 3 $ + O . O O + + + + O O O O O O + + $ $ % * * & + .           . . + ; r @.}.zX,XXXm.c e 6 2 2 1 1 ; ; - - - - - - % % % % - - - - : : - - ; 1 1 ; * + . . . O + - y B.:X,X}.) z s a r r r e e 7 7 7 6 6 6 6 6 6 6 6 6 6 7 7 7 7 7 7 7 7 7 7 7 e e e r r a a a s s z x x n n n m m m m L P P T R <.1.1.5.1.1.<.<.R R T T P P T T T T T T T T T T T T R T Q Q T T T T T T R R R T T T T T T T P P P L L m L m m m m m m m n n m L P T R <.8.9.x.x.g.g.x.j.5.6.g.k.h.h.h.k.6.5.1.4.R T T P L m m m m n n n x z s a a r r e e 7 7 7 7 e e e r r d d d d d s f s f s f f d d d d y y r r r r e e e 7 7 7 6 2 6 6 6 6 7 r I G.pXjXF.M 1 $ + @ X . $ ; 6 7 6 9 7 7 7 7 7 7 7 7 7 6 6 6 6 6 6 2 1 ; ; ; ; ; 1 1 2 7 d N S.:X0XHX%X) r ; $ O .   o   . .   $ 5 6 6 6 6 6 6 6 2 2 2 6 6 6 7 6 7 7 6 6 6 6 6 6 6 6 e e e e e e e e e 7 7 7 e e 7 6 ; - - ; 1 2 2 1 ; - - - ",
"% - - - - % % % % % % - - ; 1 2 7 e e e 7 6 2 1 ; ; ; ; ; ; 1 2 6 2 ; - - ; 8 t r r r r e e r r r e 6 5 % + O O O O O O O O O O + + + + + $ % % % : * & + .           . . + ; r @.}.zX,XXXm.c e 7 7 6 2 2 2 1 ; ; - - - - - - - % - - - - - - - - ; 1 2 3 - + . . . O + - y B.>X,XXX' n x z z z f f f s d d d d d r r r r r e r a a a a a a a a a a s s s c c c z z x x x n n m m m L L L L L P R R <.w.q.q.x.9.l.9.9.8.3.2.W R R <.<.4.3.f.0.0.1.1.<.<.<.<.<.<.R R T R R R R R R R R R R T T T R R R T T Q Q Q P Y P L L L L m m m I U W i.0.0.9.x.x.x.x.g.x.x.g.g.k.k.h.h.h.c.x.6.w.0.3.R R T L L L m m m m n x x z s s a a a a d d d d d s f s s s s s s c c z z s s s s s s s a a a a a a a d d r r r t 9 q q 7 7 e e a I I.>XjXF.v 1 + O X o . + , 0 0 6 q 7 7 7 7 7 7 7 7 7 7 6 6 6 6 6 6 6 2 1 1 ; ; 1 1 2 7 d N Z.2X0XHX%X) r ; $ O .       . . . $ 1 6 6 6 6 6 2 2 2 2 2 6 6 6 7 7 7 7 6 6 6 6 6 6 6 7 e e e e e e e e e 7 7 7 e e 7 6 ; - - ; 1 2 2 1 ; - ; ; ",
"% % % % % - % % - - - - - - ; 2 e r e 7 7 6 2 1 ; ; ; ; ; ; 1 1 6 2 ; - - ; 8 t r r r r r r r r e e 6 1 % + + O O O O O O O O O + + + $ % % % - - - : % + . . .     . . O + ; r O.$XzX,XXXm.c e 7 7 6 6 8 2 2 2 3 3 3 3 1 1 1 ; - - ; ; ; 3 > 3 1 2 6 6 4 > $ . O   . + ; y #.>X+X'.y.) I ! ~ ) ~ ~ ! I I I I I m m N N N N N N I I I I I I I I I I L I L L L L m m m m L L P P P P P T T T T T <.1.5.6.7.j.9.9.9.9.8.5.1.<.R R <.<.1.1.3.8.8.8.5.5.5.5.5.5.1.1.1.1.1.1.1.1.1.1.1.1.1.1.5.1.1.<.<.R R R T T P P P L L m m m m m m m L L P R 2.1.w.8.9.x.x.x.z.c.c.c.c.c.c.c.c.c.c.c.x.x.9.1.<.R P L L L L m m m n n x x z z s s s a s a s s s s s s s s s s s z z z z z s s s s s s s s s s s s s a a r r t t 9 7 7 e r r s N L.*XlXY.V 1 O @ X o   O < 5 6 6 7 e e e e e e 7 7 7 7 7 6 6 6 6 6 7 7 7 6 2 1 1 1 1 6 r M G.'.DXHX[.) e ; $ O .       o . O - 6 6 6 6 6 2 2 2 2 2 2 6 6 6 7 7 7 7 6 6 6 6 6 6 6 7 e r r r e 7 7 7 7 7 7 7 7 7 6 8 ; ; - - 1 4 1 1 ; ; ; ; ",
"- - - - % - % % - - - - - - ; 2 e r e 7 7 6 2 1 ; ; ; ; ; ; 1 1 6 2 ; - - ; 8 t r r r r r r r r e 7 6 1 % + + O O O O O O O O O $ $ $ % % - - - - - - * + .       . . O O + ; r @.>XSX,XXXV.c e 7 6 6 2 2 2 1 1 1 ; ; ; ; ; ; ; - - ; ; ; ; > ; 1 2 6 6 4 > $ O .   . + ; d Y.lXkX+X>X&X^.&X&X{.T.T.T.G.G.G.G.S.G.G.G.G.F.F.H.H.A.A.A.A.Z.Z.Z.A.A.A.A.u.A.A.A.u.u.i.i.i.u.u.p.p.y.r.p.s.p.u.u.s.9.x.x.x.x.x.v.v.v.v.9.9.8.8.8.8.3.3.3.8.8.8.8.8.8.8.8.9.9.9.9.9.v.v.v.v.v.v.v.v.v.v.v.v.v.v.9.9.1.<.2.2.R R R T W T T T U U U U T W W W 2.2.3.8.5.8.9.6.x.x.h.h.c.c.c.c.c.c.c.c.c.c.c.x.9.8.1.<.R T T T T P P P L L I m m m n n x x x x x x z z x x x x x x x x x n n n n n n n x x n x x x x x z z s s a r r r r r a s z x I J.%XGXB.V 4 & # o o . O * 5 2 2 6 7 7 7 7 7 7 7 7 7 7 6 6 6 6 6 7 7 e e 7 6 2 2 1 1 6 r M G.'.DXHX[.) e - & O .       o . O - 6 7 6 6 6 2 2 2 2 2 4 2 6 6 7 7 7 7 6 6 6 6 6 6 6 7 e r r r e 7 7 7 7 7 7 7 7 9 6 4 1 ; ; ; ; 5 2 1 ; ; ; ; ",
"- - - - - - - - - - - - - ; ; 2 e r e 7 7 6 1 ; ; ; ; ; ; ; 1 1 6 2 ; - - ; 8 e r r r r r r r r e 7 6 1 % + + O O O O O O O + + & % % % - - - ; - - - * + .       . . O O + ; r @.>XFX,XXXN.s 7 2 2 1 1 1 ; ; - - - - - - - - - % % - - - - - - ; 1 2 2 5 , $ . O . O $ ; d C.jXoXoX+X,XjXlX+X+XpXpXkXjXjXjXlXkXzXzXzXkXkXjXjXjXfX*XfXfXfXgXgXgXgXgXgX-X-X*X*X*XjXjXjXjXjXOXOXOX@X@X@X@XOXOXOX+X+X+X@X@X@X@X@X'.@X@XXXXXXXXXXXXXXX X X X XXXXXXXXXXXXXXX@X@X@X+XXX@XXXXXXXXXXXXX@X@XXXXX'.'.'.'.'.'.`.`.`.(.(.(.v.a.H.S.H.H.Z.p.(.(.(.(.(.(.(.v.v.v.v.v.v.v.v.v.z.z.c.c.'.'.'.'.'.'.'.v.v.v.a.a.a.a.a.a.a.p.p.p.y.y.y.y.t.t.t.t.e._ _ _ _ _ _ _ _ _ _ _ _ _ _ _ _ _ _ _ _ _ _ _ W W W W E E E W R T T P U I I N N m L P P T 2.s.2X0Xi.x 2 $ O . . . O % 1 2 2 2 1 1 1 1 2 2 2 2 6 6 6 7 7 7 7 7 7 7 e e q 6 2 2 2 6 r M G.'.DXHX[.~ e - $ O .       o . + ; q e 7 7 6 6 2 2 2 2 2 2 6 6 6 7 7 7 6 6 6 6 6 6 6 7 e r r e e 7 7 7 7 7 7 7 7 9 6 4 1 ; ; ; 1 5 2 1 ; ; ; ; ",
"- - - - - - - - - - - - ; ; ; 2 e r e 7 6 6 1 ; ; ; ; ; ; ; 1 1 6 2 ; - - ; 8 e r r r r r r r r e 7 6 1 % + + O O O O O + + $ $ % : : - - - ; ; ; ; - * + .       . . O O + ; r @.>XFX,XXXm.s 7 2 1 ; ; - - - % % % % % % % % % % % - - - - - - ; ; 1 1 ; - + . . . O + - y +.&XOX+XOX*X*X>X+X+XiXOXiXOXOX,XjXjXzXkXkXkXkXkXiXiX*XfXfXjXvXvXlXzXlXlXlXlXlXlXlXlXcXcXcXcXcXxXxXkXkXkXkXxXxXxXxXxXcXcXcXcXxXxXxXxXxXxXxXxXxXxXxXcXcXcXcXcXxXkXkXkXxXkXkXkXpXkXkXkXkXkXkXkXkXkXkXkX+X+X+X+X+XpXpX+X+X,X,X+X+X+X+X+X@X+X,X,XzXzX,X,XkXpX+X+X+X+X+X+X+X+X+X+XXXXXXX3X3X3X3X3X@X@X'.'.@X@X@XXX:XXX[.}.XX@X@X@XXXXXXXXXOX}.}.}.}. X X X*X*X*X&X}.}.}.}.}.}.{.}.{.{.{.{. X X X X}.{.}.{.}.{.{.{.{.{..X_.(.(.).S.S.G.F.F.A.N.A.S.S.v.v.).3X0Xu.x 2 $ + O O . O % 1 2 2 2 1 1 1 1 2 2 2 6 6 6 7 7 7 7 7 7 7 7 e e q 6 6 6 2 7 r M G.'.DXHX[.~ 7 - $ O .       o . + > u r e e 7 7 6 6 2 2 2 6 6 6 6 6 6 6 6 6 6 6 6 6 6 7 e e e e e 7 7 7 7 7 7 7 7 9 6 4 1 ; ; ; 1 4 2 1 ; ; ; ; ",
"; ; ; - - - - - - - - - ; ; ; 1 e r e 7 6 6 1 ; ; ; ; ; ; ; 1 1 6 2 ; - - ; 8 e r r r r e r r r e 7 6 1 % + O O O O O + + $ % % : - - - ; ; ; ; ; ; - * + .   .   . . . O + ; r @.>XFX,XXXn.s 7 1 ; ; ; - % % % % % % % % % % % % - - - - - - - ; 1 1 1 1 - + .     . O % 0  .-.Y.V.B.B.B.V.D.D.D.G.G.G.G.G.G._._._._._.G.G.D.D._._.{.{.$X$X$X$X$X$X$X$X$X$X$X*X<X<X<X<X<X>X>X>X>X>X>X>X<X<X1X<X<X<X<X<XlXzXzXzXlXjX>X>X>X>XlXlXlX1X1X1X1X1X1X1XkX,X,X,X,X,X,X,X,X,X,XkXzX,X,X,X+X+X+X+X,X,XkXzXkXkXkXkXkXkXkXkXkXkXzXFXJXJXFXcXcXcXcXcXcXcXcXcXcXFXFXFXFXzXzXcXxXxXxXxXxXkXpXpXxXxXkXxXxXxXcXcXxXxXxXxXxXxXxXxXxXxXsXsXsXxXxXMXxXcXcXcXcXcXcXcXcXxXxXxXxXxXxXxXNXNXMXMXMXxXxXvXdXiXdXvXdXvXdXsX+X,X,XjXjXlXlXlXlXlXlXGXSXSXDXHX0XqXf.x 6 = + O O O + : 4 8 2 6 9 7 7 q 7 7 7 7 7 7 7 7 7 7 7 7 7 7 e e 7 7 7 7 6 e a N G.'.DXHX[.~ 7 - + O .       o . + > u r r r e 7 7 6 6 2 2 2 6 6 6 6 6 6 6 6 6 6 6 6 6 7 e e e e e 7 7 7 7 7 7 7 7 9 6 4 1 ; ; ; 1 5 2 1 ; ; ; ; ",
"; ; ; ; - - - - ; - - ; ; ; ; 2 e r e 7 6 2 1 ; ; ; ; ; ; ; 1 1 6 2 ; - - ; 8 t r r r r e e r r e e 6 1 % + O O O O + $ $ % : : - ; ; ; ; ; ; ; ; ; , * + .         . . O + ; r n.<XFX,XXXm.s 7 2 1 ; ; - - % % % % % % % % % % - ; ; ; ; ; ; ; 1 2 2 2 1 > $ .     o   O - 9 j s s f f c C A N S N N N N N N N ! S ! ! ! ! ! ! ~ ~ / / / / ) ) ) ) ) ) ) ) ` ` ` ` ` ` ' ` ` ` ` ` ` ] ] ] ] ] ] ] ] +.+.+.@.@.O.O.O.O.O.#.#.@.M.M.B.M.B.M.B.B.V.N.V.N.V.N.V.V.V.A.F.F.F.F.F.F.F.F.A.A.F.F.G.G.Q.Q.Q.Q.Q.Q.Q.Q.Q.Q.!.=XhXAX=X=X&X&X&X&XhX&XhXhXhXhXhXhX=X^.=X=XhXfXhXfXfXfXfXfXfXfXfXhXfXfXhXgXfXfXfXfXfXfXfXfXfXfXfXfXfXvXvXvXfXfXgXgXlXvXvXvXvXvXvXvXvXvXvXvXvXvXvXvXvXfXfXfXtXtXfXfXfXfXfXvXlXlXlXlXzXcXFXFXGXGXGXGXDXHXLXPXPXPXJ.s 1 = + O O O + < w 9 8 9 t e e e e e e e e 7 7 7 7 7 7 7 6 7 7 7 7 7 e e 7 r s N G.'.DXHX[.~ 7 - + O .       . . + 3 u r r r r e e 7 6 6 6 6 6 6 6 6 6 6 6 6 6 6 6 6 6 7 7 e e e e 7 7 7 7 7 7 7 7 9 6 4 1 ; ; ; 1 5 2 1 ; ; ; ; ",
"; ; ; ; ; ; ; ; ; ; ; ; ; ; ; 2 e r e 7 6 2 1 ; - - ; ; ; ; 1 2 6 2 ; - - ; 8 t r r r r r e r r r e 6 1 % + O O O O + $ % : : : ; ; ; ; ; ; ; ; 1 ; > * + .         . . O + ; r @.>XFX,XXXm.s p 6 2 2 1 1 ; ; - - - - - - - ; ; 1 1 4 4 4 4 3 2 4 6 9 9 8 3 % O .   o o   O $ % - ; - ; ; 1 2 6 2 2 1 1 2 1 2 2 2 2 2 2 2 2 2 2 6 6 9 6 9 6 9 9 9 9 7 7 7 9 9 7 7 7 7 e 7 7 7 7 7 7 7 7 7 7 7 7 7 7 e e e e e e t t y y y y y y e e e e e e e e r r y y y y y d d d d d d d d d f f f f f f f f c c c c c c c c C C C D H H H H H F F S G G G ^ F ^ ^ ^ ^ ^ ^ ^ ^ ^ ^ ^ ^ ( / / ~ ( / / ( ( ( ( ] ] ] ] ] ] ] ] ] ] [ [ [ [ @.[ [ i.i.i.i.i.M.M.N.N.N.m.m.N.N.N.P.P.F.P.F.V.V.V.V.F.F.P.P.P.P.P.P.F.F.F.W.Q.Q.Q.P.P.N.N.U.7XqXqXPXPX>.g 1 $ $ + O O + < 8 9 8 9 e r r r e e e e e e 7 7 7 7 7 6 6 6 7 7 7 e r r e d s I _.'.DXHX[.~ 7 - + O O       . O $ 3 u r a a r r r e 7 7 6 6 6 6 6 2 2 6 6 6 6 6 6 6 6 6 7 e e e e 7 7 7 7 7 7 7 7 9 6 4 1 ; ; ; 1 5 4 1 ; ; ; ; ",
"; ; ; ; ; ; ; ; ; ; ; ; ; ; ; 2 e r e 7 6 2 1 1 - - ; ; ; ; 1 2 6 2 ; - - ; 8 t r r r r r r r r e e 6 1 % + + O O + $ % - ; > 3 1 1 1 1 1 1 1 1 1 ; > - + .       . . . O $ 1 r O.>XFX,XXXn.s p 8 8 4 4 3 3 > > - - - ; ; ; 3 1 5 4 8 8 8 8 4 4 8 9 7 9 8 3 % O .   o o   o O O + + O O O + $ $ $ $ $ $ $ $ $ $ & $ $ $ $ $ $ $ % % % % % % % % % % % % % % % % - - - % - % % % - % % % % % % % % % % - - - - - - - - ; ; ; ; - - % - - % - - - - - - - - - - - - - - - - - ; ; ; ; ; ; ; ; 1 1 1 1 1 1 2 2 2 2 2 2 2 2 6 6 6 6 6 6 6 6 6 6 7 7 7 7 7 e e e e e 7 7 7 7 e e e e e e r r e e e e r r r r r r r r r r a a a s s s s s z z z z z z z z z z z z x x x x x x x x x x x x x x x x x x M M M A A A A A A S A M M M B b K ,.K q - O O . O O + * 4 8 6 6 7 e e e 7 7 7 7 7 7 9 7 7 6 6 6 6 6 7 7 7 e r r r d c I _.'.DXHX[.! 7 - + O O       . O $ 3 u r r a a a r r e 7 6 6 6 6 6 2 2 6 6 6 6 6 6 6 6 6 7 e e e e 7 7 7 7 7 7 7 7 9 6 4 1 ; ; ; 1 5 2 1 ; ; ; ; ",
"1 ; ; ; ; ; ; ; ; - ; ; ; ; ; 2 e r e 7 6 2 1 ; ; ; ; ; ; ; ; 1 6 2 ; - - ; 8 t r r r r e e r r e 7 6 2 - $ + + + $ % - - ; ; 1 1 1 1 1 1 1 1 1 1 ; ; * + .       . . . O $ ; d n.>XzX,X:Xn.s 7 2 2 1 1 1 ; ; ; - - - - ; ; ; ; 1 2 2 2 4 4 2 4 4 6 7 7 8 1 % O O . o       . . .     o   . . O O + O O O O O O O O + + + + # # + + # + + + + + + + + + + + + + + O + O + + + O O O O O + + + O + + + + + + + + + + $ $ $ $ $ $ + + + + + + + + + + + + + + + + + + + + + + + $ $ $ $ $ $ $ $ $ $ $ $ % % % % % % % % % % % % % $ + $ $ $ $ % % % % % % % % % - % % % % % % % % : - - - % % % % % - - % % - - - - - ; ; ; ; ; ; - - - - ; ; ; ; ; ; 1 1 1 ; 1 1 1 1 2 1 2 1 1 1 1 1 1 1 1 1 1 1 1 3 3 3 4 4 4 4 2 2 2 2 2 2 2 2 6 2 2 ; + . . . . O O % 1 2 2 1 1 ; ; 1 1 1 2 2 2 6 6 6 6 6 6 6 2 6 7 7 7 e r r r d x ~ _.'.SXGXU.I 7 - $ O . .     . O $ > p r a a a a a r r r e 7 6 6 2 2 2 6 6 6 6 6 6 6 6 6 7 e e e e 7 7 7 7 7 e 7 7 6 6 2 1 ; ; ; ; 1 1 1 ; ; ; ; ",
"1 ; ; ; ; ; ; ; ; - ; ; ; ; ; 2 e e e 7 6 2 1 ; ; ; ; ; ; ; ; 1 6 2 ; - - ; 8 t r r r r e e r r e 7 6 1 - % $ $ = % - ; ; 1 3 3 1 1 1 1 1 1 1 1 1 ; ; : + .       . . . O $ 1 d n.>XzX,XXXt.s 6 2 1 ; ; - - - - - - - - - ; ; ; 1 1 1 1 1 1 ; ; 1 2 6 6 2 ; $ O O O . .             o o o   . . O O . . . . . . . . . . O O O O . . . . . . O O . . O O O O O O . . . . . . . . . . . O O O O O . . O O O O O O O O O O O O O O . . . . . . . . . . . . . . . . . . . . . . . . O O O O O O O O O O O O O O O O O + + # # # + + O . . . . . . O # # O O O O O O O O O O O O O O O O O O O O O O O + + + O + + + + + + + + + + + + + + + + + + + + + + + + + + + $ $ $ $ $ $ $ $ $ $ $ $ $ $ $ $ # # # & & & % % % % % % % $ $ % % % % $ .     . . . O $ ; 1 1 1 ; - - - - ; ; ; 1 1 1 2 2 2 6 2 2 6 6 7 7 e r r r d x ~ }.'.SXGXU.I 6 - + O . .     . O $ > 7 r a a a a a a r r r e 7 6 6 2 2 2 6 6 6 6 6 6 6 6 7 7 e e e 7 7 7 7 7 e 7 7 6 6 2 1 ; ; ; ; 1 1 1 ; ; ; ; ",
"; ; ; ; ; ; ; ; ; - ; ; ; ; ; 2 e e e 7 6 2 1 ; - - ; ; ; ; ; 1 6 2 ; - - ; 8 t r r r r e r r r e 7 6 2 ; % % * - - - ; ; 1 3 1 1 1 1 1 1 1 1 1 1 1 ; - + .       .   . O $ ; d n.>XzX,XXX' s 6 1 ; - - - % % % % % - - - - ; ; ; ; ; ; ; ; - - ; 1 2 2 1 ; $ O O O . . .   . . .     . . . . . . . . .           . . . . . . .           . . . . . . . . . . . . . . . . . . . . . . . . O O . . . . . . . . . . . . . . . . . O O O O O O O O O O O O O O + O O O O O O O O O O O O O O O O O . X X X X X . . . . . . o o o   . O . . . . . . . . . . . . . . O O O O O O O O O O O O O O O O O O O O O O O O O . O O O O O O O O O O O . . O O O O O O O O O + + + + + + + + + + + + + + + + O O O O + + + $ $ $ $ $ $ $ $ + O O + O         . . O $ ; 1 1 ; ; - - ; ; ; ; ; 1 1 1 2 2 2 2 2 2 2 6 7 7 e e r r d x U }.XXSXDXU.I 6 - + O . .     . . + > q r r a a a a a a r r r e e 7 6 6 2 6 6 6 6 6 6 6 6 7 7 e e e 7 7 7 7 7 e 7 7 6 8 2 1 ; ; ; ; 1 1 1 ; ; ; ; ",
"; ; ; ; ; ; ; ; ; - ; ; ; ; ; 2 e e e 7 6 2 1 ; - - - ; ; ; ; 1 6 2 ; - - ; 8 t r r r r e e r r e 7 6 2 ; - : , - ; ; ; ; 1 ; 1 1 1 1 1 1 1 1 1 1 1 > - $ .       . . . O $ ; d n.,X1X,XXX' a 6 ; - - % % % % % % % - - - - ; ; - - ; ; ; ; - - ; 1 2 2 1 ; $ O O O O O O . . . . . O O O O O O O . . . . . . . . . . . O O O O .   .   . . . . . . . . . . . . . . . . . . . . O O O O + + + + O O O O O O . O . . . . . O O O . O O O O O O O O O O O O O O O . . O O O O O O . . . . . . . . .   . .         X o o o o o o o . O O O O . . . . . . . . . . . O O O O O O O O O O O O O O O O . . . . . O . . . . . .         . . . . . . . . . . . . . . . . O O O O O O O O O O O O O O O . . . . . . O O O O O O O O O O O . . O . o o o . . . O $ ; 1 1 ; 1 1 1 1 1 1 1 2 2 2 2 2 2 6 6 6 2 6 6 7 7 7 e r r a x U }.XXSXDXU.I 6 - + O .       o . + > 6 r r r a a a a a a a a r r e 7 6 6 6 6 6 6 2 2 2 6 7 7 e e e 7 7 7 7 7 e 7 7 6 8 2 1 ; ; ; ; 1 1 1 ; ; ; ; ",
"; ; ; - - - - - ; - ; ; ; ; 1 2 e e e 7 6 2 1 ; - - - ; ; ; ; 1 6 2 ; - - ; 8 t r r r r e e r r e 7 6 2 1 ; ; > ; ; ; 1 1 ; ; ; 1 1 1 1 1 1 1 1 1 1 > : $ .         . . O $ 1 d n.,X1X,XXXt.s 6 ; - - % % % % % - - - - ; ; ; 1 ; ; 1 1 1 1 ; , 1 2 6 6 2 1 % $ $ $ $ $ $ $ $ $ + + $ $ $ $ $ $ $ $ $ + + + + + O + + + $ $ $ $ + O O O O O O O + + + + + + + O O @ O O . O O O O + + + $ $ $ $ + + + + + O O O O O O O O O O O + + + + + + + + + + + + + + + + O O O O O O O O O O O O O O O O O O O O O O O .                 . . . . . . . . . . . . . . . . . . . . . . . . . . . . . . . . . . . . . . .     o o   o o o o X X X X X X X X X X X X . . . . . . . X . . X X X X X X X X X . . . . . . . . . . . . . . . . . . . . .     . . . . O $ ; 1 1 2 6 6 7 7 6 6 6 6 6 6 6 6 6 6 6 2 2 6 6 7 7 7 e e e a x U }.@XSXHXU.I 6 - + O .       o . + - 6 e r r r r a a a a a a a r r e e 7 6 6 6 2 2 2 2 2 7 7 e e e 7 7 7 7 7 e 7 7 6 8 2 1 ; ; ; ; 1 2 1 ; ; ; ; ",
"; - - - - - - - ; - ; ; ; ; 1 2 e e e 7 6 2 1 ; - - - - ; ; ; 1 6 2 ; - - ; 8 t r r r r e e r r e 7 6 2 1 1 ; 1 1 1 1 1 1 1 ; ; 1 1 1 1 1 1 1 1 1 1 > : & .         . . O $ 1 d n.,X1X,XXXt.s 7 1 - - - - - - - , > 3 1 4 2 2 2 2 2 6 6 4 4 1 1 2 6 7 7 7 6 3 , , , , ; > > > ; ; ; ; ; ; ; ; ; > > > : : * * % * : : : : > > ; : : , - - - - - ; ; ; ; ; ; ; ; : : : : > > > ; ; 1 1 2 2 6 6 9 9 9 9 9 6 8 2 2 2 1 1 1 1 1 1 4 2 2 2 2 2 2 2 2 1 1 2 2 2 1 1 1 1 ; ; ; ; ; ; ; - - - - - - - - ; ; ; - - - % % % % $ $ $ + + + + $ $ $ $ $ % % % % - - - - - - - - - % % % % % % % $ $ % % % $ % $ $ $ % $ + + + O O O . . . . O + + O O O O O O O . . . . . . . . . O O O O O O O O O O O O O O O O O O O O O . . . . . . . .     . .     . O O O O $ > 5 5 4 6 9 9 9 9 6 6 6 6 6 6 6 6 6 6 6 2 6 7 7 7 7 e e e a z U }.@XSXHXU.I 6 - + O O       o . + % 2 7 e e r r r a a a a a a a r r r e 7 6 6 2 2 2 2 2 7 7 e e e e 7 7 7 7 e 7 7 6 8 2 1 ; ; ; ; 1 2 1 ; ; ; ; ",
"- - - - - - - - ; - ; ; ; ; 1 2 e e e 7 6 2 1 ; - - - - ; ; ; 1 6 2 ; - - ; 8 t r r r e e e r r 7 7 8 2 1 1 1 1 1 1 1 1 1 1 ; ; 1 1 1 1 1 1 1 1 1 1 > : & .         . . O $ 1 d n.,XzX,XXXt.s 6 2 1 ; ; ; ; ; ; 1 2 2 2 6 q 7 7 7 7 7 7 9 6 6 6 7 7 e r e 7 8 4 4 6 6 6 9 9 6 6 6 6 6 6 0 4 5 1 1 5 5 1 ; ; ; ; > > 3 5 4 4 6 6 q 7 7 7 7 7 7 7 e e e p p p r r a a a s s s s z b b n B B Y Y Y | | | | { Y Y Y B B B M M B B Y | Q | | | | | | Q Q | | | | Q Q | | | Y Y Y Y Y Y Y Y Y B Y B B Y B B B B b b b b s s a r e e e 7 6 6 7 7 e r a s z v x M n n m n n n x x x x x x z s z x x z s r r r d a r 7 6 6 2 2 2 1 1 1 ; ; - - % % % % $ $ $ $ $ $ $ $ $ + + $ $ $ $ $ $ + + + + + + + + $ $ $ + + + + + O O O O O O O . . . O O . . O + + O O $ ; 1 ; 1 1 1 1 1 1 1 2 2 6 6 6 6 6 9 9 6 6 6 7 7 6 7 7 e e a z U }.@XFXHXS.I 6 - $ O .       o . O % 1 6 7 e e r r a a a a a a a a r r r e 7 6 2 2 1 2 2 7 7 e e e 7 7 7 7 7 e 7 7 6 8 2 1 ; ; ; 1 4 2 1 ; - - - ",
"- - - - - - - - ; - ; ; ; ; 1 2 e e e 7 6 2 1 ; - - - - - ; ; 1 6 2 ; - - ; 8 t r r r e e e r r 7 7 8 2 2 1 1 1 1 1 1 1 1 1 1 1 1 1 1 1 1 1 1 1 5 3 > : # .         . . O $ 1 d C.,XzX,X}.' s 6 1 ; ; ; ; ; ; ; ; ; 1 1 2 2 6 6 6 6 9 9 9 6 6 6 7 e r r e 7 6 6 6 6 7 7 7 7 9 6 6 6 6 6 2 2 1 1 1 1 1 1 ; ; ; ; ; ; ; 1 1 2 2 6 7 7 7 e e e e r r r a a a s s s z x x n n n m m m L L P T R <.4.<.<.<.<.R R T T T P P L L L P T R <.<.1.3.0.0.0.0.0.0.0.0.w.w.w.w.w.w.w.w.5.1.1.1.4.4.4.4.4.4.4.Q Q Q Q Q P Y P I m N n n M M x b b z b v B B B Y Y { [ i.f.f.f.d.d.d.f.f.f.f.f.d.f.4.4.f.d.f.Q U Y { =.=.} B x c z s s s d d r q q q 6 2 2 1 1 ; ; ; ; ; ; - - - - - - - - , , , , , , , , , > 1 1 1 3 > > > , , * * * = = & & + + $ $ + + $ $ $ $ + = - ; - - - - - - ; ; ; ; 1 1 2 2 2 8 8 6 4 4 8 6 6 6 7 7 e r z U }.@XFXHXI.I 6 - + O . .         O $ ; 2 6 7 7 e r r a a a a a a a r r r p p 7 6 2 2 2 2 7 7 7 e e e 7 7 7 7 e 7 7 7 6 2 1 ; ; ; 1 4 2 1 ; ; ; ; ",
"- - - - - - - - - - ; ; ; ; 1 2 p r e e 7 6 1 ; - - - - - ; ; 1 4 1 ; - - ; 8 t e r r r e e r r 7 7 6 2 1 1 1 1 1 1 2 2 2 1 1 1 1 1 1 ; ; 1 1 ; ; > , = O         . . . O $ ; d C.kXzX,X X' a 2 1 ; ; ; - - - - - - - - ; ; ; ; ; ; 1 1 2 2 4 8 6 6 7 7 7 6 6 2 1 1 1 1 1 1 ; ; ; ; ; ; ; ; ; ; 1 1 1 1 ; ; ; ; ; ; ; ; ; ; ; ; 1 1 1 1 2 6 q 7 p e r d d s s s x M n n m m m m m m m L L P P T P L L L P P P P U L L I m m B m L P L L L L L L P P T R R 2.3.3.3.w.3.w.w.5.5.3.w.4.4.Q Q T P Y m m m m N m n n n n n n N N M M n n n n n n m m I L L P P E W W W 2.2.3.f.0.0.q.d.q.5.9.l.l.7.1.T T Q i.i.Q L m n n x v v c z s a a r r r e 7 6 6 2 2 2 1 1 1 1 ; ; ; ; ; ; ; 1 3 1 1 2 4 2 2 2 9 9 9 q q 6 6 2 2 1 1 ; ; ; ; - - * % - * * - : : - - - - - - - - - - - - - - - - - - - - - - ; ; 1 3 4 1 2 6 9 9 r z U }.+XFXHXU.N 7 - + O . .   o o   O $ - ; 1 2 6 7 e e r r a a a a r r r r r r e e 7 6 2 2 6 7 7 7 7 7 e 7 7 7 7 7 7 7 6 2 ; - - - 1 4 2 2 ; ; ; ; ",
"- - - - - - - - - - ; ; ; ; 1 2 e r e e 7 6 2 ; - - - - - ; ; 1 4 1 ; - ; 1 8 t e e r r e e e r 7 9 6 2 1 1 1 1 1 1 2 2 2 2 2 1 1 1 1 ; ; ; ; ; - - % & O         . . . O $ 1 d B.jXcX,X XO.d 6 1 ; ; - - - - % % % % % % - - - - - ; ; 1 1 1 2 8 8 8 6 6 6 2 2 1 ; ; ; ; ; ; - - - - - - - - ; ; 1 1 1 1 1 1 1 1 1 ; ; ; ; ; ; ; ; ; 1 1 2 2 6 7 7 e r a s s c x x x n n m m n n n m m L L P P L m m m m m m m N n n n n n n M m m m m m m m m m m L L P P P T R R <.<.1.1.1.1.<.R T T P L m n n x x n n n n n n n M M M n n n m m m m m m m m L L L P P P T W T T T T <.<.<.1.9.5.5.6.g.j.6.1.R T R <.R T L m m n n n n M x z z s s a a r e e 7 6 6 2 2 2 2 4 1 1 1 1 1 1 1 1 1 1 2 2 6 6 6 7 e e e e e e 7 6 6 6 2 2 1 1 1 ; ; ; ; ; ; ; ; - ; ; ; ; - - - - - - - - - - - - - - - - - - - - - ; 3 1 1 1 6 6 9 r z U }.+XHXHXI.N 7 - + O . . o o     O $ % - ; 1 1 2 6 7 e r r a a r r r r r d r r r e 7 6 6 7 6 7 7 7 7 e 7 7 7 7 7 7 7 6 2 ; - - - ; 4 2 2 1 ; ; ; ",
"- - - - - - - - - - ; ; ; ; 1 2 e r e e 7 6 2 ; - - - - - ; ; 1 4 1 ; - ; 1 8 e e e e e e e e e 7 9 6 2 1 1 1 1 1 1 2 2 2 1 1 1 1 1 1 1 1 1 1 ; ; - - $ O .       o . . O $ ; d B.jXcX,X XO.d 6 ; - - - - - % % % % % - - - - - ; 1 1 1 2 2 2 6 6 7 7 6 6 6 6 2 2 2 2 1 1 1 1 ; ; ; ; ; ; ; ; ; ; ; ; ; 1 1 1 1 1 1 1 1 1 1 1 1 1 2 2 2 2 6 6 7 7 e r r a s s z z z z x x n n n n n m m L L P L L m m n n n n x x x x x n n n m L L L L m m n n n n m m L P P T R <.<.1.1.5.5.5.1.<.<.R T P L m n x x x x n x x x x x x x x x x n m m N m m m L L L P P P P P T T T T T R <.<.1.5.5.1.5.7.7.5.<.<.R <.<.<.R P L m m m m m n x z z z s s a r r e 7 7 6 6 6 2 2 2 2 2 2 2 2 2 2 2 6 6 6 7 7 e e e r r r r r r e e e 7 7 6 6 6 2 2 2 2 1 1 1 1 1 1 ; ; ; ; ; ; ; ; ; - - - - - ; ; ; ; ; ; ; ; ; ; 1 1 4 2 2 2 7 7 e r z U }.@XDXHXI.N 7 - + . . . o o     O $ - - - ; ; 1 2 6 7 e e r r a a a a a a a r r e e 7 7 7 7 7 7 7 7 7 7 7 7 7 7 7 7 7 2 ; - - - ; 4 2 2 ; ; ; ; ",
"- - - - - - - - - - ; ; ; ; 1 2 e r e e 7 6 2 ; - - - - - - ; 1 4 1 ; - - ; 8 e e e e e e e e e 7 9 6 2 1 1 1 1 1 1 1 1 1 1 1 1 1 2 2 1 2 2 2 2 1 1 > % + .       . . . O $ 1 d C.lXcX,X XO.a 2 1 ; ; ; - - - - - - ; ; ; 1 1 1 2 6 8 6 6 6 7 7 7 7 7 7 7 7 7 6 7 7 7 6 6 2 2 1 1 1 ; 1 ; ; ; ; ; ; ; ; ; 1 1 1 1 1 2 2 2 2 6 6 6 6 6 7 7 e e r r a a a s s s z s z z x x n n n n m m L L P T T P P L m m n n x x x x n n m m L P P P P P L L L P P T T R 4.4.w.w.w.7.7.j.j.j.k.j.j.l.7.w.w.1.<.T P L L m m n n n n x x x x x x n m N m m I L L L P P T T T R R 1.1.1.1.w.w.6.7.j.6.6.6.l.l.7.1.<.<.5.7.q.3.R P L m m m m m n x z z z s a a r e e 7 7 6 6 2 2 2 6 6 6 6 6 7 7 7 e e e r r r r a a a a a a a r r r r r p p 7 7 7 7 7 7 6 6 6 2 2 2 1 1 1 ; ; ; ; - - - - - ; ; 1 ; 1 1 1 1 2 2 2 6 8 8 9 6 7 7 e e r x E }.@XDXHXI.N 7 - O . . . o o     O $ - - - - - ; 1 2 6 6 7 e r r a a a a a a a r r e e 7 7 7 7 7 7 7 7 7 7 7 7 7 7 7 6 6 ; ; - - 1 4 2 2 ; ; ; ; ",
"- - - - - - - - ; - ; ; ; ; 1 2 p r e e 7 6 2 ; - - - - - - ; 1 4 1 ; - - ; 2 7 e e 7 7 7 e e e 7 7 6 2 1 1 1 1 1 1 1 1 1 1 1 1 2 2 2 2 2 2 2 2 2 4 3 - $ O .     . . . O $ 1 d C.lXcX,X XO.d 6 2 2 2 1 1 1 1 1 1 2 2 2 2 6 6 6 7 7 7 7 7 7 7 7 7 7 7 7 7 7 7 7 e r e e e 7 7 6 2 2 2 1 1 1 1 1 ; ; ; ; ; 1 1 2 2 2 6 6 7 7 7 7 e e e r r r a a s s s s s z z z z z x x n n n m m L L P T R 4.<.<.<.<.R T P L m m m m L P P T R T R R R <.<.<.<.w.w.w.7.j.j.x.x.k.x.k.k.k.k.c.c.c.c.c.c.b.z.x.l.w.w.1.<.R R T T P L L m m m n n N N N m m m L L P T R <.1.w.w.6.g.k.h.h.k.c.h.h.k.h.g.g.h.z.g.6.1.1.6.x.l.w.R P P L L L L m n x x z z z s a a r e e 7 7 7 6 6 7 7 e e e e e e e r r r r a a a a a a a a a a a a a a r r r r e r r r r r e e 7 7 6 6 2 2 1 1 1 ; - - - ; ; ; 1 1 2 2 2 6 6 6 7 7 7 7 9 7 7 7 e e r a x E }.@XDXDXP.N 7 - O . . . o o     O $ - - % % % - - ; 1 2 6 7 e r a a s s a a a a r r e e 7 7 7 7 7 7 7 7 7 7 7 7 7 7 7 2 ; ; - - 1 4 2 2 ; ; ; - ",
"- - - - - - - - - - ; ; ; ; 1 2 p r e 7 7 6 1 ; - % % % - - ; 1 2 1 - - - ; 2 9 e e 7 7 7 e e e 7 6 6 2 1 1 1 1 1 1 1 1 1 1 1 1 1 2 2 2 2 2 2 2 2 4 3 - $ O . .   . . . O $ 1 d B.>XkX+X XO.s 7 6 6 8 8 6 6 6 6 6 6 6 7 7 7 7 7 7 e e e e e 7 7 7 7 7 7 7 7 7 7 e r r e p p q 9 6 6 6 6 2 4 2 1 ; ; ; ; 1 1 2 2 6 6 q 7 e e e e r r r r a a a a s s s z z z z z b x x n n m m m m L P P R f.d.q.9.q.q.0.4.Q Q Q P P T R <.1.5.w.9.7.q.l.l.l.q.l.7.j.g.h.h.h.h.h.g.g.g.h.h.h.h.h.h.h.h.h.h.x.x.x.g.7.7.6.w.w.w.3.4.<.Q T T P L L m N N m L P T T <.1.w.7.j.k.k.k.k.c.c.h.c.h.h.h.c.h.g.g.h.z.g.6.5.1.6.g.j.5.<.T P P L L L L n n x x x z s s a a e e 7 7 7 7 9 t r r r r r r r r r r r a a a a a a a a a a a a a a a a a r r r r d a r r r y t p 9 q 0 6 4 1 1 1 ; - ; ; ; 1 1 2 2 6 6 6 9 7 7 7 7 7 t 7 7 7 e e r a x T }.XX0X0XP.M 7 % O . . . o o     O % - - % % % % % - ; 1 2 6 7 e r a s s a a a a r r e e 7 7 7 7 7 6 7 7 6 7 7 7 7 7 7 6 ; ; - - 1 4 2 2 ; - - - ",
"- - - - - - - - ; - ; ; ; ; 1 2 p r e e 7 6 1 ; - % % % - - ; 1 4 1 - - - ; 2 9 e e 7 7 7 e e e 7 6 6 2 1 1 1 1 1 1 1 1 1 1 ; ; 1 2 2 2 1 1 1 1 1 3 > - $ O . .   o   . O $ 1 d B.jXkX+X Xn.f 7 6 8 6 6 6 6 6 6 6 6 7 7 7 7 7 7 e e e e e e e 7 7 7 7 7 7 7 7 7 7 e e e 7 q 6 6 6 6 6 4 4 4 4 5 ; ; ; ; ; 1 4 2 8 6 q 7 9 p t t r r r r a a a a s s s z z z x x x n n m m m L L L P P T 2.f.d.q.l.l.d.d.f.4.Q | T Q Q 4.4.0.0.l.z.c.b.b.b.b.z.x.6.g.g.g.g.g.h.g.6.5.5.6.6.g.g.g.6.g.6.6.6.7.7.7.g.g.g.g.7.7.q.0.0.3.4.2.W R T P m n m I Y Q Q 4.3.0.l.z.c.c.c.h.k.z.k.h.k.h.h.h.k.h.g.g.h.z.h.6.5.5.6.x.x.9.<.T P P L L L L m n x x x z z s a a e e e 7 7 7 9 7 t r p p p p r r r r r a d d a a a a a a a a a s a a a a a a a a r r r r r p p 7 q 6 6 4 1 1 1 ; ; ; ; ; ; ; ; 1 1 2 2 6 6 6 9 6 6 7 9 7 7 7 e e r a x E }.XXDX0XP.M 7 % O . . . o o     + % ; ; - % % % % % - - ; 1 6 7 e r d s a a a a a r r e e 7 7 7 6 6 6 6 6 9 7 7 7 7 7 6 1 ; - - 1 4 2 1 ; - - - ",
"- - - - - - - - - - ; ; ; ; 1 2 p r e e 7 6 1 ; - % % % - - ; 1 4 1 - - - ; 2 9 e e 7 7 7 7 e e 7 6 6 2 1 1 1 1 1 1 1 1 1 ; ; ; 1 1 5 5 5 5 5 3 3 3 , * + .       o . . O $ ; d C.lXkX+X}.n.s 7 2 2 2 2 2 2 2 2 6 6 6 6 7 7 7 e e e e e 7 7 7 7 7 9 9 6 8 6 8 8 9 q q 6 8 2 2 2 1 1 1 1 1 1 1 ; ; ; ; ; ; ; 1 1 1 2 2 8 6 9 9 t e r r r r a a a s s z z z z x x n n n m m L L L P P P P R 0.d.8.1.1.4.<.R T P P P P P T R R <.1.5.6.g.x.l.l.x.7.7.7.7.7.6.6.6.6.5.w.5.5.6.6.5.5.6.6.5.5.w.w.w.w.5.6.9.9.w.5.1.1.<.R R T T P P L Y B m m L P T T <.1.9.x.z.b.c.k.x.z.j.x.x.z.h.k.h.g.g.h.z.k.h.6.5.5.6.x.z.q.<.T P L L L L L n n x x z z s s a r r e e 7 7 6 6 6 7 7 7 7 7 7 p p e e e e r r r r a r a a a a a a a a a a r r r r r p e e 7 7 6 6 2 2 1 1 ; ; ; - ; - - - - - ; ; ; ; 1 1 1 2 2 2 2 2 8 8 6 q 7 e e a x E }.@XDX0XP.M 6 % O . . . o o   . + , 3 1 - - - % % % % - - ; 1 6 7 e r d a a a a r r r e e 7 7 6 6 6 6 6 6 9 7 7 7 7 7 6 1 ; - - 1 4 2 1 ; - - - ",
"- - - - - - - - ; - ; ; ; ; 1 2 e e e e 7 6 1 ; - % % % - - ; 1 5 1 - - - ; 2 9 7 e 7 7 7 e e e 7 6 6 2 1 1 1 1 1 1 1 1 1 3 ; ; 3 > > ; - - - - - : % & O .           . O $ 1 d C.>XkX+XOXn.a 6 1 ; ; ; ; ; ; ; 1 1 1 2 2 2 6 6 7 e e 7 7 7 6 6 6 6 8 2 2 2 1 1 1 1 1 ; ; ; ; ; ; ; ; ; ; ; ; ; ; ; - ; ; ; ; ; ; 1 1 1 1 2 2 2 6 7 7 e e r r a a s s z z x x x M M n n m m m m I L L L P T T T P P P P P P L L P P L P P T T T T T T T T T T T <.4.1.3.8.8.8.8.9.9.6.6.6.6.6.5.6.5.5.5.3.1.4.4.R R R T T P P P L L L m m m N m m m m m m L L P T T R R <.1.8.9.9.9.9.l.z.z.z.z.b.c.h.h.c.c.h.6.5.1.6.x.l.9.<.T P L L L L m n x z z z s s s a r r e 7 7 6 6 6 6 2 2 2 2 2 2 2 2 6 6 6 7 7 7 p p e e r r r r r r r r r r r r e e 7 6 6 2 2 1 1 1 1 1 ; ; ; ; ; ; ; - ; - - - - ; ; ; ; ; ; ; ; ; ; ; 1 1 1 2 6 6 7 r z U  X+XFXGXP.M 6 % O . . . o o   . $ , 5 4 1 ; ; - - % % % - - ; 1 2 7 7 e r a a a r r e e e 7 7 6 6 6 6 6 8 6 7 7 7 e 7 2 1 ; - - ; 5 2 1 - : - - ",
"- - - - - - - - ; - ; ; ; ; 1 2 e e e e 9 6 1 ; - % % % - - ; 1 4 1 - % - ; 2 9 7 e 7 7 7 7 e e 7 6 6 2 1 1 1 1 1 1 1 1 ; ; ; - - - - - - - % % % $ $ + .             . O $ 1 d C.OXkX+XOXt.s 6 1 - - - - - - - - ; ; ; 1 1 1 2 6 7 7 7 6 6 6 2 2 1 1 1 1 1 1 ; ; - - - - - - - - - - - - ; ; ; ; ; ; - ; ; ; ; ; ; 1 1 1 1 1 1 2 6 6 6 7 7 e r a a s z z x x x x x M n n N m n n n n m L L P P L L L L L L L L L L L L L L L L L L L L L L L L L P P T T T T R <.1.1.1.1.1.1.1.1.<.<.R R T T P L m m m m m m m n n n n M M M n n n n m m m m L L P P P T T T R R R <.<.1.8.9.6.g.6.6.g.k.k.h.6.1.1.6.g.9.1.R P L L L L m m n x x z z s s s a r r e e 7 6 6 6 2 2 1 1 1 1 1 1 1 1 1 2 2 2 6 6 6 7 7 7 e e e e e r r e e 7 7 7 6 2 1 1 1 ; ; 1 ; ; ; ; ; ; ; ; ; ; ; ; ; ; - - - , , - - - - - - - - ; ; ; ; 1 2 6 e z U  X+XJXGXV.v 6 % O .   . o o   . $ > 5 6 2 1 1 ; - - % % % - - ; 1 2 6 7 e r r r r r r e 7 7 7 6 6 6 6 6 8 6 7 7 7 7 7 2 1 ; - - ; 1 1 ; - : : % ",
"- - - - - - - - ; - ; ; ; ; 1 2 e e e e 7 6 1 ; - % % % - - ; ; 5 ; % % - ; 1 6 7 e 7 7 7 7 e 7 6 6 2 2 1 1 1 1 1 1 1 1 ; ; ; - - % % % % $ $ $ $ $ # O .   o o     . . O $ 1 d C.OXkXOX.X' a 6 1 ; ; ; ; ; ; ; ; ; ; 1 1 2 2 2 6 7 7 6 6 6 2 2 1 1 1 ; ; ; ; ; - - - - - - - - - - - - - ; ; ; ; ; ; ; ; ; ; ; ; ; ; ; ; 1 1 1 1 2 2 6 6 7 e r a a s z z x x x x x x x M M n n x x n n n m m m m m m m m m m L L m m m L m m m L L L L m m m m n n n n n n n m T T R R R R R R T T P L L m m n n n n n n n n x x x x x z x z z n n n m m n n n m B B B B n n n m m m L L P T R <.<.<.1.w.7.w.5.1.1.5.9.8.1.T P L m L m m m M x x z z z s s a a r e e 7 6 6 6 2 2 1 1 1 1 1 1 1 1 1 1 1 2 2 2 2 6 6 6 7 7 7 e e e e 7 7 7 6 6 2 ; ; ; ; ; ; ; ; ; ; ; ; ; ; ; ; 1 1 ; ; ; - - - % % % % % : : % % % - - - ; 1 2 6 e z ~  XiXFXDXV.M 6 % . .   . o o   . $ 3 0 6 9 6 2 1 ; - - % % % - - ; ; 1 2 7 e e r r r r p 7 7 7 6 6 6 6 2 2 8 6 7 7 7 7 2 1 ; - % ; 1 1 ; - % % % ",
"- - - - - - - - - - ; ; ; ; 1 2 e e e 7 7 6 1 ; - % % % - - ; ; 5 ; % % % ; 2 8 7 7 7 7 7 7 e 7 6 6 2 2 1 1 1 1 1 2 2 1 1 1 ; ; ; - - % % % $ $ % $ & + . o o o     . . O $ 1 d C.OXkX+X@Xt.s 6 2 1 1 1 1 1 1 1 2 2 8 8 6 6 9 9 7 7 7 9 q 6 6 2 2 2 1 1 1 1 1 1 ; - - - - - - - - - - - ; ; ; ; ; ; ; ; ; 1 1 1 1 1 1 1 1 1 1 2 6 6 6 7 7 e r r d s s x z x x x x x x x n n n n x n n n n n m m m m n n n n n m m m m m m m m m m L L L L L L m m m m m m m m L T R R R R R R T T T P P L L m m m n n n n n x x x x z z z z z z B m m m m n x x x x x x n n n n m L L L L P T T R R <.1.w.w.1.1.1.5.9.9.9.1.R P L L L L I m n M x z z z z s a a r r e 7 7 6 6 2 1 1 1 1 1 1 1 1 1 1 1 2 2 2 2 6 6 6 7 7 7 e e e e 7 7 7 7 7 7 6 1 1 ; ; ; ; ; ; ; ; ; 1 1 1 1 1 1 1 1 ; ; ; - - % % % % % % % % - - ; ; ; ; 2 2 6 e z ~  XpXFXDXV.v 6 % .     . o o   . $ 3 8 7 7 7 6 2 1 ; - - % % % - - ; ; 1 6 7 7 7 p p p p 7 7 7 6 6 6 6 2 2 8 6 6 7 7 6 2 ; ; - % - ; 1 ; % % % $ ",
"- - - - - - - - - - ; ; ; ; 1 2 e e e 7 7 2 1 ; - % % % - - ; ; 5 ; - % - ; 2 8 7 7 7 7 7 7 7 7 6 2 2 2 1 1 1 1 2 2 2 2 2 2 1 1 1 1 1 ; - - - - % % & + O             . O $ 1 d C.>XkX+XOXn.s 7 7 6 6 6 6 6 6 6 9 9 7 e e e e e e e 7 7 7 q 6 6 6 6 8 8 8 8 8 2 1 1 1 1 ; ; ; ; - - - - - ; ; ; ; 1 1 1 1 1 1 1 2 2 2 6 6 6 6 9 p p r r r a a s s s z x x x M M x x n n n N m m n m m m m L L L m n n n x x x x x x x n n n n m m L P P P T T T T T R R R R R R 4.<.<.<.<.<.<.<.<.<.R R R R T Q P P P L L m m n n n n n n n n n m m m m n n x x x x n n m m m L P T R R <.1.w.w.5.5.5.7.j.w.5.5.1.5.9.l.g.1.R T P P P P L I N n x x z z z s s a a r r e 7 7 6 6 2 2 2 2 2 1 2 1 2 2 2 2 2 6 6 7 7 e e e e e r r e e e e e e e 7 6 4 4 2 2 2 2 2 2 2 1 1 1 1 2 2 1 1 1 ; ; ; - - - - - - - - - - ; ; 1 1 1 1 6 6 e r x ) OX+XFXGXV.v 6 % .     . o o   . $ 5 8 7 e e 7 6 2 1 ; - - - % % - - - ; 1 2 6 6 9 7 7 7 6 6 6 6 6 6 6 2 2 2 6 6 6 7 6 2 ; - - % - > 1 ; % % $ $ ",
"- - - - - - - - ; - ; ; ; ; 1 2 e e e 7 7 2 1 ; - % % % - - ; ; 5 ; - % : ; 4 9 7 7 7 7 7 7 7 7 6 2 2 1 1 1 1 2 2 2 2 6 2 2 2 4 2 2 2 1 5 3 3 3 ; , : & O .           . O $ 1 d C.,XkX+XOXn.c e e e e 7 7 7 7 e 7 e e e e e r r e e e e 7 7 7 7 7 7 9 9 9 7 7 7 9 6 6 8 8 2 1 1 1 1 ; ; ; ; ; 1 1 2 2 2 2 6 6 6 7 7 7 e e p r r r r a a a s s s z z z x x n n n n n n m m L L L L P P P T <.4.R P P L L m n n n x x n n m L L T R R <.<.4.1.1.1.1.1.1.1.1.1.1.1.<.<.1.1.1.1.1.1.1.<.1.<.<.2.2.2.R R R R T T P P L L L m m m m m n n n x n n n n L P P T T R <.<.1.5.w.q.7.7.l.l.6.6.6.z.z.g.6.5.1.5.x.z.x.5.<.R T P P P P L m n n x x z z z s s a a r e 7 7 6 6 6 6 6 6 6 2 2 2 6 6 6 6 7 7 7 e e e e r r r r r r r r r e e e e 7 7 7 q 9 q q q 6 6 8 6 6 2 2 2 2 1 1 1 ; ; ; ; - - ; ; ; ; ; 1 1 2 8 8 6 6 7 e y d M _ OXoXSX0XV.c 6 $ .     . o o   . % 1 8 7 e e 7 7 6 2 1 ; - : - % % % - - ; 1 2 2 8 6 9 7 6 6 6 6 6 6 6 2 2 2 2 6 6 6 6 2 ; - - % - ; ; ; % % $ $ ",
"- - - - - - - - ; ; ; ; ; ; 1 2 e e e 7 7 2 1 ; - % % % - - ; ; 5 ; % % - ; 2 8 7 7 7 7 7 7 7 7 6 2 2 1 1 1 1 2 2 2 6 6 2 2 2 2 6 6 6 2 2 4 4 5 3 > > * + O .         . O $ 1 d C.>XkX+XOXn.c e e e e 7 7 7 7 7 7 7 e e e e e r r e e e e 7 7 7 7 7 7 e e e e e r r t e 7 7 6 6 2 2 1 1 1 1 1 1 2 6 6 6 7 7 e e e e r r r d d a a s s s s s z z z z x x x n n n m m L L P T T T R R <.<.0.l.l.9.5.3.3.2.R P L L m L P T R 1.5.9.q.q.l.l.l.l.9.7.5.5.5.5.5.5.5.1.<.<.<.<.1.1.1.1.1.1.1.1.1.1.1.1.1.1.1.1.<.4.<.R R T T P L L m m x x x x n m P T 4.3.9.9.x.h.h.h.g.j.k.k.h.h.h.h.g.g.g.h.k.h.g.6.1.5.l.z.x.5.<.R T T T T P P L m n n x x x z z s s d d r e 7 7 7 7 7 7 7 7 7 7 7 7 7 e e e r e r r r r r r r r r r r r r r e e e r r e e e e e p p 7 7 7 6 6 6 6 6 6 2 2 1 1 1 ; ; ; 1 1 1 2 2 2 6 7 t t 7 e r r d s m e.+XoXzX0XN.c 2 $ .     . o o . O % 2 9 7 7 e 7 7 6 2 2 3 ; - : - - - - - ; ; 1 1 2 8 8 6 6 6 6 6 6 6 6 2 2 2 2 2 6 6 6 2 ; - % % - > ; - % % % $ ",
"- - - - - - - - ; - ; ; ; 1 1 2 7 e e 7 6 2 1 ; - % % % - - ; ; 5 ; % % - ; 2 9 7 7 7 6 6 7 7 7 6 2 2 1 1 1 1 2 2 2 2 2 2 2 2 2 8 6 2 2 2 1 1 1 3 > : % + O .       . . O $ 1 d C.OXkX+XOXn.c p 7 7 7 7 7 7 7 7 7 7 7 7 e e e e r r e e e e 7 e e e 7 e 7 7 e e e e e e 7 7 6 6 2 2 1 ; ; ; 1 1 2 6 6 6 7 7 p e r r r r r a a a a s s s s s z z z x x x n n n n m m L P P T R R R <.<.<.8.b.l.9.q.q.d.f.2.T P L L P Q 4.f.d.b.b.x.x.x.z.x.g.g.6.6.6.6.5.5.5.5.1.1.<.1.1.1.1.1.1.1.1.1.1.1.1.1.1.1.5.5.1.1.<.4.<.R Q Q Q Q Y Y Y M M M n m Y | i.f.0.l.b.b.k.c.c.h.h.h.h.h.h.h.c.h.g.g.c.c.h.g.6.1.5.k.b.g.5.<.R T T T T P P L m n n x x x x x c s d d r e e 7 7 7 7 7 7 e e e e e e e e e e r r r r r r r r r r r r r e e e e e r r r r e e e e e 7 7 7 7 7 7 7 q q 0 6 2 2 1 1 ; 1 1 1 2 2 8 6 7 7 9 t e e r r d s m e.+XoXzX<XN.c 2 $ .   . . o o   . % 1 8 7 7 7 7 7 7 6 8 4 1 ; ; - - - - - - ; ; ; 1 2 2 6 6 6 6 6 6 6 6 2 2 2 2 2 6 6 2 2 ; - % % - ; ; - % % % $ ",
"- - - - - - - - - - ; ; ; ; 1 2 7 e e 7 6 6 1 ; % % % % % - ; ; 3 ; - % - ; 2 9 7 7 6 6 6 6 6 6 6 2 2 2 1 1 1 1 5 5 1 5 4 4 4 4 1 1 ; ; ; - - - % % $ + O .         . . O $ 1 d C.OXpXOX XO.s e 9 9 7 7 7 7 7 7 e e e e e e e e e e e e e e 7 7 7 q q 6 6 6 6 6 2 2 2 2 2 1 1 1 ; ; ; ; ; - ; ; ; 1 1 2 2 2 6 6 7 7 e e r r r r r r r r a a s s z z x x x x n n m L L L P P T T T R W 2.2.<.1.<.T T P P L L L L m L L P T R R 1.8.9.9.9.q.9.9.9.9.w.w.5.5.5.5.1.1.1.1.1.1.1.1.1.1.1.<.<.<.<.R <.1.1.1.1.3.2.W Q T P L L m m m n x x x n n m L L T R <.1.w.0.q.l.x.x.x.x.x.h.z.k.h.g.g.k.k.g.6.6.1.5.z.k.g.5.<.T T T T T P L m m M n x x z z s s a r r e e 7 7 6 6 6 6 6 6 6 6 6 7 7 7 e e e r r r r r r r e e e r r e e e e p r r r r r r r e e e 7 7 7 7 7 7 q 6 2 2 1 1 1 1 ; ; ; ; ; 1 1 1 1 2 2 4 8 6 7 9 t p a n i.OXpXcX>XM.x 2 $ . . . . o o   . $ 1 8 7 7 7 7 7 7 7 9 6 8 2 ; - - - - - - - - - - ; 1 2 2 6 6 7 9 7 6 2 2 2 2 2 2 4 4 5 ; - - - - ; ; - - % % % ",
"- - - - - - - - - - ; ; ; ; 1 2 7 e e 7 6 2 1 ; % % % % % - ; ; 3 ; - % - ; 2 q 7 7 6 6 6 6 6 6 2 2 2 2 1 1 ; > ; > ; ; ; ; ; ; - - - % % $ $ $ $ $ $ + O .         . . O $ 1 d C.OXpXOX X' d 7 8 8 8 8 6 6 7 7 7 7 7 7 7 7 7 7 7 7 7 7 6 6 6 2 2 2 2 1 1 1 1 1 1 ; ; ; ; ; ; - - - - - - - - - - ; ; ; ; 1 1 1 2 2 6 7 7 7 e e p p r r a a s s z z x x x x x n m m L L L P P T P P P T T T T P L L L m m m m m m m m L L L P T R <.<.<.<.<.<.<.<.<.<.1.1.1.1.1.1.1.1.1.1.1.1.1.3.1.4.<.R Q R R R R R T T P P L L m m n n n x x x x x x x x n n m m L P T T R R 3.3.3.8.8.9.q.l.6.6.6.l.z.6.6.5.1.5.c.c.g.5.<.R R R R T Y L m m x x x z z s s a a r r e e 7 7 6 6 2 2 2 2 2 2 2 2 6 6 7 7 7 7 7 e p r p p p p p e e e 7 7 7 7 e e e e e e e e e 7 7 7 6 6 2 2 2 1 1 1 1 1 ; ; ; ; ; ; ; ; ; ; ; 1 1 > 3 1 2 2 8 9 r x t. XpXxX>XC.z 2 $ O . . . o o   . $ 3 8 6 7 7 7 7 7 7 7 7 6 8 1 ; ; - - - - - - - - ; ; 1 2 2 6 6 9 9 6 6 2 2 2 2 2 4 4 5 ; - - - - ; ; - - - - % ",
"- - - - - - - - - - ; ; ; ; 1 2 7 e e 7 6 2 1 - % % % % % - ; ; 3 ; % % % ; 2 6 7 7 6 6 6 6 6 6 2 2 2 1 1 ; - - - % % % % % % $ % $ $ $ + + + + $ $ & + O .     o   . . O $ 1 d C.OXpXOX}.` a 6 1 1 1 1 1 2 2 2 6 6 6 6 6 6 2 2 2 2 2 2 1 1 1 ; ; ; ; - - - - - - ; ; - - - - - - - - - - - - % % % % % - - ; ; ; ; 1 1 2 2 6 6 7 e e r a a s s z z z x x x x x n m m m L L L P L L L L L L L L L L L m m m m m m m m m m m L L m m m m L m m m L L P P P T Q R <.<.<.<.1.1.<.<.1.4.<.R T T T P m m n n n n n x x x x x x x z z x z z z z x x x x x n m m L L L L L L P P T R R <.<.4.0.0.w.1.1.1.6.c.c.h.5.<.R <.R R T P L m n x x z z z s a a a r r r e 7 7 7 2 2 2 2 2 1 1 1 1 2 2 2 2 2 2 6 7 7 7 7 7 7 e e e e e e e e e e e e e 7 7 7 7 7 6 6 2 2 2 1 1 1 ; ; ; ; ; ; ; ; ; - ; - - - - ; ; ; : > 1 1 2 2 6 e x _ .XpXcXjXM.z 2 $ . . . . o o   . $ 3 8 6 7 7 7 7 7 7 7 7 6 8 8 2 ; ; - - - - - - - - ; ; 2 2 2 6 6 6 6 6 2 2 2 2 2 2 4 1 ; - - % - ; ; ; - - - % ",
"- - - - - - - - - ; ; ; 1 1 1 2 7 e e 7 6 2 1 - - % % % % - ; ; 3 ; % % % - 2 6 6 6 6 6 6 6 6 7 6 2 2 1 ; - % % $ $ $ $ $ $ $ $ + + + + + + + + + & # + . .   o o   . . O $ 1 d C.OXjXOX}.' a 6 1 ; ; ; 1 1 1 2 2 2 6 2 2 2 2 1 1 1 1 ; ; ; ; - - - - - - - - - - - - - - - - - - - - - - - % % % % % % - - - - ; ; ; 1 1 1 1 2 6 7 e e r a a s z z z z x x x x n n n m m L L L L L m m m m m m L I I m N N n n n N N m m m m m n n n n n n x x n n n m m m L L T R R R <.<.<.<.R R T T P L L m x z z z z z z z x z z z z z z z c c c c x x x x x x x n n n n n x x x n n n m L P P P T R R R R <.5.h.c.g.1.R T T T P P L m n n x x z z z s s a a r r r e e 7 7 6 2 2 2 1 1 1 1 1 ; ; 1 1 1 1 1 2 2 2 2 2 2 6 6 7 7 7 e e e e e 7 6 6 6 6 2 2 2 1 1 1 ; ; ; ; ; ; - - - - - - - - - : - : : : - ; ; : : ; 1 1 1 2 e z '  XsXcXlXM.s 2 $ . . . . o o   . $ 1 8 6 7 7 7 7 7 7 7 7 9 6 8 4 2 1 ; - - - - % - - - ; 4 4 2 2 2 2 6 6 2 2 2 2 2 2 1 ; - - % % - > > ; - % % % ",
"- - - - - - - - ; ; ; ; ; ; 1 2 7 e e 7 6 2 1 - - % % % % - ; ; 3 ; % % % - 1 8 6 6 6 6 6 6 7 9 6 8 2 1 ; - % $ $ + + + + + + + + O O O O O + + + # # + . . o o o   . . O $ 1 d C.OXjXOX}.' a 6 2 1 1 1 2 2 2 6 6 6 6 6 6 6 6 2 1 1 1 1 1 ; ; ; ; - - - - - : - - - - - : , - - : - : - : - % % - - - - - - ; ; 1 1 1 1 2 2 2 6 7 e e r r a a s s z z z z x x x x x n m m L L L L m m m n n n m m N N N N M M n n M M n n n n n B B B B n n n n n n m m m m L L P T T R R R R R T T P P L L m n x z s z z b b b b z s s z z z z c c c f c c c c x z z x x x x z b z b x x x n n n n n m L L P P R 1.6.g.5.R P L L L L m n x x x x x x z z s s s a a r r e e 7 7 8 2 2 2 1 1 ; ; ; ; ; ; - - ; ; ; ; ; ; ; ; 1 1 1 2 2 6 6 6 7 6 2 2 1 1 ; ; ; - - - - - - - - - - - - - - - - - : : : : % % % - - - : : ; ; 1 1 2 7 z [ .XsXcXgX@.s 2 $ . . . . o o   . $ 1 8 6 6 6 6 7 7 7 7 7 7 6 6 6 6 2 1 ; - - % % % - - ; 5 4 2 2 2 2 2 2 2 2 2 2 2 2 1 ; - - % % - > > - - % % % ",
"- - - - - - - - ; ; ; ; 1 ; 1 2 7 e 7 7 6 2 1 - % % % % % - ; ; 3 - % % % - 1 6 6 6 6 6 6 6 7 7 8 8 2 1 ; ; : % $ $ + + + + + + + O O O O O + + + # # + . . o o o     . . $ 1 d C.OXkX+XOX' s 7 6 6 6 6 6 6 7 7 7 7 7 7 7 7 7 7 6 8 8 2 2 1 1 1 ; ; ; ; - - - - - - - - : - : - : - : - - - - - - - ; ; ; ; 1 1 2 2 2 6 6 7 9 7 e e r r a a s s s z z z x x x x v x n m L P P P L L m m m m m m m m N N n n M n n n n n n n n n m m m m m m m m L L L P P T T T R R R <.<.<.<.<.<.R R T T T P L m n x x x x x z z z z z z z b b x c c c c c c c z z z x x x x x z z x x n n m L L P P P T R R R <.w.x.g.5.<.T P P T P P m n x x x x x z z s s a a a r r r e e 7 8 2 2 2 1 1 ; ; ; ; - - - - - - - - - - ; ; ; 1 1 2 2 6 6 7 7 7 6 4 2 2 1 1 1 ; ; ; ; - - - - - - - - - - - - : - : : % % % % % - - % - - ; ; 1 2 7 z [ .XpXcX*X@.s 1 $ . . . . o o   . $ 1 6 6 6 6 6 6 6 7 7 7 7 7 6 6 6 6 2 1 ; - - % % - - ; 5 4 4 2 2 2 2 2 2 2 2 2 2 1 1 ; % % % % % , - - : % % % ",
"- - - - - - - - ; ; ; ; 1 ; 1 2 7 7 7 6 6 2 1 - % % % % % - ; ; > - % % % - 1 6 6 6 6 6 6 6 6 7 6 8 8 2 1 ; - : * = = $ $ + + + + + + + + + + + + $ & + O .   o o     . . $ 1 d C.OXpX+XOXn.s e 7 7 7 7 7 e e e e e e 7 e e e e 9 9 9 9 8 6 8 2 2 2 1 1 1 ; ; ; ; - ; - - - - - ; ; ; ; ; ; ; ; 1 1 1 1 2 2 2 6 6 7 7 e e e e r r r r d a s s s s z z z x x x x x x n L P T R R T T P P L L L L m m m m n n n n n n n n n n m L P T T T T T T T R 2.2.<.3.3.3.3.5.5.5.5.5.5.8.5.8.8.8.1.1.1.1.4.R T T P P L L m n n x x x x x x x x x x x x x x x x x n n m m L m L P P T R <.<.w.8.8.9.9.q.q.9.9.l.c.c.x.9.1.4.<.1.4.W P m m n n x x z z z s s a a a r r r e 7 6 2 2 2 1 1 1 ; ; ; ; ; ; ; ; ; ; 1 1 1 1 2 2 2 6 9 7 e e e e t t t t 9 7 9 9 9 6 8 8 2 2 2 2 1 1 ; ; ; ; ; ; - - - - - : - : - - - : : ; ; 1 1 2 7 z [ .XpXcX*X#.s 1 $ . . . . o o   . % 1 6 6 6 6 6 6 6 6 6 6 7 7 7 6 6 6 6 2 1 ; - - % - - ; 5 4 2 2 2 2 2 2 2 2 2 2 2 1 1 ; % % $ $ % - : % % % % $ ",
"- - - - - - - - ; ; ; ; ; ; 1 2 6 7 7 6 6 4 1 - % % $ % % - ; ; ; - % $ % - 1 2 6 6 6 6 6 6 6 6 6 8 8 2 1 ; ; , - - * % % % % % $ $ $ $ $ $ $ $ $ $ & + O .           . . $ 1 d C.OXpX+XOXn.c p 7 7 7 7 7 7 7 7 7 7 7 7 7 7 e e e 7 7 7 9 9 9 8 8 8 4 2 2 1 1 1 ; ; ; ; ; ; ; ; ; ; ; ; 1 1 1 1 2 2 2 6 6 6 q 7 7 e e e r r r r r r r a a a s s s z z z x x x x x x m P T <.1.1.<.2.R R R T T P L L L L L m m m m L L L P P T R 1.1.1.1.8.8.8.0.3.8.8.8.8.8.9.9.8.8.9.9.9.9.9.9.9.9.9.9.8.8.8.8.9.8.8.3.3.3.2.R P P L m m n n n n n n n n n m m m m m L L P P T <.<.1.8.q.l.l.z.g.x.x.x.z.x.x.g.g.h.c.c.c.x.7.w.q.q.l.0.R L L m n n x x z z s s a a a r r r e e 6 2 2 2 2 1 1 1 1 1 1 1 1 1 1 1 2 6 6 6 q 7 7 e p e e r r r r r r r r r r r y y t t t t t 7 7 9 8 2 2 1 1 1 ; ; ; ; ; - - - - - - - : - ; ; ; 1 2 7 z '  XsXcXgX#.a 1 + . . . . o o   . % 1 6 6 6 2 2 6 6 6 6 6 7 7 7 7 6 6 6 6 4 1 ; - - - - ; 2 2 6 8 6 6 2 2 2 2 2 2 2 1 ; - % $ $ $ % - - % $ $ $ $ ",
"- - - - - - - - - - ; ; ; ; 1 2 q 7 7 6 2 2 ; - % $ $ $ % % - ; > - $ $ % - 1 2 6 6 6 2 6 6 7 7 6 6 2 2 1 ; ; ; ; ; - ; > ; ; ; ; - - - % % % % % % % $ O .           . . $ 1 d C.OXkX+XXXt.s p 7 6 6 6 6 6 6 6 6 6 6 6 6 6 7 7 7 7 7 6 6 6 6 6 2 2 2 2 4 5 5 5 2 2 2 2 2 1 1 1 2 2 2 6 6 6 6 6 6 6 6 6 6 6 7 7 7 7 e e e e r r r r a a a a a s s s z z x x x x x n m P <.5.9.9.8.5.1.1.3.w.5.1.R T T T T P T R <.R 1.w.w.7.l.j.l.x.j.7.7.7.7.7.w.w.w.w.w.0.0.0.0.w.w.w.w.q.w.w.q.9.w.w.w.w.w.q.x.x.x.x.q.q.q.0.3.4.4.Q Q T P P L L L L L L P P T T R <.4.w.w.q.l.l.z.z.h.h.c.k.h.h.h.c.c.h.g.g.g.h.c.c.c.h.w.w.j.x.z.9.<.P P L n n x x x z x c s s d d r r r e 7 6 6 2 2 2 2 2 2 2 2 2 6 6 9 q 7 e e e e e e e e e r r r r r r r d r r r r r r r r r r r e e e 7 q 6 6 6 6 2 2 2 2 1 1 1 ; ; ; ; ; - ; ; 1 1 2 6 r n i. XpXxX*X@.s 1 + .   . . .     . % 3 8 9 2 2 2 2 6 6 6 6 6 6 6 6 6 6 6 6 8 4 1 ; - - ; ; 4 2 6 6 6 6 2 2 2 2 2 2 2 2 3 ; % % $ $ % % % % $ $ $ $ ",
"- - - - - - - - - - ; ; ; ; 1 2 6 7 6 6 2 1 ; - % $ $ $ % % - ; > - $ $ % - 1 2 6 6 2 2 6 6 9 7 6 6 2 1 1 1 ; ; ; ; ; ; ; 1 1 1 1 1 1 ; ; ; ; ; - - - = + .           . O $ 1 d C.OX,X+X}.' s p 6 6 6 6 6 6 6 6 6 6 6 6 6 6 6 6 6 7 6 6 6 6 6 6 2 2 2 2 2 2 2 2 6 6 6 6 6 6 6 6 6 6 7 7 7 7 9 6 6 6 6 6 6 6 7 7 7 7 e e e e e r r r r a a a a a s s z z x x x n x n L T 1.7.x.j.5.5.1.5.6.x.k.g.5.w.w.w.1.1.5.7.6.6.j.k.k.k.c.k.h.g.g.6.6.6.5.5.1.1.1.1.1.1.1.<.1.<.<.<.1.1.1.1.1.1.1.<.<.<.<.1.5.6.5.5.5.8.5.1.1.1.1.4.<.<.R R T P P P P T R R <.<.1.6.7.g.x.k.g.g.h.h.h.h.c.c.h.g.g.h.h.6.6.6.6.g.h.c.h.6.1.1.6.g.z.l.3.T L m n x x x z z z s s s a a r r r e 7 7 6 6 6 6 6 6 6 6 7 7 7 7 e e e e e e e e e e e e e e e e e r r r r r e e e e e e e e e e e 7 7 7 7 7 7 6 6 6 6 6 2 2 2 2 2 1 1 1 ; 1 1 2 2 8 7 r n u.OXsXxX*X@.s 1 + .   . . .     . $ 1 8 6 2 2 2 2 6 6 6 6 6 6 6 6 6 6 6 6 8 4 2 1 ; ; ; ; 4 8 6 6 7 6 6 6 6 6 6 2 2 2 3 ; % % $ $ % % - % % $ $ $ ",
"- : : - - - - - - - ; ; ; ; 1 1 6 7 6 6 2 1 ; - % $ $ % % % - ; > - $ $ $ % ; 2 6 6 2 6 6 6 9 6 6 2 2 1 1 ; ; ; ; ; ; ; 1 1 1 1 2 2 1 1 1 1 1 1 ; > , * + O           . O $ 1 d C.OXkX+X}.' s e 7 6 6 6 6 6 6 6 6 6 6 6 6 6 6 6 7 7 7 7 6 6 6 6 6 6 6 6 6 6 6 6 6 6 6 7 7 7 7 7 7 7 7 7 7 7 7 7 7 6 7 6 7 7 7 e e e e e r r r r r r r a a a a s s s z z x x x n n m L T 1.j.z.z.6.5.1.5.g.z.c.h.6.6.j.k.g.g.h.c.h.h.c.c.c.c.c.h.h.g.6.6.5.5.1.1.<.<.<.R R R R R R R T R R R R R R R R R R R R R <.<.<.<.<.<.<.<.<.<.<.<.<.<.<.<.R R R R R R <.1.5.5.6.g.h.h.h.h.g.g.h.k.h.h.c.c.g.g.g.j.j.5.1.1.1.6.h.k.g.5.<.<.5.g.z.b.4.T L m n x x x z z z s s s a a a r r r e 7 7 7 7 7 7 7 7 e e e e e e e e e e e e e e e 7 e 7 7 7 7 7 7 7 7 7 7 7 7 6 6 7 6 6 6 6 6 6 6 7 7 7 7 7 7 7 6 6 6 6 6 6 6 6 2 2 2 3 1 2 6 6 9 7 r n u.OXuXxX>XO.s 1 $ .   . . . o   . $ ; 2 2 2 2 2 2 2 2 2 2 2 2 2 2 2 2 2 2 8 2 2 1 1 ; ; 1 6 6 6 9 7 7 7 6 6 6 6 2 2 2 1 ; % % $ % % : : % % $ $ $ ",
": : - % % % - - - - - ; ; ; ; 1 6 6 6 2 2 1 ; - % $ $ % % % - ; : % $ + $ % ; 2 6 6 6 6 6 6 9 6 2 1 1 1 ; ; ; ; ; ; 1 1 1 1 1 2 1 1 1 1 1 1 1 1 3 3 , - $ O           . O $ 1 d C.OX,X+X}.' s e 7 7 7 7 6 6 6 6 6 6 6 9 9 9 9 9 7 7 7 7 7 7 7 7 7 7 7 7 7 7 7 6 6 6 6 7 7 7 7 7 7 7 7 7 7 7 7 7 7 7 7 7 e e e e r r r r a a a a r r a a a a s s s z z x x n n n n m P R 1.j.z.z.5.5.1.1.6.z.c.h.6.g.h.k.g.g.h.c.h.h.c.c.c.c.c.h.g.6.6.5.5.1.1.<.<.<.R R R R T T T T T T R R R R R R R R R R R R R R R R R R R R <.<.<.<.<.<.<.<.<.R R R <.<.1.1.5.5.6.g.h.h.h.h.h.g.h.c.h.h.c.c.g.g.g.j.j.5.1.1.1.6.k.c.j.1.<.<.5.g.z.l.<.P L m n x x x x z z z s s a a a a d r r r e e e e e e e e e e e e e e e e e e e e e e e e 7 7 7 7 7 7 7 6 6 6 6 6 6 6 6 6 6 6 6 6 6 6 7 7 7 7 7 7 7 7 7 6 6 6 6 6 6 6 6 2 4 4 6 6 9 9 e a n u.OXaXxX>XO.s 1 $ .   . . . o   . $ ; 2 2 2 2 2 2 2 2 2 2 2 2 2 2 2 2 2 2 2 2 4 2 1 1 1 1 2 6 6 9 7 7 7 7 7 7 6 6 2 2 1 ; - % $ % % - : - % % $ $ ",
"% % % % % % % : - - - - - ; ; 1 6 6 6 2 2 1 ; % % $ $ % % % - : : % $ + $ % ; 2 6 6 6 6 6 6 6 6 1 1 ; ; ; ; - - - - ; ; ; ; 1 1 1 1 1 1 1 1 1 1 3 > > * + .         . . O $ 1 d n.OX,XOX}.' s e 7 7 7 7 7 9 6 6 6 6 9 9 9 7 9 9 7 7 7 7 7 7 7 7 7 7 7 7 7 7 7 7 9 7 q q 7 q q 7 9 7 q 7 7 7 7 7 7 7 7 e e e e e r r r r a a a a d r d d a a s s s z z x x n n n n m L T 1.q.l.l.1.<.<.<.w.l.z.h.6.6.x.l.g.6.g.z.h.h.c.c.c.c.c.h.6.5.5.1.1.<.<.R R R R T T T T T R R R R 2.2.2.2.<.<.<.<.1.<.<.<.T P T T T Q Q Q 4.Q <.<.<.<.<.R R R R R R <.4.1.w.5.5.7.g.x.x.k.h.h.c.c.h.c.c.c.h.g.g.x.x.6.1.1.5.6.c.c.g.1.<.<.5.x.b.z.3.T P L n n x x x x z z z s s s d d a a r r r r r r r r e e e e e e e r r r r r r r r r r r r e e e e e 7 7 7 7 7 7 7 7 7 7 7 7 7 7 7 7 7 7 7 7 7 7 7 7 6 6 6 6 6 6 8 6 6 6 4 8 6 7 7 9 p a m u.OXaXxX*X` s 1 $ . . O . . o   . $ > 2 2 2 2 2 2 2 2 2 2 2 2 2 2 2 2 2 2 2 2 5 3 3 ; ; 1 2 6 6 7 7 7 7 7 7 7 7 6 2 2 1 ; % % $ % % - - : % % $ $ ",
"% % % % % % % % % - - - - - ; 1 2 6 6 2 1 1 ; % % $ $ = % % - : : % $ + $ % ; 2 6 6 6 6 6 8 6 6 1 ; ; - - - - - % % % - - - - - ; ; - - - - - - ; ; - % + .         . O O $ 1 d C.OX,XOX}.' a 7 6 6 6 6 6 6 2 2 2 2 2 2 8 8 6 8 6 6 6 6 6 6 6 6 6 6 6 6 6 6 6 6 6 6 6 8 6 6 6 6 6 6 6 8 6 6 6 6 6 6 6 6 7 7 7 7 e e e e r r r r r r r a a a a s s z z x n n m n M N L T <.0.q.f.R T T T 4.0.q.6.5.5.0.q.w.5.5.q.9.9.9.l.9.7.9.w.1.<.<.R R T T P T P P P P P P P T T P T T T T T R R R R R R R T P P P P P P T T T T T T T Q Q Q Q Q R R R R R <.4.<.1.1.w.5.w.9.6.g.h.h.h.h.c.c.g.g.6.x.q.8.1.<.1.5.x.x.5.<.R <.5.g.b.v.3.T P m n n n n x x z z z s s s d d a a r r r r p r e e e e 7 7 7 p p p e r r r e e r r e e e e e e e e 7 7 7 7 7 7 7 7 9 9 9 9 9 9 9 9 6 6 6 6 6 6 6 6 8 8 8 8 8 8 8 6 6 6 8 8 6 7 7 9 p a m N.OXaXxX*X` s 1 $ O . O . . o   . $ > 4 2 2 2 2 2 2 2 2 1 1 1 1 1 1 1 5 1 1 1 1 3 ; ; ; 1 1 2 6 6 7 7 7 7 7 7 7 6 6 2 1 ; % $ $ % % - - : % % $ $ ",
"$ $ % % % % % % % % - - - - - ; 2 6 6 2 1 1 - % % $ $ = % - - : : % + + $ % ; 1 6 6 6 2 6 6 6 2 1 ; - - % % % $ $ $ $ $ $ $ % % % % % % % % % % - : % & O .       . . O O $ 1 d V.>X,XOX}.) a 7 2 1 1 1 1 1 ; ; ; ; ; 1 1 1 1 1 ; ; 1 1 1 1 1 1 1 1 1 1 1 1 1 1 1 1 1 2 2 2 1 1 1 1 2 2 2 2 2 1 1 1 1 1 1 2 2 2 2 6 6 6 6 7 7 e r r r r a a a s s z z x n n m m M n L P R <.<.R P L L L T R 1.<.R R R R R T R R R R R R T T R T P P L L L L m m m m N N N N N n n n n n n n n n N n m m m m m L L L L L P P P L L L L L L L L L P P P P P P T T T T T R R R R <.<.<.1.w.1.8.q.q.8.1.<.<.2.W R R R <.5.w.<.T P T <.1.8.8.Q Y m n n n n x x z z z s s s a a a a a r r r e e 7 7 7 7 7 6 6 6 6 6 6 6 6 6 6 6 8 6 6 6 6 6 7 6 7 7 6 6 6 6 6 6 6 6 6 8 6 6 6 8 8 8 2 2 2 2 2 2 2 2 2 2 2 2 2 2 2 2 2 6 6 2 2 6 6 7 9 7 r n N.OXsXxX&X` s 1 $ O . O . . o   . $ - 1 1 1 1 1 1 1 1 1 1 ; ; ; ; ; ; ; ; 1 1 ; ; - - ; ; 1 1 2 6 6 6 7 7 7 7 7 7 6 6 1 ; % $ $ $ % - - - % % $ $ ",
"$ $ % % % % % % % % - - - - - ; 2 6 6 2 1 1 - % % $ % % % - - : : % $ $ $ % ; 1 2 2 2 2 4 2 2 1 ; - - % % $ $ $ $ $ $ $ $ $ $ $ $ $ % % % % % % % % % & O .   . o . . . O $ 2 d W.lXkX>X_.) a 7 2 1 1 1 1 1 ; ; ; ; ; ; ; 1 1 1 ; ; ; ; ; ; ; ; ; 1 1 1 1 1 1 1 1 1 1 1 2 2 2 1 1 1 1 1 1 1 1 1 1 1 1 1 1 1 1 2 2 2 6 6 6 6 9 7 r r r a a a s s s z z x x n m N M N m L P T P L m m m m m L P P P L L P L L L P L m L L m m L m m m n n n n n n x x x x x x x x z z z z z z z z z z z z z z x x m m m L L L L L L m m n n n n n m m m m L L L L P L L P P P P P P L P T T R 4.3.2.T P P T P P P P P R R T L L L T R R T P m n n x x x x x z z z s s s a a a r r r r e e e 7 7 6 6 6 2 2 2 2 1 1 1 1 1 1 1 1 1 1 2 2 1 2 1 1 2 1 2 1 2 1 2 2 2 2 2 1 2 2 2 1 2 1 1 1 1 1 1 1 1 1 1 1 1 1 1 1 1 1 2 2 2 1 2 2 6 6 7 r n N.OXsXxX X` d 1 $ O . . . o o   . + - ; ; ; ; ; ; ; ; ; - - - - - - - - - ; ; ; - - - - - ; 1 2 2 6 6 6 6 7 7 7 7 7 6 2 ; % $ $ $ % - - - % $ $ $ ",
"$ $ $ % % % % % % % - - - - - ; 2 2 2 2 5 ; - % % % % % % - - - : % $ $ % - ; 1 2 2 2 1 1 ; ; ; - % % % % % % % % % % % % % % % % % % % % % % % % % % + O         o   . O % 2 f K.gXlXjXT.~ c e 7 6 6 6 6 6 2 2 2 2 2 2 2 2 2 2 2 2 2 2 2 2 2 2 2 2 2 2 2 2 2 2 2 2 2 2 2 2 2 2 2 2 2 2 2 2 2 2 2 2 2 2 2 6 6 6 6 9 9 7 7 7 e e d d d a s s s z z z x M n N N N n N m m I I L m m N N N m L I L m m m m m m m m m m m m m m m m N n n n n x x n x x x x x x z z z z z z z z z z z z s s z z s z x n n n m m m m m m n n x x n n n n n n n m m m L L L L L L L L L L L L P P P P Q Q T P P P P P P P P P P P P P P P P P Y L m m n x x x z z z z s s s s a a a r r r r e e 7 7 6 6 2 2 2 1 1 1 1 1 1 1 1 1 1 1 1 1 1 1 1 1 1 ; 1 1 1 1 1 1 1 1 1 1 1 1 1 1 1 1 1 1 1 1 1 1 1 1 1 1 1 1 1 1 1 1 1 1 1 1 1 1 1 2 6 7 a M Y. XxXsXiX/ a ; $ O . . .       . + % - - - - - - - - - - - - - - - - - - - - - - - - - - - ; 1 1 2 6 6 6 6 6 7 7 7 q 8 1 - % $ $ = - - - $ $ $ $ ",
"$ $ % % % % % % % % - - - - - ; 2 2 2 2 1 ; - % % % % % % % - , : % $ $ % - ; 5 2 2 2 1 ; ; - % % % % % % % % % % % % % % % % % % % % % % % % % % % $ + O         o     O % 2 c K.lXkXOXD.~ x s a a a r r r r r r r e e e e e e e e e e e e e e e e e e e e e e e e e e e e e 7 7 7 7 7 7 7 e 7 7 e e e e e e e r r r r a a a a s z z x z z x x x n n m m L L L L L I I I I I L m m m m m m m m m m m m m m m m m m m m m m m m m m n n n n n n n n n x x x x x x x x n n x x x x z z z z z b x x x n n m m m m m m n n x x x x n n n n n n m m m m m m m m m m m m L L L L L L P T P P P P P P P P P P L L L L L L L L L L L m n x x x z z z z z s s s a a a a r r r r e e 7 7 6 6 2 2 2 1 1 1 1 1 1 1 1 1 1 1 1 1 1 1 1 ; ; 1 1 1 1 1 1 1 1 1 1 1 1 1 1 1 1 1 1 1 1 1 1 1 1 1 1 1 1 1 1 1 1 1 1 1 1 1 1 1 2 6 r s M Y.|.xXMXiX/ r 1 $ O . . .       . + % - % % % % % % % % % % % % % % % % % - - - % % % % - - - ; 1 1 2 2 2 2 2 6 7 7 9 6 1 - % $ $ = - - - % $ $ $ ",
"$ $ % % % % % % % % - - - - - ; 2 6 2 2 1 ; - % $ % % % % % % : : % $ $ % - ; 3 1 1 1 1 ; - - % % % % $ % % % % % $ $ $ $ $ $ $ % % $ $ % % % % % % $ + O               O % 6 c V.lXkX+X.XZ.' ~ I I L L L L I m m m m m m m m m m m m m m m m m n n n n n n n n x x x x x x x x x x x z z z z z z z z z z z z z x x x x x x x x x x x n n n n n m m L L L L L L L L L L L L L L P L L L L L L L L L L L L L L L L L L L L L L L L L L m m m m m m n n n n n n n n n n n n M M M x x x x x x x x x x x n n n m m m n n n x x x x n n n n n n n n N m N N m m m m I L L L L P P P T P T T R R R T T P P P T P P P P P P P P P P L N M n n M M M v x x x x c c z c s f s d d d r r e e e 7 9 9 6 6 8 6 8 6 6 6 8 8 8 8 8 8 2 2 2 2 2 2 2 2 2 2 2 2 2 2 2 2 2 2 2 2 2 2 2 2 2 2 2 2 2 2 2 2 2 2 2 2 2 1 1 1 1 2 2 6 y d A K.R.vXNX X/ d 1 $ O . . . o     . $ % % % % % % % % % % % % % % % % % % % % % % % % % % % % - - ; ; 1 1 1 1 2 6 6 9 6 2 ; - % $ $ % - ; - % $ $ $ ",
"$ $ % % % % % % % % - - - - - ; 2 6 2 2 5 ; - % $ $ $ $ $ $ % % * & $ $ $ % - 3 1 1 1 ; ; - % % % % % % % $ $ $ $ $ $ $ & $ $ $ & $ $ $ $ $ % % % % $ + O               O % 6 c V.cXkXoXoX.X{.H.G.G.S.S.I.S.P.P.A.A.A.A.A.A.A.A.A.A.A.A.A.A.A.A.A.A.A.A.A.A.A.N.u.u.u.i.i.i.i.i.i.i.i.i.i.i.i.i.{ [ [ { { { ' ' i.i.i.e.e.e.e.e.{ { { { { Q Q Q 2.4.2.3.3.3.3.3.3.2.4.4.2.2.4.4.2.2.2.2.W W R R W W 2.2.2.2.2.2.W W 2.2.2.2.2.2.W W W W W W W W W T W T E T E U U ~ ~ ~ U U U U U I I I I I I I N N I I U U U U ) U ~ U I I I I I I I I I I U U I I U U U U U U P P P P T T T T T T T R 3.3.<.R R R R R R R R R T T T T T T T T L L I I L m m m m m n n n n n n n x x x x z z s s s a a a r r r r r r r r r r r r e r e e e e e e e e e r r e e e r e e r r r e e e e e e e e 7 e e e e e e e 7 7 7 7 6 7 7 e r a s N K.T.lXJX{./ d 1 % O . . . o     . + % % % % % % % % % % % % % % % % % % % % % % % % % % % % % - - ; ; ; 1 1 2 2 2 6 8 2 ; - % $ $ % - ; - % % $ $ ",
"% % % % % % % % % % - - - - - ; 2 6 2 2 5 ; - $ $ $ $ $ $ $ $ & = & + + $ $ - > ; ; ; ; ; - % % % % % % $ $ $ $ $ $ $ $ $ $ $ $ & $ $ $ $ $ % % % % $ + O               O % 2 c Y.cXpXoXoXoX+X XiXiXiXiXiXiXiXiXtXtXtXtXtXtXtXtXiXiXiXiXiXtXtXiXiXiXiXiXiXiXtXiXdXdXdXdXiXiXiXiXiXiXiXiXiXiXyXiXOXOXOXOXOXOXOXOXOXOXOXoXoXoX@XOX X X X X X X X X XXX@X@X@X@XXXXX.X.X.X.X.X.X}.}.}..X.X.X.X.X`.`.`.'.`.`.`.`.`.`.`.`.'.'.'.'.`.`.`.`.`.`.`.`.(.(.(.(.(.(.(.(.(.(.D.D.D.H.H.H.H.H.H.H.H.H.H.H.H.H.Z.H.Z.H.H.D.D.D.D.H.H.H.H.Z.H.Z.Z.Z.Z.m.Z.Z.Z.Z.Z.Z.Z.Z.Z.Z.Z.Z.y.y.p.p.p.p.p.p.r.r.s.a.v.v.a.s.a.a.a.a.a.a.a.s.r.r.r.r.r.r.r.r.r.r.3.3.3.3.r.r.2.2.2.2.2.W W W W W W R W T T P P P P P L I I I L L L L L I I I L m m m m m m m m m m m m m m m N m m m m m m n n n n n n n n n n x n x n n n n x x x x x x x n m L W S.].3X0X[.( a 1 % O . . . o     . + $ = % % % % % % % % % % % % % % % % % % % % % % % $ $ $ % % % - - - ; ; 1 1 2 8 8 2 ; - % $ $ % - ; - % % % $ ",
"% % % % % % % % % % - - - - - ; 2 6 2 2 5 ; % $ $ $ + + + + & & = # + + + $ % > ; ; ; ; ; - - % % % % % % % % $ $ $ $ $ $ $ $ $ $ $ $ $ $ % % % % % & + O               O $ 2 f #.fXOXoXoXoXpXpXdXmXmXmXnXnXnXnXnXnXnXnXnXnXnXnXsXsXsXsXsXnXsXsXsXsXsXaXaXaXaXaXaXaXaXaXaXaXaXaXaXaXaXaXaXbXaXaXaXaXaXaXaXaXbXbXaXaXaXaXaXaXaXaXsXsXaXaXsXaXaXaXaXaXaXuXaXuXuXuXuXuXuXuXuXuXsXsXsXsXsXsXsXpXsXpXpX+XuXoXoXoXoXoXoXoXoXoXoXoXoXoXoXoXoXoXoXoXoXoXoXoXuXuXuXiXpX+X+XOX+XOXOXOXOXOXOXOXOXOXOXOXOXOXOXOXOXOX+X+XoXoXoXoX@X@XOXOXOXOXOXOXOXOXOXOXOXOX+X+X+XoXoXoXoX@XXX X X XXXXXOXXXXXXXXXXXXXXXXX'.XXXXXXXXXX'.XX'.XX'.XX'.XX'.XX'.'.'.'.'.'.'.'.'.`.`.`.`.`.`.`.`.).).).).).).).).G.G.S.S.G.G.G.G.S.S.S.S.S.S.S.S.S.S.S.S.S.S.S.A.A.A.A.A.A.A.Z.Z.u.u.u.u.p.u.u.u.u.u.m.m.m.y.y.y.t.t.t.t.t.t.t.t.n.n.n.t.t.t.i.y.y.r.p.].2X3X2X[.! r 1 $ O . . . o     . + $ = % % % % % % % % % % % % % % % % % % % % % $ $ $ $ $ $ $ % % % - - ; ; 1 1 2 4 1 ; % $ $ $ % - ; - % $ $ $ ",
"% % % % % % % % % % % - % - - ; 2 6 2 2 1 ; % $ $ + # + + + # & & + + O + + % - - ; ; ; - - - % % % % % % % % % % % % $ $ $ $ $ $ $ $ $ % % % % % % & # O               O $ 1 y :.~.|. XiXOXjXjXNXMXMXMXMXMXNXNXBXBXBXBXBXBXBXBXNXNXNXNXNXMXMXMXMXMXMXnXnXsXsXnXsXsXsXnXnXnXnXnXnXnXnXMXMXMXMXMXMXMXNXNXNXNXNXNXMXMXMXMXMXMXMXMXMXMXMXMXMXMXMXMXMXxXxXxXMXMXMXMXNXMXMXMXMXMXNXNXxXxXxXxXxXxXxXxXsXsXsXsXsXsXsXsXsXsXsXsXsXsXsXsXsXsXsXaXsXsXsXsXsXsXsXsXsXsXsXsXkXjXkXkXjXjXkXkXkXkXkXkXkXkXpXpXpXpXpXpXuXoXoXoXoXoXuXpXpXpXpXpXpXpXpXpXpXuXuXuXoXoXoXoXoXoXoXuXiXdXdXdXdXdXdXpXpXiXiX+X+X+X+X+XoXoXoXoXoXoXoXoXiX+X+X+XoXoXiXiXOXOXyXoXyXyXyXyXuXyXyXiXiXOXyXOXOXOXOXOXiXiXOXOXiXiXiXiXiXiXiXiXiX+XiX+XiXOXOXOXOXOXOXOXOXOXOXOXiXiXiXiXiXiXiXiXdXiXdXiXdXiXdXiXiXtXtXtXtXtXtXtXtXtXtXtXtXtXtXiXdXdXdXyXiXiXtX X X X*XSXLXFXzX;X^ r ; $ O . .           + = * % % % % % % % % % % % % % % % % % % % % % $ $ $ $ $ $ $ $ % % % % - - ; ; 1 3 ; : % $ $ $ % - - - % $ $ $ ",
"% % % % % $ % % % % % % % - - ; 2 6 2 2 1 ; % $ $ + # + + + # # & + O O + + $ - - ; ; ; - - - - - - - - - % % % % % % % % % % % $ $ % $ % % % % % % & # O               . + - t %.ZXY.!.!.R.W.!.!.!.|.&X&X&X&X&XfXfXfXfXfXfXfX*X*X*XfXfXfX*XfXfX X XtX X X X X XtXtXtXfXfXfXfXfXfXfXfXfXfXfXfXfXfXfXgXgXgXgXlXvXfXgXgXgXgXgXgXfXvXvXvXvXvXvXjXjXjXjXjXjXlXvXvXvXcXvXvXvXvXzXcXcXzXcXzXzXcXcXcXcXNXNXNXNXNXNXNXNXNXNXNXNXNXNXNXNXMXxXxXxXxXxXMXMXNXNXNXNXNXNXNXNXcXcXcXcXcXcXcXcXcXcXcXcXcXcXcXcXxXxXxXsXpXpXpXpXuXuXpXpXsXsXsXsXsXsXsXsXsXsXsXsXpXuXuXuXuXuXpXsXnXMXMXMXMXnXnXMXMXMXMXMXMXMXMXMXxXxXxXsXsXsXsXsXsXsXsXsXsXsXsXsXnXnXnXnXnXnXnXnXnXsXsXsXsXsXsXsXaXsXsXsXnXnXsXsXsXnXnXnXnXnXnXnXnXsXnXsXnXsXsXsXsXsXsXsXsXsXsXsXdXdXdXdXdXdXdXdXsXsXaXaXsXsXsXsXdXdXdXdXdXdXdXdXdXdXdXdXdXdXdXaXaXaXaXaXaXaXuXpXsXvXcXLXUXLXGX/.H e ; $ O . .   o       + = * % % % % % % % % % % % % % % % % % % % % % $ $ $ $ $ $ $ $ $ % % % % - - - ; > - % % $ $ $ % - : % $ $ $ $ ",
"$ $ $ % % $ $ $ $ $ % % - % - ; 2 2 2 1 ; - % $ $ + + O + + # # # # + O + + % % - - ; ; ; - - - - - - - ; - - - % % % % % % % % % % % % % % % % - % % $ .   o             O : w l j f V C A A A A N N N N N N N ! ! ! ! ~ ~ ! ! ~ ~ ~ ~ / / / / ` ` ` ` ` ` ` ` ] ] ] +.+.+.+.+.+.+.+.+.=.&.=.@.J.J.J.J.M.J.J.J.J.J.J.J.J.J.J.M.P.F.F.F.F.F.F.F.P.P.P.P.I.I.Q.Q.I.I.I.I.I.I.Q.Q.Q.Q.Q.Q.Q.Q.!.#X&X&X&X&X&X&X&X&X&X&X&X&X&X&X&X&X&X&X&X&X&X&X&X&X*X&X*X&X&X&X&X&XgXgXgXgXgXfXgXfXfXfXfXfXjXjXjXjXiXiXiXiXiXiXiXiXOXOXOXOXOXiXiXiXpXpXpXpXpXpXpXpXyXyXyXyXyXyXyXyXsXaXaXaXaXnXsXsXsXsXsXsXsXsXsXsXsXaXaXaXaXaXaXaXaXaXaXaXaXaXaXaXnXnXnXnXnXnXnXnXnXnXnXnXnXnXnXnXsXsXsXsXnXnXnXnXnXnXnXnXnXnXmXnXBXMXMXMXMXMXMXMXMXMXMXxXMXxXmXmXdXdXmXdXmXmXmXmXnXmXnXmXnXMXMXMXnXnXnXnXnXnXnXnXnXMXMXBXBXMXMXmXnXnXnXnXnXnXsXxXxXJXJXJXPXUXPX5XC 7 - $ O . . . o       O % - - - - - - - % % % % % % % - - - % % % % % % % % $ % % % % % % % % % - : : - - - % $ + + + $ * - % $ + + + ",
"$ $ $ $ $ $ $ $ $ $ % % % % - ; 2 2 2 1 ; - % $ + + + O O + # # & + + + + $ % % - ; ; ; ; ; ; ; - - ; ; ; ; - - - - - - - - - - % - - - - - - - ; - % & O .               . $ < 3 2 2 6 7 7 9 7 7 e e e e e e e r r r r r r r r r r r r r r r r a a a a a a a a a a a a a a a d a a a d d d s s s z z z z z z z x x x c c c c x v M M M M M M M M M M M M M M M N N N N N N S S S S S S S S S ! ! ! ! ! / ^ / ^ / / / / / / / / / / / / / / / / ] / / ] / ] ] ] +.+.+.+.o.o.o.o.#.#.#.#.#.#.#.#.B.Y.Y.Y.Y.Y.Y.Y.Y.Y.Y.Y.Y.Y.Y.Y.Y.Y.Y.Y.Y.Y.Y.Y.Y.Y.Y.Y.Y.Y.Y.Y.R.R.R.R.R.R.R.R.R.R.R.R.R.R.!.R.|.|.|.|.|.|.|.|.|.|.|.|.|.|.|.|.hXhXhXhXeXeXhXhXR.R.R.R.R.R.R.R.tXtXtXtXtXtXtXtXtXtXtXtXtXtXtXtXtXhXhXhXhXtXtXtXhXhXhXhXtXtXtXtXtXtXtXtXtXtXtXtXtXtXtXtXtXtXtXfXtXtXtXtXtXtXtXtXtXtXvXvXvXvXfXtXtXiXiXiXjXjXjX>X XlXGX8XGXHXKX6XZ 9 % + O . . . o       + % - - - - - - - % - % - % % % - - - - % % % % % % % % % % % % % % % % % % % - % % % $ $ + + + $ = = $ + O + + ",
"% $ $ $ $ $ $ $ $ $ $ % % % - ; 4 2 1 1 ; - % $ + + + + + + + & & & $ $ $ % % - ; ; 1 1 ; ; ; > ; ; ; ; ; ; ; ; ; ; ; ; ; ; ; ; - ; ; ; ; ; ; ; 1 ; : = O .               . . + + $ $ % - - % % % % % % % % % - % % % - - - - - - - - - - - - - - - - - - - - ; ; ; ; ; ; ; ; ; ; ; ; 1 1 1 1 1 1 2 1 1 2 1 1 1 1 1 1 1 1 1 1 1 2 2 2 2 2 2 2 2 2 2 2 2 2 2 2 2 2 6 6 6 6 6 6 6 6 6 6 6 6 6 6 6 7 7 7 7 7 7 7 7 7 7 7 7 7 7 7 7 7 7 e e e 7 7 7 e e e 7 e 7 7 e e e e e e e e e y y y y y y y y y y y y y y y y y y y y y y y y d d d d d d d d j j j j f j j f f f f f f f f f f f V V c c V V V V V V C C V V C C C C C C C C v v v v v v v v M M B B A A A A A A A A A A A A H H G G G G G ^ / ( ~ ( ( ~ ~ ~ / / / / / / / / ` ` ` ` ` ` ` ` ` ` ` ` ` ` ` [ [ [ [ [ O.O.O.O.' [ O.O.O.O.[ [ [ ] [ [ [ i.i.i.e.i.i.i.Q Q i.>.K 8 $ O O . . o o o   . $ - ; ; ; - - - - - - - - - - - - - - - - - - - - - - - - - - - % % % % - - - - - % % $ $ + + + $ $ $ + + O O O ",
"$ $ $ $ $ $ $ $ $ + $ $ $ % % ; 4 2 1 ; - - % % $ + + + + $ $ $ % % % % % - - ; ; 1 1 1 1 1 3 > 3 3 1 1 5 1 1 1 1 1 1 1 1 1 1 1 1 > 1 1 1 1 1 1 4 ; > * O .                   . . O O O + + + O O O O O + O + + O O + + + + + + + + + + + + + + + + + + + + + + $ $ $ $ $ $ $ $ $ $ $ $ $ $ $ $ $ $ $ $ $ $ $ $ $ $ $ $ $ $ $ $ $ % $ $ % % % % $ $ $ $ $ $ $ $ % % % % % % % % % % % % % % % % % % % % - - - - % % % % % % % - - - - - - - - % - - - - - - - - - - - - - - - - - - ; ; ; ; ; - - - - - - - - - - - - - - - - - ; ; ; ; ; ; ; ; ; ; ; ; ; ; ; ; 1 1 1 1 1 1 1 1 1 1 1 1 1 1 1 1 1 1 1 1 1 1 1 1 1 2 2 2 2 2 2 2 6 6 6 6 6 6 6 6 6 6 7 7 7 7 7 7 7 7 7 7 7 7 7 7 7 7 7 7 e e e e r r r r r r r a r r a a a a a a a a a a a a a a a a a a a a a s s s s s s s s s s s z c c z z s a a a s s z z z z z z x x z z z i 3 + . . . . . o o   . $ ; 1 1 1 1 1 1 1 1 1 1 1 1 1 1 1 1 1 1 1 1 1 1 1 1 ; ; ; ; ; ; ; ; ; ; ; ; ; ; - - % % $ $ $ $ $ $ $ + + O O O ",
"$ $ $ $ $ + + + $ + + $ $ $ % - 5 1 1 ; - - % % $ $ $ $ $ $ % % : : : - - - ; ; 1 1 2 2 2 5 3 3 3 1 1 1 ; ; 1 1 1 1 1 1 1 1 1 1 1 1 1 1 1 2 2 2 2 1 > - + .       o             . .   . . . . . . O O O O O O O O O O O O O O O O O O O O O O O O O O O O O O O . . . . . O O O O O O O O O O O O O O O O O O O + O O O O O + O O O O O O O O O O O O O O O + + + + + + + + + + + + + + + + + + + + + + + + + # # # # # # # # # # + # + # + # + # + + + # + # + + + $ + + + + + + + $ $ $ $ $ + $ + + + + + + + + + + + + + + + $ $ $ $ $ $ $ $ $ $ $ $ $ $ $ $ + + + + + + + $ + $ $ $ $ $ $ $ $ $ $ $ $ $ $ $ $ $ $ $ $ $ $ % % - - - - - - - - - - - ; - - - ; - ; ; ; ; ; ; ; ; ; ; ; ; ; ; ; - ; ; ; ; ; ; ; ; ; ; ; ; ; ; ; ; ; ; ; ; ; ; ; ; ; ; ; ; ; 1 1 1 1 1 1 1 1 1 1 1 1 1 1 1 1 1 ; ; ; ; 1 1 1 2 2 2 2 2 6 6 2 1 1 - + .     o . o     O % 5 6 6 6 6 6 6 4 4 4 4 4 2 4 2 4 2 4 2 2 2 2 2 2 2 2 2 2 2 2 4 4 1 1 1 2 1 1 1 > > - % - % % % % $ + + + O O O ",
"$ $ $ + + + + + + + + + $ $ % - 1 1 ; - - % % % $ $ $ % % % % - - - - - - - ; ; 1 2 2 2 2 2 1 1 ; ; ; ; ; ; 1 1 1 1 1 1 1 1 1 1 1 1 2 1 2 2 2 2 2 1 3 - + .     o o       o o   o               . . . . . . . . . . . . . . . . . . . . . . . . . . . . . . . .                 . . . . . . . . . . . O O O O O . . . . . . O . . . . . . . . . . . . . . . . . . . . . . . . . . . . . . . . . . . . . . . X . X . X . X . X . O O O O O O O O O O O O O O O O O O O O O O O O O O O O O O O O . . . . . . . . . . . . . . . . . . . . . . . . . . . . . . . . .   . . . . . . . . . . . . O O . . . . . . . . O O O O O O O O O + + + + + + + + + + $ $ $ $ + + + + + + + + + $ $ $ $ $ $ $ $ + + + + + + + + + + + + + + + $ + + + + + + + + + + + + + + + + $ $ $ $ $ $ $ $ $ $ $ $ $ $ $ $ + + + $ $ $ $ $ $ % % $ $ $ $ $ % $ O       o o o     O - 4 9 7 7 7 9 6 6 q 9 q 9 7 9 7 6 6 6 6 6 6 6 6 6 6 6 6 6 6 6 2 2 2 2 2 2 2 2 1 5 > ; - - - - : % % $ + + + + + ",
"+ + + + + + O O + + + + $ $ % - ; ; ; - - % % % $ $ % % % - - - ; ; ; - - ; ; 1 1 2 2 2 2 1 1 ; ; ; ; ; ; ; ; 1 1 1 1 1 1 1 1 1 2 2 2 2 2 2 6 2 2 2 5 , + .       o o o o o .   o                 o . o . o . o . . . . o o o . . . . . . .             o o o       . . . . . . . . . . . . . .                 . . . . . . . . . . . . . . . . . . . . . . . . . . . . . . . . . . . . . . . . . . . . . . . . . . . . . . . .     . . . . . . . . . . . . . .                                 . . . . . . . . . . . . . . . . . . . . . . . . . . . . . . . . . . . . . . O O O O O O O O O @ O . . . O O O O O O O O O O O O O X X X @ @ X X . . . . . . . . . . . . . . O O . . . . . . O O . . . . . O O O O O O O O O O O O O O O O O O O O O O O O O O O O O O O O O O O O O O O O O O O O O + + + + + O + + O O . . . O + + .       o o o     O - 6 7 7 7 7 7 7 7 7 7 7 7 7 7 7 7 7 7 7 6 6 6 6 6 6 6 6 6 6 6 6 6 6 6 6 6 6 6 2 2 5 1 ; ; ; ; - : % % $ + + + + ",
"+ + + + + O O O + + + + $ $ $ % - ; - - - % % % % % % % - - - - ; ; ; - ; ; ; 3 1 1 1 1 ; ; - - % % % % - - ; ; 3 3 5 5 1 2 2 2 2 6 6 6 6 6 6 6 6 2 5 , + .         o                           o o o o o o o o o o o o o o o o                         o o o o                     . .           o o   o   o                             . . .         . . . . .                                                                                                                                 o                   o o . . .                                   o o o o . . . . . . . . . . . . . . X X X X X . . . . . X X X . o o o o o o o .                                             . . . . . . . . . O O O O O O O . . . . . . . . . . . . . . . . . . . . . . . . . . . . . . . . . O O O O O . . . @ .   X X o o . O O       o . o o     O - 4 9 7 7 7 7 7 7 e e e e e e e e e e 7 7 7 7 7 7 6 7 7 7 7 6 6 6 6 6 6 7 7 6 6 2 2 1 1 ; ; ; ; ; - : % $ + + + ",
"+ + + + O O O O + + + + + + $ $ % - - - : : % : - : - - - ; ; - , : - % % % % % % % % - - - % % $ $ $ % % % % % - - ; ; 1 3 3 5 4 4 8 6 6 6 7 6 6 6 5 - $ O .                                     o o o o o o o o o     o o o o               o o o o o o o o o                                                                             .   o o o o o   . . . . o o o o       . . . . o o o o   o o o o o o o o o o   o                       o o o o o o o o               X o o o o o o o                                 . . . . . . . . .                               . . . . . . . .       o . X o o o       o o o o . . o o o o . . O . .             o o o o o               o       . . . . . . . . . . . O . . . o   o   o       . . . . . . . .         . . . . . . . .                   . . . . o o o o o o           . . . .       O % 3 6 9 9 9 9 9 7 e e e e e e e e e e e 7 7 7 7 7 7 7 7 7 7 6 6 6 6 6 6 6 6 6 6 6 6 2 2 1 1 1 1 1 ; ; > % $ $ + ",
"O O O O O O + O O + + + + + + $ % : - - - : : : : : : - - - - % % $ $ $ $ $ $ $ $ $ $ $ $ $ $ $ $ $ % % % % % % - - - - - - ; ; 3 1 2 2 6 6 7 7 6 4 5 - $ O . .                                   o o o o o o                                                                                                                                     o o o         . o o o o     o     .       o             o o o o o o                         o     o o o o o o                         o o o                                                                                     . . . . . . .       o . . o o             o o @ X o o o o . O O .               o o o   o o                                   . . . . . . . . o o o o o o o o o . . . . . .               . . . .                           o o o     o o o           . . .         . $ - 1 2 2 2 2 2 8 6 6 7 7 7 7 7 7 e e e 7 7 7 7 7 7 7 7 7 7 7 6 6 6 6 6 6 6 6 6 6 6 6 2 2 1 1 1 1 1 1 ; - - % $ ",
"+ + + + + + + + + + + + + + $ $ : - - - - - % % % % $ $ $ + + + + + + + $ $ $ $ $ $ $ $ $ $ % $ % % % = = % % % % % % % % % % % - - ; ; 1 2 2 2 4 5 5 > $ + O O O O O O O . . . O . . . . . . .                 .                                                                                                                                           . .                                               . . .                                                                     o o                                     o o o o o           o o o o o o o o o o o o o   o                       . o                     .             . O .         . .       . . . . .                                         o   o o o o o   o                                   . . .                                                           o   o       O % - ; ; ; ; ; ; 1 1 1 1 2 2 2 2 6 6 6 7 7 7 7 7 7 7 7 7 7 7 7 7 6 6 6 6 6 6 6 6 6 6 2 2 2 1 1 1 1 1 1 3 > - - ",
"+ + + + + + + + $ $ $ $ $ $ $ = % - - % % % $ $ $ + + + O O O O + + + + $ $ $ $ $ $ & & % % & $ $ % % % % $ $ $ $ $ $ $ $ $ + + $ $ % % - ; ; 1 1 5 3 > : * * * = = = = = = = & & & + + + + + O O O O O O O O O O O O O O O O O . . . . . . . . . . O O O O O O . . . . . O O O O O O O O O O O . . . . O O O O O O O O O O O O O O O O O O O O O O . O O O O O O O O . . . . O O O O O O O O O . . . . . . . . . . . . . . . . . . . . . . . . . . . . . . . O + + + + O O O O O . .             . . . . . . .         .       . o .                     o o o o . . o o o o o o o o             . . . . . . . . . . . . . . . . .           . . .         . .     .   . . . .                                                 . . . . . . . .                       . . . . . . . . . .     .     .                                       o           O $ - - - - % - - - - - - - - ; ; ; ; 1 2 6 6 6 6 6 6 6 6 6 7 7 7 6 6 6 6 6 6 6 6 6 6 2 2 2 2 2 2 2 2 1 5 5 ; ; ",
"$ $ $ $ % $ $ $ $ $ $ $ $ $ $ $ $ $ $ $ $ $ + + + + + + + + O + + + $ + $ $ $ $ & = = = = = = $ $ $ $ % $ $ $ $ $ + + + + + + + + + + $ $ % % - - ; ; : : > < < < , , , < , , , : * * % & & & & = % = = = = % % $ % $ $ % % % % = $ $ $ $ % % = $ $ % % % % % % % * * * % % % % % % - - - : - - - - ; ; ; ; 1 1 1 1 1 1 1 1 1 ; ; ; ; ; 1 1 1 1 1 1 1 1 1 1 1 1 1 1 1 1 1 1 2 2 2 2 2 2 2 1 1 1 ; - - - - - - - - - - - - - - - % % % % % % - - % % % % % % - ; ; 1 1 1 1 ; ; - ; - % $ + + + + + + + + + + + + + + + O + O + O O . . . . . . . . . . . . . . . . . . . . . . . .               . . . . . O O O O O O O O O + O O O           . .           . . .                                                               . . . . . . . .                   . . . . . . . . . . . . . . . . . .       . .                                         + $ - - - % % % % % % % % % % % % % % - ; 1 1 1 1 1 2 2 2 2 2 6 6 6 6 6 6 6 6 6 6 6 6 2 2 2 2 2 2 2 2 2 2 2 1 1 ",
"% % % % % % % * $ $ $ $ $ $ $ $ + + + + + + + + + + + + + + + + $ + $ + + + + + $ $ $ $ $ $ $ $ $ $ $ $ $ $ $ + + + + + + + + + # # + $ $ $ % % % - - ; ; ; > > 1 1 1 1 ; ; ; - - - - - % % % - - - - - - - ; ; - - - - - ; ; ; ; - - - - - ; ; ; ; ; ; ; ; ; > ; : : : ; ; ; ; ; 1 1 1 1 3 1 2 2 8 8 6 9 7 9 t t t t e t e t t 9 9 9 t t t e r y d d d g d d f g d g g g f b b K K K K b f f d r p p p i i u u p u p p i p i p p u u u u p p p i i i p p p i g K J J J J K K K r p 7 6 2 2 2 2 2 2 6 2 2 2 2 2 2 2 2 1 1 1 1 1 1 1 ; ; ; ; ; ; ; ; ; ; ; ; ; ; - - - - - - - - - - % % % % % % % - - - - - - ; ; ; 1 1 1 1 1 ; ; % $ $ + + + + + + O O O + + + + + + O O O O O O O O O O . O O O O O O O O O O O O O . . . . . O O O O O O O O . . . . . . . . . O O O O O O O O O O O O . O O O O . O . . . . . . . . . . .       . . . . . .       . + = - - - - % % % % % % % % % % % $ $ % % % % % - - - ; ; ; 1 1 1 2 2 2 2 6 6 6 6 6 6 6 2 2 2 2 2 2 2 2 2 2 2 2 ",
"- - - - - - , - % % % % % $ $ $ + O + + + + + + + $ $ $ $ $ $ $ + + + + + + + + + + + + $ $ $ $ $ $ $ $ $ $ $ $ $ + + + + + + + $ $ $ $ % % % - - - ; ; 1 1 1 2 2 2 1 1 1 ; ; ; ; ; - - - - : - ; ; ; ; ; ; ; 1 1 1 ; ; ; ; ; ; ; ; ; ; ; ; ; ; 1 1 1 1 1 1 1 1 ; - ; ; ; ; ; ; 1 1 1 1 1 1 2 2 6 7 7 7 e e r r d r d r r r r r r r r y d g f s s s z z x c c v D D B M N B B B B B B B M M M M x x x x x x x z c c v v v M M M D D D Z D D D B n M M M M n M B U E { | | { Y Y B B v x z f f f c v v v v c c c c c c c c c c c c c c c c c c z z z c c c c x c c c c c c c c c c c c f f g g g g g g j j j j f b b b D D b Z b s a r e 7 7 7 6 2 4 5 5 1 4 4 2 1 1 ; ; ; ; ; - ; ; - - - - - - % % % % % % % % % % $ $ $ $ $ $ $ $ $ $ + + $ + + + + + + + + + $ $ $ $ $ % % % % % $ $ $ $ $ $ $ $ $ $ + + + + + + + O O O O O O + + + # # # + O O O + % : - - - - - - - % % % % % % % % % % % $ + $ $ $ $ $ $ % - - - - ; ; 1 1 2 2 6 6 6 6 6 6 2 2 2 2 2 2 2 2 2 2 2 ",
"- - - ; ; ; ; - - , , - - % % % $ + $ + + $ $ $ $ $ + + + + + + + + + + + + + $ $ $ $ $ $ $ $ $ $ $ $ $ $ $ $ $ $ $ $ $ $ $ $ $ $ % % % - - - ; ; 1 1 2 2 8 8 6 7 6 6 6 6 2 2 1 1 ; ; ; ; - - - ; ; ; 1 1 1 1 1 1 1 ; ; ; ; ; ; ; ; ; ; ; ; ; ; ; ; ; ; ; ; ; ; ; ; ; ; ; ; 1 1 1 1 1 2 2 2 2 2 7 7 7 e e r r r d d a a a a a r r r r a a a s z z x x x x n M M B B B m m m m m m m m N N N m m N m m m n n M M M n n N m I I I m m m m m m L L L L L L L L P P R 2.3.2.2.2.R T P P L m m m n n N N N N N n N n n n n M M M M n I L L L L L m m m m m m m m m m m N m m m m I I m m m m m m m m n n n M M M N m L L P P P L L L n n x x z s s a y i u u t t y t t t 9 9 9 9 8 6 8 8 8 8 8 8 8 8 1 1 1 3 1 > > > > > > > ; ; ; , - - - * - * - - - - - - = , = - - - ; ; ; ; ; 1 3 3 ; ; ; ; - - - - - - % % % % = = = $ $ $ $ $ & % % % * * * * & & & % : - ; ; - - - - - : : : : : % : - - % % $ + + + $ $ $ $ % % % % % - - ; 1 2 2 6 6 6 6 6 6 6 2 2 2 2 2 2 6 6 6 6 ",
"; ; ; ; ; ; ; > ; ; ; > > > > > ; ; - - % % $ $ $ + + + + + + + # # + + + $ $ $ $ $ $ $ $ $ % $ % % $ % % % % % % % % % % - - - ; ; 1 1 1 1 1 2 2 2 2 6 6 6 7 7 7 7 7 7 6 6 6 6 2 2 1 1 1 ; ; ; ; ; ; ; ; ; - - - - - - - - - % - % - - - - - - - - - - - - - - ; ; ; ; 1 1 1 1 1 2 2 6 6 6 6 6 7 7 7 e e r r r r r a a a a a a a a a a a s s z n n n m n n n n x x n n n n n n n n n n n n N m m m m m n n B B B m B m I I I L m m L L L L L L P P T T T Q R R <.<.<.<.<.<.2.2.R R T T P P P L m m m n n n n n M M M n n n n n m m m m m m n n n n n n m m m m n n n B m n n m m m L L m m m L L P L L L L P T R 4.3.1.1.f.f.4.4.Q T P L n x s a a r r r r r r r r r r r e e e e e 7 7 7 9 7 7 6 8 2 2 2 1 1 1 1 1 1 1 1 1 1 ; - - - - - - ; ; ; ; ; ; 1 1 1 1 1 2 2 2 6 6 6 6 q q 6 6 6 2 2 2 1 1 1 ; ; ; ; - - - - - - - - - - : : - : : : : * % % % - - ; ; ; ; ; - - - : : : : : - : : - % = & $ $ $ $ $ $ % % - - ; ; 1 1 6 6 6 6 6 6 6 6 6 6 6 2 6 2 2 2 2 2 2 2 ",
"; ; ; 1 1 1 1 1 ; ; ; ; ; ; > ; 1 1 1 1 ; - - % $ $ $ + + O O O + # # $ $ $ $ $ $ % % % % % % % % % % % % - - - - ; ; ; ; 1 1 1 2 2 2 2 2 2 6 6 6 6 6 6 7 7 7 7 7 7 7 7 7 6 6 6 6 6 2 2 2 2 2 5 ; ; - - - - % % - - % % % % % % % * % % % % % % % - - - - - - - ; 1 1 1 2 2 2 6 6 6 6 7 7 7 7 7 7 7 e e e r r r a a a a a a a a a a a a s z x x m m P P L n x x x x n n m m m m n n x n n M n n m m m m m m m m m m m m m m m m L L P P P T T T T T T R R R R R R R R <.<.<.<.<.R R R R T T T P L L m m m m m m m n n n n n n n m m m n n n x x x x n n n n n n n x n B n n m m m L L L L L L P T R R R R 3.3.0.q.b.b.l.q.q.d.0.w.w.0.d.d.4.P n z s a a a r r r a a r r r r e e e e e 7 7 7 7 7 7 6 6 6 2 2 2 1 1 1 1 1 1 1 1 1 ; ; ; ; ; ; 1 1 1 1 2 2 2 6 6 6 7 7 7 7 e e e e p p p e 7 7 7 7 6 6 2 2 2 2 1 1 1 1 ; ; ; ; ; - - - ; ; ; - - - : : : : - - - ; - - - - - - % % % % % % - - - - % % % % % - - - ; ; ; 1 2 2 4 6 6 6 6 6 6 6 6 6 6 6 6 2 6 6 6 2 2 2 2 2 ",
"1 1 1 1 1 1 1 1 1 1 ; ; ; 1 1 1 2 2 2 1 1 1 ; ; - % % $ $ + + + + + $ $ $ $ $ $ % % % % - - - - - - - - - ; ; ; 1 1 2 2 2 2 8 8 9 7 7 7 7 7 7 7 6 7 7 7 7 7 7 7 7 7 7 7 7 6 6 6 6 6 6 6 6 6 6 4 4 1 1 1 ; ; ; - - - - - - % % % % % % % % % - - - - - - ; ; ; 1 2 2 6 6 6 6 7 7 7 7 e e e e r r r r r r a a a a s s s s s s s s z z z z x M m L T R w.f.R P L n n n n m L L L L m n n b M N N N m Y L m m m m m m m L L L L L L P P T T R Q Q Q R R R R R R R R R R R R R R R R R R R R R R R R T T T P P P P P L L L L L L L m m m n n n x x x x x n n n n n n n x n n m m m L L P P P P T T R 5.g.q.7.9.q.x.x.h.c.c.h.6.5.5.1.5.6.z.b.b.l.<.P m x x z s s s a r r e e e e e 7 7 7 7 6 6 6 6 6 6 6 6 6 2 2 2 1 1 1 1 1 1 1 1 1 1 ; 1 1 1 1 2 2 6 6 6 7 7 e e e r r r r r r r r r r r r r r r e e 7 7 9 7 7 6 6 6 2 2 2 1 1 1 ; ; ; ; ; ; - - - - - - - - - - - - - % % % % % % % % % % % - - - - ; ; ; 1 1 1 2 8 8 8 6 9 9 7 7 7 7 7 6 6 6 6 6 6 6 2 2 2 2 2 6 2 2 2 2 ",
"1 1 1 1 1 1 1 1 1 1 1 1 1 1 1 1 1 2 2 1 1 5 1 3 ; ; - : - % % % $ $ $ $ $ $ $ % % % - - ; ; ; ; ; ; 1 1 5 1 4 4 2 2 2 6 8 6 6 6 7 7 7 7 7 7 7 7 7 7 7 7 7 7 7 7 7 7 7 7 7 7 6 6 6 6 6 6 6 6 6 6 0 0 6 6 4 2 2 1 ; ; ; ; - - - - - - - - - - - ; ; ; 1 1 1 1 2 2 6 6 6 6 7 7 7 7 e e e r r r r r r r r a a a s s s s s s s s s z z x z x x n L P R w.b.wX0.<.T P m m m L L P L m m n n x n n N m L L L L L L L L P T T Q Q Q Q Q R R R R R R R R <.<.R R R R R R R R R R R R R R <.<.<.<.<.R R R R R R R T T T T T T T T P P P P L m m m n n M x M M n n N m m m m n m m L L P T T R 2.4.4.4.4.0.z.c.b.j.6.5.5.6.h.c.c.h.6.5.1.<.1.5.g.c.b.x.1.T L n n x x z s s a r r r r e e e 7 7 7 7 6 6 6 6 6 6 6 2 2 2 1 1 1 1 1 1 1 1 1 1 1 1 1 1 2 6 6 7 7 e e r r r d d r r r r r r a r a a a a r r r r r e e e e e e 7 7 7 7 7 6 6 6 2 1 1 1 ; ; ; - - - - - - - - - % % % % % % % % = = % % % - - - ; 1 2 2 2 6 6 6 9 9 7 7 7 e e e e 7 7 7 7 7 6 6 6 6 6 2 2 2 2 6 2 2 2 2 2 ",
"1 1 1 1 1 1 1 1 1 1 1 1 1 1 1 1 1 1 1 1 1 5 5 5 5 3 3 3 3 1 ; : % $ $ $ $ % % - - ; ; 1 1 2 2 4 4 2 4 4 4 4 6 6 2 6 6 6 6 6 6 6 7 7 7 7 7 7 6 6 7 7 7 7 7 7 7 7 6 6 7 7 7 7 7 7 7 7 7 7 7 7 7 7 e e e e 7 9 9 6 8 8 2 1 1 ; ; ; ; ; ; ; 1 1 1 1 2 2 2 6 6 6 9 6 6 6 6 q q q 6 6 7 7 7 7 7 e e e e r r r r a a a a s s s s s s s z z z x c M m P R 1.l.wX0.<.R U m m L P T Q Q P m n x z x x n m m P T T R <.<.1.w.0.0.0.3.4.4.<.4.4.<.<.<.<.<.<.<.<.<.<.<.<.<.<.R R R R R <.<.<.<.<.<.<.<.<.<.R R R R R R R R R R T T T T T T T P P P P I I N m N N m I I L L P P T T R R <.1.3.0.d.l.l.9.8.8.w.j.k.j.w.1.1.1.1.6.k.z.6.1.R R T R <.5.x.z.q.<.P m n x x b z s s s s s a a a a a r r e e e e e 7 6 6 6 2 2 1 1 1 1 1 1 1 1 1 2 2 2 6 6 6 7 7 e e r r r d d d d d r r r r a a a a a a a r r r r r r r r e e e e e p p p p 7 7 7 7 6 2 2 2 1 1 1 1 ; ; ; ; ; - - - % % % % % % % % % % % - - ; ; 1 6 6 6 7 9 7 e e e e e e e e e e 7 7 7 7 7 7 6 6 6 6 2 2 2 2 2 2 2 2 1 1 ",
"1 1 1 1 1 1 1 1 1 1 1 1 1 2 2 2 2 2 2 2 2 2 2 1 5 5 3 3 3 3 3 > - = % $ % - - ; 3 5 4 4 6 6 6 6 6 6 8 6 6 6 6 6 6 6 6 6 6 6 6 6 6 6 6 6 7 7 7 7 7 7 7 7 7 6 7 6 6 6 7 7 7 7 7 7 7 7 7 7 7 e e e r r r e e e e 7 9 9 8 6 2 1 1 1 ; ; 1 1 1 2 2 8 8 6 6 9 7 7 7 7 6 6 6 6 6 6 6 7 7 7 7 7 e e e e e e e r r r a a a a a s s s a s z z z x c M m P R 1.j.b.w.<.T P L L P T 4.d.f.f.P L n x n n m L T R <.3.w.q.l.b.l.l.l.q.w.5.1.<.<.<.<.<.<.<.<.<.<.<.<.<.<.<.<.<.R R R R <.<.<.<.<.<.<.<.<.R <.R R R R R R R R R R R R R R R R R R T T T E U U L L L P P P P T R 4.1.w.5.9.l.l.x.x.z.b.z.g.6.5.6.j.k.j.5.<.<.1.1.5.j.j.5.R T P P T R 1.x.b.l.4.P m n n x x z s s z z z z s s s a a a r r r e e e 7 6 6 6 2 2 1 1 1 1 1 2 2 2 6 6 7 7 p p p r r r r r r r a a a a r r r r a a a a a a a a r r r r r r r r r e e e e e e e e e e e 7 7 7 6 6 6 6 6 2 2 2 1 1 ; ; - - - % % % % % % % - ; ; 1 2 2 6 7 7 7 7 7 e e e e e e e e e e e 7 7 7 7 7 7 7 7 6 6 2 2 2 2 2 2 2 2 1 1 ",
"1 1 1 1 1 1 1 1 1 1 2 2 2 2 2 2 6 6 6 6 6 2 2 1 1 ; ; ; ; - - - % % $ % % - ; ; 5 2 2 6 6 6 6 7 7 7 6 6 6 6 6 6 6 6 6 6 6 6 6 6 2 2 2 6 6 6 6 6 7 7 7 7 6 6 6 6 6 6 7 7 7 7 7 7 7 7 7 e e e e e r r r e e e 7 7 7 6 6 2 1 1 1 ; ; ; ; ; 1 1 2 2 2 6 6 6 7 7 7 7 7 7 7 7 e 7 e e e e e e e e r r e e e r r r r a a d d a a a a s z z c c c M m P R 1.j.b.w.<.T P P P T <.8.b.d.f.R P L L L L T Q <.w.0.q.l.l.z.c.h.h.x.g.6.5.1.1.<.<.<.<.<.<.<.<.R R <.<.R R R R R R R R 2.<.<.<.<.R R R R R R R R R R R R R R R R R R R R R R R R R R R Q T P P P P P P T T R <.w.j.g.g.k.c.k.h.g.h.k.k.g.6.6.6.h.k.z.6.1.<.1.5.7.z.z.9.<.R P L P T 1.x.b.z.3.T L m m n n x x c z z z z z s s a a a a r r r r e e e 7 7 6 6 2 2 2 2 2 6 6 9 9 7 p r r r r r r r r r r r r r r r r r r r r r r r r r r r r r r r r r r r r r r e e e e e e e e e e e e e e 7 7 7 7 7 9 6 6 2 1 1 ; ; - - - - - - ; 1 2 2 6 q 7 7 7 7 7 7 7 7 7 7 7 7 7 7 7 7 7 7 7 7 7 7 7 7 7 6 6 6 2 2 2 2 2 2 2 2 2 1 ",
"1 1 1 1 1 1 1 1 1 1 1 1 1 1 1 2 2 6 2 2 2 1 1 ; ; - - % % $ $ $ $ $ $ $ % % - - ; 1 1 2 2 2 6 6 6 7 6 6 6 6 6 6 6 6 6 6 6 6 6 6 2 2 2 6 6 6 6 6 7 7 7 7 7 6 6 6 6 6 6 6 6 6 7 7 7 7 7 7 7 e e e e 7 7 7 6 6 2 2 2 1 1 ; ; - - - - - - - ; ; ; 1 2 2 2 6 6 6 6 6 7 7 7 e e e e e e e r r r r r r e e e r r r r r a a a a a a a s z z c c c M I P R 1.l.b.0.<.T P P T T R 1.q.q.1.T P L L L Y Q Q T R <.1.w.w.7.j.j.j.g.6.6.5.5.1.1.<.4.<.<.<.<.<.<.<.2.2.<.<.2.2.R R R R 2.2.<.<.<.R R R R R R R R R R R R R <.<.R R R <.<.<.<.<.R R R T T T P P L L L L L P T R w.7.7.6.g.k.h.h.h.h.k.k.g.6.5.6.h.c.z.7.1.<.1.5.6.x.x.5.<.T P L P T 5.x.b.z.8.R L L L m N n x z z z z z z s s s a a a r r r r r p e e 7 6 6 6 2 2 2 6 8 6 9 9 t e r r r r r r r r r r r r r a r r r r r r r r r r r r r r r e r r r r r r r r r r r r e e e e e e r e e e e e 7 e 7 7 9 9 8 8 0 3 3 ; ; ; ; ; ; 3 5 2 2 6 6 6 6 6 6 6 6 7 7 7 7 7 7 7 7 7 7 7 7 7 e e 7 7 7 7 7 6 6 6 2 2 2 2 2 2 2 2 2 ",
"1 1 ; ; 1 3 3 3 3 3 > > > ; ; ; - - - - % % % $ $ $ $ $ $ $ $ $ $ $ $ $ $ $ % % % - - - ; ; 1 1 4 2 2 2 2 2 2 2 2 2 6 6 6 6 7 7 6 6 6 6 6 6 6 6 7 7 7 7 7 7 7 7 2 2 2 2 2 6 6 6 8 6 6 6 6 9 9 6 2 2 1 1 1 ; ; ; - - - - - % % % % % % % - - - - ; ; 1 1 1 2 2 2 6 7 7 7 7 7 e e e e r r r r r r e e e e r r r r r a a a a s s s z z z x v N I P T 4.wXwXf.R T P P P T T R R R Q P L L L Y L I L n n m m L T R <.4.w.3.8.8.8.5.5.1.3.1.1.1.<.<.<.<.<.<.<.<.<.1.<.<.2.R <.<.<.<.<.<.<.<.<.R R R R <.<.<.<.<.<.<.<.R R <.<.2.<.<.Q T Y P L m m m n n n n n m m m m P R R <.1.7.l.g.g.h.z.x.6.5.5.6.g.k.j.5.<.<.1.5.g.h.x.6.<.R T L L T 5.c.c.c.1.T L m m m m n x z z z z z z s s a a a a r r r e e e e 7 7 6 2 2 1 1 1 1 1 2 2 4 8 9 e e e t y y y r r d a a a a a r r r r r r r a r r r r r r r r e e r r r r r r r r r r e e e e e e e e e 7 7 9 7 q 6 8 2 2 1 1 - - - - - - - - - - ; ; ; 1 1 5 2 6 8 6 6 9 7 e 7 e e e e e e e e e e e 7 7 7 7 6 6 6 6 2 2 2 2 2 2 6 6 ",
"; ; ; ; > > > > - - - - - % - % % % % $ $ $ $ + + + + $ $ $ $ $ $ $ $ $ $ $ $ % % % % - - - - - ; ; 1 1 1 1 5 2 2 2 6 6 6 6 6 6 7 7 7 6 6 6 7 7 7 7 6 6 7 7 7 6 2 2 4 4 4 4 4 4 4 4 2 2 1 1 1 1 ; ; - - - - - - - % % % % % % % % % % % % - - - - - ; ; ; ; ; 1 2 2 6 6 6 7 7 7 7 7 e e e r r e e 7 e e e e r r r r a a a s s s z z x x x n N L T Q f.4.T P L L m L L L P P L L m m n n n n n n n n n n m L L P P T T R R 2.2.<.1.1.4.<.<.<.<.R <.<.<.<.<.<.<.<.R R R R R <.<.<.2.<.<.R R R R R R R <.<.R R R R R R Q Q T T T P L m m m n n n n x x x x n n n n m L L P T R <.<.1.9.q.q.8.1.1.5.g.k.l.1.<.R <.1.g.z.z.6.<.T P L L T 5.c.c.c.1.T L n m m m n z z z z z z s s s a a r r r r e e e e 7 7 6 6 2 2 1 1 1 1 1 1 1 1 2 2 6 6 6 9 9 7 e e e r r r r r r r r r r r r r r r r r r r r r r r r r r r r r r r r r e e e e e 7 7 e 7 7 7 q q 6 6 2 2 1 1 1 ; - % % - - - - - % % - - - - - - ; 1 1 1 2 6 8 6 9 9 7 7 7 7 7 7 7 7 7 7 7 7 7 7 6 6 6 6 6 6 2 2 2 2 6 2 ",
"> - - - - - - % % % % % $ $ $ $ $ $ $ $ $ $ + + + + $ $ $ $ & $ $ $ $ $ $ $ $ % % % % % % % % % - - - - ; ; ; ; 3 1 2 2 2 2 2 6 6 6 6 6 2 6 6 6 6 2 2 2 2 2 2 2 2 2 2 2 2 1 1 1 1 1 ; ; - - - - - - - - - - - - - % % % % % % % - - - - - - - - - - - - - - - ; ; 1 1 2 2 2 6 6 6 6 7 7 7 e e e 7 7 7 7 e e e e r r r a a a d s s z z c x x n n m L L L m n n n b x n n n n n n x x x x n n m m I I I L L L L L m m m m m L L L T T T T T T Q Q T Q T T R R R R R R T R R R R R R R T T T T Q Q Q Q Q Q T T T T P P P P L L L m m m n n n n n n n x x x x x x x x n n n m L L P T T R R R T R <.x.k.l.w.<.<.1.1.6.x.x.5.R P L m L T 5.c.c.c.1.P m n n m m n b z s s s s s a a a r r r e e e e e 7 7 7 6 6 2 2 2 1 1 1 1 1 1 1 1 1 1 1 1 1 2 2 2 6 6 6 6 7 7 7 p e e e e r e r r r e e e e e r r e e r r r r r r e e e e e 7 7 7 7 9 q 6 6 6 6 6 2 1 1 1 ; ; ; ; - - - - - - - - - - - - - - - - % - - - ; ; 1 1 2 2 2 2 4 4 4 4 6 6 4 6 2 6 6 6 6 6 6 6 6 6 6 6 2 2 2 2 ",
"% % % % $ $ $ $ $ $ $ $ $ $ + $ $ $ $ $ $ $ + + + + + $ $ $ $ $ & $ $ $ $ $ % $ $ $ $ $ $ $ $ $ % % % % % % - - - ; ; 1 3 5 5 5 2 2 4 4 4 4 4 5 5 5 5 3 3 3 3 1 1 1 1 1 1 ; ; ; - - - % % % % % % - - % % % % % - - - - - - - - - - - - - - - - - - - - - - - - - ; ; ; ; 1 1 1 2 2 8 6 q 7 7 7 7 7 7 7 e e e e r r r r a a a a a s s s s s s z z x x x x x b z z z b b z x z z z z z x M B I I I I m m m m m n n n x x x x x n n m m m m L I L L L U Y U P U E T T T T T T T T T T P P P P P P L L L L L L m m m m m m m m n n m m n n n n x x n x n x x x x x x x x x x n n n n m L L m m m P 1.8.8.4.R R <.1.5.q.l.w.R P L B L T 5.c.c.c.1.P m n n n n x z s s s s a a a a r r r e e e 7 7 7 7 7 7 7 6 6 2 2 1 1 1 1 1 1 1 1 ; ; ; ; ; ; ; ; 1 1 1 1 1 2 2 2 9 7 7 e 7 e e e p e e e e e e e e e e e e e e e e 7 7 7 7 7 7 0 6 6 8 2 2 1 1 1 ; ; ; ; ; - - - - - - - - - - - - - - - - - - - % = % % % % - - - - ; ; ; ; ; ; 3 3 3 5 5 5 4 4 6 8 6 6 7 7 7 6 2 2 1 1 ",
"+ + + + + + + + + + + + + + + + $ $ $ $ $ $ $ + + + + + + $ $ $ & & & & & & & $ & $ $ $ $ $ $ $ $ & & $ $ $ $ $ % % % - - ; ; ; 3 5 5 5 3 3 3 > ; - - - : : : - - ; - - - - % % % % $ $ $ $ = = % % % % % % % % - - - - - - - - - - - - - - - - - - - - % % % % - : - - - - ; ; 1 1 2 2 2 8 8 6 6 7 7 7 7 7 e e e e e r r r r r a a a a a a a a s b x x b z s s s s s z z z z z x x b B B M M n x x x x x z z z x x x z z z z z z x x x x x x x n n n n N m I I L P P P P P P P P P P L L L m m n n n n n x x x x x x x x x x x n n n n n n x x x x x x x x x x v b b z b x x x x x n x x x x n m L L m m L P T f.d.d.8.R P L Y m P 1.x.c.x.1.P m n n n x x s s a a a a r r r r r e e e 7 7 7 7 7 7 7 6 6 2 2 2 1 1 1 1 1 1 1 1 ; - - - - - - - - - - - - ; ; ; 2 2 6 6 6 6 6 9 9 9 9 9 7 7 7 7 7 e e e e 7 7 7 7 7 6 6 6 4 4 2 1 1 1 1 ; ; ; - - - - - - - - - - - - - - - - - - - - - - - - % % $ $ % % % % % % % % % % % % % - - - - > > 3 5 2 2 2 8 8 8 8 6 2 1 1 1 ",
"O O + O O O O O + + + + + + + + + $ $ $ + $ + + + + + + + + + $ & & & & & & & & = = & $ $ + + + & & & & $ $ $ $ $ $ $ % % % % - ; ; ; ; ; ; - - % % % % $ $ $ $ % % % % % % % % $ $ $ $ $ $ = & $ $ % % % % % % - - - - : - - - - - - - - - - - - % % % % % % % * * * - : - - - ; ; 1 1 2 2 2 2 6 6 6 7 7 7 7 7 e e e e e e e e a a a r r r a a s z z z z z z c z z z x x x z z z b b b v x x z c c s s s s z z z z z s s s s z z z z z z z z z z z z x x M M n m L L L L L L L L m m m m n n x x z z z z z z z z z z z z z z z x x x x x x x x x x x x x x x x x z z z z z s z b z b b z z z z z x x x z x n m P R <.R T L m B m P 1.l.b.z.1.P m x x x z z s a a a a a r r r r e e 7 7 7 7 7 7 7 7 7 6 2 2 2 1 1 1 1 1 1 1 1 1 ; - - - - - - - - - - - - - - - ; ; 1 1 1 1 2 2 2 8 8 8 6 8 9 q 7 7 7 7 7 7 7 q 6 6 4 4 1 1 ; ; ; ; - - - - - - - - - - % % % % % % % % - - - - - - - - - % - % % % % % % % % = $ % % $ $ $ $ $ $ $ % % % - - - ; ; 1 1 4 4 4 4 5 1 1 1 ",
"O O O O O O O O O O O O O O O O + + # # + + + + + + + + + + + + & & $ $ & $ & & = & & $ $ $ $ $ & & & $ $ $ $ $ $ $ $ % % % % - ; ; ; ; ; - - % % % $ $ $ $ $ + $ + + $ $ $ $ $ $ % $ % % % % % $ $ % % % % % % % % % % % % % % : % % % % % % % % % % % % % % % % % % % - - - ; ; ; 1 1 2 2 2 6 7 7 7 7 7 7 7 7 7 e e e r r e r a a a a d a a s s z x x n M M M M M N N n M x z s s s s s s z s s a s d s s s z s s s s s s s s s s s s s s s s s z z z x x x x m m m m m m m m n n n x x x x z z z z z z z z z z s s s s s s z z x x x x z z z z z z z z z z z x z z z z s s z s s s z z z z z z z z z z z z x x n m m m x x b n L <.q.b.l.1.P m x x z z z s a a a a a r r r r e e 7 7 7 7 7 7 7 6 6 6 2 2 1 1 1 1 1 1 1 1 1 1 ; ; ; - ; - - - - - - - - - - - - - - ; ; ; ; ; ; 1 1 1 2 2 2 2 6 6 6 6 6 6 6 6 2 2 1 ; ; - - % - % % % % % % % % % % % % % % % % % % % % % % % : : : - - - - - % % % % % % % % % % % % % $ $ $ $ % % % % % % % % % % - - - - - ; ; 1 ; ",
"O O O O O O O O O O O O O O # O + + + + + + + + + + + + + + + + + + $ $ + + & $ $ $ $ $ $ $ = = % % % $ $ $ $ $ % % % - - - - ; 1 1 1 1 ; ; - - % % % % $ $ & $ + O + + + + $ $ $ $ $ % % % : % % % * * * % % % % % % % % % % % % % % % % % % % % % % % - - - - % % - - - ; ; ; 1 1 2 2 6 6 6 7 7 e e 7 e 7 7 7 7 e e r r r r r a a a a a a a s b b B ( ! S S M M N N N n x x z z s a a a s s s s d d a a s s z s s s s s s s s s s s z z z z z z z z x x x x x n n m m m m m m m n x z z z x x z z z z z z z b s s s s s s s s x x x x z z z s s s s s z z z x x x x x z z s z s s s z x x c x z z b b z s s z x x n n n z s s z n T w.x.6.<.P m x x z x x z s a a a a a r r r r e 7 7 7 6 6 6 9 6 6 6 2 2 2 4 1 1 1 ; ; ; ; ; ; ; ; ; ; ; ; - - - - - - - - % - % % - - - - - - - ; ; ; 1 1 1 2 6 6 2 2 2 2 2 1 ; ; ; - - % % - % % % % % % % % % % % % % % % % % % % % % % % % % % % % % - - - - - - - % % % % % % % % % % % % % % % % $ $ $ $ $ $ $ $ $ $ $ - - ; ; ",
"O O O O O O O O O O O O O O O O + + + + + + + + + + + + + + + + + + + + + $ $ $ $ % % % % % % % - - - - - - - - > ; ; 3 3 3 5 4 2 2 2 2 2 2 1 1 ; - - - % % % $ + + + + + + $ $ $ % % % % % : - % % % % % % % % $ $ $ $ $ $ $ $ $ $ $ $ % % % % % - - - - - - - - - ; ; ; 1 1 1 6 6 6 7 7 7 7 7 e r e r r r r r r r r r r r r a s z s s g s s z z x x n n M x x x x n M n x x z s a a a a s s s c c c c c z z z z z z s s s a s z x x x x x x x x n n n n n N m m m m m m m m m m m n n x x x x x x z z z z x x x z z z z z z z z z z z z s s s s s s s s s z z x x M M x x z z z z z z x x x z s s z x v x b b z x m L m n z z x m T <.6.l.5.T L m x z z z z s a a a a r r r r e e 7 7 7 7 7 6 6 6 2 2 2 2 4 5 1 ; ; ; ; ; ; ; ; ; ; ; ; ; - - ; - - - - - - - % % % % % % - - - - - - ; ; ; ; 1 2 2 2 6 2 2 2 1 ; ; ; - - - % % % % % % - - % % % % % % % % % % $ % % % % % % % % % % % % % % ; ; ; - - - % % % % % % % % % $ $ $ $ $ $ $ $ $ $ $ $ $ $ $ $ $ - ; ; ; ",
"+ + + + O O O O O O + O O O + O + + + + + + + + + + + + + + + + $ $ + $ $ $ $ % % % - - - - ; ; 1 1 1 1 1 1 1 1 1 1 2 4 4 4 4 6 6 6 6 6 6 2 2 2 5 1 1 ; ; ; - - $ $ $ $ $ $ $ % = % % % % % % % % % % % % % % $ $ $ $ $ $ $ $ $ $ $ $ $ % % % % % - - ; ; ; ; ; 1 1 1 2 2 6 6 7 7 7 e e e e e r r r r r d a a a a a a a s s s s x x z z s s s s z z z z z z x x s z z z z z x z s s a a a s s z s z z z z x x x n x x x b b b v n n n n n n n n m m m m m m m m m m m m m m L m m m m m n n n n n n n x x x x x x x x x x x x x z z z z z s s s s s s s s s s z x x M M x x x z x x x x x M M M b x x x x x z x m L T R Q P N M n m T <.9.z.q.<.P m n x x x z z s s a a a r r r e e e 7 7 7 7 7 6 6 6 2 2 1 1 1 1 ; ; ; ; ; ; ; ; ; ; ; - ; - - - - - - - - - - % % % % % % % % - - - ; ; ; ; 1 2 2 2 6 6 2 2 2 2 1 1 ; ; ; - - - - - - - - - - - - % % % % % % % % % % % % % % % % % % % $ $ % - - - - - - % % % % % % % % $ $ $ + + + + + + $ + $ $ $ % % % - ; 1 1 1 ",
"$ $ $ $ $ + + + + + + + + + + + # + + + + + + $ $ $ $ $ $ $ $ $ $ $ $ $ % % - - ; ; ; 1 1 2 2 2 6 6 6 6 6 6 6 2 2 6 6 6 6 6 6 6 7 7 7 7 7 6 6 6 6 6 2 2 4 2 1 1 ; ; ; - - - % % % % $ $ $ $ $ $ % % % % % % % % % = $ $ $ $ $ $ $ $ % % % % - - - ; ; 1 1 2 2 2 6 6 6 7 7 p e p e r r r r a a a a a d a s s s s s s c z c c c x n n x x z s s s s s s s a a a a a a s s s s s s s a s a s z z x x x x x n m m m m m n n n m N m L L L L L L L L L L L L L L L L L m m L L L L L L L L L m m m m m m m m m m n n n n n n n n n n x x z z z z s s s s s s s z z z x c v x x x x x n n n n n n n n x x m L L L m L P R 0.l.l.3.T L m m P <.9.b.l.3.T L n x x x x x z s s s a a a r r r e e e 7 7 7 6 6 6 2 2 2 1 1 1 ; ; ; ; ; ; - - - - - - - - , - - - - - - - - % % % % - - - - ; ; ; ; 1 1 1 2 2 6 6 6 6 6 6 6 6 4 4 4 1 1 1 ; ; ; ; ; ; ; - - - - - - - - - % % % % % % % % % % % % % % $ $ $ % % % % % % % % $ $ $ $ $ $ $ + + + + + + + $ $ $ % % - - ; ; 3 1 1 1 1 ",
", , - - % % % $ $ $ $ $ $ $ $ + + + + + + $ $ $ $ % % % % % % % % % % - - ; ; 5 5 4 4 6 8 9 9 9 9 7 7 7 6 6 6 6 6 6 6 6 7 6 7 7 7 7 7 7 7 7 7 6 6 6 6 6 6 2 6 2 8 4 2 1 1 ; - - % % % $ $ $ $ $ % - - - - % % % % % % % % % % % % % % - - - ; ; 1 1 2 2 6 6 6 7 7 7 e e e e e r r r a a a a a a a s s s s s s s x x x x x x x x m m n n x x x x z x x z s s a a a a a a s s s s s s s z x n m N B B m m L L L P L L L L L P P P P T T P P P P P P P P P P P P P L L L L P P P P P P P P P P Y Y L P P L L L L L L m m m m m m m n n n x x x z z z z z z z z z z x x v x x n n m m m m m m m m m m L R 3.3.2.T T T <.l.b.z.8.R P m m P <.7.b.z.w.R P m n x x M x x z z z s s s a a a r r e e e 7 7 6 6 6 6 2 2 2 1 1 ; ; ; - ; - % % % % - - - - - - - - - - - - - - - - ; ; 1 1 5 5 4 4 4 6 6 6 6 6 6 6 6 6 6 6 6 6 6 6 4 4 4 4 2 2 2 2 1 1 1 1 ; ; ; ; ; ; - - - % % - % % % % % % % % % % % % $ $ % % $ $ $ $ $ $ $ $ & $ $ $ + + + + $ $ % % > ; 1 1 1 2 2 2 2 2 2 2 ",
"3 3 > ; ; ; ; - - % % % % % $ $ + + $ $ $ % % % - - - - ; ; ; ; ; ; ; ; 1 2 2 6 6 6 6 q 9 7 7 7 7 7 7 7 7 7 6 6 7 7 7 7 7 7 7 7 7 7 7 7 7 7 7 7 7 6 6 6 6 6 6 6 q 9 6 8 2 2 1 1 ; ; - - % % % % % - - - - - - - - - - - - - - ; ; ; ; 1 1 2 2 2 6 6 7 7 7 7 7 e e e e e e e r r r a a a s s s s s s s s s s z z z z x x x x x n m m m m N B m m m L Y Y B x z z s a s s z x x b b x x n B m L L m m m L P P T T R <.1.1.<.<.<.<.R R T T T T T T P P P T T T T T T P T T T T T R R T T T T T T T T T T T Q T T P P P P P P L L L m m m m n n x x x x x x x x x x z z x x n m m L L P P T T T T T R <.x.v.v.9.<.R R 1.j.b.z.5.T P m L P <.6.z.z.6.<.P m n n n n n x x x x z z c z s s a a a r r r e 7 7 7 6 6 6 2 1 1 1 ; ; ; ; - % % % % % % - - - - - - - ; ; ; ; 1 1 1 1 2 2 4 6 6 6 6 6 6 6 6 7 7 7 6 7 7 7 7 7 7 6 6 6 6 6 6 6 6 6 6 6 6 6 2 2 2 1 1 1 1 1 ; ; ; ; ; - - - - % % % % % % % % % $ % $ $ $ $ $ $ $ $ % % $ $ $ $ % % % - - ; ; 5 4 2 8 8 8 6 8 6 2 2 2 ",
"1 1 1 1 1 1 1 ; ; ; ; - - - % % $ $ $ % % - - ; ; ; 1 1 1 1 2 2 2 2 2 2 2 6 6 6 7 7 7 7 7 7 7 7 e e 7 7 7 7 7 7 7 7 7 7 7 7 7 7 7 7 7 7 7 7 7 7 6 7 7 7 6 6 6 7 7 7 9 7 6 6 6 4 2 1 1 ; ; ; - - - % % % - - - - ; ; ; 1 1 1 1 1 2 2 6 6 6 7 q 7 7 7 7 e e e e e e e r r r r r r a a a a a s s s a s s s s z z z z x x x x n n n m m m m m L P P T Q 4.f.Q P L m x x x n n m n n n n n m m L L P P P T R <.1.w.0.5.7.l.q.w.5.1.8.<.<.R R R R R R T T T R R R R R R R R R R R 2.<.2.2.2.2.2.2.R R R R R R R R R T R R Q Q T P T P P L L I m m m n n n n x x x x x x x x n n m P P R R <.1.0.0.3.1.1.5.x.c.x.6.<.R R 1.j.k.h.5.R P L L T <.6.b.b.6.<.T L n n n m n n x x x x x z x z c s s s a a a r e e e 7 7 6 6 2 2 1 1 1 ; ; ; - - - - - - - - - - ; ; 1 1 1 2 2 6 6 6 6 6 6 6 7 7 7 7 7 7 7 7 7 7 7 7 7 7 7 7 7 7 7 7 7 7 7 7 7 7 7 7 7 7 7 6 6 6 6 6 6 2 2 2 2 1 1 1 ; ; - - - - % % % % % % % % % % % $ $ $ $ % % % % % % - ; ; ; 1 5 5 4 4 2 2 6 6 6 6 6 6 6 6 6 6 ",
"2 2 2 2 2 2 2 1 1 1 ; ; ; - - - % $ % - - ; 1 1 2 2 2 6 8 6 6 6 6 6 6 6 6 7 7 7 7 7 7 7 7 7 7 e e e 7 7 7 7 7 7 9 6 7 7 7 7 7 7 7 6 6 6 6 6 6 6 6 6 6 6 7 7 7 7 6 6 6 6 6 6 6 6 6 6 6 2 2 2 2 1 - - - % - - ; ; 1 2 2 6 6 6 6 7 7 e e e e e e e e e e e e e e e r r r r r r r r r a a a a a a s s s s s s z z z x x x x n n n n n n m m L P T R <.w.l.b.0.3.<.R T P P P T P L m L m L L L P T R 1.5.9.l.l.l.z.b.6.7.j.7.5.1.1.1.<.<.<.<.2.R R R R R R R R R R R R R <.R 2.<.<.<.<.<.<.<.<.<.<.<.R R R R R R R R R R R R R T R T T T P P P L I m m m n n n n n n x n m m L T R 1.w.5.6.7.x.l.7.5.<.1.g.z.h.6.<.R R 1.g.k.h.5.R T L P T <.g.c.k.g.1.T L m n n m m n n n x x x x x z z z s s s s a d d r r e e 7 7 6 6 2 2 1 1 1 ; ; - ; ; ; ; ; ; 1 1 1 2 2 6 6 6 7 7 7 7 7 7 7 e e e e e e e e e 7 7 7 7 e e e e e e e e e 7 7 7 e e e e 7 7 7 7 7 7 7 7 7 6 6 6 6 4 2 2 1 1 1 ; ; - - - - - % % % % % - % % % % % % - - - ; ; 1 6 6 6 6 6 6 6 6 6 6 6 6 6 6 6 6 6 2 2 2 ",
"2 2 2 2 2 2 2 1 1 1 ; ; ; ; - - % % : - > 3 5 4 2 8 8 6 6 6 9 7 7 7 7 7 7 7 7 7 7 7 7 7 7 7 7 7 7 7 7 7 7 6 6 6 6 6 7 7 7 7 7 6 6 6 6 6 6 6 6 6 6 6 6 6 6 6 6 6 6 6 6 6 6 6 6 6 6 6 6 8 8 6 6 4 ; - - - - ; ; 1 4 6 6 9 9 9 p e e e e e e e e e e e e e r r r r r r r r r r r r a a a a a a a s s s s s z z z x x x n n n m m m n m m m L P T R <.5.l.z.l.9.5.<.2.W W W W W T P L L L P T Q f.d.8.x.z.z.x.h.h.z.g.6.6.5.1.1.<.<.<.<.2.2.R R R R R R R R R R R R R R R R R R <.<.R R R <.<.<.<.<.R R R R R R R R R R R R R R R R R W W W T P P L m m m m n n n n n m L P R 4.0.l.z.h.g.h.h.h.g.5.<.1.j.z.z.6.<.R R w.k.c.c.6.<.T L P T <.g.c.k.g.1.R P m m m L m m n n n n n x x x z z z z s s s s f d d d d y r 7 7 6 6 2 2 1 1 ; ; ; 1 1 1 1 2 6 6 7 7 7 7 7 e e e e e e e e e e r e r r r r e 7 7 7 e e e e e e e e e e e e e e e e e e e e 7 7 7 7 7 7 7 7 7 6 6 6 8 8 6 6 4 2 1 1 1 ; ; ; - - - - - - - - - - - ; ; 1 2 4 8 9 e e 7 7 7 7 7 7 7 7 6 6 6 6 6 6 6 6 6 ",
"1 1 1 1 1 ; ; ; - - - - - % % % % % % : - ; 1 1 4 2 8 6 6 7 7 6 7 7 7 7 7 7 7 7 7 7 7 7 7 7 7 7 6 6 6 6 6 6 6 6 6 6 6 6 7 6 7 6 6 6 6 6 6 6 6 6 7 7 7 7 7 7 7 6 7 6 6 6 6 6 6 8 8 8 8 8 4 2 2 5 ; ; ; ; ; ; ; 1 4 4 6 8 q 9 9 t e e e e e e e e r r e e e e r r r r a a a a a a a a a s s s s s s s s z z z x x x n n n m m m m L L L L L P T R <.5.l.b.l.9.1.<.W Q E Q { Y L L L L L P Q Q f.d.5.g.x.x.x.x.z.b.6.6.5.1.1.<.<.R R R R T T T T T P T T T T T T T T T T T T T R R T T T T T T T T T T T T T T T T R R R R R R R R R T R T T T E U Y U L L m m m L Y P Q Q <.1.9.x.z.h.h.h.k.h.g.6.1.1.g.k.c.g.1.<.<.5.h.c.c.6.<.T P P R 1.g.k.k.g.1.R P L I I L L m n n n n n x x x x z z z z z z z z z s s s s d a r i u q 7 6 2 1 1 1 2 4 8 9 9 t p e e e e e e r r r r r r r r r r r e e e e e e 7 e e e e e e e e e e e e e e e e e e e e e e e e 7 7 7 7 7 7 7 7 7 7 6 7 7 7 7 6 6 6 6 6 6 2 1 ; ; - - - - ; 3 5 4 4 8 6 6 9 7 e e 7 7 7 7 7 7 7 7 6 6 6 6 6 6 6 6 6 ",
"; ; ; ; - - - - % % % % $ $ $ $ $ $ % % % - - ; 1 1 2 2 6 6 6 7 6 7 7 7 7 7 7 7 7 7 7 7 e e e 7 6 6 6 6 6 6 6 6 6 7 7 7 7 7 7 7 6 6 6 6 6 6 6 6 6 6 6 7 7 7 7 6 q 6 6 6 8 8 8 2 2 2 1 1 1 1 1 ; ; ; ; ; ; ; ; ; 1 1 1 2 8 6 6 q 7 e e e e e e e e e e e e r r r r r a a a a s s s s s s s s a s s z z z z x x x n n n m m m L L L L L L L P T R <.w.d.d.0.3.<.R P L L L I m m n n n m m L P Q 4.w.q.l.l.6.6.j.l.5.5.1.<.<.R R R T T T T P P P P T P P T T T T T T T T T T T T T T T T T T T T T T T T T T T T T T R R R R R R R T T T T T P P P P L m m m m m m m L P T 2.3.q.l.x.g.g.h.k.g.6.1.1.5.x.c.c.g.1.<.1.5.c.c.c.6.<.T P T R 1.g.k.z.6.<.R P L I I L I m n n n n n n x x x x z z z z z z z z z z s s s a r r e 7 6 6 2 1 ; 1 1 2 8 6 9 7 e e e e e e r r r r r r e e e e e e e e e e r e e e e e e e e e e e e e 7 7 7 e e e e e e e 7 7 7 7 7 7 7 7 7 7 7 7 7 7 7 7 7 7 7 7 7 7 7 7 6 5 3 ; ; - ; ; ; 3 5 4 4 6 6 9 7 7 e 7 7 7 7 7 7 7 7 6 6 6 6 6 6 6 6 6 6 ",
"- - - % % % % % $ $ $ $ $ $ $ + + + $ $ $ $ $ % - - - ; 1 1 2 4 6 6 6 6 6 6 6 7 7 7 7 7 7 7 e e 7 6 6 6 6 7 7 7 7 7 7 7 7 7 7 7 7 7 6 6 6 6 6 6 6 6 6 6 6 6 8 6 6 4 4 2 2 2 1 1 ; ; ; ; ; ; ; - ; - - - - - - ; ; ; ; 1 1 2 2 2 6 7 7 9 9 7 e e e e e r r r r r r r a a d a s s s s s s s s s s c z z z x x x x n n m m m m m m m m m m m L P T Q 4.f.4.4.T P P L m n n n n x x x x x n n m L P T <.4.1.1.w.0.q.3.1.<.R R T T T T T P P P T T T T T T T T T T T P P P P P T T T T T T T T T T T T T T T T T T T T T T T T T T T T P P P L L L L m m n n n n n n n n m L P R 3.0.0.w.9.l.l.l.5.1.1.5.h.c.c.g.1.<.1.5.h.c.c.6.R P P T R 1.g.c.z.6.<.T L m m m I L L m m m m m n n n x x z z z z z z s s s s s d d r e e 7 6 6 2 1 ; ; ; 1 1 2 2 2 6 6 7 7 7 7 7 7 e e e e e e e e e e e e e e e e e 7 7 7 e e e e e e e e 7 7 7 7 7 7 7 7 7 7 7 7 7 7 7 7 7 7 7 7 7 7 7 7 7 7 7 6 q 6 6 6 6 6 2 4 3 > ; - - - - - ; ; 1 1 4 4 8 8 6 6 6 6 6 6 6 6 6 6 6 6 6 6 7 6 7 7 7 6 ",
"% % % % $ $ $ $ $ $ $ $ $ $ + + + + + + $ $ $ $ % % % % - - - ; 1 2 2 2 6 8 6 q 7 7 7 7 7 7 7 7 7 7 7 7 7 7 7 7 7 7 7 7 7 7 7 7 7 7 7 6 6 6 6 6 6 6 6 4 2 2 2 2 1 1 1 ; ; ; ; ; - - - - - - - - - - - - - - - - - - ; ; ; ; ; ; 1 1 2 2 6 6 9 7 7 e e e r r r r r r a a d d s s a a s s s s s s z z z z x x x x n n n m m m m m B B B n M m m m L P P L L m n n n n x x x x x z z z x x x n n m m L P P T T Q 4.<.R R T T T P P P T P P P P T T T T T T T T T T P P P P P P P T T T T T T T T T T T T T T P P P P P P P P L L L L L m m m m n n n n n n n x x x x x n n m L P R R R <.3.f.f.0.1.1.6.z.c.h.6.1.<.<.5.h.c.c.6.R T P T R 1.g.k.k.6.<.T L m m m m L L L L L L m m n n x x z z z z z s s d a a r r e e 7 7 6 2 2 2 1 ; ; ; ; 1 1 1 1 2 2 2 2 2 2 6 6 6 7 7 7 7 7 7 7 e e e e e e e e e 7 e 7 e e e e e e e e e 7 7 7 7 7 7 7 7 7 7 7 7 7 7 7 7 7 7 7 7 7 7 7 7 q q 6 6 6 4 2 1 1 1 ; - - % % % % % % % - - ; ; 1 1 1 1 1 1 2 2 2 6 6 8 6 6 6 6 6 6 6 6 6 6 6 ",
"$ $ $ $ $ $ $ $ + + + + + + + + + + + + + $ $ $ $ $ $ $ $ % % % ; ; ; 1 1 2 4 6 8 6 q 9 7 7 7 7 e e e e 7 7 7 7 7 7 7 7 7 7 6 6 7 7 9 6 6 6 6 2 2 4 1 1 ; ; ; ; - - - - - - - - - - - - - - - % % % % % % % % % - - - - - - - - - ; ; ; 1 2 2 6 6 7 7 e e e r e r r r d d d d a a a s a a a a s z z z z x x x x n n n n n n n n M M x x x x x x x x x x z z z z z z z s s s s s s z z z z x x n x n n n n m m L L P P P L L L L P P P P P P P P P P T T T T T T P P P P P P P P T T T T T T T T T P P P P P P L L L L m m m m m n n n n n x x x x x x x x x x z z z z x x x n m m m L P T Q Q T R 1.l.b.z.6.<.<.<.5.x.b.z.6.<.T T R <.1.g.k.k.6.<.T P L m m L L L P P L L L m m n x x b z s s s a r r r e e 7 7 7 7 6 2 2 2 2 1 ; ; ; ; ; 1 ; ; 1 1 1 1 1 1 1 1 1 2 2 2 2 6 6 7 q p p p e e e e e 7 e e e e e e e e e e e e e 7 7 7 7 7 7 7 7 7 7 7 e e e e e e 7 7 7 q 6 8 2 2 2 1 ; ; ; - - - % % % % % % % % % % % % - - - - - - - ; ; 1 1 1 4 2 2 8 8 8 6 6 6 6 8 6 ",
"+ + + + + + + + + + + + + + + + + + + + + $ $ $ $ $ $ $ $ $ % % % - - - ; ; 1 1 4 8 6 6 q 9 9 7 e e e e 7 7 7 7 7 7 6 6 6 6 6 6 6 6 6 8 2 2 1 1 1 ; ; ; - - % % % % % % % % % % % % % % % % % % % % % % % % % % % % % - - - - - - - - - ; ; 1 1 2 2 6 7 7 e e e e r r r r r d a d d d a r r r a s z z x z x x v x x x x n n x x z z z s s s s s z z z s s s s s s s s s a a a a a s s z z z z x z x x x x x x x x n n n m N B m L L L L L P P P P P P P P P P P P P P P P P P P P P P P P P P P P L L L I I I m m n n n n x x x x x x x x x x x z z z z z z z z z z z z z x x x x n n n m m L L P T 1.0.8.1.R R <.w.l.b.z.5.R T T R <.1.g.k.k.5.<.R P L L L L L P P P L L m N M n x b z s a a r e e e 7 7 7 7 7 6 6 6 2 2 2 1 1 ; ; ; ; ; ; ; ; ; ; ; ; ; ; ; ; ; ; ; ; 1 1 2 2 6 6 q 7 t e t t e e e e e e e e e e e e e e e e e 7 7 7 e e e e e e e e e e e 7 q 6 6 8 2 1 1 ; ; - - - % % % % % % % % % $ $ $ $ % % % % % % % % % % % - - - - ; 1 1 1 2 2 8 8 8 6 6 6 ",
"+ + + + + + + + + + + + + + + + $ $ $ $ $ $ $ $ $ $ % % % % % % $ $ % % % - - ; 1 1 2 2 6 6 6 7 7 e 7 7 7 7 7 6 6 6 2 2 2 2 1 1 1 1 1 1 ; ; ; - - - - % % % % % % % % % % % % % % % % % % % % % % % % % % % % = % % % % % - - - % % % - - - ; ; ; 1 1 2 2 6 6 7 7 e e e r r r r d a a r r e r r s s s s s s s s s s s s z z z s s s s a a a a s s s s s a a a a s s s a a a a a a a s s s z z z s s s s z z z z z z z z x x x n m m m m m Y L Y L L L L P P P P P P L L L L L L L L L L L L L L m m m n n n n n x x x x x x z z z z z z z z z z z z z z z z z z z z z z b b z z x x x x n n n n n n L P P P L L T R 8.l.q.1.R T T R <.1.6.k.g.5.<.R P P P P P P L L I m m n n x x z s a a r r e e 7 7 7 7 7 7 6 6 6 2 2 2 2 1 1 ; ; ; ; ; ; ; ; ; - - - - - - - - - - - ; ; ; 1 1 2 2 8 6 6 6 9 7 e e e e e r r r r r r r r r e e e e e e e e e e e e e 7 7 7 7 6 2 1 1 ; ; ; - - % % % % % = % % % % % $ $ $ $ $ $ % % % % % % = $ % % % % % % - - ; ; ; 1 1 1 1 1 1 1 ",
"O + + + + + + $ + + $ $ $ $ $ $ $ $ $ $ $ $ $ $ $ $ % % % % % $ $ $ $ $ $ % % - - ; ; 1 1 2 2 6 7 7 7 7 6 6 6 6 4 2 1 1 1 ; ; ; - - - - - - - - % % % % % % % % % % % % % % % % % % % % % % % % % % % % % % % % % % % % % % % % % % % % - - - ; ; ; ; ; 1 1 1 2 6 7 7 e p r r y r r r r r r r a d d d a a a a a r r r r a r r a s s a a a a a a s s s s s a d d a s a a a r r r d a s s s s z s s s s s s s z z b b z s z s z z z x x x n n m B Y Y L L L L L L L P L L L L L L Y m m B m m n M x x x x x z z z z z z z z z z z z z z z z z z z b z z z z z z z z z z z z z z z z x x x x M n x x z x n n n x n m P W 0.0.3.T T P T R <.5.7.7.1.<.R P P P P P P I B B M n n x v s a a r r r r e e 7 7 7 7 7 6 6 6 6 2 2 2 2 1 1 1 ; ; ; ; ; ; ; - - - - - - - - - - - - - ; ; ; ; ; 1 1 1 1 2 2 6 7 7 7 e e e e e e e e e e e e r r e e e e e e 7 7 7 7 7 6 6 6 ; ; ; - - - - - % % % % % % $ % % % % % % % = = $ $ $ $ % % % % $ $ $ $ $ $ % % % % - - - - - - - - - - ",
"+ + + + + + + $ + + + + $ $ $ $ % % % % % $ $ $ $ $ $ % % % % $ & & & & $ % % % % - - ; ; 1 1 1 6 6 6 6 2 2 1 1 ; ; - - - % % % % % % % % % % % % % % % % % % % % % % % % % % % % % % % % % % - - - - : : % % % % % % - - - - - : % % % % - - - - - - ; ; ; ; 1 2 6 6 6 7 7 e e r r r r r r r r e r e e e e e e e e r r r r r r a a a a a a a s s s z s s s s s s a a a a d d d r d s s s c z z s s s s s s z z z z s s s s s s z z z z z x x x n n n N m m I I L L L I I I m N n M x x z z s s s s s s s s s s s c z z z c c z z z z z z z z z z z z z z z z z z z z z z z z z b x x x x n n n b z z z z z s z x n m L L L m m m I P R 4.w.4.4.T T P P U U P L n x x x z z s a a a a r r e e e e 7 7 7 7 7 6 6 6 6 6 2 2 2 2 2 2 2 1 1 5 1 ; ; - - - - : : : - - ; ; ; ; ; ; ; ; ; ; ; ; ; ; ; 1 1 2 2 2 6 9 9 9 9 9 t t t e e e e e e e 7 7 9 9 6 8 2 1 1 1 ; - % % % % % % % % % % % % % % % % % % % % % $ $ % % % % % % % % % $ % % % % % % $ $ % % % % % % % % % % ",
"+ + + + + $ $ $ + $ $ $ $ $ $ $ $ $ $ $ $ $ $ $ % % $ $ $ $ $ $ $ $ $ $ $ % % % % - - ; ; ; 1 1 2 2 2 2 1 1 ; ; - - % % % % % % $ $ $ $ $ $ $ = % % % % % % % % % % % % % % % % % % % % % % - - - - - - : : : % - - - - - - - - - - - - - - - - - - - ; ; ; ; ; 2 6 6 6 6 7 7 7 e e e e e e e e e e e e e e e e e e e e e e e r a a a a a a s s b v c x x z z z s s s s s s a a a s s s s z z z z z c c c c z c z s s s s s s z c z z z z z x x x x x n n n N m U U I L m m n x x z z s s s s a a a a s s s s s s s s s c c c c c z z z z z z z z x x x x x x x x x x x z z z z z x x x x x n x b z c z s s s s s z x n n x x z x x n L P T R T P P L L I L L m x z z s s s a a a a d r r r r e e e 7 7 7 7 7 6 6 6 8 8 6 6 8 2 2 2 1 1 1 1 ; ; ; - - - - - - - ; ; ; ; ; ; ; - - - - - - - - - ; ; ; ; ; 1 1 1 1 1 2 2 8 6 9 9 t t t 7 9 6 6 2 2 1 ; ; - - - - % % % % % % % % % % % % % % % % % % % % % % % % % % % % % % % % % % % % % % $ $ $ $ $ $ $ $ $ $ $ $ $ $ ",
"+ + + + + $ $ $ $ $ $ $ $ $ $ $ $ + + $ $ $ $ $ $ $ $ $ $ $ $ $ $ $ $ $ % % % - - - ; ; ; 1 1 1 2 2 2 1 1 1 ; ; - - % % % % % $ $ $ $ $ $ $ $ $ % % % % % % % % % % % % % % % % - - - - - - - - - - - : - - : : - - - - - - ; ; ; - - - - - - - ; ; ; ; ; ; ; 1 2 6 6 6 7 7 7 e r r e e e e e e e e e e e e e e e e e e e e e r a a a a a a a a b x x x x x x b z s s s s s a a a s s s z z z z x x z z x c c c s s s s s s z z z z z z z z z x x x x n n n m m I P L L m n x z z s s s a a a a a a a a a a s s s s s s s s c c c c z z z z z z x x x x x x x x x x x x x x x x x x x x x x n x x x x c c s s s s s z z z s s s s z z x n m L L L L m m m m m n x z z z s s s a a a d r r r r r e e e 7 7 7 7 7 6 6 6 6 6 6 6 2 2 2 2 1 1 1 ; ; ; ; ; ; ; ; ; ; ; ; ; ; ; ; - - - - % % % % % % % % % % - - - - - - - ; ; 1 1 2 6 6 6 6 2 1 1 ; - - % % $ $ $ $ = = = = % % % % % % % % % % - - - - - - - % % % % % % % % % % % % % % % % % $ $ $ $ $ $ $ $ $ $ $ $ $ $ ",
"+ + + + $ $ $ $ $ $ $ $ $ $ % $ $ $ $ $ $ $ $ $ $ $ $ $ $ $ $ % % % % - - - - ; 1 1 1 1 1 2 2 2 4 8 4 4 2 1 1 ; ; ; - - % % % $ $ $ $ $ $ $ % % % % % % % % % % - % - - - - - - - - - - - - - - - - - - - : : - - - - - - - ; ; ; ; ; ; ; ; ; ; ; ; ; 1 1 1 1 1 6 7 7 7 e e r r d d d a a r r r r e r e e e e e e r r r r r r r a a a a a a a a s s z z x x x x z z z z z c s s s z z z z z x x x x x z z z z z z z z z z z z z z z z x x x x x n n n m m m m L P P P L I m n x z z z s s s s s s s s s s s s s s s s s s s s s z z z z z z z z z z z z z x x x x x x x x x x x x x x x x x x x x x x x c z z z z z z z z z s z b x x n n m m L P L L I L m m m n n x x z z z s s a d d y r r r r e e e e 7 7 7 7 6 6 6 6 6 6 6 2 2 2 1 1 1 ; ; ; ; ; ; ; ; ; ; ; ; ; ; ; - - - - - % % % % % % % $ = = = = % % % % % % - - - ; 2 2 2 2 1 ; ; - - - % % $ $ $ $ = = = % % % % % % % % % - - - - % - - - - % % % % % % % % % % % % % % % % % % $ $ $ $ $ $ $ $ $ $ $ $ $ ",
"& $ $ + $ $ $ $ $ $ $ $ $ $ $ $ $ $ $ $ $ $ $ $ $ $ % % % % - - - ; ; ; ; ; 1 1 4 2 2 2 2 2 6 6 8 8 8 2 2 2 1 1 5 3 ; ; ; - - - % % % % % % % % % % % % % % % % - - - - - - - - - - - - - - - - - - - : - - - - - - - - - ; ; ; ; ; 1 1 1 1 1 1 1 1 2 2 2 6 6 6 e e r r r d a a s s s s s s s s a a a a a a a a r r r a a a a a a s a a a a a a s s z s s s s s z b b v b b b x s z z z z x x x x x x z z z z z z x x x x x x n n n n n n n m m L L L L L P P P P T T T P P L L n n n x x z z z z z z z z z z z s s s s s s s s z z z z z z z z z z z z z z z z x x x x x x x x x x x x x x x x x x x z z z z z x x x x x x x n m m L L P T T T T T T U P P P P L L L m n n x x z s s a a r r r r r r e e e 7 7 7 6 6 6 6 6 6 6 2 2 2 1 1 1 1 ; 1 ; ; ; ; ; ; ; ; ; ; ; ; - - - - - - - - - - * = = = = = = % % % % - - - - ; ; 2 6 6 2 2 2 1 ; ; ; - - - % % % % % % % % % % % % % % % % % % % % % % % % % % % % % % % % $ $ % % % % % % % % % % % $ $ $ $ $ $ $ $ = $ ",
"& & $ + $ + + $ $ $ $ $ $ $ $ $ $ $ $ $ % % % % % - - - ; ; ; ; 1 1 1 2 2 2 2 2 6 6 6 6 6 6 6 6 6 6 6 8 6 2 2 2 2 2 1 1 1 1 1 1 ; - - - - - - - - - - % % % % % - - : : - - - - - - - - - % - - - - - - - - - - - - - - - ; ; ; 1 1 1 1 2 2 2 6 6 6 7 7 7 e e r r r a d d a s s s s z c c c c s z s s s s s s s s s s s s s s a s s a a a r a a s s s s s s s s z z z z b v b z z x x x x x x x x x z z z z z z z z x x n n n m L L L L L P P P P P T T T T T T T T T T T T P P P L L m m m n n x x x x x z z z z z z s s s s s z z z z z z z z z z z z z z z z z z z x x x x x n x x x x x x x x x x z z z x x n n m m m L L P T R R <.1.1.<.1.<.2.R R R R R R R R T T P L m n x z z s a a r r r r r e e e 7 7 6 6 6 6 6 6 6 6 2 2 2 1 1 1 1 ; 1 1 ; ; ; ; ; ; ; - - - - - - - - - - - - - - - - % - % % % % % - - ; ; 1 1 2 2 6 6 6 6 6 6 2 4 1 1 1 1 ; ; ; ; - - - - - - % % % % % % % % % % % % % % % % % % % % % % $ $ $ $ % % % % % % % % % % % % % % $ $ % = & = ",
"# # # # + + + + $ $ $ $ $ $ $ $ % % - - - - ; ; 1 1 1 1 2 2 2 2 2 2 6 6 6 6 6 6 6 6 6 6 6 6 7 7 7 9 9 9 7 6 6 6 2 2 2 2 2 2 2 2 1 1 1 1 ; ; ; ; - - - - % % % % - - - - - - - - - % - % % % % - % - - % % % % % - - - - - ; ; ; 2 2 2 2 6 6 7 7 7 e e r r r d a d a a s s s s z z z z z z z z z z z z z x x x x x x x x z z z z z s d a r r r r a a s s s s s s s s s z z z z z z x x x x x n x z z b z b z z z z x x n m L L L T T T T T T R R R R R R R R R R R R T T T T T T T T P P P P P L L Y L m n n x x x z z z s s s s s s z z z z z z z z z z z z z z z z x x x x x x x x x x x z b x x x z z b x n m L P T R R 2.<.1.9.9.6.6.g.g.6.5.5.5.5.1.1.1.1.1.1.3.3.4.4.R P L n n x z s a a r r r e e e 7 7 7 6 6 6 6 6 6 6 6 2 1 1 1 1 1 1 ; ; ; ; ; ; ; ; ; - - - - - - - - - - - - - - - - - - ; - ; ; ; ; ; 1 1 2 6 6 7 7 7 7 7 7 7 7 7 7 7 6 6 6 6 8 8 2 1 ; ; ; - - - - - % % % % % % % % % % % % % % % % % % % $ $ $ $ % % % % % % % % % % % % % % % % % $ $ $ ",
"$ $ + + + + + $ $ $ $ $ $ $ $ % - ; ; ; 1 1 1 1 2 2 2 8 8 8 6 6 6 6 6 6 6 6 6 6 7 7 7 7 7 7 7 7 7 7 7 7 6 6 6 6 6 6 6 2 2 2 2 2 2 2 2 2 1 1 1 ; ; ; - - - - - - - - - - - % % % % % % % % % % % % % % - - - - - ; ; ; ; ; ; 1 1 6 6 6 6 7 7 e e r r r a a a a a a a s s s c c x x x x x x z x x x x x x x x n n B B B B m m n n x x x z s s a a s s s s s s a a z z z z z z z z z v b b x n n x x x n n n n n n m m L P T R R R <.<.<.<.<.<.<.<.<.<.<.1.1.<.<.<.1.<.<.<.<.<.<.<.R R R R R R R R T T T T P P L I n n n x x x z z s s s s z z z z z z z z z z z z s c c x x x x x x x x x x x z x n n n n n m L P R <.1.5.8.9.9.9.g.g.g.h.h.h.h.g.6.6.9.8.5.5.5.5.5.8.9.7.w.<.T P m n x z z s a a r r r e e e 7 7 6 6 6 6 6 6 6 6 2 1 2 4 1 1 ; ; ; ; ; ; ; ; ; ; - - - - - - - - ; - ; ; ; ; ; ; ; ; ; 1 1 1 2 2 2 6 6 7 7 7 7 7 e e e 7 e 7 7 7 7 e e e e 7 7 9 2 4 2 1 1 1 ; ; - - - - - % % % % % % % % % % % % % % $ $ $ $ $ $ $ % % % % % % % % % % % % % % $ & & & ",
"$ $ + $ $ $ $ $ % % % % % - - ; 2 2 2 2 2 2 2 2 2 6 6 6 6 6 6 6 6 6 6 6 6 6 6 6 6 6 6 6 6 6 6 6 7 6 6 6 6 6 6 2 2 2 2 2 2 2 2 2 6 6 6 6 6 2 2 2 2 1 1 1 1 1 ; ; - - - - - % = = = = = % % % - - % - - - ; ; ; 1 2 2 6 6 6 6 6 7 7 e e e e r r r r r r r a a d d s s s s s s s s z z z z z z z z x x x x x x n n n m L P P P P P L L I m m n x x x x z z z s s s x n n n x b z z z z b z x x x n m m L P T T T R R <.<.<.1.1.1.1.5.5.5.5.5.5.5.5.5.5.5.5.5.5.5.1.5.5.5.5.5.5.5.5.5.5.5.1.1.1.1.1.1.<.<.R R R R R R T T P L m m x z s a a s s s s s s s s s f f f c x c x c x c b z z z x x x n m L P T T R <.3.0.9.j.j.6.6.6.9.6.6.g.h.c.c.h.h.g.6.6.5.5.5.5.5.5.0.7.g.k.g.5.R P m n x x x x z z s s a a r r e e 7 6 6 6 6 2 2 2 2 2 2 1 1 1 1 1 1 ; ; ; ; ; ; ; - * - - : - - - - - - ; ; ; ; ; 1 2 2 6 6 7 q 7 9 7 7 7 7 e e e 7 7 7 7 7 7 7 7 7 7 7 7 7 7 e 7 7 6 6 6 6 6 6 2 1 1 1 ; ; ; ; - - - - - - - % % % % % $ $ $ $ $ $ $ $ % % % % % % % % $ $ $ $ $ $ & & & ",
"$ $ $ $ % % % % - - - ; ; ; > 1 2 2 6 6 6 6 6 6 6 6 6 6 6 6 6 6 6 8 8 6 6 8 8 6 6 6 6 6 6 6 6 6 6 6 6 6 6 6 2 2 2 2 2 2 2 2 2 2 6 6 6 6 6 6 6 2 6 2 2 2 2 2 2 1 ; ; - - - % % % % % % % - - - - ; ; ; 1 1 2 6 6 9 9 7 7 e e e e e e r r r r r r r r r r d d d d s s s s s s s s s z z z z z z z x x x x x x n m m L T T T T T T T T T T T T P P m m n n x x x x m m I B M v v c s z z z x n m L T T R <.4.1.w.w.9.6.6.6.6.6.6.6.6.6.6.g.g.g.6.6.g.g.g.6.6.6.6.6.6.6.g.6.j.j.g.j.j.j.j.j.g.g.g.6.6.5.5.1.1.1.1.<.<.<.<.4.<.<.R T L n x x z z s s s s s f f f f c c c c c x x z z z x x n m L P T <.3.8.0.8.9.l.x.h.h.h.g.6.6.6.5.6.g.h.c.c.h.h.g.w.w.5.5.5.5.w.w.w.5.g.k.h.6.<.P N M n x n x x z c s s s a a r r e e 7 7 6 6 6 2 2 2 2 2 2 2 1 1 1 ; ; ; ; ; ; - - - - , - - - - ; ; ; ; 1 1 1 1 6 6 7 7 7 7 7 p 7 7 7 7 e e e e e 7 7 7 7 7 e e 7 7 7 7 7 7 e 7 7 7 7 7 6 6 6 6 6 6 2 2 2 1 1 1 ; ; ; - - - - % % % % % % $ $ $ $ $ $ % % % % % % % % % $ $ $ $ & & & & ",
"% % % - - - - - ; ; ; 1 1 1 1 2 2 2 6 6 6 2 2 2 2 2 2 2 6 2 2 2 2 2 2 2 2 6 6 6 6 6 6 6 6 6 6 6 6 6 6 6 6 6 6 6 6 6 6 6 6 6 6 6 6 6 6 6 6 6 6 6 6 8 6 6 6 6 8 2 1 1 1 ; ; ; - - - - ; ; ; 1 1 1 2 2 2 6 6 q 7 p e e e e e e e e e e e e r r r r r r r r r d d d a a a s s s s s s z z z z z z z x x x x x n n m L P R R <.<.<.<.R R R <.4.1.1.1.<.R R T P L L m L L L m m n n x n n m L P T R <.3.1.w.q.q.7.l.l.x.j.j.j.j.j.j.6.g.g.j.k.k.k.g.g.x.h.x.x.x.x.j.g.k.h.k.k.k.k.k.k.k.k.z.c.c.c.c.z.l.7.w.5.5.1.1.1.1.1.1.w.0.0.0.0.8.5.<.R P L n x z z z z z z z z s s z z z z x n m L P R <.1.w.w.j.j.x.x.g.g.h.h.c.c.h.h.g.6.9.5.1.5.h.c.c.h.g.6.1.1.1.1.1.1.<.<.1.5.g.k.k.6.<.P N M n x n n x z x z s s s s a a a r r r e 7 7 7 7 6 6 6 2 2 2 2 1 1 1 1 1 ; ; ; ; ; ; ; ; ; ; 1 1 1 1 2 2 2 6 8 9 7 7 7 7 7 7 7 7 7 7 7 7 e e e e e e e e e e e e e 7 7 7 7 7 7 7 7 7 7 6 7 6 6 6 6 6 6 6 2 2 2 1 1 1 ; ; ; ; - - - - % % % % % % % % % % % % % % % % % % $ $ $ $ $ $ $ ",
"- - - ; > ; ; ; 1 1 1 1 2 2 2 2 2 2 2 6 2 2 2 2 2 2 2 2 2 2 2 2 2 2 2 2 2 6 6 6 6 6 6 6 6 6 6 6 6 6 6 6 6 6 6 6 6 6 6 6 6 6 6 6 6 6 6 6 6 6 6 6 6 6 6 6 6 6 8 8 4 4 2 1 1 1 ; ; 1 1 1 1 2 2 8 8 6 7 7 7 e e e e r r r r r e e e e e e e r r r r r r r r r r d a a a a a a s s s s s s z z z z z x x x x x n m L P T R 1.1.5.5.1.1.<.1.1.1.5.8.8.9.8.8.1.1.<.R T P L L m m n m m I Y T R <.3.0.q.l.j.j.l.j.j.j.k.k.k.k.k.k.j.j.g.g.g.h.k.k.k.h.h.x.h.h.x.x.x.g.x.h.h.h.h.k.k.k.k.h.c.k.k.k.k.k.x.7.5.5.5.5.5.5.5.5.5.5.w.8.q.q.9.z.z.z.q.8.<.T P L m n n x x n x z z z z x n L P R <.3.0.9.7.x.k.h.k.h.g.g.g.g.h.c.c.h.g.6.5.5.1.1.1.g.k.c.h.6.5.<.<.<.<.<.<.R R <.1.g.k.k.6.<.P N M n x n n x z z s s s s s s a s d d d d r r r e 7 7 6 6 6 2 2 2 2 1 1 1 1 1 1 ; ; ; 1 1 1 1 2 2 6 6 6 7 9 7 7 7 7 7 7 7 7 7 7 7 7 7 7 7 7 e e e e e e e e e e e e 7 7 7 7 7 7 7 7 7 7 7 7 6 6 6 6 6 6 6 6 6 6 6 4 2 2 2 1 1 1 ; ; ; - - - - - - - - % % % % % % % % % % % % % % % % % ",
"; ; > 3 3 1 1 1 2 2 2 2 2 2 6 2 2 2 2 2 2 2 2 2 2 2 2 2 2 2 2 2 2 2 2 2 2 2 6 6 6 6 6 6 6 6 6 6 6 6 6 6 6 6 6 6 6 6 7 7 7 7 7 7 6 6 6 6 6 6 6 6 6 8 6 6 8 8 8 8 8 4 4 2 1 1 ; ; 1 1 2 2 8 0 w 9 e e e r r r r r r r r r r r r e r e r r r r r r r r r r r r a a a a a a a a a s s s s s z z z z x x x x n n m L P R 1.8.6.7.g.6.6.5.5.5.5.5.5.5.5.w.q.q.q.8.8.1.Q Y L m m Y Y Y P T R <.1.5.l.z.z.h.h.h.h.h.h.h.h.g.g.j.j.j.j.g.g.g.h.h.h.h.h.z.h.h.x.x.x.g.g.g.g.g.g.g.h.h.h.h.h.h.h.h.h.h.h.g.5.5.5.5.5.5.9.9.6.6.9.9.7.9.9.7.j.j.j.g.9.w.w.1.4.<.R P P L m m m m m L P Q Q 4.4.w.7.7.6.6.6.g.k.k.j.g.6.6.6.g.h.k.g.6.1.1.<.2.R <.6.z.b.j.5.<.R R R R R R T T R 1.6.k.k.6.<.P m M n n n n x z z s s s s s s s s s s s s s s d r e e e 7 7 6 6 2 2 2 1 1 ; ; 1 1 1 2 2 2 2 6 6 7 7 7 7 e e e e 7 7 7 7 7 7 7 7 7 7 7 7 7 7 7 e e e e e e e e e e e 7 7 7 7 7 7 7 7 7 7 7 6 7 6 6 6 6 6 6 6 6 6 6 6 6 8 6 8 2 4 2 1 1 1 ; ; ; ; ; - - - - % % % % % % % % % - - ; 1 1 1 ",
"; ; ; 1 1 1 1 2 2 2 2 8 8 8 8 6 6 2 2 2 2 2 2 2 2 2 2 2 2 2 2 2 2 2 2 2 2 6 6 6 6 6 6 6 6 6 6 6 6 6 6 6 6 6 6 6 6 7 7 7 7 7 7 7 6 6 6 6 6 6 2 2 8 8 8 2 2 2 2 2 1 1 1 1 ; ; ; ; ; ; 1 2 4 8 8 9 e e r r r r r r r r r r r r r r r r r r r r r r r r r r r r a a a a a a a a a s s s s z z z z z x x x x n n m L T R 5.9.z.z.x.g.6.6.5.5.5.w.w.w.w.0.0.0.0.3.1.<.L m n n n m Y Y Y T R <.1.5.l.z.h.h.h.h.h.h.h.h.g.g.g.g.j.j.j.6.g.g.g.g.g.x.h.x.x.x.g.g.6.6.6.6.6.6.6.6.6.6.6.6.g.g.g.g.g.g.g.6.5.5.1.5.5.5.6.6.6.6.9.9.9.6.6.7.7.6.5.5.5.6.9.q.0.f.f.i.| L m n m m Y Q | Q 4.4.1.w.7.7.6.6.6.6.j.j.j.6.6.6.6.g.g.j.g.5.1.<.2.R R <.5.z.z.j.5.<.T T T T T T T T T <.6.k.k.g.<.P m M n n n n x x z z z s z z c z c s c c c c c s d r r r e e 7 7 6 6 2 1 1 1 1 1 2 2 6 6 6 6 7 7 7 e e e e e e e 7 7 7 7 7 7 e 7 e 7 7 7 7 7 e e e e e e e e e e e e 7 7 7 7 7 7 7 7 7 7 7 7 7 7 7 7 7 7 7 7 6 7 7 7 7 6 6 6 6 6 6 8 8 6 2 2 2 1 ; ; ; - - - % % % % % % - ; ; 1 2 6 6 6 ",
"- - ; ; ; 1 1 1 2 2 2 2 8 8 8 8 6 2 2 2 2 2 2 2 2 2 2 2 2 2 2 2 2 2 2 2 2 6 6 6 6 6 6 6 6 7 7 7 7 7 7 7 7 6 6 6 6 6 6 7 7 7 7 6 6 6 8 8 8 2 2 2 2 2 2 1 1 1 1 ; - - - - - % % % - - - ; ; ; 1 2 6 7 e e e r r r r r r r r r a a r r r r r r r r r r a a a a a a a a a a a a a s s s s z z z z z x x x x n m m L T R 5.q.l.z.g.5.<.<.<.1.3.3.3.3.1.4.4.Q P L m n x z s s s z x x m L P T <.w.0.q.g.g.g.h.g.g.g.g.6.6.6.6.6.6.6.6.6.6.6.6.6.g.g.g.6.6.6.9.6.6.5.5.1.1.1.1.5.1.1.1.5.5.5.5.5.5.5.5.5.1.1.1.5.5.5.5.5.5.5.5.5.5.5.5.5.1.1.5.5.5.w.0.4.4.Q Y B b s s s b n B L P T R 1.w.7.7.6.6.6.6.7.w.6.5.5.5.5.6.j.j.7.5.1.<.R R <.1.6.x.c.x.5.<.T T T P P P P P T <.6.k.k.g.<.P m M n n n x x x z z z z z z z z s s z z c c s s d a a r r r p p q 8 2 1 1 1 1 1 2 2 6 6 6 7 q 7 7 e e e e e e e e e e e e 7 e 7 e e e e e e e e e e e e e e e e e e 7 7 7 7 7 7 7 7 7 7 7 7 7 7 7 7 7 7 7 7 7 7 7 7 7 7 7 7 7 7 7 7 6 6 6 6 6 8 1 1 1 ; ; - % % % % - - > 3 3 4 6 7 7 7 ",
"% % % - - ; 3 3 1 1 1 2 2 2 2 2 2 2 2 2 6 2 2 2 2 2 2 2 2 2 2 2 2 6 6 6 6 6 6 6 6 6 6 7 7 7 7 7 7 7 7 7 7 7 6 6 6 6 6 6 6 6 6 6 4 4 4 4 4 2 1 1 1 1 ; ; ; ; ; - % % % % % % % % % % % % - - - ; 2 6 6 7 7 7 e e e e r r r r r r r r r r r r r r a a a a a a a a a a a a s s s s s z z z z z z x x x x x n n m L P R 1.0.q.q.5.<.T P T T W Q R Q P L m n x s s s s a a a s s s z z x m L P T 4.4.7.6.7.7.7.5.5.5.5.5.5.5.5.5.5.5.5.5.5.5.5.5.5.5.5.5.5.5.5.1.1.1.<.<.<.<.<.<.<.<.<.<.<.<.1.1.1.1.1.1.1.1.1.1.1.1.1.1.1.1.<.<.<.<.R <.<.4.4.4.<.R P L n z a r r r a a s z x m L T <.4.0.0.5.5.5.w.w.w.w.5.5.5.5.6.j.j.j.6.1.1.<.R <.1.6.h.k.x.5.<.T P P P P P L P T <.6.k.k.g.<.P m n n n x x x x z z z z z z s s s s s s s s s a a r r r r r p 7 6 6 2 1 ; ; ; 1 2 2 2 2 6 6 6 q 7 7 7 7 7 e e e e e e e 7 7 7 7 e e e e e e e e e e e e e e e 7 e 7 7 7 7 7 7 7 7 7 7 7 7 7 7 7 7 7 7 7 7 7 7 7 7 e 7 7 7 7 7 7 7 7 7 7 7 7 9 6 4 5 5 3 > > - % % % , , 3 5 0 8 9 7 7 7 ",
"$ $ % % % % % - > ; ; 1 1 1 1 1 2 2 2 6 6 6 6 2 2 2 2 2 2 2 2 2 6 6 6 6 6 6 6 6 6 7 7 7 7 7 7 7 7 7 7 7 7 7 6 6 6 8 6 2 4 4 4 4 5 5 1 1 ; ; ; ; ; ; - - - - - - % $ $ $ $ $ $ = = % % % % - - - ; ; 1 1 1 2 6 6 7 e e e r r r r r r r r r r r a a a a a a a a a a a a s s s s s z z z z z z z x n n x x x n n m L P R 4.f.4.<.<.T Y L m n x z s s s s s s s s s a a a a a s s s z z z x n m m L R <.4.0.f.4.4.<.<.<.<.<.<.<.<.<.<.<.1.1.1.1.1.1.1.1.1.<.<.<.<.R R R R R R R R R R R R R R R <.<.<.<.<.<.<.<.<.<.<.<.<.R R R R T T T P P L m n x z z s s a a a a r r a s s z x n m L L P T T Q <.0.q.0.8.1.5.6.6.h.k.k.g.5.5.1.1.1.5.g.c.c.h.5.<.T P P P P L L L T <.6.k.k.j.<.P I B n n x x x x z z z z z s s s s a a a a a d r r r r e 7 7 6 6 2 2 1 1 1 ; ; ; ; ; 1 1 1 2 2 2 8 8 6 6 6 9 9 9 e e e 7 7 7 e e e e e e e e e e e e e e e e 7 7 7 7 7 7 7 7 7 7 7 7 7 7 7 7 6 6 7 7 7 7 7 7 7 7 7 7 7 e 7 7 7 7 7 7 7 7 7 7 9 8 4 4 3 1 ; - - % % % - - ; ; 1 1 8 6 6 6 ",
"$ $ $ $ $ $ % % % % - - ; ; > 1 1 2 2 2 2 2 2 2 2 2 2 2 2 2 2 2 6 6 6 6 6 6 6 6 6 6 6 6 6 6 6 7 7 7 7 7 9 9 6 6 4 4 4 1 1 ; ; ; ; - ; - - - - - - - - - - - - % % $ $ $ $ $ % = % % % % % - - - - - - - ; ; 1 1 8 8 6 9 7 e e e r r r r r r r r a a a a a a s s s s s s s s s s s z z z z z z x x x x x x x n n m Y | f.f.Q P m n M x z z s s a a a a a a a a a a a a a a s s s s z z z x x x n m L L P T T Q Q Q Q T R R R R R T T R R R R R R R R R R R R R R R R R R R R R R R R R R R R R R R R R R R R R R R R T T P P P L m n n x x z z s s a s a a a d d a a a a s s z z x x x x n n n m W 2.3.3.3.3.9.l.x.k.k.6.5.5.1.1.1.6.h.c.c.h.5.R T P P P L L L L T <.6.k.k.j.<.P I n n x x x x x z z z z z s s s a a r r r r r e e e e 7 6 6 6 2 2 1 1 1 ; ; ; ; ; ; ; ; ; 1 1 1 1 1 2 2 2 2 2 8 9 7 7 7 7 7 7 e 7 7 7 7 7 7 7 7 7 7 e e e e 7 7 7 7 7 7 7 7 7 7 7 7 7 7 7 7 6 6 7 7 7 7 7 7 7 7 7 7 7 7 7 7 7 7 7 9 9 6 6 6 6 8 2 1 1 ; ; - % % % % % - - ; ; ; 1 1 1 1 ",
"+ + + + + $ $ $ $ $ $ % % - - - 1 1 1 1 2 2 2 2 2 2 2 2 2 2 2 2 6 6 6 6 6 6 6 6 6 6 6 6 6 6 6 6 9 9 9 6 6 8 6 4 4 1 ; ; - - - - % % - - - - - - - % % % % % % % % % % % % % % % - - - - - - - - % % % % - - - ; 1 1 2 2 6 8 9 7 e e e e r r r r r r a a a a a s s s s s s s s s s z z z z z x x x x x x b v v x n n m m m n x z a r a d d s s s s s s d d a d a a a a s s s s s s z z z z z z x x x x x n n m m L L P U U U U P P P P P P P T T T T T T T T T T T R R R R R R R R R R R R R R R T T T Q T T T T T Y L m m n x x s s a a a a s s s s s s s c c f s s s s s s s s s s a a a a a s n L P U U W 2.3.q.l.l.5.1.<.<.<.<.5.x.c.c.h.1.R P P P L L L L L T <.6.k.k.j.<.T L n x x x z x c x x z s s s a a a r e e e 7 7 7 6 6 6 6 6 2 2 2 2 1 1 1 ; ; ; ; ; ; ; ; - ; ; ; ; ; ; ; 1 1 1 2 2 6 6 6 6 9 9 7 7 7 7 7 7 7 7 7 7 7 7 7 7 e e 7 7 7 7 7 7 7 7 7 7 7 7 7 7 7 7 6 7 7 7 7 7 7 7 7 7 7 7 7 7 7 6 6 q 6 8 6 2 2 2 1 ; ; ; - - - % % % % % % % - - - % % % % ",
"+ + + + + + $ + + $ $ $ $ $ % % ; ; ; 1 1 1 2 2 2 2 2 2 6 2 6 6 6 6 6 6 6 6 6 6 6 8 8 8 8 8 8 8 8 8 8 2 2 1 1 1 ; - - - - % % % % % % - % % - % % % % % % % % % % - - - - - - - - - - - - - - - * * * % % : - - ; ; ; 1 2 2 8 6 7 7 7 e e p r r r r a a a a a a a s s s s s s s s s s z c x x x x x c s s s s s z z s s s s z s r e r r r d f f f f f s d d d d a s s s s s s s s z z z x z x z x z z z z z z z x n n m m I L I Y L L L L L P P P P P P P P P P T T T T T T T T T T T T T T R T P P Y Y Y P L L m m n x x z z s s a a a a s s s c c s s s s f f s s s s s s s s s d a a a r r a s x x x n n m P 4.4.4.<.R T T T R 1.9.z.z.g.1.R P L L L L L L L T <.6.k.c.j.1.T L n x x x z c s c c s s a a a r r e 7 7 7 6 6 6 6 6 6 6 6 2 2 2 1 1 1 1 1 ; ; ; ; - - - - - - - - - ; ; ; ; ; 1 1 2 2 2 2 2 8 6 6 6 6 6 9 9 9 7 7 7 7 7 7 7 7 7 7 7 7 7 7 7 7 7 7 7 7 7 7 7 7 7 7 7 7 7 7 7 7 7 6 6 6 6 6 6 6 8 2 2 2 1 1 1 1 ; ; - - - - % % % % % % % % % - % $ $ $ $ ",
"+ + + + + + $ + $ $ $ $ $ $ $ $ % - - - ; ; 3 1 5 5 4 2 2 2 2 6 6 6 6 6 6 8 2 2 4 4 4 4 4 4 1 1 1 1 1 ; ; ; - - - % % % % % % % - - - % % % % % % % % % % % % % - - - - - - - - - - - - - - - - : % % % : : - , - - ; ; ; 1 1 1 2 2 6 6 7 7 7 p p r r r r r a a a a d s s s s s s s s s s s s s s s s a a r r r a s s s s s s a a r r r r r d d d d d s s s c c s s s s s s s s s s c x x x c x c c c c z z z z z z z x x n n n B m m m m I L L L L L L L L L P P P P P P P P P P P P P P P P P Y B B m m m n n x x z z z z z z s s s s c c z z x c s s d d a a a a a a a a a d d d s s s s s s s s s s s z z x n m L m m m B B Y Q 0.d.b.0.<.T L L L L L L L L T <.g.k.c.g.1.T L n x x z z s s s a a a a r r e e 7 7 7 6 6 6 2 6 6 6 2 2 2 2 2 2 1 1 1 1 1 1 ; ; ; ; - - - - - - - - - - - - - ; ; ; ; ; 1 1 1 2 2 2 2 6 6 6 9 q 7 7 6 7 6 7 7 7 7 7 7 7 7 7 7 7 7 7 7 7 7 7 7 7 7 7 7 7 9 7 9 6 8 6 6 4 4 4 4 1 ; ; ; ; - - - % % % % % % % % % % % % % % % % $ $ $ $ ",
"+ + + + + + $ $ $ $ $ $ $ $ $ $ $ $ % % % - - - ; 1 1 1 2 2 2 2 2 6 6 6 4 4 4 2 4 1 1 ; ; ; ; - - - - - - - % % % % % % % % % % - - - % % % % % % % % % % % % % % - - - - - - - - - - - - - - - - - - - - - - - - - - - ; ; ; ; ; 1 1 1 2 6 6 6 7 e e e r r r r d d d d d d d d d d a a a a a a a a r r r e e r r a s s c c s s s d d a a r r r r r a a a s s s s s s s s s s s s z c c c c c s s s s s s s s s s s s z z z x x x x x n n m m Y I L L L L L L L L L L L L L L L L L L L m m m m x x x x n n M M n x x x z z s s s s s c c z s s s s s s a a a a a s s a a a a a a s s s c c c s s a a d d s s z z x x x z z z z n L Q d.d.f.Q P m m I I L L L L T 1.j.c.c.g.1.T L n x z z z s d a a r r r e e e e 7 7 7 7 7 6 6 2 2 2 2 2 2 2 2 2 2 1 1 1 1 1 1 ; ; ; ; ; ; ; ; ; - - - - - - - - - - - - - ; ; ; ; 1 1 2 2 2 2 6 6 6 6 6 6 6 6 7 7 7 7 7 7 7 7 7 7 7 7 7 7 7 7 7 7 7 7 7 9 7 6 8 4 4 4 1 1 ; ; - - - - - % % % % % % % % % % % % % % % $ $ $ $ $ $ $ $ ",
"# # # # & $ $ $ $ $ $ $ $ $ & & $ & $ $ $ % % % - - ; ; 1 1 1 1 2 2 2 2 1 1 1 1 ; ; - - - - % % % $ % % % % % % % % % % % % % % - - - % % % % % % % % % % % % % % % % % - - % % % % % % % % % - - ; - - - - - - - - - - - - ; ; ; ; ; ; 1 1 2 2 6 7 7 7 e e r r d d d d d d d a r r r r r r r r r r e e e r e r r a a a d f b b s s s s a a a a r r r r r r r r r r a a a a a s s s s s s s s s c c s s s s s s s s s z z z z z z z x x x n m m m m I L L L L I m m m m m m m n n n n n x x x z s s s z z x M M M M M v c x z s s s s s a a a a a a a s s z z x x x x z z s s s a s s s c z z s a a a a d s s z x x x z z s a a s z m T Q Q P m n n N m I L L L T 1.j.c.c.g.1.T m n x z z s s a r r r e e e e e 7 7 7 7 7 9 9 6 6 2 2 2 2 2 2 2 2 2 2 2 1 1 1 1 ; ; ; ; ; ; ; ; ; ; ; - - - - - % % % % % % - - - - ; ; ; ; 1 1 2 2 2 6 6 6 6 6 7 7 7 7 7 7 7 7 7 7 7 7 7 7 7 7 6 6 6 6 6 6 6 2 2 1 1 1 ; ; - - - % % % % % % % % $ % % % % % % % % $ $ $ $ $ $ $ $ $ $ ",
"& & & & & $ $ $ $ + + + + $ $ $ = = & $ $ $ % % % % - ; ; ; 1 1 1 1 1 1 ; ; ; - % % % % % % % % = $ $ $ $ $ $ $ % % % % % % % % - - - - - - - - % % % % % % % % % % % % - % % % % % % % % % % % ; ; ; ; - - - - - - - - ; ; ; ; ; ; ; ; ; 1 1 1 2 2 6 7 7 e r r r r r r r r r r e e e e e e e e r r e e e r e r a a s a a d d a s s s s s s s s a a a a r r a a r r r r a a s s s s s s s s s s s s s s s s s s s s z z b z z s z z z z z x x x n n n m m m m m N N B m n n n n x x x z z z z s s s s s s z z z z x v v v v v c x x s s a a r r a a a s z z x x n n n x x z z s s s s s s s s s a a r r a a s s s z z s s s d d a a s x n x z z z x x M n N m L T <.j.c.c.7.<.P m x z s s a a r r e e e e e e e 7 7 7 7 7 7 7 6 6 6 6 2 2 2 2 2 2 2 2 1 1 1 1 1 ; ; ; ; ; ; ; ; ; - - - - - - - % % % % % % - - - - - - - - - ; ; 1 1 1 1 2 2 2 6 6 6 6 6 6 6 7 7 6 6 6 6 6 6 6 6 6 6 2 2 2 2 1 ; ; ; - - - - - % % % % % % % % $ $ $ $ % % % % % % % $ $ $ $ $ % % % % ",
"& $ $ $ $ + + + + + + + + + + + + $ $ $ % % % % % - - ; ; 1 1 1 ; ; ; - - - - - % % $ $ $ $ $ $ = % % $ $ $ $ $ $ % % % % - - - % % % % - % % % - - - % - - % % : - - - - - - - - - - - - - - - - - - - - - - - - - ; ; ; ; ; ; > > ; ; ; 1 1 1 2 2 2 6 6 7 e e e e 7 7 7 7 7 6 7 7 7 7 7 7 7 7 e e e e r r r a s s s s s a a a r r r a s s z b b b b b M x x z s a a a s s s z x x v b b g s s s z z z c z z z z z s z z z z z s s s s s s z z z s s s z x x n n N n n n n x x z z z z z z z s s s s z z z z z z z z c x x c c v c x c z s s a s s s s s s s s z x x x x x x x x x z z z z z s a a a r r r r a a a s a a a d d d d s s s a a r e e r r s z x m P R 0.b.b.w.T m z s a a a r e e r r e e e e e e 7 7 7 7 7 7 6 6 2 2 2 2 2 2 2 2 2 2 1 1 1 1 1 1 ; ; ; ; ; ; ; ; - - - - - - - - - % % % % % - - % % % % % - - - - ; - ; ; ; ; ; 1 1 1 2 2 8 8 8 6 6 6 6 8 8 8 2 4 5 3 > > - - % % % % % - - % % % % % % % % % % % % % % $ $ $ $ % % $ $ $ $ $ $ % % % % ",
"$ + $ $ $ $ + + + + + + + + + + $ $ $ % % - - - - ; ; 1 1 1 2 2 1 1 1 ; ; - - % % % % $ $ $ $ $ % % $ $ $ $ $ $ $ $ % % % % - - % % % % % % - % - - - - - % % % : - - - - - - - - - - - - - - - - % - - - - - - - ; ; ; ; ; ; ; ; ; ; ; ; 1 1 2 2 2 6 7 7 e e e p 7 e 7 7 7 7 7 7 7 7 7 7 7 7 e e e e e e r r r s s s s s a a r r r a a s s s s z z b B B B I N M x x z z z x x x x x z z z s s c z x z z z z z z z s s s s z s s s s s s s s s s s s s s z x x n n n n n n x x z z z z z z z z z s z z z z z z c z s s c c c c x x x x x x z z s s s s s s s s s z z z z z x x x x x x x x x z z s s a a a a a a s s a a a r d r r a a a r r e 7 7 7 e r a s x L T 1.0.w.R L n z s a a a r r e e e e e e e e 7 7 7 7 7 7 6 6 6 2 2 2 2 2 2 2 2 1 1 1 1 1 1 1 ; ; ; ; ; ; ; ; - - - - - - - - - - - - - - % - - % % % % % % % % - - - - - - - - - - ; ; 1 1 1 2 6 6 6 8 8 8 2 2 1 ; ; - % % $ $ % % % % % % % % % % % % - : : % % $ % % $ $ $ $ % % % $ $ $ % % % $ % $ ",
"+ + $ $ $ $ $ $ $ $ $ $ $ $ $ $ % % - - - ; ; 1 5 1 4 2 2 2 6 6 4 4 2 2 1 1 ; ; - - % % % % % % % % $ $ $ $ $ $ $ % % % % % % % % % % % % % % % % % % % % % % % % - : - % % - - - - - - - - - - % % - - - - - - - ; ; ; ; ; ; ; ; ; ; 1 1 2 2 6 6 7 7 e e e r r r r e e e e e e 7 e e e e e e e r r r e e e r r a a s a a a a a a a s s z z s s a r r r a z b B I U I m N n n n x x x z z z b z z z x z z z z z z s s s s s s s z s s s s z z z z z z z z x x x n n n n n n n x x x x z z z z z z z z z z z z z z s s s s s s s s s s s s s s c s s z s s z s s s s s s s z z x x x M n x x x n n n x z z s s s s s s a a r r r p r r a a r r e 7 7 7 e r a s z L T <.1.1.T L n z s s s a a r r r r e e e e e e 7 7 7 7 6 6 6 6 2 2 2 2 2 2 2 2 1 1 1 1 1 1 1 1 ; ; ; ; ; ; ; ; ; - - - - - - - - - - - - - - - - % - - - % - - - - - - - - - % % % - - - - - ; 2 2 2 2 2 2 2 1 ; ; - - - % % % % % % % % % % % % % % % % % % % % % % % % % % % % % % % $ $ % % % $ $ $ ",
"$ $ $ $ $ % $ $ $ $ $ % % % % - ; ; ; > 3 5 4 4 4 2 2 6 6 6 6 6 6 6 6 6 2 2 2 1 ; ; ; - - - % % % % % % % % % $ $ $ % % % % % % % % % % % % % % % % % % % % % % % % % % % % % % % % % - - - - - - - - - - - - - - - ; ; ; ; ; ; 1 2 2 2 8 6 6 9 7 e e r r r r r r r r r r r r r r r r r r e e e r r e e e r r a a a a a a a r a a s s z c c s s r e 6 2 2 7 e s n m m I I m m n m n n n x x x x z z z z z z z z z z s s s s s s s z z z z z x x x n M M n n n n B B B B M M M n n x x x x z x z z z z z z z z z z s s s s s s s s a a s a s s s s s z c c c z z s a s s s s z z z x x v x x x M I I m m x x z z z z s s a r r r r p r a a a r r e e r a s z x m P R 1.w.5.<.P L n z z z c s a r r r r r r e e e 7 7 7 7 6 6 6 6 6 6 6 6 2 2 2 2 2 2 1 1 1 1 1 1 ; ; ; ; ; ; ; ; ; ; ; ; ; ; - - - - - - - - - - - - - - - - - - - - - - - - - % % % % % % % % - 1 2 2 6 6 2 2 1 1 1 ; ; - - % % % % % % % % % % % % % % % % % % % % % % % % % % % % % % $ $ % % % % % $ ",
"$ $ $ $ % % - - % - - ; ; ; 1 1 2 2 5 4 4 6 6 6 6 6 6 6 6 6 6 6 6 6 6 6 6 6 8 8 2 2 1 1 1 ; ; - - - % % % % % % % % $ $ $ $ % % % % % % % % % % % % % % % % % % = = = = % % % % % % % % - - - - - - - - - - - ; ; ; ; 1 1 1 1 1 8 6 6 9 9 7 7 e e e r r r r r r a a a a a a a a d a d a a r r r r r r e e r r r a a a a a r r r a a s s s s g g i e 6 2 1 2 6 e a s s b x n n m I L L L L L L n x z z z z z z z z z s s s s s z z x x x n n N B B B m m m m m N n n n n n n n n M M n n x x x x x x x x z z z z z s s s s s s s a a a a a a a a s s c c x x x z a a s s s s s z z z v v c x x n I U ~ ! N M x x x x x b s a r r r r r a s s s s s s z v b B Y P T <.w.l.l.w.R P m n x x x z s a a r r r r r e e e 7 7 7 6 6 6 6 6 6 6 6 6 2 6 2 2 2 2 2 2 1 1 1 1 ; 1 ; ; ; ; ; ; ; ; ; ; ; ; ; - - - - - - % % - - - - - - - - - - - - - % % % % % % % - - - ; 2 6 6 7 7 6 6 6 2 2 1 ; ; - - - % % % % % % % % % % % % % $ $ % % % % % % % % % % % % % $ $ $ % % % % % ",
"$ $ $ $ % - > > ; 1 1 1 2 2 8 8 8 8 8 8 8 6 6 6 6 6 6 7 7 7 7 7 7 7 7 7 7 7 6 6 q 8 6 8 2 2 2 1 ; - - - - % % % % % % % $ $ $ % % % % % % % % % % % % % % % % % % $ $ % % % % % % % - % - - - - - - - - ; ; ; ; 1 1 2 2 2 2 6 8 9 7 7 7 e e e e e r r r r r r a a a a a a a a a a a a a s s s a a a r r r e r r a a a a a r r r a a r a a a a r r p 7 7 7 7 7 e r a a a s z x n n m m L P P P L M b x x z z z z z z z z z z z z n n n n m m m Y m m I L I m m m n n n n n n n n n n n n n n n n n x x x x x x x z z z s z z z s a a a a a a s s a s s s c c z s a a g s s s s s s z x x x z z x M N B B B M x x M M B B v s s a a a s x n m L m B B B B Y L P P R <.5.l.b.7.<.P L B n M M x z s a a a r r r r e e e 7 7 7 7 7 6 6 6 6 6 6 6 6 2 2 2 2 2 2 2 1 1 1 1 1 ; ; ; ; ; ; ; ; ; ; ; ; ; - - - - % % % % - - - - - - - - % % % % % % % - % - - - ; ; 1 2 6 7 7 q p 7 7 9 6 6 6 2 1 1 1 ; - - - - % % % % % % % % % % $ % % % % % % % % % $ $ $ $ $ $ $ $ $ $ $ $ ",
"% % - - ; ; 1 1 4 2 2 8 8 8 6 6 6 6 6 6 6 6 7 7 7 7 6 7 7 7 7 7 7 7 7 7 7 7 7 7 7 7 9 9 6 6 6 8 1 1 ; ; ; - - % % % % % % % % % % % % % % % % % % % % % % % % % % % % % % % % % - - - - - - - - ; ; ; ; 1 1 1 2 2 2 6 6 6 7 q 7 7 e e e e e e e r r r r r r r a a a a a a a a a a s s s s s s s s s a a a a a a a s s s a a a r r r r r r r r r e r r p i i y a s z s s a a a g s s s b x n m m n x x x x x z z x x x x x x x x m m m m I L L L L L L L m L L m m n n n m n n n n n m m m m m m n n n n n n x x x z z z z z z s a a a a a s s s a s s s s s s s a a s s s s s s s c s c s s s s s s s z z s z z x n n n n x x x x n L T 4.4.2.W Q U U P P P T T T R 5.x.z.7.<.T P L m N N M x z s s s a a a r r r e e e e 7 7 7 7 6 6 6 6 6 2 2 2 2 2 2 2 1 1 1 1 ; ; ; ; ; ; ; ; ; ; ; ; ; ; ; - - - % % % % % % % - - - - - % % $ % % % - - - ; 1 1 2 8 8 6 9 7 7 7 7 7 7 e e p 7 7 q 6 6 2 2 1 ; ; ; ; - - - - % % % % % % % % % % % % % $ $ % $ $ $ $ $ $ $ $ $ $ $ ",
"; ; 3 5 4 4 2 2 4 8 8 6 6 6 6 6 6 6 6 6 7 7 7 7 7 7 6 7 6 7 7 7 7 7 7 7 7 7 7 7 7 7 7 7 9 9 7 9 6 6 2 1 1 ; ; - - - - % % % % % % % % % % % % % % % % % % % % % % % % % % % - - - - - - - ; ; ; 1 1 1 2 2 6 6 6 6 7 7 7 7 7 7 7 e e e e e e r r r r r r r r r a a a a a s s s s s s s s s s s s c c z s s s s s s s s s s s s a r r r r r r r r r r r r r a d f z z z z s s a r r r r a a s z x n n n n n n n n n n n n B n M m m m L L L L L L L L L L m m L L m m m m m m m m m m m m m m m m m m m m N n n n x x x x z z z z z s s s s s a a a s s s s s s s a a a a a s s c b c s f f f s s a a a a a a s s z x n n n n m m Y Q 4.f.d.q.8.<.R T T P T T T R R <.9.z.z.j.1.R P L I m m N n x x x c s s s a a r r r r e e e e 7 7 7 6 6 6 6 2 2 2 2 2 1 1 1 1 1 ; ; ; ; ; ; ; - - - - - - ; - , - - - - - - - % % - - - - - - % % % % - ; ; 1 2 6 6 7 e e e e e e 7 7 e e e e e 7 7 7 7 7 7 6 6 2 2 2 1 ; ; ; - - - - % % % % % % % % % % % $ $ $ $ $ $ $ $ $ $ $ $ $ ",
"2 2 2 2 2 2 2 6 2 6 6 6 6 6 6 6 6 7 7 7 7 7 7 7 7 7 6 7 7 7 7 7 7 7 7 7 7 7 7 7 7 7 7 7 7 7 7 7 9 6 6 8 6 2 2 2 ; ; ; - - - - % % % % % % % % % % % % % % % % % % % - - - - - - ; ; ; 1 1 2 2 2 6 6 6 6 6 7 7 7 7 7 e e e e e e e e e e e e r r r r r r r r r r a a a a s s s s s s s s s s s s z z z c z b b x n n n n x x z a a r r r r r r a a a a a a a s f c s c z z z z z s a r r e e e r z m L L L L L L L L L m L m m m m m L L L L L L L L L L L L L L L m m m m m m m m m m m L L L L m m m m m m m n n n n n x x x x z z z s s s s s s s s a a a a a s s s s s s s s a a s s s s s s s a a a a a s z x m P P P T Q Q R <.8.q.l.x.9.1.<.R T T T T T T R <.5.x.c.j.5.R P L L L L m n n x x x x x c c s s s a a r r r e 7 7 7 6 6 6 6 6 6 2 2 2 2 2 1 1 1 1 ; ; ; ; - - - - - - - - - - - % % - - - - - - - - - - - - - - - ; ; 1 2 6 6 9 e e e r r r r e e e e e e e e e e e e e 7 7 7 7 6 6 6 6 6 2 4 1 1 ; ; ; - - - % % % % % % % % $ $ $ $ $ $ $ $ $ $ $ $ ",
"6 8 8 8 8 8 6 6 6 6 6 6 6 6 6 6 6 6 7 6 7 6 7 6 6 6 6 6 6 6 6 6 7 6 7 7 7 7 7 7 7 7 7 7 7 7 7 7 7 7 7 7 6 6 6 8 2 2 1 1 ; ; - - - - % % % % % % % % % % - - - - - - - - ; ; ; ; 1 1 2 2 2 8 8 6 7 7 7 7 7 7 7 7 e e e e e e e e e e e e e e r r r r r r r r r r a a a a s s s s s s s s s s s z z x z z z x x n B m I U U L m x s a a a a a a a a a s s s s s s s s s z z x x x z s a a s s s z L Q Q Q Q T T P P P L L L L L L L L L L L L L L L L L L L L L L L L L L L L L L L L L L L L L L L L L L m m m m m m m n n n n n n n x x x z z z s s s s a a a a s s s s s s s s a a s s s s s s s s z z z x n m Q i.i.2.R R R R <.1.w.l.x.x.6.1.<.R T P P P P T R <.5.x.b.x.5.R T P L L L m m n n x x x x z x x c c s s s a a a e 7 7 7 7 6 6 6 6 6 2 2 2 2 2 2 1 ; ; ; ; ; - - - - - - - - - - % % % % - - - - - - - - ; ; ; ; 2 2 4 6 6 q 7 p e e r r r r r r e e e e e e e e e e e e e e e e 7 7 7 7 7 7 6 6 6 8 4 2 1 1 1 ; - - - % % % % % % $ $ $ $ $ $ $ $ $ $ + ",
"6 6 6 6 6 6 6 6 6 6 6 2 6 6 6 6 6 6 6 6 7 6 6 6 6 6 6 6 6 6 6 6 6 6 6 6 6 7 7 7 7 7 7 7 7 7 7 7 7 7 7 7 7 7 7 6 6 6 6 2 1 1 1 ; - - - - - % % % % % % - - - - ; ; ; ; 1 1 1 2 2 8 8 8 6 6 9 9 7 7 7 7 7 7 7 e e e e e r r e r e e e e e e e e e e e r r r r r r a a a a a s s s s s s s s s s z x x x x x x n m L P Q i.i.i.Q P n x z z s s s s s s z c s s a a a a s s z z z z z z x m U Q 2.2.4.4.f.4.R R T T T T P P P P P L L L L L L L L L L L L L L L L L L L L L L L L L L L L L L L L L L L L L L L L m m m m m m m m B m m m m n n x x z z z s s s s s s z z z z z s s z s s s s a a s n m m L L P T R 4.f.f.3.<.<.R R <.1.5.7.j.g.5.1.R T P L L L L P T <.5.x.b.x.5.R T P L L L m n n n n n x x x x x x x x x x c c s r e e e e 7 7 7 6 6 6 6 2 2 2 2 1 1 1 ; ; ; - - - - - - , , - - - - - - - - - - - - ; ; 1 1 1 2 7 e e e e e e e r r r r r r r r e e e e e e e e e e e e e e e e e e e e 7 7 7 9 9 q 6 6 6 8 2 2 1 ; ; ; ; - - % % % % % % % % $ $ $ $ $ ",
"6 6 6 6 6 6 6 6 6 6 2 2 6 6 2 2 6 6 6 6 6 6 6 6 6 6 6 6 6 6 6 6 6 6 6 6 6 6 6 6 7 7 7 7 7 7 7 7 7 7 7 7 7 7 7 7 6 6 6 8 2 2 2 4 ; ; ; - - - % % % % - - - ; ; ; 1 1 2 2 2 4 8 6 8 6 6 7 7 7 9 7 7 7 7 7 e e e e e e e r r e e e e e e e e e e r e r r r r r r r a a a a a s s s s s s s s s s z x x x x x n n m L P R 4.d.d.4.R L m n x x z z z s z z z s a a a r a a s x n m m m L P Q r.s.v.9.1.w.3.1.<.R R T T T T T T P P P P L L L L L L L L L L L L L L L P L L L L L L L P L L L L L L L P P P P L L L L L L L L L Y L L L L L L L m m n n x x z z z s z z z z z z z z z z z z z z z x n T R R R R 2.<.1.1.8.0.1.<.<.<.<.<.<.5.6.7.6.1.<.T P L L m L L P T <.5.z.b.k.5.R T P L L L m n n n n n x x x x x x z z x x x x c s a a r r r e e 7 7 7 6 6 6 6 2 2 1 1 1 1 ; ; - - - - - - - - - ; ; ; ; - ; ; ; 1 1 2 2 6 0 0 q e r r r r r r r r r r e e e e e e e e e e e e e e e e e e e e e e e e e 7 7 7 7 7 7 7 7 7 q q 6 6 4 4 2 1 1 ; ; - - - % % % % % % $ $ $ ",
"6 6 8 8 8 6 2 2 6 2 2 2 6 6 6 6 6 6 6 6 6 6 6 6 6 6 6 6 6 6 6 6 6 6 6 6 6 6 6 6 7 7 7 7 7 7 7 7 7 7 7 7 7 7 7 7 7 6 6 6 8 6 6 4 4 5 1 ; ; - - - - - ; ; ; ; 1 1 2 2 2 2 6 6 6 6 6 7 6 7 7 7 7 7 7 e e 7 e e e e e e e e e e e e e e e e e e r r r r r r r r r r a a a a a s s s s s s s s z z z z x x x x n m m P T R 8.d.l.w.<.T P L m n n x x x x x z s a a r r a z n P W 3.2.2.<.<.3.0.9.9.5.1.w.0.3.1.<.<.R R R T T T T P P P P P P P P P P P P P P P P P P P P P P P P P P P L P L P P P P P P P P P P P P P P P L P L L L P P P P P L L m m n n n n x x x x x z z z z x x z x x n m L Y Q 3.8.8.1.1.1.1.1.9.q.q.5.1.<.R R <.<.1.5.w.w.1.R T P L L L L L P R <.9.z.b.x.5.R T P L L L m n x n n x x x x x x x z z z z z z z s s s s a a a a r r e e 7 7 7 6 6 2 2 2 1 ; ; ; - - - - - - - - ; ; ; 1 1 1 2 2 6 6 q q 7 7 7 e r d d d d a r r r r e e e e 7 7 e e e e e e e e e e e e e e e e e e e e e e e 7 7 7 7 7 e 7 7 7 q q 6 6 6 6 4 4 1 1 ; ; ; - - - % % % $ ",
"2 2 2 2 2 2 2 2 2 2 2 2 6 6 6 6 6 6 6 6 6 6 6 6 6 6 6 6 6 6 6 6 6 6 6 6 6 6 6 6 7 7 7 7 7 7 7 7 7 7 7 7 7 7 7 7 7 7 7 6 6 6 6 2 0 5 5 5 1 ; ; - ; ; ; 1 5 5 4 4 2 6 6 6 6 6 6 6 7 7 7 7 7 7 7 7 7 7 7 7 7 e 7 e 7 e e e e e e e e e e e e r r r r r r r r r a a a a a a s s s s s s s z z z z z z x z x x n m L P R <.w.l.l.6.1.R P L m n n n n Y B M x z s s s z b m P 3.d.v.9.5.1.1.5.7.7.6.5.5.w.w.1.1.1.<.R R R R T T T T P P P P P P P P P P P P P P P P P P P P P P P P P P P P P P P P P P P P P P P P P P P P P P P P P P P P P P P P L L L m m N m n n n x x x x x x n m m L P T Q Q 4.w.w.w.1.1.1.1.1.9.7.q.5.<.<.R R <.<.1.5.6.w.1.R T P L L L L P T R <.8.z.b.x.5.R T P L L m m n x x x x x x x x z x z x x z z z z z z s s s s s s d d d r r r e e 7 6 6 2 2 1 ; ; ; ; - - - - ; ; 1 1 2 2 6 6 q 7 7 p p e e e e e e r r r r r r r r r e e e 7 7 7 e e e e e e e e e e e e e e e e e e e e e e e e e e e e e e e 7 e 7 7 7 7 9 6 6 6 2 2 1 1 1 1 ; - % % % ",
"1 1 1 1 2 2 2 2 2 2 2 6 6 6 6 6 6 6 6 6 7 6 6 6 6 6 7 6 7 6 7 6 6 6 6 6 6 7 7 7 7 7 7 7 7 7 7 7 6 6 6 6 7 7 7 7 7 7 7 6 6 6 2 2 2 2 1 1 1 ; ; ; ; ; ; 1 2 2 4 2 6 6 6 6 6 6 6 6 7 7 7 7 7 7 7 7 7 7 7 7 7 7 7 7 7 7 7 7 7 7 7 7 e e e e r r r r r r r a a a a a a s s s s s s s z z z x x x z z z z z b x n m L T R 1.6.x.x.g.5.R P L m n n n m Y Y B n x z z z B P T <.8.l.x.6.1.1.<.1.w.7.6.6.5.5.5.1.1.1.<.R R R R T T T T T T T T T T P P P P P P P P P T T P P P P P P T P P P P P P P P P P T T P P P T P P P P P P P P P P P P P P P P P L L L L L I I m M x x x x n m L P Q R R <.<.<.1.5.1.1.1.<.<.<.1.1.5.9.5.1.<.R R <.1.5.6.7.6.1.<.R T P P P T T R R <.5.x.z.g.1.R P L L m m n x x x x x x z z z z x z x z z z z z z z z z z z z s s s s d d a a r e e 9 6 6 2 1 1 ; ; ; - ; ; ; 1 2 6 6 7 7 7 p p e e e e e r r e 7 7 7 7 e e e e e e e e r e e e e r r r e e e e e e e e e e e e e e e e e e e e e e e e e e e e e e e e e e 7 7 9 6 6 8 8 2 2 4 ; ; ; ; ",
"2 1 2 2 2 2 2 2 2 2 6 6 6 6 6 6 6 6 6 6 6 6 6 6 6 6 6 6 6 6 7 6 6 6 6 6 7 7 7 7 7 7 7 7 7 7 7 7 6 8 6 6 6 6 6 6 6 6 2 2 2 1 1 1 1 ; ; ; ; - - - - - ; ; 1 1 1 2 2 6 6 6 6 6 6 6 6 6 6 7 7 7 7 7 7 7 7 7 7 7 7 7 7 7 7 7 7 7 7 7 e e e e r r r r r r a a a a a a a a s s s s s s z z z z z z z z z z z x x n m L P R <.5.l.j.6.1.T L m n n x n n x x x x z z b x x m P R 3.d.q.5.5.1.<.1.w.w.6.5.5.5.5.1.1.1.<.<.<.R R T T T T T T T T T T T T P T T T T T T T T P P P P T T T T T T T P P P P P T T T T T P T P T T T T T T T T P P P P P P P L L L L L I I I B n v x x x n B Y P T R <.4.<.1.1.w.w.w.<.<.<.<.1.5.7.7.5.1.<.R R <.1.5.6.7.6.5.<.R T P P T T R R R <.5.x.z.g.1.R T L L m m m n x x x x x z z z z z z z z z z z z z x x z z z z z s s s s s s s d d p t t q 6 4 4 1 ; ; ; ; ; 3 4 9 t t p p e e e r r e r r r r r 7 7 7 7 e e e e r e e e e e e e e e e e e e e e e e e e e e e e e 7 7 7 e e e e e e e e e e e e e e e e e e e e 7 7 9 6 6 6 8 8 4 5 4 5 ",
"6 6 6 2 2 2 6 6 2 2 2 6 6 6 6 6 6 6 6 6 6 6 6 6 6 6 6 6 6 6 6 6 9 7 7 7 7 7 7 7 7 7 e e 7 7 e 7 6 8 4 4 2 2 2 2 1 1 ; ; ; - - % - - - % % % % % % % % - - - - ; 5 2 2 2 2 8 6 6 6 7 7 7 7 7 7 7 7 7 7 7 7 7 7 7 e e e e e 7 7 e e e e e e r r r r r r r a a a a a a a a s s s s s s z z z z z z z x x x n m m L P T R 4.0.q.5.R L n x x z z z s s s s s s s s s z z z n Y | | 4.<.<.<.1.w.7.6.5.5.5.5.5.1.1.1.1.<.R R R T T T T T T T T T T T T T T T T T P T T T T T T T T T T T T T T T T T T T T T T T T T T T T T T P P P P P P P P P P L L Y m m N n n x x c s s s s z x n Y Y U Q R R <.<.5.5.5.1.<.<.1.1.6.g.x.6.1.<.R R R <.1.9.l.7.5.<.R T P P P T R R T <.6.h.k.h.5.R P L L L L L m m n n x x x x x x z z z z z z z z z z z s s s s s s s z s s s s a d r y t p q 6 6 1 ; 1 1 1 5 5 0 7 e e e e e r r r r r e e e e e e e e e e e e e e e e e e e e e e e e e e e e e e e e e e e r r e e e e e e e e e e e e e e e e e e e e e e e e e 7 7 7 7 6 6 6 6 6 6 6 ",
"6 6 6 6 2 2 2 2 2 2 2 2 2 6 6 6 6 6 6 6 6 6 6 6 6 6 6 6 6 6 6 6 6 6 6 6 6 6 7 7 7 7 7 7 7 7 7 9 8 4 2 1 1 1 ; ; - - - - % % % % % % % % % % % % % % % % % % % - ; 1 1 1 2 2 8 6 6 6 7 7 7 7 7 7 7 7 7 7 7 e e e e e e e e e e e e e e e e r r r r r r r a a a a a a a a a s s s s s z z z z z z z x x n n m m L P P T R <.Q T L n x z z s s s a a a a a s s s s s a s z z n m L P T R 4.0.q.7.5.1.1.1.1.<.<.<.<.<.R R R R R T T T T T T T T T T T T T T P P T P P P P T T T T T T T T T T T T T T T T T T T T T T T P T P P P P T T P P P L L m n n n x x z z s s d s s s z z x x n m L P T Q R w.w.w.1.<.<.<.1.6.x.x.6.1.<.R R R <.1.5.9.7.5.<.R T P P P T R R T R 6.h.c.h.5.R P L L L L L L m n n n x x x x x x z z z z z z z z z z s s s s s s s s s s s s d r r e e 7 6 2 1 1 ; ; ; 1 1 1 2 6 7 7 7 e e e e e e e e e e e e r r r r r r r r e e e e e e e e e e e e e e e e e e r r e e r e e e e e e e e e e e e e e e e e e e e e e e e e e 7 7 7 7 7 6 6 7 7 7 7 ",
"2 2 2 2 2 2 2 2 2 2 2 2 2 2 2 2 6 6 6 6 6 6 6 6 6 6 6 6 6 6 6 6 6 6 6 6 6 6 8 6 8 6 8 6 8 6 2 2 1 1 ; ; ; - - - % % % % % % % % % % % % % % % % % % % % % % % % - - ; ; 1 1 4 4 4 8 8 6 6 7 9 7 7 7 7 7 e e e e e e e e e e e e e e e e r r r r r r r r r a a a a a a a s s s s s z z z z z z z z x x x n M n m m L L L L L m n x z z s s s s a a s a a a a a a a s s s s z x n m m P T 4.4.4.1.<.<.<.<.R R R R R R R R R R R R T T T T T T T T T T T T P P T P P P P P T T T T T T T T T T T T T T T T T T P P P P P P P P P P Y P L L m m m n x x x z z s s s s s s s s z z z z x n n n m L P <.<.<.R Q R <.1.w.9.x.9.1.<.R R R <.1.9.x.7.8.1.R T P P P T R R T R 5.x.k.x.5.R P L m m m m m m n x x x x x x x x x x x x x x x z z z z z s s s s s a a a a r r e 7 7 6 6 2 1 ; ; ; ; ; ; ; ; ; 1 2 2 6 6 7 7 7 7 e e e e e e e r r r r r r r r e e e e e e e e e r e e e e e e e e e e e e e e e e e e e e e e e e e 7 e 7 e 7 7 7 7 e e e e e e e 7 e 7 7 7 7 7 7 7 7 ",
"1 1 1 1 1 1 1 2 1 1 2 2 2 2 2 2 6 6 6 6 6 6 6 6 6 6 6 6 6 6 8 6 8 8 8 8 8 2 4 4 4 4 1 1 ; ; ; ; - - - - % % % % % % $ $ % % = % % % % % % % % % % % % % % % % % % % - - - ; ; ; 1 1 2 2 2 6 6 6 7 7 7 7 7 e e e e e e e r r r r r e e e r r r r r r r r a a a a a a s s s s s s s z z z z z z z c c c c x v x x x n n n x x x z z z s s s s s a a a a a a a s s s s s s s z z x n n n m L P P T T T T T T T T T T T T T R T T T T T T T T T T T T T T P P P T P P P P P P T T T T T T T T T T P T T T T P P P P P P P L L L L L m m m n n x x x z z z z z s s s s s s s z z z z x x x x x x x n P P P P P P Q <.0.q.q.8.1.<.R T <.<.1.6.6.6.8.1.R T P P P P T T T R 5.x.z.x.1.R P L m m N N m n n x x x x x x x x x x x x x x x x z z x z s s s a a a r e e e 7 6 6 6 2 2 1 ; ; ; ; ; ; - - - - ; ; ; 1 1 2 2 6 6 7 7 7 7 7 7 p e e e e e e e e e e e r e e e e r r r r r e e e e e e e e e e e e e e e e e e e e e 7 7 e 7 e e 7 7 7 7 e e e e e e e e e e e 7 7 7 7 7 ",
"1 1 1 1 1 1 2 2 1 1 2 2 2 2 2 2 6 6 6 6 6 6 6 6 6 6 6 8 8 8 8 8 2 2 4 2 2 1 5 3 ; ; - - - % % % % % % % % % % % $ $ $ $ $ $ $ $ % % % % % % % % % % % % % % % $ % % % % % % - - ; ; ; 1 1 4 4 6 6 9 7 7 7 e e e e r r r r r r r r r r r r r r r r r a a a a a a a s s s s s s s s s z z z z z z c c c c s c c c s s s s s s s s s s s s s s a a a a a a a a s s f f s s c c x z z z z z x x n n m L L L P P P T T T T T T T R T T T T T T T T T T P P P T P P P P P P P P P P T T P T P P P P P P P P P P P P L L L L m m m m m x x x x z z z z z z z s s s s s z z s s s z z z z z z z z z z x n m n n n m L T 2.0.0.3.<.R R R <.<.1.5.9.9.5.<.R T P P P P T T T R 5.x.h.x.1.R P m m N N N n n x x x x x x x x x x x x n n x x x x x c c s s a r r e e 7 6 6 6 2 2 2 2 1 1 ; ; - - - - - - - - - % - - ; ; ; 1 1 2 2 6 6 6 9 9 7 7 e e e e e e e r r r r r r r r r r r r r r e e e e e e 7 7 7 e e e e e e e e e e 7 7 7 7 7 7 7 7 7 7 7 e e e e e e e e e e e 7 6 6 6 ",
"1 1 1 1 2 2 2 2 2 2 2 2 2 2 2 2 6 6 6 6 6 6 6 2 2 2 2 2 2 2 4 4 1 1 1 1 ; ; - - % % % $ $ $ $ $ $ $ $ $ $ $ $ $ $ $ $ $ $ $ $ $ % % % % % % % % % % % % % % % $ $ $ $ % % % % % % - - - ; 1 3 1 6 q 9 9 7 7 e e e e r r r r r r r r r r r r r r r r a a r a a a a s s s s s s s s s s s z z z s s s s s a a a a a a a a r r r a a s s s s a a a a a a a a a s s c f a s s f s s s s s z z z z z x x n n m m L L P P P T T T T T T T T T T T P P P P P P P P P P P P P P P P P P P P P P P P P P L L L L L L L L m m m n n n n x x z z z z z z z s s s s s s s s z z z s s z z z z z z s s s s z x x x x x x n m P R W R R T T Q R <.1.8.9.9.1.<.R T P P P P T T T <.5.x.h.g.1.R P L m m N N n n n x x x x x x x x x x x x x n x z c c s s a a r e 7 7 6 6 6 2 2 2 2 2 1 1 ; ; - - - - - - - - - % % % % - - - ; ; ; 1 1 1 2 2 2 6 6 6 9 9 7 t p e e e r r r r r r r r r r r r r e e e e e e e e e e e e e e e e e e e 7 e 7 e e 7 7 e e e e e e e e e e e e e 7 6 8 6 8 ",
"2 2 2 2 2 2 2 2 2 2 2 2 2 6 6 6 2 2 2 2 2 2 2 2 2 1 1 1 1 1 1 1 ; ; ; - - - % % $ $ $ $ $ $ $ $ $ $ $ $ $ $ $ $ $ $ $ $ $ $ $ $ $ % % % $ $ $ $ % % % % % % % % $ $ $ $ $ % % % % % % - - - ; ; 2 2 2 8 6 9 7 7 e e e r r r r r r r r r r r r r r r r r r r r a a a a a d s s s s s s s s s s a a a a a a a a a a a r r r r r r a a a a s a a a a a a a a a a s f s a a a a a a s s s s s s s s z z z z x x n n m L L L P P P T P P P P P P P P P P P P P P P P L L L L P P P P P P P P P P P L L L L L m m m n n n x x x x x x z z s s s s s s s s s s s s s s s z z z s s z z s z z s s s s s z z z z z z z x n L P L L L L L T R <.8.0.0.3.<.R T T P P P T T R <.5.g.h.g.1.R P L L m m m n n n n n n x x x x x x x x x x x x c s s a a r e e 7 6 6 6 6 2 2 2 2 2 1 1 ; ; ; - - - - - - - - , % = = = % % - - - - ; ; ; ; ; ; 1 1 2 2 8 8 9 9 7 7 e e e e r r r r r r r r r r r e e e e e e r e e e e e e e e e e e e e e e e e e e e e e e e e e e 7 7 7 7 7 2 4 1 1 ",
"2 2 2 2 2 2 2 2 6 6 6 2 2 6 6 2 2 2 4 4 4 5 5 3 1 ; ; ; ; - - - - - % % % % % % % $ $ $ $ $ $ $ $ $ $ $ $ $ $ $ $ $ $ $ $ $ $ $ % % % % $ $ $ $ % % % % % % % % = $ $ $ % % % % % % % % - - - - ; 1 1 1 2 6 6 6 7 7 e e e e r r e e r r r r r r r r r r r r r r a a a a d d d a a a a a r r r r r r r a a a a a r r r r r r r r a a a a s g s s a a a a a a a a s s a a a a a s f s s a a s s s z z z z s z x x n n m m m I I L Y P P P P P P P P P P P P P P L L L L L L L L L L L L L L L L L m m m m n n x x x z z z z z z z z s s s s s s s s s s s s s s s s s s z z c s s s s c z c c c c z z z s s z z x x n n n n n n n L P T <.4.3.2.R R T T P P T T T R <.5.g.h.g.1.R P P L L L m m n n n n n n x x x x x x x x z z c s d a r e e 7 7 7 6 6 6 2 2 2 2 1 1 1 1 ; ; ; ; > - - - - - - - % % % % % % % % - - - - - - - - - ; ; ; 1 1 2 2 8 q 7 7 e e e e e r r e e r r r r r r r r r r r e e e r r r r r r e e e e e e e e e e e e e e 7 7 7 7 9 9 6 6 2 1 ; ; ; ",
"1 1 1 1 2 2 2 2 2 2 2 2 2 2 2 2 1 1 3 3 > ; - - % % % % % % % % % % % % % % % % $ $ $ $ $ $ $ $ $ $ $ $ $ $ $ $ $ $ $ $ $ $ % % $ $ % $ % % % $ % % % % % % % % % $ $ $ $ % % % % % % % % - - - - ; ; ; ; 1 1 2 6 6 9 7 7 7 e e e e e e e e r r r r r r r r r r r r r r r r e e e e r r r r r r r r r r a r a a a a a a a a a a a a a a a a a a a a a a a a a a a a a a a a a s s s s s s s s s s s z z z z z x x x x x x n n n m m m m L L L Y L L L L L L L L m m m m m m m L I I m m m m m m n n n x x x z z z z z z z z b b z s s s s s s s s s s s s s s s s s s s s s s s s z x c x x x c b z z s s s z z x x x x x x z x m L P P T T T T T T P P P T T R R <.5.g.k.j.5.<.T P P P L L m m n n n n n n x x x b b b s s a r r e e e e e 7 7 6 6 6 6 6 2 2 2 2 1 1 1 1 ; ; ; ; ; - ; - - ; ; - % % % % % % % - - - % % % % % - - - - - ; ; ; 1 2 2 6 6 7 q 7 7 e e e e e e e r r r r r a a r r r r r r r r r r r r e e e e e r r e e e 7 7 7 q 6 6 2 2 1 1 ; - - - - ",
"- ; ; ; 1 1 1 1 1 1 1 1 1 1 ; ; ; - - - - % % % % $ $ $ $ $ $ $ $ $ $ $ $ $ $ $ $ $ % % % % % $ $ $ $ $ $ $ % % $ $ $ $ % % % % $ $ $ $ % % $ $ % % % % % % % % % % % % % % % % % % % % % - - - - - - - - ; ; 1 1 2 6 6 7 7 7 p e e e e e e e e e e e e e e r e e e e e e e e e e e e e e e e e e e r r r a a a a s s z s s s a a a a a a a a a a a a a a a a a a a a r r a a a s s s s s s s s z z c c z z x z z z z z z z z z n n n n n m m m m L L m L L L L m m m m m m m m N n n n n n n n x x x x z z z z z z s z s s z z s s s s s s c c s s c c c s z s s s s s s s z c z z x x x x x c x c s s s s s z z z z z z z z b n n m m L L P P P P P P P P T T R <.5.g.j.6.1.R T P P P P L m m m m m n n x x x b z s a a r r r e 7 7 7 7 7 7 6 6 6 6 6 6 2 2 2 2 1 1 1 1 1 ; ; ; ; ; ; ; ; ; ; - - - - - - - % % % % % % % % % % % % % - - - ; ; ; 1 1 1 2 2 6 6 7 7 7 7 p p r e r r r r r a r r r r r r r r r r r r r e e e e e e e e e 7 q 8 2 4 1 1 ; ; ; - % % % $ ",
"% % % - - ; ; ; > > ; - - - % % % % $ $ $ $ $ $ $ $ $ $ $ $ $ $ $ $ $ $ $ $ $ $ $ % % % % % % % % $ $ $ $ % % % % % % % % % % % $ $ $ $ $ $ $ $ % % % % $ $ $ % % % % % % % % % % % % - % - - - % % % - - - - ; ; 1 1 2 6 6 7 7 7 7 7 e e e e e e e e e 7 7 7 7 7 7 7 7 7 7 7 7 7 7 7 7 7 7 7 e e e r r a a a s s s z z z s s a r r r a a a a a a a a a a a a a a r r r a a a a s s s s s s s s c c s s s c s s s s s s s a a s z z z x x n n n N m m m m m m m m m m B B M n n n x x x x x x x z z z z z z z z s s s s s s s s s s s s s s c c z z z z z s z s s s s s s s z x z x x x x x x c x c s s s s s s c z s s s s s z z x x n n n m m m L L L P P P P T R 1.5.7.w.<.T P P P P L L m m m N n M x x z c s a r r e e e e 7 7 7 6 6 6 6 6 6 6 6 6 6 6 2 2 2 2 1 1 1 1 1 1 ; ; ; ; ; ; ; ; ; ; ; ; - - - - % % % % % % % % % % % % % % - - % - - - ; ; ; ; 2 2 2 2 6 6 q 7 p e e r r r r r r e e r r r r r r r r r e e e e e e e 7 9 6 6 4 1 ; ; - - % % % $ $ $ $ ",
"$ $ $ % % - - - - - % % $ $ $ $ $ $ $ $ $ $ $ $ $ $ $ $ $ $ + + $ $ $ $ $ $ $ $ $ % % % % % % % $ $ $ $ $ $ $ $ % % % % % % % % $ $ $ $ $ $ $ $ % % % % $ $ $ $ % % % % % % % % % % % % % % - % % % % % % - - - - ; 1 1 2 2 6 6 7 7 7 7 7 7 7 7 7 7 7 7 7 7 7 6 6 6 6 7 7 7 7 7 7 7 7 7 7 7 7 e r r r r a a a s s s s s s s s a a r a a a a a a a a s s s s s s a a a a a a s s s s s s s z z z s s s s s s s s s s a a a a a a s s s s z z x x n n n m m m m m n n n n n x x z z z z z z s z s z z s s s s s s s s s s s s s s s s s s s s s s s s s z z c z z s s s s s s z x z z z z z x x x c c z s s s s z z s s s s s s z b x x z x x n n m m m m m m m m L P R <.1.4.R T L L P P L m n n n M x x z z s s a r r e 7 7 7 7 7 6 6 6 6 6 6 6 6 6 6 8 6 6 2 2 2 2 2 1 1 1 1 1 ; ; ; ; ; ; ; ; ; ; ; ; - - - - % % % % % % % % % % % % % % % % % % % - - - - - ; ; ; ; 1 1 2 6 6 9 7 e e e e r e e e e e r e r r e e e e e 7 7 t 9 9 6 2 2 1 ; - - % % $ $ $ $ $ + + + ",
"$ $ % % - - , , - - % $ $ $ + + $ $ $ $ $ $ $ + $ $ $ + $ $ $ $ $ $ $ $ $ $ $ $ $ % % % % % % % $ & $ $ $ $ $ $ % % % % % % % % % $ $ $ $ $ $ $ $ % % % % % % % % % % % % % % % % % % % % % % % % % % % % % - - - ; ; 1 1 1 2 2 6 6 6 6 6 6 6 6 6 6 6 6 6 6 6 6 6 6 6 6 6 6 7 7 6 6 7 7 7 7 7 e r r a a a a a a a a a a a a a a r r a a a a a s s s s s s s s s s s s s s s s s s s s s s s s s s s s a a a a a a a a a a a a a a a a a a s s z z z x n n m m m n n x x z z z s s s s a a a a a s s s s s s s a s s s s a a a a s s s s s s s s s s s z z z c z c s s s s s z z z z s z z z z z c s c s s s z c s s s s z z z z z b z z z z x x x n n n n n x x n n L P T T P L m m I I m m n x z x z s s a a a r r e e 7 7 7 7 7 6 7 6 6 6 6 6 6 6 6 6 6 2 2 2 2 2 2 1 1 1 1 1 1 ; ; ; ; ; ; ; ; ; ; - - - - % - % % % % % % % % % % % % % % % % % % % % % % - - - - - - ; ; 1 1 1 2 2 6 6 q q 7 p p p e e e e e e e e 7 7 q q 8 6 4 1 ; ; - % % % $ $ $ $ $ $ $ $ $ $ ",
"- - - ; > > 3 3 ; ; - - % $ $ $ $ + $ $ $ $ + + $ $ $ + $ $ $ $ $ $ $ $ $ $ $ $ $ $ % % % % % $ $ & $ $ $ $ $ $ % % % % % % % $ $ $ $ $ $ $ $ $ $ $ % % % % % % % % % % % % % % % % % % % % % % % % % % % % - - - ; ; 1 1 1 2 2 2 6 6 6 6 6 2 2 2 2 2 2 2 6 8 8 6 6 6 6 6 7 7 7 7 7 7 e e e e r r r a a a a a a r r r a r r r r r r a a a a a s s s s s s s s s s s s s s s s s s s s s s s s s a a a a a a a a a a a a a a a r r r r r a a s s s z z x n n n n n x x z s s s a a a a r a r a a a a a a a a s s a a a a a a a a a a s s s s s s s s s s z z z z b c z s s s s s z s s s s s s s s s s z z z z z s s s s z z z z z z z z z z z z z x x x x z z z c z x n n n n x x n n n n n b s s a a a a r r r e e e e e 7 7 7 7 7 7 7 6 6 6 6 6 6 6 6 2 2 2 2 2 2 2 1 1 1 1 1 1 ; ; ; ; - - - - - - - - % % % % % % - - - - - - % % % % % % % % % % % % % % % % % % % - - - - - - ; ; 1 1 1 2 6 q q 7 7 e e e e p 7 7 7 6 6 6 1 ; ; - - % % $ $ $ $ $ $ $ $ $ $ $ $ $ ",
"1 1 1 1 2 2 2 2 1 1 1 ; ; - - % $ $ $ $ $ $ $ + $ $ $ $ $ $ $ $ $ $ $ $ $ $ $ $ $ $ $ $ $ $ $ $ $ $ $ $ $ $ $ $ $ $ $ $ $ $ $ $ $ $ $ $ $ $ $ $ $ $ $ $ % % % % $ $ $ $ % % % % % % % % % % % % % % % % % % - - - ; 1 1 1 2 2 6 6 6 6 6 6 6 2 2 2 2 2 2 2 2 2 8 6 6 6 6 7 7 7 7 p t p e e r r r r r r r r r r r r r r r r r e e r r r a a a a s s s s s s s s s s f f s s s s s a a a a a a a a a r r r a a a a a a a a a a a a r r r r r a a s s z x x n n N n n n x z z s s a a r r r r r r r r r a a a a a a a a a a a a a a a a a a s s s s s s s s s s s z z z z z z s s s s s s s s s a a a s s s z z z z z s s s z z x x z z z z s s z z z z z z s s s a a d s z z z s s s z x x x z s a r r r r e e e e e e e e e 7 7 7 7 7 7 7 7 6 6 6 6 6 2 2 2 2 1 1 2 2 2 1 1 1 1 1 ; ; ; ; - - - - - - % % % % % % % % - - - - - - - - - - - % % % % % % % % $ $ $ % % % % % % % % % % % % - - - ; 1 2 2 6 6 7 7 7 7 7 7 6 2 2 2 1 - % % % % $ $ $ + $ $ $ $ & & $ $ $ $ $ ",
"1 1 2 2 2 2 2 2 2 1 1 1 1 ; ; - % % $ $ $ $ $ $ $ $ $ $ $ + + $ $ $ $ $ $ $ $ $ $ $ $ $ $ $ $ $ $ $ $ $ $ $ $ $ $ $ $ $ $ $ $ $ $ $ $ $ $ $ $ $ $ $ $ % % % $ $ $ $ $ $ $ $ $ % % % % % % % % % - - - % - - - ; 1 1 2 2 2 2 6 6 6 6 6 q 6 6 6 6 6 6 6 2 2 2 2 6 6 7 7 7 7 p t t e e e e e e e e e e e r e r r r y r r e e e r r r r r r a a a s s s s s s s s s s s f s s s d d a a a a a a a r r r r r r a r a a a a a a a d d a a a a a s s z x x M M B N m m n n n n x z z s a a a r r r r r r r r r a a a a a a a a a a a a a a a a a a a a s s s s s s s s z z z z z s s s s s s s s s s a a a s s s s s s s s s s z z x x z z c z z s s s c z s s a a a a a a s z z z s s s s z z s s a r e e e e e e e e e 7 7 7 7 7 9 7 7 7 7 7 6 6 6 6 6 6 2 2 2 2 1 1 2 2 2 1 1 1 1 1 ; ; ; ; - - - - - - % % % % % % % % % - - - ; ; - - - - - % % % % % % % % % % % $ % % % % % $ $ % % % % % % % % - ; 1 1 2 2 6 6 6 6 6 2 1 ; ; - % $ $ $ $ $ + $ + + + $ & & $ $ $ $ $ $ ",
"2 2 2 2 2 2 2 2 2 1 1 1 1 1 1 1 ; ; - - - % % $ $ $ $ $ & + + + $ $ $ $ $ $ $ $ $ $ $ $ $ $ $ $ $ $ $ $ $ $ $ $ $ $ $ $ $ $ $ $ $ $ $ $ $ $ $ $ $ $ $ $ $ $ $ $ $ $ $ $ $ $ $ % $ $ % % % % % - - ; ; 1 1 1 2 2 6 6 6 6 7 6 6 6 7 7 7 7 7 7 7 7 7 7 7 7 7 7 7 7 7 e e e e e e e 7 7 e e e e e e e e r r p e r r r r a a a r r r r r r r r r r a s z z z z s s a g a a r r r r r r r r a a a s a r r r r r r r a a a a a a a a a s z z x n n N B m m m m m m m m m m m m m n n M x x z z s s s a a r r r r r r r r r r r a a d a a s a a a a a a r r a a a a a a s z s s s s s s s s z s s s s s a a a a a a s s s s s s s z z z z c c s s s s s s s s s a a a a s z z z z x x n x x x x z z s s e e e e 7 7 7 7 6 6 6 6 8 6 2 6 7 7 6 6 6 2 2 2 2 2 2 2 2 2 2 2 1 1 1 1 1 1 1 1 1 ; ; ; ; ; ; - - - - - - - - - % % % - - - - - - - - - - % % % % % % % % % % % % % % % % $ $ $ % % % % $ % % % % - - - ; ; 1 2 2 2 1 1 ; ; - - % $ $ $ $ $ $ $ + + + + $ $ $ $ $ $ & $ ",
"2 2 1 1 1 1 2 2 1 1 1 1 1 1 1 1 1 1 ; ; - - - % $ $ $ $ $ $ + $ $ $ $ $ $ $ $ $ $ $ $ $ $ $ $ $ $ + $ $ $ $ + + $ $ $ $ $ $ $ $ $ $ $ $ $ $ $ $ $ $ $ $ $ $ % $ $ $ $ $ % % % % % % % - - - - - ; 1 1 2 2 6 6 6 7 7 7 7 7 7 7 7 7 7 7 7 7 7 7 7 7 7 7 7 7 7 7 7 e e e e e e e e e e e e e e 7 e e e r r e e e e r r a a a a r r r r r r r r r a s s z z z s s s a a r r r r r r a a a a a s s a a y y r r a a a r a a a a s s s x n n m m m L L L L L L m m m m m m m m m m m N m n n x z z z s a a a a a a r r r r r r r r r d d s a a a a r r r r r r r r d a s s s s s s s s s s z c c x x c s a a a a a a s s s s s s s s s s s s s s s a a s a a a a a a s x n m L Y L m m n n n n x x x z a a r r e e e 7 7 6 6 6 6 8 6 8 7 7 6 6 2 2 2 2 2 6 6 2 2 2 2 2 1 1 1 1 1 1 1 1 1 ; ; ; ; ; ; ; - - - - - - - - % % % % % % % % % % % % % % % % % % % % % % % % % % & $ $ $ $ $ % % % % $ % % % % % - - ; 1 1 2 2 2 2 1 1 ; ; ; % % % % $ $ $ + $ + $ $ & & = = & % % % ",
"1 1 1 1 1 1 1 1 1 1 1 1 1 1 1 1 1 1 1 1 ; ; ; ; - % % $ $ $ $ $ $ $ $ $ $ + + + $ $ $ $ $ $ $ $ $ + + + $ $ + + $ $ $ $ $ $ $ $ $ $ $ $ $ $ $ $ $ $ $ $ $ $ % % $ $ % % % % % % - - - - ; ; ; > 5 1 2 2 2 6 6 6 7 7 7 7 7 7 7 7 7 7 7 7 7 7 7 7 7 7 e e e e e e e e e e e e e e e e e e e 7 7 e a a a r r r r r r r a r r r r r r a a a a a a a s s s s s s s s s s s s s a a a a a a r r a a d d a d a a a a a a s s z z x x x n m m m m m L L L L L L m m m m m m m m L L m m N N M n n x x z s s s s s s a a a r r r r r r r d a a a r r r r r r r r r a a a s s s s s s s s s s s s z c x x x z z z s s s s s s s s s s s s a a a d d a a a a a a a a s s z n L Q | | Q Y L L m m m n n n x b z z s s a a a r r e e e e 7 7 7 7 6 2 2 2 2 2 6 2 6 2 2 2 1 1 1 1 1 1 1 1 1 1 1 ; ; ; ; ; ; ; - - - - - - - - % % % % % % % % % % % % % % % % % % % % $ $ $ $ $ $ $ $ $ $ $ % $ % % % % % % % - - ; 1 4 4 2 2 8 2 2 2 2 2 2 5 ; - - - - % $ $ $ $ $ $ $ $ % % $ $ $ $ ",
"1 1 1 1 1 1 1 1 1 1 1 1 1 1 1 1 2 2 1 1 1 1 1 ; ; ; - - % % % $ $ $ $ $ $ + + + + + + + + + $ $ + + + + $ $ + + + $ $ $ $ $ $ $ $ $ $ $ $ $ $ $ $ $ $ $ % % % % % % - - - - - - ; ; ; ; 1 1 5 5 1 2 2 2 2 6 6 6 7 7 7 7 7 7 7 7 7 7 7 7 7 7 7 7 7 7 e e e e e e r r r r r r r r r r e e e e e e a s d d r r r r r r a r r r r r a a a a a a s s s s s s s s a s s z s s s s s d a r r r r r r r r a a a a s s z z x x n n B m m m m m L L L L L L L L L L L L L L m L L L L L m m m N B M M n n x x z z z z s s s a a a r r r r a a r r r r r r r r r r r a a d s s s s s s s s s s s s s s s c x x x x x z x x s s s s s f f d r r r r a a a a a a s s z z x n Y Q Q Q Q Q P P L L L m m m n n x x x x x x x c s s s d d r r r 7 7 6 6 2 2 2 2 2 2 2 2 2 2 1 1 1 1 1 1 1 1 1 1 ; ; ; ; ; ; ; ; - - - - - - - - % % % % % % % % % % % % % % % % % $ % % $ $ $ $ $ $ + $ $ $ % % % % % % - - - ; 1 1 5 4 4 2 2 2 8 8 8 8 8 2 2 2 2 5 1 3 ; ; - - % % % % % % % % % $ $ $ ",
"1 1 1 1 1 1 1 1 1 1 1 1 1 1 1 1 2 2 2 2 2 1 1 1 1 1 ; ; ; - - % $ $ $ $ $ $ + + + + + + + + + + $ $ $ + $ $ $ $ + + + $ $ $ + $ $ $ $ + $ $ $ $ $ $ $ $ % % % % - - ; ; ; ; ; ; 1 1 1 1 1 2 2 2 1 2 2 2 2 2 6 6 7 7 7 7 7 7 7 7 7 7 7 7 7 7 7 7 7 7 e e e e e r r a a a a s s s a a r r e e e e r r r r e e y r r r a a r r r r a a a s s s s s s a a a a a a s s s s s s s d d d d r r r r r r a a s s z z x n N m I L L P P P L L L L L L L L L L L L L L L L L m L L L L L L m m m m m B m B N m n n M n x z z s a a a a r r r r r r r r r r a r a a a a a s s s s s s s s s s s a a a a a s x x x x x x x x s s s f d d d r r r r r r r a a s z z x M n B Y E Q Q T T T P P P L L L m m m n n n n n n n x x v v v x c s s a r e 7 6 6 2 2 2 2 2 2 2 2 2 1 1 1 1 1 1 1 1 1 1 ; ; ; ; ; ; ; - - - - - - - - - % % % % % % % % % % % % % % % % % $ % % % % $ $ $ + + $ $ $ % % % - - ; ; ; 1 1 4 2 2 2 6 6 6 6 6 6 6 6 6 6 6 2 8 2 4 2 2 1 1 1 ; ; ; - - - - % % % % = ",
"1 1 1 1 1 1 1 1 1 1 1 1 1 1 1 1 2 2 2 2 2 2 2 2 1 1 1 1 1 1 ; ; % % % $ $ $ $ $ + + + + + + + + $ $ $ $ + $ $ $ + + + + + + + $ $ $ $ $ $ $ $ $ % % % % % % % - ; ; 1 1 1 1 1 1 2 2 2 2 2 2 2 2 2 2 2 2 6 6 6 6 6 7 7 7 7 7 7 7 7 7 7 7 7 7 7 7 7 7 e e e e e e r a a a s z b b z z s a a r r e r r e e e e e r r r a a a r r r a a a s s s s a r r r r r a a a d d d d d d a a a a a r r r r a z x x n n m m Y L P P T T T T T P L L L P P P P P P P P P P P L L L L L L L L L L L L L L m m m L L I I I m n n x z z s s s s a a a a a a a a a a a a a a a a a d a a a s s s s s s a a a a a a z z z z z z c s s s s d d r r r r r r a a s z z x n N m Y Y I L P T T T T P P P L L L L m m m m n n n n n n n n n n n n n x x x s d r e 7 6 6 2 2 2 2 2 2 2 2 1 1 1 1 1 1 1 1 ; ; ; ; ; ; - - - - - - - - - - - % % % % % % % % % $ $ $ $ $ $ $ $ $ $ $ % % $ $ $ $ $ $ $ $ % % - ; ; 1 1 2 4 4 2 2 2 2 6 6 6 9 9 9 7 7 6 6 6 6 6 6 6 8 8 2 2 2 1 1 1 1 ; ; ; - % % % % ",
"1 1 1 1 1 1 1 1 1 1 1 1 1 1 1 1 2 2 2 2 2 2 2 2 1 1 1 1 1 1 1 1 - - - % % % $ $ $ $ $ $ + + + + + $ $ $ + + $ $ $ + + $ $ $ + $ $ $ $ $ $ $ % % % % - - : - - ; 1 1 1 1 1 1 1 2 1 2 2 2 2 2 2 2 2 2 2 2 6 8 6 6 6 7 6 6 6 6 6 6 6 6 6 6 7 7 7 7 7 7 e e e e e r r a a s z z x n n n n x z z s a a r r r e e e r r r a a r r r r r a a a s s a a e e e e r r a a e 7 e e e r r r r a a s z z z x m L L L Y P P T P T T T R R R T T T P P P P T T T T T T P P P P P P P P P P P P P P P P P L L L P P P P P L L m m m n n x x z z s s s s s a a a a a a a s a a a a a a a a a a a s a a a a r r r a a a a a a a a a a a a a a r r a s s z x n B B Y L L P P P P P P P T T T P P L L L L m m n n n m m n n n n n n n n n M M M M M v c s r r e 7 7 7 6 6 6 6 2 2 1 1 1 1 1 1 1 1 ; ; ; ; ; ; ; - - - - - - - - - - % % % % % % % % $ $ $ $ $ $ $ $ $ $ $ % % % % $ $ $ $ % % - - - ; 1 1 2 2 2 8 6 2 2 2 2 2 6 6 7 7 7 6 6 6 6 6 6 6 6 9 6 6 8 6 2 2 2 2 2 1 1 1 ; - % - % ",
"1 1 1 1 ; ; 1 1 1 1 1 1 1 1 1 1 2 2 2 2 2 2 1 1 2 1 1 1 1 1 1 1 3 > ; - - % % $ $ $ $ $ $ + + + $ & $ $ + + $ $ + + $ + $ + + + $ $ $ $ $ % % % % - : - - : > > 1 1 1 1 1 1 1 1 1 2 2 2 2 2 2 2 2 2 2 2 2 6 6 6 6 6 6 6 6 6 6 6 6 6 6 6 6 7 7 7 7 e e e e e e r r a a s x x n m m m m m m n n x b z s s a a a a a a a a r r r r r r r a a a r r r e 7 7 e r r r 7 7 7 7 e r r a a s z x m Y Y Y T Q Q Q T T R R T T R R R R R R R R T T T T R T T T T T T T T T T P P P P P P P T P P P T T T T T T T T T P P P P Y L L L m n n x x z z z s s s s s s s s s a a a a r a a a a a a a a a r r r r r r r r r a a a s s s s s s s s x n m Y Y Y P P P T T T T T R R T T T T P P P L L L L m m m m m m m m m m m m m n m m m m m m m M x c s a r r p e 7 7 7 6 6 2 2 2 1 1 1 1 1 1 1 ; ; ; ; ; ; - - - - - - - - - - - % % % % % % % $ $ $ $ $ $ $ $ $ $ $ % % % % % % % - - ; ; 1 1 4 4 2 2 8 6 6 6 6 6 2 6 6 6 6 6 6 6 6 6 6 6 6 6 7 7 7 7 7 6 6 6 8 8 2 2 2 2 2 1 ; ; ; ; ",
"; 1 ; ; ; ; 1 1 1 1 1 1 1 1 1 1 1 1 1 1 1 1 1 1 1 1 1 1 1 1 1 1 1 1 1 3 > ; - - % % $ $ $ $ $ $ $ & & & & & & & $ $ $ $ $ $ $ $ $ % % % % - - , , - - ; ; ; ; ; 1 1 1 1 1 1 1 1 1 1 1 2 2 2 2 2 2 2 2 2 6 8 6 6 6 6 6 6 6 6 6 2 6 6 6 6 6 6 7 7 7 e e e e e e e r r a s x n L T T P T P P L L L P L L m n x z z s s s a r r e e e e r a d r r e 7 7 q u p r r r r 7 7 e e r s z n m P T Q Q R R 2.<.<.<.<.<.<.<.<.R <.<.<.<.<.<.<.<.R R R R R R <.R R R R R R R R T T T T R R T T T T T R R R R R R R R T T T T T T T T T T T P P L m n n x z z s s s s s s a a a r r a a a r a r r r r r r e e e e e r r a a s s s z x x n n m P T Q R R R R R R R <.<.<.<.<.<.R R R T T T P P P P L L L m m m L L L L L L L L L L L L P P P L m M z z s a r y y y y t e 7 6 6 2 2 2 1 1 1 1 1 1 ; ; ; ; - - - ; ; - - - - - - - - % % % % % $ = $ $ $ $ $ $ $ $ $ % % % % % % ; 1 1 1 1 4 2 2 2 2 2 2 6 6 6 6 2 2 2 6 6 6 6 6 6 6 6 6 2 6 6 6 6 7 7 6 6 6 6 6 6 6 2 2 2 2 1 1 1 1 1 1 ",
"; ; ; ; ; ; 1 1 1 1 1 1 1 1 1 1 1 1 1 1 1 1 1 1 1 1 1 1 1 1 1 1 1 1 1 5 3 1 ; ; ; - - % % $ $ $ $ & & & & $ $ $ $ $ $ $ $ $ % % % % - - - - , - - ; ; ; ; ; ; ; ; 1 1 1 1 1 1 1 1 1 1 1 1 1 1 2 2 2 2 2 8 8 6 6 6 6 6 6 6 6 2 2 2 2 6 6 6 6 6 7 7 7 e e e e r e r r a z x m T R <.<.<.<.R T T T R <.R R T P P L m n x s a r r r r e e r r e e t t 7 e e e r r a r r s b b B Y Y P T R 4.1.3.3.1.1.1.1.1.3.3.1.<.<.<.<.<.<.<.<.<.<.<.<.<.<.<.<.<.<.<.<.<.<.<.4.4.<.R R R R R R R R R R R R R R R R R R R R R R R R R R R R R R R R E P P L m n x x z z s s s s a a a a a r r r r r r r r r r r r r r r a a a s z x n m L P T Q Q <.1.1.1.1.1.1.1.1.1.1.1.1.1.1.1.<.<.<.<.R R R T T T P P P P P P P P P P P P P P P P T T R R R T L n x z s a d d r r r r e e 7 7 6 2 2 2 2 1 1 1 1 ; ; ; ; ; - - ; ; ; - - - - - - % % % % % % $ $ $ $ $ % % % % % % % % - - - ; 1 2 2 2 8 8 2 2 6 6 2 6 6 6 6 6 2 2 2 2 2 2 6 6 6 6 2 2 2 2 2 6 6 6 6 6 6 6 6 6 6 6 2 2 2 2 2 1 2 2 2 2 ",
"; ; ; ; ; ; ; ; ; ; ; ; 1 1 1 ; ; ; ; ; ; ; ; ; 1 1 1 1 1 1 1 1 2 2 2 1 1 1 1 1 3 > > , : % % $ $ $ $ $ $ $ $ $ $ % % % % % - - - - - - - - - - ; ; ; ; ; ; ; ; ; ; ; ; ; 1 1 1 1 1 1 1 1 1 1 1 2 2 2 2 2 6 6 8 8 8 6 6 2 2 2 2 2 2 2 2 6 6 6 6 7 7 7 e e e e e r r s z n P R 0.w.w.5.w.3.4.<.1.1.5.1.1.1.1.4.4.R Q P m x z z s a r e e e 7 7 e e e r r r a a s n m P Q Q Q Q <.<.<.1.1.5.5.5.5.8.5.5.5.w.w.3.1.<.<.<.<.<.R <.<.<.1.1.1.1.<.<.<.4.<.4.4.1.1.3.3.3.4.<.<.<.<.R R R R R R R 2.2.R R R R R R R R <.<.<.<.<.<.1.1.<.3.2.W Q Q U L m n x x z z s s s s s a a a r r r r r r r r r a a r a s s z n m L T R <.1.3.w.5.5.5.6.6.6.5.5.5.5.5.5.5.5.5.5.5.5.5.5.8.5.5.1.1.<.<.<.R R R R R R R R R R R R R R R R <.1.1.1.1.<.P m n x z s d d r r r r e e e 7 9 6 8 6 2 2 2 1 1 1 ; ; ; ; ; ; ; ; ; ; - - - - - - - % % % $ % % % % % % % % - % - - - ; ; 3 5 8 6 6 6 6 6 6 6 6 6 6 6 6 6 6 6 2 2 2 2 2 2 2 2 2 2 2 2 2 2 2 2 6 6 6 6 6 6 6 6 6 6 6 2 2 2 2 1 2 2 2 2 ",
"; ; ; ; ; ; ; ; ; ; ; ; ; ; ; ; ; ; ; ; ; ; ; ; ; ; 1 1 1 1 1 1 1 1 1 1 1 1 1 1 ; ; ; , - % % % $ + $ $ $ $ $ $ % % % % - - - - - - - - - - - - - - ; ; ; ; ; ; ; ; ; ; ; ; ; ; ; 1 1 1 1 1 1 1 1 2 2 2 2 2 2 2 2 2 2 2 2 2 1 1 1 2 2 2 2 6 6 6 7 7 7 7 7 e e e r r s z m P 4.q.l.q.9.w.8.3.2.3.w.5.5.5.1.1.w.0.0.0.0.i.W P L n s r e e 7 6 6 7 e r s z z x n m Q 4.0.f.1.<.R <.1.5.5.5.5.1.1.1.5.1.1.1.1.3.1.1.1.<.<.<.R R R <.<.1.1.1.<.<.<.2.<.<.<.<.4.4.1.3.1.4.<.<.<.R R R R R R R R R R R R R R R R R R <.<.<.<.<.1.1.1.3.<.2.2.W Q E U L m m n n x x x z z s s s a a r r r r r a a a a a s z x m L { Q i.f.0.q.9.9.6.6.6.g.g.g.g.g.g.g.g.6.6.6.6.w.6.w.6.6.g.x.g.6.6.5.5.1.1.1.1.1.<.<.<.<.<.<.<.<.<.<.1.<.1.1.5.6.g.g.8.T m n x z s a d r r r r e e e e 7 q 9 6 6 6 2 2 2 1 1 1 1 ; ; ; ; ; ; - - - - - - - % % % % $ % % % % % % - - - ; ; ; ; 1 5 5 4 8 9 9 6 6 6 6 6 6 6 6 6 2 6 6 6 2 2 2 2 2 2 2 2 2 2 2 2 2 2 2 2 2 6 6 6 6 6 6 6 6 6 6 2 2 2 2 2 2 2 2 2 ",
"; ; ; ; ; ; ; ; ; ; ; ; ; ; ; ; ; ; ; ; ; ; ; ; ; ; ; ; ; ; ; 1 1 1 1 1 1 1 1 ; ; ; ; , , - % % $ $ $ $ $ % % % % - - - - - - - - - - - - - - - - - ; ; ; ; ; ; ; ; ; ; ; ; ; ; ; ; ; ; 1 1 1 1 1 1 1 2 2 2 2 2 2 2 2 1 1 1 1 1 1 1 1 2 2 2 2 6 6 6 7 7 7 7 e e r a s z m T 0.q.l.7.6.5.3.4.2.4.4.<.<.<.<.<.1.w.9.9.l.l.d.0.2.T x s r e 6 6 7 e a z m L P Q Q 4.1.5.w.w.5.1.1.1.6.5.5.5.1.1.1.1.1.1.1.1.1.1.<.<.<.<.<.R R R R <.<.<.<.2.2.<.R R R R R R R R R <.R R R R R R R R T T T T T T R R R T T R R R R R R R <.<.<.<.<.4.2.2.R W Q Q P L m m N N M n M M x x z z s s a a r a a s s z z x m L T Q 2.f.f.0.9.9.9.6.6.6.6.g.g.g.g.h.g.g.j.j.j.j.j.j.7.7.7.j.h.c.c.z.x.x.7.9.w.w.w.w.8.1.1.1.3.3.1.<.<.<.1.3.w.w.5.6.6.h.z.q.Q m n x z s a r y y r e e e e 7 7 7 7 7 7 6 6 6 6 2 2 1 1 1 1 ; ; ; ; - - - - - - % % % % % $ % % - - - - - ; ; 5 1 1 2 2 2 2 2 6 6 6 6 6 6 6 6 6 2 6 6 2 2 2 2 2 2 2 2 2 2 2 2 2 2 2 2 2 2 2 2 2 2 2 6 6 6 6 6 6 6 6 2 2 2 2 2 2 2 2 2 ",
"- - ; ; ; ; ; ; ; ; ; ; 1 1 1 ; ; ; ; ; ; ; ; ; ; ; ; ; ; ; ; ; 1 1 1 1 1 1 1 1 ; ; ; , - % % % $ + $ $ $ % % - - - - - - ; ; ; - - - - ; - ; ; ; ; ; ; ; ; ; ; ; ; ; ; ; ; ; ; ; ; ; ; ; 1 1 1 1 1 1 1 2 1 1 1 2 1 1 1 1 1 1 ; ; 1 1 1 1 1 2 2 6 6 6 7 7 7 e e r a s x m T w.l.l.6.5.1.<.R T T T T T T R R <.1.1.5.9.x.l.s.8.2.~ B s r 7 7 e s M U i.0.3.4.<.<.<.1.1.5.5.5.5.5.5.5.5.1.1.1.1.<.<.<.<.<.<.<.<.<.<.R R R R R R R 2.<.R R R R R T R R T T T T R R T R T T T T T T T P T P P T T T T T T T T T T T T T T R R R R R R R R R T T P L m m m m m N n n n n x x z s a a a a a s z n m L R <.4.0.0.0.q.q.9.9.5.5.5.5.6.7.6.g.g.g.j.j.j.j.6.7.7.7.7.7.7.j.h.c.c.b.z.x.7.7.5.w.w.w.w.3.3.1.1.4.<.<.<.<.<.1.w.w.6.5.6.h.z.l.Q m x z s a r r r r e e e 7 7 7 7 7 7 7 7 7 7 q 6 6 2 2 2 1 1 1 ; ; ; ; - - - - - % % % % % % % - - - ; ; 1 1 1 4 4 4 2 2 2 2 2 2 2 2 2 2 2 2 2 2 2 2 6 2 2 2 2 2 2 2 2 2 2 2 2 2 2 2 2 2 2 2 2 2 2 2 2 6 6 6 6 6 6 6 2 2 2 2 2 2 2 2 2 ",
"- - - - ; ; ; ; ; ; 1 1 1 1 1 1 ; ; ; ; ; ; ; ; ; ; 1 1 1 1 1 1 1 1 1 1 1 1 1 ; ; ; - - % % % $ $ + $ $ $ % % % - - - - ; ; ; ; ; ; ; ; ; ; ; ; ; ; ; ; ; ; ; ; ; ; 1 1 1 1 1 1 ; ; 1 1 1 1 1 1 1 1 1 1 1 1 1 1 2 1 1 1 1 1 1 ; ; ; 1 1 1 1 2 2 6 6 7 7 7 7 e e r a s x L T w.q.7.5.1.<.R P P L P P P P P T R <.<.<.1.w.0.w.<.T Y B b a e e a b { i.d.l.9.1.<.R <.R <.<.w.w.1.1.<.<.<.<.<.R R R R R R R R R R R R R R R R R R R R R R R T T T T P P P T T T T T T T T T P P P P P P P P P P P P P T T T T T P P T P T T T T T T T T T P P P L L m m m m m m m m I L m n z z s s a s s x n I U Q <.1.1.5.5.5.9.7.9.5.5.1.<.<.<.1.5.6.6.7.6.6.5.5.5.5.5.5.8.w.w.6.g.h.k.z.j.7.5.5.1.1.1.1.1.<.<.<.R R R R R R R R <.1.1.1.5.x.z.q.T m x z s a r e e e e 7 7 7 7 7 7 e e 7 7 7 7 7 6 6 6 2 2 2 2 2 1 ; ; ; ; - - - - % % % $ % % % - ; ; ; 1 1 4 4 2 2 2 2 6 2 6 2 2 1 1 1 1 1 2 2 2 2 2 2 6 2 6 2 2 2 2 2 2 2 2 2 2 2 2 2 2 2 2 2 2 2 2 2 6 6 6 6 6 6 6 2 2 2 2 2 2 2 2 2 ",
"; ; ; ; ; ; ; ; 1 1 1 1 1 1 1 1 1 1 1 1 1 1 1 1 1 1 1 1 1 1 1 ; ; ; ; ; ; ; ; - - - % % $ $ $ $ $ $ $ + $ $ % % - - - - ; ; ; 1 1 3 3 3 1 1 1 ; ; ; ; ; ; ; ; ; 1 1 1 1 1 1 1 1 1 1 1 1 1 1 1 1 2 2 2 2 2 2 1 1 2 2 2 1 1 1 1 1 1 1 1 1 2 2 2 6 6 6 7 7 e e e r r a z x L R 5.l.7.5.<.R P L m m I L L L L L P P T R <.4.4.Q P m n z s a r e a b m W 3.0.5.1.<.<.R R R <.4.1.<.<.<.<.<.<.<.R R R R T T R R R R T T R R R R R R R R R R T T T P P P P P P T T T T T T T P P L P P L L L L L L P P P P P P P P P P P P P P P P P P P P P P P L L L L L L m m m m I I I B n z s s a a s x B ! Y U T <.1.1.1.1.5.5.6.5.1.1.<.R R R R 1.5.5.5.5.1.1.1.1.<.<.<.<.1.1.1.6.6.g.g.6.5.1.<.R R R R R R R T T T T T T T T T T R <.1.5.l.z.q.Q m x z a r e e 7 7 7 7 7 7 7 7 7 7 7 7 7 7 6 6 6 6 6 2 2 2 2 2 5 3 3 ; ; ; - - % % % % % % % % > 3 3 3 1 1 1 1 2 2 2 2 2 6 6 2 4 1 1 1 1 1 1 1 1 2 2 2 2 2 2 2 2 2 2 2 2 2 2 2 2 2 2 2 2 2 2 2 2 2 2 2 6 6 6 6 6 6 6 2 2 2 2 1 1 1 1 1 ",
"; ; ; ; ; ; 1 1 1 1 1 1 1 1 1 1 2 2 2 2 1 1 1 1 1 1 1 1 1 1 1 > , , , - % % % % $ $ $ $ $ $ $ $ + + + $ $ $ $ $ % % % - - - : ; 1 1 1 1 1 1 1 1 1 1 1 1 1 1 1 1 1 1 1 1 1 1 1 1 1 1 1 1 1 2 2 2 2 2 2 2 2 2 2 2 2 2 2 2 2 2 2 2 2 2 8 6 8 6 6 6 7 7 7 e e e r r r a z n P <.7.l.j.5.<.T P L m n m m m m m m m m L L Y L m m n x a a r e e e e r a z n I Y Y U T W <.2.2.<.<.<.1.<.<.<.<.<.<.R R T T T T T T Q Q T T T T T T T T T T T T T P P P P P P P T T T T T P P P P P P L L L L L L L L L L L L L L L L L L L P P P P P P P P P P P P P P L L L L I I m N n x z s s a a s s s z x M N I U T R R <.1.1.5.5.5.1.<.R R T T T <.1.1.1.1.1.<.R R T T P P P T R 1.6.g.h.g.5.<.T P P P P P P P L L L L L L L L P P T R <.5.j.k.j.T m x z s r e e 7 7 7 7 7 6 6 6 6 6 6 6 2 2 2 2 2 2 2 2 2 2 2 2 4 5 1 ; ; ; ; - - - - % - - - , ; ; ; ; ; ; 1 1 1 1 2 2 2 2 2 2 1 1 1 1 1 1 1 1 1 1 1 1 1 1 1 1 1 1 1 1 1 1 1 1 1 1 1 1 1 1 1 1 2 2 1 1 1 2 2 2 2 1 1 1 1 1 1 1 1 1 1 1 ",
"1 1 1 1 1 1 1 1 1 1 2 2 2 2 2 2 2 2 2 2 1 1 1 1 1 1 ; ; ; ; ; - % % % % $ $ $ $ $ $ $ $ $ + + + + + + + $ $ $ $ $ $ % % % : : ; 1 1 1 1 1 1 1 1 1 1 1 1 1 1 3 2 2 2 2 2 2 1 2 2 2 2 2 2 2 2 2 2 2 8 8 2 2 2 2 2 2 2 2 2 6 6 6 2 6 6 6 6 6 7 7 7 7 7 e e e r r r r a z n P <.7.b.j.5.R T L m n n M n n n n n n n x x x x x z z s r e e e e e e r r a a s z x M N E Q W 2.4.3.3.3.<.<.<.<.R R R R T T T T T T T T T T P P T T T T T T T T P P P P P P P P P P T P P P P P P L L L L L L L L L L L L L L L L L L L L L L L P P L L P P P P P P L L U L I m N N n x z z s s s a a s a s s z z x x M Y P T T R <.<.1.1.1.<.R R T T T R <.1.1.1.1.<.R T P P L L L P T <.5.x.x.6.1.R P L L L P P L L m L L L L L L L L L P T R 5.j.k.j.T m n z s r e e e 7 7 7 7 7 6 6 6 6 6 6 2 2 2 2 2 2 2 2 2 2 2 2 1 5 1 1 ; ; ; - - - - % % % % - - ; ; ; ; ; 1 1 1 1 1 1 1 1 1 1 1 1 1 1 1 1 1 1 1 1 1 1 1 1 1 1 1 1 1 1 1 1 1 1 1 1 1 1 1 1 1 1 1 1 1 1 1 1 1 1 1 1 1 1 1 1 1 1 1 1 1 1 ",
"1 1 1 1 1 1 1 1 2 2 2 2 2 2 2 2 1 1 1 1 1 1 1 ; ; ; ; - - - - % $ $ $ $ $ $ $ $ $ $ $ $ + + + + + + $ + $ $ $ $ $ $ $ % % % % - ; ; ; ; 1 1 1 1 1 1 1 1 1 2 2 2 2 2 2 2 2 2 2 2 2 2 2 2 2 2 2 6 6 6 6 6 2 2 2 2 2 2 6 6 6 6 6 6 6 6 6 6 7 7 7 7 7 7 e e e r r r r a z n P <.q.b.l.5.R P L n x x n x x x x x z z z z z s s s s a a r r r e e e r r r r r a s s z m L Y Q Q Q 4.2.R R R R R R R R T T T T T T P P T P P P P P P P T T P P P P P P L L P P P P P P L L L L L L L L L L L L L L I L L L L L L L L L L L L L L L L L L L L L L L Y Y B B n x x z z z s s s s s a a a r a a a a s s s z z x n L P Q <.4.<.<.R R R R R <.1.1.5.1.1.<.R T P P L L L L P <.5.l.l.9.1.T P L m L L L L m m m m m L L L L L L P T R 1.j.k.7.T m n x s a r e e e e e 7 7 7 7 6 6 6 6 6 6 6 6 2 2 2 2 2 2 2 2 1 1 1 ; ; ; ; - - - - % % % % % - - - - ; ; ; ; 1 1 1 1 1 1 1 1 1 1 1 1 1 1 1 1 1 1 1 1 1 1 1 1 1 1 1 1 1 1 1 1 1 1 1 1 1 1 1 1 1 1 1 1 1 1 1 1 1 1 1 1 1 1 1 1 1 1 1 1 ",
"1 1 1 1 1 1 1 1 1 1 1 1 1 1 2 1 3 3 3 > ; ; ; ; - - % % % % $ $ $ $ $ $ $ $ $ $ $ + + + + + + + + + $ $ + $ $ $ $ $ $ $ $ $ % % % % - - - ; 3 3 1 1 1 1 1 2 2 2 2 2 2 2 2 2 2 2 2 2 2 2 2 6 6 6 6 6 6 6 8 6 2 2 6 6 6 6 6 6 7 7 6 7 7 7 7 7 7 7 7 e e r r r r r r a z n P <.0.b.q.1.R P m n x x x c z s s s s s s s s s s s s a a r r r r e r r r r r r a a a a s z x n Y Y Y Q Q Q T T T T T T T T T T P P P P P P P P P P P P P P P P P L L L L L L L L L P L L L L L L L m m m m m m L L L L L L L L L L L L L L L L L L L L m m B m B n M n x z s s s s s s s s s a a r r r r r r r r r r r e r r s x m Y Q Q R R R R R R R <.1.5.w.5.1.<.R T P P L L L P P R 1.q.l.9.<.T L m m m L L m m m m m m m m m m m m L T R 1.j.k.7.R L n x z s r r r e e e e 7 7 7 7 7 7 7 7 7 6 6 6 6 6 2 2 2 2 2 1 ; ; ; ; ; - - - - % % % % % % % % - - - - ; ; > 1 1 1 1 1 1 1 1 2 2 2 2 2 1 2 2 2 2 2 2 2 2 2 2 1 1 1 2 1 2 1 1 1 1 1 1 1 1 1 1 1 1 1 1 2 2 2 2 1 1 1 1 1 1 1 1 1 1 1 ",
"2 2 2 1 1 1 1 1 2 1 1 1 1 1 1 1 ; - , - - - % % % $ $ $ $ $ $ $ $ $ $ $ $ $ $ $ $ $ $ + $ + + + + + $ $ + $ $ $ $ $ $ $ $ $ $ $ $ $ $ % % - - > > 3 1 2 2 2 2 2 2 2 2 2 2 2 2 2 2 2 6 6 6 6 6 6 6 6 6 6 6 6 6 6 6 6 6 7 7 7 7 7 7 7 7 7 7 7 7 7 e e e r r r r r a s x m P <.0.d.0.<.T L n x z s s s a a a a a a d d a a a a d d a a r r r r e r e r r r r e e r r r a s z x n m Y L P P P P P P P P T P P P P P P P P L L L L P P P P L L L L L L L L L L L L L m m m m m m m m m m m m m m L L L L P L L L L L L L L L m I I B M n x x z z s s a a a a a a a a a a a r r r r r r r e e e e r e p 7 e e a s x n Y P T T T T R R <.1.w.8.5.1.<.R T P P L L L P P R 1.q.d.0.<.T L m m m m m N n n n n m m m m m m m L P T 1.l.z.7.R L n x z s a a r r r r e e e e 7 7 7 7 7 7 7 6 6 6 6 6 2 2 2 2 ; ; ; ; ; - - - - - % % % % % % % % % % - - - - ; ; ; > 3 3 3 5 1 2 2 2 2 2 2 2 2 2 6 6 6 6 6 6 2 2 2 2 2 2 2 2 2 2 1 1 1 1 1 1 1 2 2 2 2 2 2 2 2 2 2 2 2 1 1 1 1 1 1 1 ",
"2 2 2 1 1 1 1 1 3 3 3 3 3 ; ; ; % % % % % $ $ $ $ $ + + + $ + $ $ $ $ $ $ + + + + $ + + + + + + + $ $ $ + $ $ $ $ $ $ $ $ $ $ $ + + $ $ $ % % - > > 3 5 2 2 2 2 2 2 2 2 2 2 2 2 6 6 6 6 6 6 7 7 6 6 6 6 6 6 6 6 6 7 7 7 7 7 7 7 7 7 7 7 7 7 7 7 e e e r r r r r a s x m P W 0.d.4.T L m x z s a r r r r r r r a d d d a a d a d a a a r r r e r r e e 7 7 e e r r r r r a a s z x n n m Y Y Y L L P P P P P P P L L L L L L L L L P L L L L L L L m L L m m L m m m m m m m m m m m m m m m L L L L L L L L L L I m m m N N N M z z s s a a r r r r r r r r r r r r r r e r r p 7 7 7 7 e e e e t t e e r a z x m m L L L P Y T R 1.0.0.3.2.R T T P L L L P P T R 4.q.l.0.<.T L m m m m m N M M n n n n n n n m m L P T 1.l.z.7.R L m x z s a a r r r r r e e e e e e 7 7 7 7 6 6 6 8 2 2 1 1 1 ; ; ; ; - - - - - % % % % % % % % % % % % % % % - - - - ; ; > ; 1 1 1 4 2 2 2 2 2 2 2 6 6 6 6 6 2 2 2 2 2 2 2 2 2 2 2 2 2 2 2 2 2 1 2 2 2 2 2 2 6 2 2 2 2 2 2 2 1 1 1 2 ",
"2 1 2 1 1 1 1 1 ; ; ; ; - - - % $ $ $ $ $ $ $ + + + + + + + + + $ $ $ + + + + + $ $ + + + + + + + + + + $ $ + + $ $ $ $ $ $ $ + + + + + $ $ $ % - - ; ; 1 5 1 1 2 2 2 2 2 2 2 2 6 6 6 6 6 7 7 7 6 6 7 6 7 7 7 7 7 7 7 7 7 7 7 7 7 7 7 7 7 7 7 7 e e e r r r r r a s x n L P T Q Q L n x z s a r r e r r r r r r r r r r r r d a d a a a r r r e r e e e e e p p r r e e r r a a s z z x x M n N m m I I I I L L L L L L L L L L L L L L L L L L L L L L m m m m m m m m m m m m L m L L L L L L L L L L m m m m N n n n x x x z s a a a r r e e r e r p p p p e r r e e e e e e 7 7 7 7 e e e e e r d d f x x x x n n n n n x m P R i.f.i.W T P P L L L L P P T R 5.l.b.q.<.T L m m m m N m n x x x n n n n n n m L P T <.7.j.7.R P m n x s a a r r r r r e e e e e e 7 7 7 6 6 2 2 2 1 1 1 1 ; ; - - - - - - - % % % % % % % % % % % % % % % % % % % % - - - - ; ; ; 1 1 1 1 2 2 2 2 2 6 6 6 6 6 2 2 2 2 2 2 2 2 2 2 2 2 2 2 2 2 2 2 2 2 6 6 6 6 6 6 2 2 2 2 2 2 2 2 2 ",
"1 1 1 1 3 3 > > - - - % % $ $ $ $ $ $ $ $ $ $ $ + + + + + + + + + $ $ $ $ $ $ $ $ $ + + + + + + + $ $ $ $ + $ + + + + + + + + + + + + + $ $ $ % $ % % - ; ; 3 1 1 2 2 2 2 2 2 2 6 6 6 6 7 7 7 7 7 6 7 7 7 7 7 7 7 7 7 7 7 7 e 7 7 7 7 7 7 7 7 7 7 e e e e r r r a s z x n m L L I m x z s a r r e e r r r r r e e r r r r r a a d a a a r r r r e e e e e e e e e e r r r r a a a s s s s z x x M M n n N B m m m L L L L L L L L L L L L L L L L L L L m m L m m m m m m m m m L L L L L m L m m m m m m n n n x x x z z s a a a r r r r r e r e 7 7 7 7 7 7 7 p r r e e 7 7 7 e e e e e e e r a s c v v M M n x x v b s s a s n Y | | { E P L L L L L L P P T <.5.z.z.9.1.T P m m m m m n n x x x x n M M n n m L P T <.7.j.6.R P m n z s a a r r r r r e e e 7 7 7 7 7 6 6 6 2 1 1 1 ; ; ; ; - - - - - - - % % % % % % $ $ $ $ $ $ % % % % % % % % % % % % % - - ; ; ; 1 1 1 2 2 2 2 2 6 6 6 2 6 6 6 6 6 6 6 6 6 6 6 6 6 6 2 2 2 6 6 6 6 6 6 6 6 6 2 2 2 2 2 2 2 2 2 ",
"> > ; ; - - % % % $ $ $ $ $ $ + + + + + $ + + + $ + + + + + + + $ $ $ $ + + + + + + + + + + + + $ $ $ $ $ $ $ $ $ $ + + + + + + + $ $ $ $ $ $ $ $ $ % % % % % - ; 1 1 4 2 2 2 2 6 6 6 6 6 7 7 7 7 7 7 7 7 7 7 7 7 7 7 7 7 7 7 e 7 7 7 7 7 7 7 7 e r e r e r r r r a s z x x x x M v b b g d y r e e e e r r r r r a a a a a a r a a a r r r r r r r r r r r r r r r r r r r a a a a a a a a a a s z z x x n M M m m m L L L P P L L L L L L L L L L L L L L L L m m m m L L m m m m m m m m m m n n M M n n x v s s s a a r r r r r r r r e 7 7 7 7 7 7 7 7 7 7 e e 7 7 7 7 7 e r e e e e r r a x M N B N M M x x b s a a r r r s z x x n B B B B B m m L L P T <.6.z.b.x.5.R P L m m m m n x x x x x x x x n n m L L T <.7.g.5.R L m n x s a a r r r r e e e e 7 7 7 6 6 2 2 1 1 ; ; ; ; - - - - - - - - - % % % % % % % % % % % % % % $ $ $ % % % % % % % % % % % % % - - - ; 1 1 1 1 2 2 2 2 6 8 2 2 6 2 2 2 6 6 6 6 6 6 6 6 2 2 2 2 6 6 6 6 6 6 6 6 2 2 2 2 2 2 2 2 ",
"- - % % % $ $ $ $ $ + + + + + + + + + + $ $ + + $ $ $ $ + + $ $ $ $ $ $ + + + + + + $ + + + + + $ $ $ $ $ $ $ $ $ $ $ + + + + + $ $ $ $ $ $ $ $ $ $ $ $ $ $ % % - ; ; 1 1 1 2 2 2 6 6 6 6 6 7 7 7 7 7 7 7 7 7 7 7 7 7 7 7 7 7 7 7 7 7 7 7 7 7 7 7 7 7 e e e e e r r a s z z z z s s a a r r r e r r r r r r r r r a a a a a a r a r r r r r r r r r r a a a d d r r r r r a a a d a a a a a r a a a a s s z z x M M m m L L L L L L L L L L L L L L L L L L L L m m m m L m m m m m m m m m m n n x v x z z s s a a a r r r r r e r e e e 7 7 7 7 7 7 7 7 7 7 7 e e 7 7 7 e e e e r r r a a s x n m m B n x x z z s s a r r e r r r a s s s z z x x x n m L P T <.5.x.x.g.5.R P L m m m m n x x x x x x x x n n n L P T 1.7.j.6.R P m n x s a a r r r e e e 7 7 6 6 6 2 2 1 1 ; ; ; ; - - - - - - - - - - - % % % % % % % % % % % % % % $ $ % % % % $ % $ $ % % $ $ % % % % - - - - ; ; ; 1 1 1 2 2 2 8 8 8 8 8 2 2 6 6 6 6 6 6 2 2 2 6 6 6 6 6 6 6 6 6 6 2 2 2 2 2 2 2 ",
"$ $ $ $ $ $ + + + + + + + + + + + + + $ $ $ $ $ $ $ $ $ $ $ $ $ + + $ + $ $ + + $ $ $ $ $ + $ $ $ $ $ $ $ $ $ $ $ + + + $ $ $ $ $ $ $ $ $ $ $ $ $ $ $ $ $ $ $ $ % - - - ; 1 5 4 2 2 6 6 6 6 6 6 7 7 7 7 7 7 7 7 7 7 7 7 7 7 7 7 7 q q q 6 6 7 6 6 6 7 7 7 7 e e r r r a a a a a r r e e e e e e r r r r r r r a r a a a a a a a r r r r r r r r a a a a a s s s a a a a a a a a d d a a r r r r r r r r a a s s z x n n m m m m m m m I I L L L L L L L L L L L m m m m m m m m m m m n n n n x b z s s a a a r r r r e e e e e e e e e 7 7 7 7 7 7 7 7 7 7 e e e e e e e e e r r r a a s c c v M n n x x z z z s s a a a r r r e e r r r r r r a s z z x n m P R 5.l.x.g.1.R P L m m m m n x x x x x x x x n n m L P T 1.l.k.7.R P m n z s a r r r p e 7 7 7 6 2 2 1 1 1 ; ; ; ; - - - - % % % - - - - - - - % - % % % % % % % % % % % $ $ $ $ $ $ $ $ $ $ % $ $ $ $ $ % % % % % % - - - ; ; ; 1 2 2 2 2 2 8 8 2 2 2 6 6 6 6 6 6 6 6 6 6 6 6 6 6 6 6 6 6 6 2 2 2 2 2 2 ",
"$ $ $ + + + + + + + + + + + + + + + $ + $ $ $ $ $ $ $ $ $ $ $ $ $ + + + $ $ $ + $ $ $ $ $ $ $ $ $ $ $ $ $ $ $ $ $ $ $ $ $ $ $ $ $ $ $ $ $ $ $ $ $ $ $ $ $ $ $ $ % % % % - - ; ; 1 2 2 2 6 6 6 6 6 7 7 7 7 7 7 7 7 7 7 7 9 q q q 6 6 6 6 6 2 2 2 2 6 6 6 7 7 7 e e e r r r r r r r e e e e e e e r a a a a a a a a a a a a a a r r r r r r r r a a a a a s s s s a a a a a a a a d d a a a r r r r r r r r r a a a s z z x x M M n n B N m m m m L L L L m m m m m m m m m m n n M n n x x x z z s a a r r r r r r r e e e 7 7 7 7 e 7 7 7 7 7 7 7 7 e e e e e r e e e e r r r a a s s s c c c x z z z z s s s s a a a a r r r r e e e r e r r r e r a s s z n m T <.q.v.d.3.T L m m m m m n x x x x x x x M n n m L P R 1.l.k.g.R L m x z s r r p p 7 7 6 6 6 2 1 1 1 1 ; ; ; ; - - - - - % % - - - - - - - - - - - % % % % % % % % % % % $ $ $ $ $ $ $ $ $ $ $ $ $ $ $ % $ % % % % % % % % % - ; ; 1 1 1 2 4 4 4 4 2 2 2 2 2 2 6 6 6 6 6 6 6 6 6 6 6 6 6 2 2 2 6 6 6 6 ",
"+ + + + + + + + + + + + + + + + + + + + $ $ $ $ $ $ $ $ $ $ $ $ $ $ $ $ $ $ $ $ $ $ $ $ $ $ $ $ $ $ $ $ $ $ $ $ $ $ $ $ $ $ $ $ $ $ $ $ $ $ $ $ $ $ $ $ $ $ $ $ $ $ $ % % % - - ; 1 1 2 4 6 6 6 6 6 7 7 7 7 7 7 7 9 q q 8 6 8 6 2 2 2 2 1 1 1 1 2 2 6 6 7 7 7 e e e r r r r r r r r e e e e r r r r a a a a a a a a a a a a a r e e e r r r a a a a a a a s s a a a a a a a a a a a a a a a a r r r r r r r r a r a a a s s s b x x n M M m m m N m m m m m m m m m m m m n M n x v z z s s s a r r r r r r r r r e e e 7 7 7 7 7 7 7 7 7 7 7 7 7 7 e e e e r r r r r r a a a a s s s s s s s s a a a a a a a a r r r r r r r r e e e e e e e e e e e r r a s x m P 4.f.f.Q Y m n n n m n n x x x x x x x M n n m L P R 5.j.k.6.R P m n b a r e 7 9 6 6 2 2 2 1 1 ; ; ; ; ; ; ; - - - - - - - - - - - - - - - - - % % % % % % % % % % % % % $ $ $ $ $ $ $ $ $ $ $ $ $ $ $ $ $ $ % % % % $ % $ % % - - - - ; ; ; 3 5 4 4 2 2 2 2 6 6 6 6 6 6 6 6 6 6 6 6 6 6 6 2 6 6 6 6 ",
"+ + + + + + + + + + + + + + + + + + + + + + $ $ $ $ $ $ $ $ $ $ $ $ $ $ $ $ $ $ $ $ $ $ $ $ $ $ $ $ $ $ $ $ $ $ $ $ $ $ $ $ $ $ $ $ $ $ $ $ $ $ $ $ $ $ $ $ $ $ & $ $ $ $ % % - - ; ; 1 2 2 6 6 6 6 7 7 7 7 7 7 9 q 9 6 8 2 2 1 1 1 1 1 1 1 1 1 2 2 6 6 6 7 7 7 e e r r r r r r r e e e e r r r r r r r a a a d a a a a a a r r r r r r r r r a a a a a a a a a a a a a a a a a a a a a a a a a a r r r r r r r r r r r r r a a s z x x x n n M n n m m m m m m m m m n n n x v z s s a a r r r r r r e e e e e e e 7 7 7 7 7 7 7 7 7 7 7 6 7 7 7 7 7 e e e r r a a a a s s s s s s s s a a a a r r r r r r r e r r r r r r r r p e e e e e 7 7 7 7 7 e e r a a z x m L P L m B b n M n n n x x x x x x x n n m m L T R 5.k.c.g.R P m x z a e e 6 6 6 2 2 1 1 ; 1 ; ; ; ; ; ; ; ; - - - - - - - - - - - - - - - - - - % % % % % % % % % % % % % % $ $ % $ $ $ $ $ $ $ $ $ $ $ $ $ $ $ $ $ $ $ $ $ $ $ % % % - - ; ; ; 1 1 4 4 2 2 6 6 6 6 6 6 6 6 6 6 6 6 6 2 2 6 6 6 6 ",
"+ + + + + + + + + + + + $ $ $ $ + + + + + + + + + + $ $ $ $ $ $ $ $ $ $ $ $ $ $ $ $ $ $ $ $ $ $ $ $ $ $ $ $ $ $ $ $ $ $ $ $ $ $ $ + + + $ $ $ $ $ $ $ $ % % % & & & & & $ $ % % - - ; ; 1 1 1 2 6 6 6 9 9 9 6 6 6 6 2 2 2 1 1 ; 1 ; ; ; 1 1 2 4 2 2 6 6 6 9 9 7 e e r r r r r r r e e r r r a a r r r r r r r r r r r r r r r r r r r r r r r r a a r r r r r r r r r r r r r r a a a a a a a a a a r r r r r r r r e e e e e e a a s s z z x n n n n n n n n n n n n n x x z s a a r r e e e e e e e e e e e e 7 7 7 7 7 7 7 7 7 7 7 6 6 6 6 6 7 7 7 e e r r a s s s s s s s s a a a a a a r r r e e e e e e 7 e e e e e e r r r r e e e e 7 7 7 7 7 7 e e r a a s z x x x z z b z x x M M x x x x x x x n n m m L T <.w.z.c.g.R L n z s r 7 7 6 2 2 1 1 1 1 ; ; ; ; ; ; ; ; ; ; ; ; ; ; - - - - - - - - - - - - - - % % % % % % % % % % % % % % % $ $ $ $ $ % % % % $ $ $ $ $ $ $ $ $ & & & & $ + $ $ $ $ $ % % % - ; ; ; 1 1 2 2 2 6 6 6 6 6 6 6 6 6 6 6 6 6 6 6 6 2 ",
"# + # # # # + + + $ + $ $ $ $ + + + + + + + + + + + $ $ $ $ $ $ $ $ $ $ $ $ $ $ $ $ $ $ $ $ $ $ $ $ $ $ $ $ $ $ $ $ $ $ $ $ $ $ $ $ $ $ $ $ $ $ $ $ $ % % % % % & # & & = $ % % % - - - ; ; 1 1 2 6 6 6 9 6 6 2 2 1 1 1 ; ; ; ; 1 1 1 1 1 1 2 4 2 2 6 6 6 7 7 7 e e r r r r r r r r r r r a a a r r r r r r r r r r r r r d d y r p r r e e e e r r r r r r r r r r r r r r r r r r a a a a a a a a a a r r r r e e e p p e e e e e e r r a s s b x x x n n n n x x z z s s a r r e e e e e 7 e 7 e e e e e 7 7 e e e 7 7 7 7 7 7 7 7 6 6 6 7 7 7 e e r r a s z z z c c z s s a a a r r r r r r e e e 7 e e p e p e e e r r e e e e e e e e e 7 7 7 7 7 e e r a a a s z z s a a a s s z x x c c x x x x x n n m m L T <.w.b.b.q.E n z a e 7 6 6 2 2 2 1 1 1 1 1 ; ; ; ; ; ; ; ; ; ; ; ; ; ; ; ; ; - - - - - - - - - - - - % % % % % % % % % % % % % % $ $ $ $ % $ % % % $ $ $ $ $ $ $ $ $ $ $ $ & + $ $ $ $ $ $ $ % % % - - - ; 1 2 2 2 2 2 2 2 6 6 6 6 6 6 6 6 2 2 2 2 ",
"# # # # # + + + + + + $ $ $ + + + + + + $ + + + $ $ $ $ + + $ $ $ $ $ $ $ $ $ $ $ $ $ $ $ $ $ $ $ $ $ $ $ $ $ $ $ $ $ + $ + + $ $ $ $ $ $ $ $ $ $ $ % % % % % $ $ + $ $ $ $ % % - - - - ; ; ; 1 2 6 6 6 6 2 1 ; ; ; ; ; ; - - ; 1 1 1 1 1 1 2 2 2 6 6 7 7 e e e e e r r r r r r r r r r a a a a r r r r r r r r r r r r r r r r i u 7 6 6 6 6 7 7 p r r r a a a a r r r r r r r r r r r r a a a a a a a a a a a r r r r r r r e e 7 6 6 6 6 7 e e r s z v n x x s a r r r e e 7 7 7 7 7 7 7 7 e e e e e e e e 7 7 7 7 7 7 6 7 7 7 7 7 7 7 e e e r a s s z z z z c z s s s a a r r r r r r e e e e e e e e e e e e e e e e e e e e r r r r r r r e e r r r r r a s s s s a a a a a a a a a a a d s x x x x x n n L L T W f.d.f.E z r e 7 7 6 2 2 2 2 2 2 1 1 1 1 1 1 1 1 1 1 ; ; ; ; ; ; ; - - - ; ; ; - - - - - - - - - % % % % % % % % % % % % % % % % % % % % $ % % % $ $ $ $ $ $ $ $ $ $ $ $ $ $ $ $ $ $ $ $ $ % $ $ $ $ $ % - - ; ; ; 1 1 5 4 4 4 2 8 6 6 2 2 2 2 2 ",
"# # # # + + + + + + + + + + + + + + + $ $ $ $ + $ $ $ $ + + + $ $ + + + $ $ $ $ $ $ $ $ $ $ $ $ $ $ $ $ $ $ $ $ $ $ + + + + + $ $ $ % $ $ $ % % $ $ % $ $ $ $ $ $ $ $ $ % % % % - - - ; ; ; 1 1 6 6 6 6 6 2 1 ; ; - - - - - , > 1 1 1 1 2 2 2 6 6 6 7 7 e e e e e e e r r r r r r r r r r r r r r r r r r r r r r r r r r r r r e 7 6 2 2 1 1 1 2 6 e r a a s s a r r r r r r r r r r r r r r a a a a a a a a r r r r r r r e e 7 9 6 6 6 6 6 6 6 7 r s z x x x a r e e e e 7 7 7 7 7 7 7 7 7 7 e e e e e e e 7 p 7 7 9 9 6 6 6 7 7 7 7 e e r r s s c z x x x z s s s a a r r r r r r e r e e e e e e e e e e e e e e e r e r r r r r r r r r a a a a a a a a a s s a a a r r r a a r r r e e r a a a s s z n m m L L P Y L m z r 7 6 6 2 1 1 1 2 2 2 2 2 2 1 1 1 1 1 1 1 1 1 ; ; ; ; ; ; - - - ; ; ; ; - - - - - - - - % % % % % % % % % % % % % % % % % % % % $ % % % % $ $ $ $ $ $ $ $ $ $ $ $ $ $ $ $ $ $ $ $ $ $ $ $ $ $ $ % % % % - - - ; ; ; 1 1 2 2 8 8 2 2 2 2 ",
"+ + # # + # + + + + + + + + + + + + $ $ $ $ + + $ $ $ $ + + $ $ $ $ + + $ $ $ $ $ $ $ $ $ $ $ $ $ $ $ $ % $ $ $ $ $ $ $ $ $ $ $ $ $ $ $ $ $ $ $ $ $ % % % % % % % % % % % % - - ; ; ; 1 1 2 2 6 7 7 7 7 7 6 2 2 1 1 ; ; ; ; ; ; 1 1 1 2 2 2 2 2 2 6 6 7 7 7 e e e r r r r r r r r r r r r r r r r r r r r r r r r r r r r r r r e 7 7 7 6 2 2 2 6 7 e a a s s s a a a a a a r r r r r r r r a a a a a a a r r r r r r r e e e 7 7 7 7 7 7 6 6 6 7 e r s z x n x s a r e e e e e e 7 7 7 7 7 7 7 e e e e 7 7 7 7 7 7 7 7 7 6 6 6 7 e e e r r a a g b b z z z z s a a a a r r r e r e r r r r r e e e e e e e e e r r r e r r r r r r r r r a a a a a a a a a a a a a a a r r r r r r r e e e 7 7 7 7 e e r s b b x n x z s a r e 7 6 2 2 2 1 1 1 2 2 2 2 2 2 2 2 2 1 1 1 1 1 1 1 ; ; ; ; ; ; ; ; ; ; ; ; ; ; - - - - - - - % - % % % % % % % % % % % % % % % % % % % % % % % $ $ $ $ $ $ $ $ $ $ $ $ $ $ $ $ $ $ % $ $ $ $ $ $ $ $ % % $ % % % % - - - ; ; 5 3 4 2 2 2 2 ",
"+ + # # # # + + + + + + + + + + $ + $ $ $ $ + + $ $ + + + + $ $ $ $ + + $ $ $ $ $ $ $ $ $ $ $ $ % % $ $ % % $ $ $ $ $ $ $ $ $ $ $ $ $ $ $ $ $ $ % % % % % % % % % % - - - ; ; ; 1 1 2 8 6 6 q q e e e e e 7 q q 6 2 2 1 1 1 ; ; 1 1 2 2 2 2 2 2 2 6 6 6 7 7 7 e r r r r r r r r r r r r r e r r r r r r r r r r r r r r r r r r e e e e 7 7 7 7 7 r r a s s s s s s a a a a a a a a a a a a a a a a a r r r r r r r r r e e e e e e 7 7 7 7 e e r a s z x M n n z z s a a r r e e e e 7 7 7 7 7 e e 7 7 7 7 7 7 7 7 7 7 7 7 7 7 r a d d d a s s g s s a a a a a r r r r r e e e e e e r r r r r e e e e r r r r r r r e r r r r r r r a a a a a a a a a a a a a a a a r r r r r r e e e e 7 7 7 6 6 7 7 r a z x x x z a r e 7 7 7 6 6 2 2 2 1 2 2 2 2 8 6 2 2 2 2 2 1 1 1 1 1 1 1 ; ; ; ; ; ; ; ; ; ; ; ; ; - - - - - - - - - - - % % % % % % % % % % % % % % % % % % % % % $ $ $ $ $ $ $ $ $ % % % % % % % % $ % % $ $ $ $ $ $ $ $ $ $ $ $ $ $ $ $ % % - - ; ; 1 2 2 2 ",
"+ + + + + + + + + + $ + + + + # $ $ $ $ $ + + + $ + + + $ $ $ $ $ $ $ + $ $ $ $ $ $ $ $ $ $ $ $ % % % % % % $ $ $ $ $ $ $ $ $ $ $ $ $ $ $ $ $ % % % % % % % % - - ; ; ; 1 1 2 2 8 6 9 7 7 p e e e e e e e e p p 7 7 9 6 6 2 2 1 1 1 2 2 2 2 2 2 2 6 6 6 6 7 7 7 r r r r r r r r r r r r r e e r r r r r r r r r r r r r r r r r r r e e e e e e e r a s s c z b z s s s s a a a a a a a a a a a a r r r r r r e r r e e 7 7 7 7 e e e e r r a s z b v b M M m n M M x x z s a r r e e e e 7 e 7 7 9 9 7 7 7 7 7 e e e e e e r r s s f s s s s s a a r r r r r r e e e e e e e e e e e r r r r r r e e e r r r r r r r r r r r r r r a a a a a s a a a a a a a a a a r r r r r r e e e 7 7 7 7 7 6 7 e r a s z x n n x z s a r e e 7 6 6 6 2 2 2 2 2 6 2 2 2 2 2 2 2 2 1 1 1 1 1 1 1 1 ; ; ; ; ; ; ; - ; ; ; - - - - - - - - - - - - % % % % % % % % % % % % % % % % % % % $ $ % $ $ $ $ $ $ $ $ % % % % % % % % % % $ $ $ $ $ $ & & & & & & & & $ $ $ $ $ % % - 1 2 2 2 ",
"+ + + + + + + + + + $ $ + + + + $ $ $ $ $ $ + + + + + + $ + $ $ $ $ $ $ $ $ $ $ $ $ $ $ $ $ $ $ $ $ $ $ $ $ $ $ $ $ $ $ $ $ $ $ $ $ $ $ $ % % % % % % % - - - ; 1 2 2 2 8 6 8 9 9 7 7 e e e e e r r r e e e e e p p p t p 7 7 6 2 2 2 2 2 2 2 2 6 6 6 6 6 7 7 7 r r r r r r r r e r r r e e e r r r r r r r r r d d d r r r r r r r r r e e r r r r a a s s c z s s s s s a a a a a a a a a a a r r r r r r r e e e e e 7 7 7 e r a a s z z b x x n n M N M n n m m n M x x z s a r r e e e e 7 7 7 7 7 e e e r r a a a s s z b b c f s a a r r r r e e e e e e e e e e e e e e e e e r r r r r r e r r r r r r r r r r r a a a a a a a a a a d a a a a a s s a a r r r r r r r e e e 7 7 7 7 7 e r a s z x M n N m m Y Y Y m x s r e e 7 6 6 6 2 2 2 2 2 2 2 2 2 2 2 1 1 1 1 1 1 1 1 ; ; ; ; ; ; ; - - ; ; - - - - - - - - - - - - % - % % % % % % % % % % % % % % % % % % $ $ % $ $ $ $ $ $ $ % % % % % % % $ % $ $ $ $ $ $ $ & # # # # & & & $ $ $ $ $ % % - 1 2 2 6 ",
"+ + + + + + + + + + $ $ $ $ $ $ + $ $ $ $ $ $ $ $ $ + + + + + + + + + + $ $ $ $ $ $ $ $ $ $ $ $ $ $ $ $ $ $ $ $ $ $ $ $ $ $ $ $ $ $ $ $ % % % % % - - ; ; ; 1 1 2 6 6 6 6 9 7 7 7 e e e e e e e r r r e e e e e e e e e e e e p 7 6 6 6 6 6 6 6 6 6 6 6 6 7 7 7 r r r r e e e e e e e e e r r r r r r r r r r r d d d d r r r r d d d r r r r r r r r a a a a a s a s s a a a a a a a a a a r r r r r r r r r e e e e e e r r r s z x x B M M n n n m m m m m m m m N N n M x x z s s a a r r e e e e e r r a a s s z x v M M b c s a a r r e e e e 7 7 7 7 7 7 7 7 7 7 7 7 7 e e e e r r r r r r r r r r r r r a a a a a a a a a a a a a a a a a a a a a a a a r r r r r r r r r e e e e e r r s s x x x n n m m L T W f.d.d.3.L n z s r e 7 7 6 6 2 2 2 1 1 1 2 2 1 1 1 1 1 1 1 ; ; ; ; ; ; ; ; ; ; ; ; ; - - - - - - - - % % - - - - - % % % % % % % % % % % % % % % % % % % % % $ $ $ $ $ $ $ % % % % % % $ $ $ $ $ $ $ $ $ # # # # # $ $ $ $ % % % - - - 1 6 6 6 q ",
"+ + + + + + + + + + $ $ $ $ $ $ + $ $ $ $ $ $ $ $ $ + + + $ $ + + + + + $ $ $ $ $ $ $ $ $ $ $ $ $ $ $ $ $ $ $ $ $ $ $ $ $ $ % $ $ $ % % % % - - ; ; 1 1 1 2 2 6 6 7 7 6 7 7 7 7 e e e e e e r r e e e e r r r r e e e e e e r e p e 7 7 6 6 6 6 7 7 7 7 7 7 7 7 e r e e e e e e e e e e e r r r r r r r d d d d d d d d d r r r r r d r r r r r r r r r a a a r a a a a a a a a a a r r r r r r r r r r r r r r r r r a a s s b b n n n n n N m m m m m m m m m m m m m m n n n b b x z s s a a r r r r a a s s c v M B M x x z a r r r e e e e 7 7 7 7 7 7 7 7 6 6 7 7 7 7 7 e e e e r r r r r r r r r r r r r a a a a a a a a a a a a a a a r r r r r r r r r r r r a a a a a r r r r a a s b v x x M n n m m L P T R 5.x.b.b.4.Q I n z a r e 7 6 6 2 2 1 1 1 2 2 1 1 1 1 1 1 1 ; ; ; ; ; ; ; ; ; ; ; ; ; - - - - - - - - % % - - - - - - - % % % % % % % % % % % % % % % % % % % % $ $ $ $ $ $ % & & $ $ $ $ $ $ $ $ $ $ $ $ & & & $ $ $ $ % % - - ; ; 1 5 4 6 6 7 6 ",
"+ + + + + + + + $ $ $ $ & & & $ + + $ $ $ $ $ $ + + + $ $ $ + + + + $ $ $ $ $ $ $ $ $ $ $ $ $ $ $ $ $ $ $ $ $ $ $ $ $ $ % % % % % % % - - ; ; 1 4 2 2 2 6 6 6 6 6 7 7 7 7 7 7 7 7 e e e e e e e e e e e e e e e r r r r r r r r r r e e r r p p 7 7 7 7 e e r r e p p p 7 7 7 e 7 e e e r r r r d d d d d d r r d d d d d r r r r r r r r r r r r r r r r r r r r r r r r r r r r r r r r r r r r r r r r r a a s z z x x x n n n n m m m m m m m m m m m m m m m m m m m n n n n n n x x x x x s s a s z b v x v v x c z s s a r e e e 7 7 7 7 6 7 7 7 7 7 7 7 7 6 6 7 7 7 7 7 e e e r r r r r r r r a a a a a a a a a a a a a s s a a a a r r r e r r r r r r r r r a s s s a s s c z c v x x x x x n n n m m m P T R 5.h.c.b.8.W T L n z s s r e 7 7 6 2 2 1 2 2 2 1 1 1 1 1 1 ; ; ; ; ; ; ; ; ; ; ; ; - - - - - - - - - - - - - - - - - - - % % % % % % % % % % % % % % % % % % % % % % % % % & & & $ $ $ $ $ $ $ $ % % % % = $ $ $ % % - - ; 1 2 6 6 6 6 6 7 7 7 7 ",
"$ $ $ $ $ $ $ $ $ $ $ $ & & & & + + $ $ $ $ $ $ + $ + + $ $ $ $ $ $ $ $ $ $ $ $ $ $ $ $ $ $ $ $ + + + $ $ $ $ $ $ $ % % % % % % - - ; ; 1 1 1 2 2 6 6 6 6 6 7 7 7 7 7 7 7 7 7 7 7 e e e e e e e e e e e e e e e r r r r r r r r r r r r r r r r r r r r r r r r e e e e 7 7 7 e 7 e e r r r r r r r r r r r r r d r r r r r r r r r r r r r r r r r r r e e e e r e e e e e r r r r r r r r r r r r r r a s c z x x M n n N m m m m m m m L L L L L L m m m m m m m m m m m m m m n n n n n n n B x x x n x x z s s a a r r r r 7 7 7 7 7 6 6 6 6 6 7 7 7 7 7 7 7 7 7 7 7 7 7 e e e r r r r r r r r a a a a a a a a a a a a a a s s s a a a r r e r r r r e e r r r a s z x x x x x x M n n n n x x n n n m m m L P T R 1.g.c.k.8.2.T P m x z z s d r r e 7 6 6 2 2 2 2 1 1 1 1 1 ; ; ; ; ; ; ; ; ; ; ; ; ; - - - - - - - - - - - - - - - - - - - - % % % % % % % % % % % % % % % % % % % % % % % & & & & & $ $ $ $ $ = % % % % % % % - - ; 1 1 2 6 7 7 e e e 7 7 7 7 7 ",
"$ $ $ $ $ $ $ $ $ $ $ $ & + + + + + + $ + + + + $ $ + + + $ $ $ $ $ $ $ $ $ $ $ $ $ $ $ $ % % $ $ $ + $ $ $ $ $ % % % % - - - - 1 1 2 2 2 2 2 6 6 6 6 7 7 7 7 7 7 6 7 7 7 7 7 7 7 7 e e e e e e e e e e e e e e e e e e e e e r r r r r r r r r a a d d a a a a r e e e e e e r e e r r r a a r r r r r r r r r r r r r r r r r r r r r r r r e e e r e e e e e e e 7 e e e r r r r r r r r r r a a s s x v M M M N m L L L L L m m m m L L L L L L m m m m m m n n n m m m m m m m m m m m m m m m m m n n z s a r e 7 7 6 6 6 6 7 7 6 6 6 6 6 6 6 7 7 7 7 7 7 7 7 7 7 7 e e e e e r r r r r r a a a a a a r a a a a r a a a a a s d a a a r r r e e e e e e r a s z n m I I Y B B B B N N m m n x n m L L L L P P T T <.w.j.j.w.R T P m n x v c c s s d a r e 6 6 2 2 2 2 2 2 1 1 1 ; ; ; ; ; ; ; ; ; ; ; ; ; - - - - - - - - - - - - - - - - - - - - - - - - - % % % % % % % % % % % % % % % % & & & $ $ $ $ $ $ % % - - - - - - ; ; 1 2 6 6 7 e e e r r r e 7 7 7 7 ",
"% % % % $ $ $ $ $ $ $ $ + + + + + + $ $ + + + + $ $ + + + $ $ $ $ $ $ $ $ $ $ $ $ $ $ $ $ $ $ % $ $ $ $ $ $ % % % - - - ; ; 1 1 4 4 2 2 8 6 8 6 6 6 7 7 7 7 7 7 7 6 7 7 7 7 7 7 7 7 e e e e e e e 7 e e e e e e e e e e e r e r r a a a r r a a a a s s s s s s a a a r r r r r r r r r r a a r r r r r r r r r r r r r r r r r r r r r r r r r r e e e e e e p 7 e p r r r r r r r a a a s s s b v v x n M B B m m L L L L L L L L L L L L L L L m m m m m m m n n n m m m m m m m m m m m m m m m m m m n x z a r e 7 6 2 1 1 6 7 7 6 6 6 6 6 6 6 7 7 7 7 e e 7 7 7 7 e e r r r r r r r r r r r r a r r r r r r r r r r r r a a a d a a r r r r e e e e r r a z x L | | | Q P L Y m m m m L m n n m L P P P P P P T T <.w.j.j.w.R T L m n x x x x x x x c c s e 7 7 7 6 6 2 2 2 1 1 1 1 ; ; ; ; ; ; ; ; ; ; ; ; - - - - - - - - - - - - - - - - - - - - - - - - - % % % % % % % % % % % % % % % % & $ $ $ $ $ % % % - - - - - 1 1 1 2 6 6 7 7 e e e e r r r e 7 7 7 7 ",
"- - - % % % $ $ $ $ $ $ $ $ # + + + + + + + + + + + + + $ $ $ $ $ $ + + $ $ $ $ $ $ $ $ $ $ $ $ $ % % % % % - - ; ; 1 1 2 2 4 6 6 6 6 6 6 6 6 6 6 6 7 7 7 7 7 7 7 7 7 7 7 7 7 7 7 7 7 7 7 e e e e e e e e e e e e e e e e r r r r r r r r r a a a a s s c b v v x z z s s a a r r r r r r a d r r r r r r r r r e e r r e r e e e e r r r r r r r r r e e e e e 7 e e r r r a a a s s z x x n n M M B B m m m m m m L L L L L L L L L L m m m m m m m m m m m m m n m m m m m m m m m m m m m m m L m m m m n x z s a r e 7 6 6 7 7 7 6 6 6 6 6 6 6 7 7 7 e e e e e e e e r r r r r r r r r r r r r r r r r r r r r r r r r r r r r r r r r r r e e r r a s z z m L Q f.d.f.<.T P L m m m m m m n n m L P P P P P P P T <.7.k.k.0.<.T P m n x x z x x x x x x c a r r e e 7 7 6 6 2 2 2 1 1 1 1 ; ; ; ; ; ; ; ; ; - - - - - - - - - - - - - - - - - - - - - - - - - - - - - % % % % % % % % % % % % % % % % % % % % - - ; ; 1 1 6 6 6 7 7 7 7 e e e e e e e e e 7 7 7 7 ",
"; - - - - % % % % $ $ $ + $ # $ + + + + + + $ + + + $ $ $ $ $ $ $ $ + + $ $ $ $ $ $ $ $ $ $ $ $ % % - - - ; 1 1 4 2 2 2 6 6 6 6 6 6 6 6 6 6 6 6 6 6 6 6 6 6 6 6 7 7 7 7 7 7 7 7 7 7 7 7 7 e e e e e e e e e e e e e e e e r r r r r r r r r a a a a s s z z x x N m n x x s a r r r r r r r r r r r r r r r r r e e e e r r e e e e r r r r a a r r r r e e e e e e e e r a s z x n n n m m m Y m m L L I L m m L L L L L L L L L L L L m m m m m m m m m m m m m m m m m m m m m m m m m m m m m m m m m m m B n x b z s a r r e e e 7 7 7 6 6 6 7 7 7 7 7 e e e e e e r r r r a r a r r r e e e e e e e r r r r r r r r r r r r r r r e e e e r r a s z x M m P T <.4.0.3.<.R P L m m n m m m n n m m I L L I L L P T 1.7.k.z.0.4.R P L n x x x x x x x z z z s d a d r r e e 7 7 6 6 2 2 2 1 1 ; ; ; ; ; ; ; ; ; - - - - - - - - - - - - - - - - - - - - - - - - - - - - % % % % % % % % % % % % % % % % % % - - - ; 1 2 8 6 7 7 7 p e e e e e e e e e e e e 7 7 7 7 ",
"; ; ; - - - : - % % $ $ + + & & + + + + $ $ $ $ + + + + $ + $ $ $ $ + + $ $ $ $ $ $ $ $ $ $ $ % - ; ; ; 1 5 2 4 2 6 6 6 6 6 7 7 6 6 6 6 6 6 6 6 6 6 6 6 6 6 6 6 7 7 7 7 7 7 7 7 7 7 7 e e e e e e e e e e e e e e r e r r r r r r r r r r r a a a s s s z z x n L L L I B M x s a a r r r r r r r r r e e e e e e e e e e e e e e r r r r a a a a a r r r e e e r r r a s z x M m m L L L L P P L L L L L L L L L L L L L L L L L L L L m m m n n n n m m m m m m m m m L L L m m m m m m n n n n n m m m m m m L I m m m n n x s d r e e 7 7 7 7 7 7 7 e e e e r r r r r r r a a a r r r r e e e e e e e e e r r r r r r r r r r r e e e e r r a s z x n m I P T R <.5.5.5.1.R T L m n n n m n x x n n n M M M M B L T 1.g.c.c.x.1.R T L m x x x z z z z z s s s s s a a a r r e e 7 7 6 6 2 2 1 ; ; ; ; ; ; ; ; ; - ; - - - - - - - - - - - - - - - - - - - - - - - - - % - % % % % % % % % % - - - - - - - - ; ; 1 2 8 6 9 7 e e e e e e e e e e 7 7 7 7 7 7 7 7 7 7 ",
"; ; ; ; ; ; > > - % % $ $ $ $ $ $ $ + + + + + + + + + + + + $ $ $ $ $ $ $ $ $ $ $ $ % % % - - - 1 1 4 5 4 2 2 8 2 6 6 6 6 6 7 7 7 6 6 6 6 6 6 6 6 6 6 6 6 6 6 6 7 7 7 7 7 7 7 7 7 7 e e e e e e e e e e e e e e e r r r r r r r r r r r r a a a s s s s z z x n L L P U Y { Y I x z s s a a a r e e e e e e e e e e e e e r r r r r r r r r a a a a a r r r r r a s z b B Y Y Y L L P P P P P P P P P P P P L L L L L m m m m m L L L L m m m m n m m m m m m m m m m m L L m m L m m m m m n n n N B m I I L L L P P L L L L m M b f s a r r e e e e e e e e r r r r r r r r r r r r r r r r e e e e e e e e e r r r r r r r r r r r r r a s s b M B m I L P P T R 1.5.9.9.1.R P L m n n n n n x x n M M M v x n B L T 1.g.c.c.6.1.R T L m n x x z z z s s s s s s s s a a a r r y r e 7 7 7 6 2 1 1 1 1 1 ; ; ; ; ; ; - - - - - - - - - - - - - - - - - - - - - - - % - % % % % % % % % % % % - - - - - - ; ; 1 2 2 6 9 7 7 7 e e e e e e e e e e 7 7 7 7 6 6 7 7 7 7 ",
"; ; ; ; ; ; ; ; ; ; - - % % $ $ $ + + + + O O O O O O + # # + $ $ $ $ $ $ $ % % - - ; ; 1 1 1 2 2 2 2 2 6 6 6 6 6 6 6 6 6 6 6 7 6 6 6 6 6 6 6 6 7 6 7 7 6 6 6 6 7 7 7 7 7 7 7 e e e e e e e e e e e e e e e r r r r r r r r r r r r a a a a a a a s s z z z x x m L L P T 4.3.0.2.T m x z z z a r r r r r r e e e e e r r r a r e e r r r r r r a a a a s s x x m L P Y P P P P P P P P P P P P P P P P L L L L L L L L L m L L L L m m m m m m L L L L L L L L m m L L L L L L L L L L L L L L m m L L L L L L L L L L L L L L m N B M n x z s a a r r r r r r r e r r e e e e r r r r r r r r e e e e e p p p e e e e e e e r r a s z n m m L L L L L L P P T T R R <.3.3.<.R T L m m n n m n n n n n n n n n m L P T 1.6.k.x.w.<.T P L m n x z z z z s s s s s a a a a a a a a r r r r r r e 7 6 6 6 2 2 1 1 ; ; ; ; - - - - - - - - - - - - % - - - - - - - % % % % % % % % $ $ $ = % % % - ; ; ; ; 1 1 2 6 6 9 7 7 7 7 e e 7 e e e e e e e 7 7 7 7 7 7 7 7 7 7 7 7 ",
"; ; ; ; 1 1 1 1 1 1 ; ; - - % % $ + + + + + + O O O + + # $ & $ $ $ $ % % - - ; 1 1 1 2 2 6 6 6 6 6 6 6 6 6 6 6 6 6 6 6 6 6 6 7 6 7 7 7 7 7 7 7 7 7 7 7 7 7 7 7 7 7 7 7 7 7 e e e e e e e e e e e e e e e r r e r r r r a a a a a a a a a a a a s s z z z x x x n m m P T 1.9.l.8.<.P m n x x z a r r r a r r r e e e r r r a a r e e e e r r a s z x x n M N N L P T T T T T P P P P P P P P P L P L L L L L L L L L L L L L L L L L L L L L L L L L L L L L L L L L L L L L L L L L L L L L L L L L L L L L L L L L L L L L L L L L m m m n n x z z s a a a r r r r r e e e e e e e e e e e e e e e e e e e e e e e e e e r r z x m Y Q Q T T P P P P P P P T T T R <.1.1.<.T T P L m m m m n n n m m m m m m m L P T 1.6.k.l.w.<.T L m n n x z z z z z s s s a a a a a a a a a a a a a a a r r e e 7 7 6 6 2 1 1 ; ; - - - - - - - - - - % % - - - - - - - - % % % % % % % $ $ $ $ $ % % - - ; ; 1 2 2 6 6 9 7 7 7 7 e e e e 7 7 7 7 e e 7 7 7 7 7 7 7 7 7 7 7 7 7 7 ",
"; ; ; ; 1 1 1 1 1 1 1 > ; - - - $ $ $ $ + + + + + + + + $ $ $ $ % % % - ; > 3 5 5 2 2 2 6 6 6 6 6 6 6 6 6 6 6 6 6 6 6 6 6 6 6 6 7 7 7 7 7 7 7 7 7 7 7 7 7 7 6 7 7 7 7 7 7 7 7 e e e e e e e e e e e e e e e r r r r r r r r r r r r r r a a a a s s s z z z x x n m m L T 1.9.l.q.3.T L B M M v s a a a r r r r e e e e r r a a a a a a a s z z n n m Y I I I I P P T T T T T P P P P P P P P P P L L L L L L L L L L L L L L L L L L L L L L L L L L L L L L L L L L L L L L L L L L L L L L L L L L L L L L L L L L L L L L L L L L L L m m B M n x x z s s a a r r r r r r r e e e e e e e 7 7 e e e e e e e e e r r a a s z n L P | Q Q Q T T P P P P P P P T T R <.1.4.R T P L L m m m n n n n m m m m m m m L P T <.6.k.x.w.<.T L m n n x z z z z z s s s a a a a a a a a a a a a a a a r r r r e e 7 7 7 6 2 1 1 ; ; ; ; - - - - - - - - % - % - - % % % % % % % % % % % = % $ $ % - ; ; 1 1 2 6 6 6 9 7 7 7 7 7 7 7 7 7 7 7 7 7 e e 7 7 7 7 7 7 7 7 7 7 7 7 7 7 ",
"; ; 1 1 1 1 1 1 1 1 1 1 ; ; ; > : : % % $ $ + + + + + $ $ % % - > > 3 3 5 5 5 5 4 4 2 6 6 6 6 6 6 6 6 6 6 6 6 6 6 6 6 6 6 6 6 6 6 6 7 6 7 6 7 6 7 6 7 6 7 6 7 7 7 7 7 7 7 e e e e e e e e e e e e e e e e r r r r r r r r r r r r r a r a a a a a s s s z z z x n m m L T 1.9.x.7.3.T L m M M M v z s s a r r r r r e r r r r a s s z z x v n M m Y Y P U P I L P P P P P P P P P P P P P L P L L L L L L L L L L L L L L L L L m m m m L m m m m m L L L L L L L L L L I L L L L L L L L L L L L L L L L L L L L L L L L L L L L L L L L L L m m m M M n x x z s s a a a r r r r e e e p 7 7 7 e e e e e e r r a a s z z x M B P T T R R R R T T P P P L L P P T R <.4.4.4.<.R P L L m m m n n n n m m m m m m m L P T <.5.x.j.3.<.T P m n n x x z z z z s s s s a a a a a a a a a a a a a a a a r r r r e e p u 7 6 6 2 2 1 1 ; - - - - - - - - % % % % % % % $ $ % % - - % % % % % % - ; 1 1 4 6 6 8 q q 7 7 7 7 7 7 7 7 7 7 e 7 7 7 e e 7 7 7 7 7 7 7 7 7 7 7 7 7 7 ",
"; ; 1 1 1 1 1 1 1 1 1 1 1 ; ; ; > ; - - - % % $ % % % % - - > 3 5 5 4 5 4 4 4 4 6 6 8 6 8 6 6 8 6 6 6 6 6 6 6 6 6 6 6 6 6 6 6 q 6 6 7 6 7 6 7 6 6 6 6 6 6 6 6 6 7 7 7 7 7 7 7 e e e e e e e e e e e e e e e r r r r r r r r r r r r d a a a a a a s s s z z z x n m m L T <.9.7.5.1.T L m M N M B b v b s a r r r r e e e r a s z x x x M M B m Y P T T T P U L L L L P P L L L L L L L L L L L L L L L L L m m m m m m m m m m m m m m m m m m I L I L I L I m I L I I I I I I I L I L L L L L I L I L I I I L I I I I I I I L P P L L L L L L m m m m m m m M n x z z s a a a r e e e 7 7 7 7 e e e e e r a s z x n B m I Y Y R R R <.<.<.2.R T P P L L L L P T R <.4.4.4.<.R P L L m m m N n n n m m m m m m m L P T <.5.g.7.1.R T P L m n x x z z z z s s s s s a a a a a a a a a a a a a a a a a r r r r r p p p 7 9 6 6 2 1 ; ; ; - - - - % % % % % % % = $ $ % % % - - - - - - ; 1 2 2 8 6 6 6 q 9 7 7 7 7 7 7 7 7 7 7 7 e e 7 7 7 7 7 7 7 7 7 7 7 7 7 7 7 7 7 7 ",
"; ; ; 1 1 1 1 1 1 1 1 1 1 1 1 1 1 ; ; ; ; - - - - - - ; ; ; 3 5 2 2 2 2 2 2 2 2 2 2 2 2 6 6 2 2 2 2 2 2 2 2 2 2 2 2 2 6 6 6 6 6 6 6 6 6 6 6 6 6 6 6 6 6 6 6 6 6 7 6 7 7 7 7 7 7 7 e 7 7 e e e e e e e e e e e e r r r r r r r r r r r r a a a a a a s s z z z x n n m L T <.5.6.5.1.R L m N N N M n n v b z s a r r r r r a s z x M M B B M B m L P P P P P U I L L L L L L L Y m m m m m m m m m m m m m m m m N N N N N N N N m m m m m m m m m m m m m m m m m m m m m m m m m m m m I I I m m m m m m m m m m m m m m m m L L L L L L L L L L L L L m m m m B B M M x z z s r r e e 7 7 7 7 e e e r r s z x m m L Y P P P T R <.<.1.1.<.<.R T P P L L L L L P T R <.4.<.R R P L L m m m N n n n m m m m m m m L P T <.5.7.9.1.R T P m m n x x x z z z s s s s s a s a a a a a a r a a a a a a a a a a r r r e e e p p e e 7 6 2 2 1 1 ; ; - - - % % % % $ = = % % % - - - - - ; 1 2 2 6 q 9 9 7 7 7 7 7 e e 7 7 7 7 7 7 7 7 7 7 7 7 7 7 7 7 7 7 7 7 7 7 7 7 7 7 7 7 ",
"1 1 1 1 1 1 2 2 2 2 2 2 1 1 1 1 1 1 1 1 1 1 ; ; ; ; ; 1 1 1 1 2 2 2 2 2 2 2 2 2 2 2 2 2 2 2 1 1 1 1 1 1 1 1 1 1 2 2 2 2 2 2 2 2 2 2 2 2 2 2 2 2 6 2 6 6 6 2 6 6 6 6 6 6 6 6 6 6 7 7 7 7 7 7 7 7 7 7 7 7 e e e e e e e e r r r r r r r r r r r r a a a s s s z z x n n m P <.5.6.5.1.R L m n N N n n x x x b z z s s s s s z b x n n x x v x n n n m L L L m m N m m m n m B B M n n n n n n n M n n M M M M M M x x x x x x x x n x n n n n n n n n n n n n n n n n n n n n n n n n n n n n N n n n n n n M n M n n n n n n n n m m m m m m m m m m m m m m m m m B B M n x v b s a r e e 7 7 7 r r a s z x M m Y P T T T T T T R <.<.1.1.1.R R T P L L L L Y L P T R R <.R R T P L m m m m N n n n m m m m m m m L P T <.w.9.w.4.R T P L m n x x x z z z s s s s s s a a a a a a a a a a a a a a a a a a a a r r r r r r r r e 7 q 7 6 6 2 1 1 ; ; - - % % & = = % % - - ; 1 1 2 2 6 6 7 7 e 7 7 7 7 7 7 7 e e e e e e e e 7 e e e e 7 7 7 7 7 7 7 7 7 7 7 7 7 7 7 7 7 ",
"1 1 1 2 2 2 2 2 2 2 2 2 2 2 2 2 2 2 2 2 2 1 1 1 2 2 2 2 2 2 2 2 6 6 6 6 6 2 2 2 2 2 2 2 2 2 1 1 2 2 2 2 2 2 2 2 2 2 2 2 2 2 2 2 2 2 2 2 2 2 2 2 2 2 2 2 2 2 2 2 2 2 6 6 6 6 6 6 7 7 7 7 7 7 7 7 7 7 7 7 7 7 7 7 e e e e e e e e e e e e e e r r r r a a a s s s z x n m P R 5.6.6.1.R P m n n n n x x z z z z z x x x n n x x x x z z s s s z x x n m m n n x z z z z z z z z z z z z z z z z z z z z z z z z z z z z z z z z z z z z z z z z z z z z z x z x z z z z z x x x x x x x x x x x x x x x x x x x x x x x x x x x n n n n n n n n n m m m m m m m m n n n n M n x b c s a r e e e e a s z x M B Y P T T T T R R R R R <.<.<.<.<.<.R T P L L L L I L P T R R R R R T P L m m m m m n n n m m m m m m m L P T R 3.w.w.<.R T L m m n x x x x z z s s s s s a a a a a a a a a a a a a a a a a a a a r r d d r r r r r r e e e 7 7 7 6 6 2 1 ; - % % % & $ % % - ; 1 2 6 q q q 7 7 e e e e e e e e e 7 7 e e e e e e 7 7 e e e e 7 7 7 7 7 7 7 7 7 7 7 7 7 7 7 7 ",
"2 2 2 2 2 2 2 2 6 6 6 6 2 2 2 2 6 6 2 2 2 2 2 2 2 2 2 2 8 6 8 6 6 6 6 6 6 6 2 2 2 2 2 2 2 1 1 1 2 2 2 2 2 2 2 2 2 2 2 2 2 2 2 2 2 2 6 2 2 2 2 2 2 2 2 2 6 6 6 6 6 6 6 6 6 6 6 6 7 7 7 7 7 7 7 7 7 7 7 7 7 7 7 7 7 7 e e e e e e e e e e r r r r r a a a s s s z x x n m T <.7.x.x.w.R P m m m n n x x z z z x x n m U | | | P L n x z z s z x n m L P P m n x z z z z z s z z s s s s s s s s s s s s a s a s s a a a a a a s s a a a a s s s s s s s s s s s s s s s s s s s s s s s s s s s s s s s s s s s s s s s s s s s z z z z z z z z z x x x x x x x x x x x x x x x x z c s a a r r a x M M B Y L P T T T R R T T T T R R R <.<.<.R T P P L L L I L L P T T T R R R T P L L m m m n m n n m m m m m m m L L P R <.5.1.R T P L m m n x x x z z z s s s s s s s s a a a a a a a a a a a a a a a a a a a a a a r r r r r r r r r r e p 7 q 6 4 3 - % % $ % % - ; 5 6 6 7 7 7 7 e e e e e e e e e e e e e e e e e e e e e e e e e e e e e 7 7 e e 7 7 7 7 7 7 7 7 "
};
